( MOP:  02-NeckPilotHoles-end )
( FILE: G:\Shared drives\AlloyProjectFiles\Customer CAD files\Alloy-Standard-Builds-CAM\s-in\Neck\02-NeckPilotHoles-end.nc)
G90
(  BEGIN TOOL LIST )
(  TOOL 9 - Drill PT1575 4mm - DESC: 0.1570 DIA, 2 FLUTE,  CARBIDE MAT )
(  ENDOF TOOL LIST )
( 02-NeckPilotHoles-end)
T09
S6000
M3
G0 Z4.0000
G0 X10.4830 Y-9.4049 
G0 Z1.9500
G83 X10.4830 Y-9.4049 Z0.6250 R1.9500 Q0.4 F40.0
G80
G0 Z2.0000
G0 X8.9830 Y-9.4049 
G0 Z1.9500
G83 X8.9830 Y-9.4049 Z0.6250 R1.9500 Q0.4 F40.0
G80
G0 Z2.0000
G0 X8.9830 Y-7.4049 
G0 Z1.9500
G83 X8.9830 Y-7.4049 Z0.6250 R1.9500 Q0.4 F40.0
G80
G0 Z2.0000
G0 X10.4830 Y-7.4049 
G0 Z1.9500
G83 X10.4830 Y-7.4049 Z0.6250 R1.9500 Q0.4 F40.0
G80
G0 Z4.0000
G0 X10.4830 Y-7.4049 
M5
G53 Z
X2Y0
