( MOP:  NeckScrewFerrules-02-back )
( FILE: G:\Shared drives\AlloyProjectFiles\Customer CAD files\Alloy-Standard-Builds-CAM\s-in\Neck\NeckScrewFerrules-02-back.nc)
G90
(  BEGIN TOOL LIST )
(  TOOL 6 - Downcut PT250 - DESC: 0.2500 DIA, 2 FLUTE,  CARBIDE MAT )
(  ENDOF TOOL LIST )
( NeckScrewFerrules-02-back)
( Max Depth 1.75)
T06
S12000
M3
G0 Z4.0000
G0 X9.1566 Y-9.3040 
G1 X9.1566 Y-9.3040 Z1.8100 F75.
G1 X9.1566 Y-9.3040 Z1.7850 F25.
G1 X9.1485 Y-9.2985 Z1.7819 F75.
G1 X9.1393 Y-9.2933 Z1.7785
G1 X9.1296 Y-9.2889 Z1.7751
G1 X9.1196 Y-9.2854 Z1.7718
G1 X9.1093 Y-9.2827 Z1.7684
G1 X9.0989 Y-9.2809 Z1.7650
G1 X9.0883 Y-9.2800 Z1.7616
G1 X9.0777 Y-9.2800 Z1.7583
G1 X9.0671 Y-9.2809 Z1.7549
G1 X9.0567 Y-9.2827 Z1.7515
G1 X9.0464 Y-9.2854 Z1.7481
G1 X9.0364 Y-9.2889 Z1.7447
G1 X9.0267 Y-9.2933 Z1.7414
G1 X9.0175 Y-9.2985 Z1.7380
G1 X9.0087 Y-9.3044 Z1.7346
G1 X9.0004 Y-9.3111 Z1.7312
G1 X8.9928 Y-9.3184 Z1.7279
G1 X8.9857 Y-9.3264 Z1.7245
G1 X8.9794 Y-9.3349 Z1.7211
G1 X8.9739 Y-9.3440 Z1.7177
G1 X8.9691 Y-9.3534 Z1.7143
G1 X8.9651 Y-9.3633 Z1.7110
G1 X8.9620 Y-9.3734 Z1.7076
G1 X8.9598 Y-9.3838 Z1.7042
G1 X8.9584 Y-9.3943 Z1.7008
G1 X8.9580 Y-9.4049 Z1.6975
G1 X8.9584 Y-9.4155 Z1.6941
G1 X8.9598 Y-9.4261 Z1.6907
G1 X8.9620 Y-9.4364 Z1.6873
G1 X8.9651 Y-9.4466 Z1.6840
G1 X8.9691 Y-9.4564 Z1.6806
G1 X8.9739 Y-9.4659 Z1.6772
G1 X8.9794 Y-9.4749 Z1.6738
G1 X8.9857 Y-9.4835 Z1.6704
G1 X8.9928 Y-9.4914 Z1.6671
G1 X9.0004 Y-9.4988 Z1.6637
G1 X9.0087 Y-9.5054 Z1.6603
G1 X9.0175 Y-9.5114 Z1.6569
G1 X9.0267 Y-9.5165 Z1.6536
G1 X9.0364 Y-9.5209 Z1.6502
G1 X9.0464 Y-9.5245 Z1.6468
G1 X9.0567 Y-9.5271 Z1.6434
G1 X9.0671 Y-9.5289 Z1.6400
G1 X9.0777 Y-9.5298 Z1.6367
G1 X9.0883 Y-9.5298 Z1.6333
G1 X9.0989 Y-9.5289 Z1.6299
G1 X9.1093 Y-9.5271 Z1.6265
G1 X9.1196 Y-9.5245 Z1.6232
G1 X9.1296 Y-9.5209 Z1.6198
G1 X9.1393 Y-9.5165 Z1.6164
G1 X9.1485 Y-9.5114 Z1.6130
G1 X9.1573 Y-9.5054 Z1.6097
G1 X9.1656 Y-9.4988 Z1.6063
G1 X9.1732 Y-9.4914 Z1.6029
G1 X9.1803 Y-9.4835 Z1.5995
G1 X9.1866 Y-9.4749 Z1.5961
G1 X9.1921 Y-9.4659 Z1.5928
G1 X9.1969 Y-9.4564 Z1.5894
G1 X9.2009 Y-9.4466 Z1.5860
G1 X9.2040 Y-9.4364 Z1.5826
G1 X9.2062 Y-9.4261 Z1.5793
G1 X9.2075 Y-9.4155 Z1.5759
G1 X9.2080 Y-9.4049 Z1.5725
G1 X9.2070 Y-9.3831 Z1.5725
G1 X9.2021 Y-9.3616 Z1.5725
G1 X9.1935 Y-9.3411 Z1.5725
G1 X9.1814 Y-9.3224 Z1.5725
G1 X9.1661 Y-9.3059 Z1.5725
G1 X9.1481 Y-9.2922 Z1.5725
G1 X9.1278 Y-9.2818 Z1.5725
G1 X9.1059 Y-9.2750 Z1.5725
G1 X9.0830 Y-9.2721 Z1.5725
G1 X9.0598 Y-9.2733 Z1.5725
G1 X9.0370 Y-9.2785 Z1.5725
G1 X9.0153 Y-9.2877 Z1.5725
G1 X8.9954 Y-9.3005 Z1.5725
G1 X8.9779 Y-9.3168 Z1.5725
G1 X8.9635 Y-9.3359 Z1.5725
G1 X8.9525 Y-9.3574 Z1.5725
G1 X8.9454 Y-9.3807 Z1.5725
G1 X8.9424 Y-9.4049 Z1.5725
G1 X8.9437 Y-9.4295 Z1.5725
G1 X8.9492 Y-9.4536 Z1.5725
G1 X8.9590 Y-9.4765 Z1.5725
G1 X8.9726 Y-9.4976 Z1.5725
G1 X8.9898 Y-9.5160 Z1.5725
G1 X9.0101 Y-9.5312 Z1.5725
G1 X9.0328 Y-9.5428 Z1.5725
G1 X9.0574 Y-9.5503 Z1.5725
G1 X9.0830 Y-9.5534 Z1.5725
G1 X9.1089 Y-9.5520 Z1.5725
G1 X9.1344 Y-9.5460 Z1.5725
G1 X9.1585 Y-9.5357 Z1.5725
G1 X9.1806 Y-9.5213 Z1.5725
G1 X9.2000 Y-9.5031 Z1.5725
G1 X9.2161 Y-9.4818 Z1.5725
G1 X9.2282 Y-9.4578 Z1.5725
G1 X9.2360 Y-9.4319 Z1.5725
G1 X9.2392 Y-9.4049 Z1.5725
G1 X9.2381 Y-9.3804 Z1.5725
G1 X9.2331 Y-9.3562 Z1.5725
G1 X9.2243 Y-9.3329 Z1.5725
G1 X9.2119 Y-9.3113 Z1.5725
G1 X9.1962 Y-9.2917 Z1.5725
G1 X9.1776 Y-9.2747 Z1.5725
G1 X9.1564 Y-9.2608 Z1.5725
G1 X9.1332 Y-9.2504 Z1.5725
G1 X9.1085 Y-9.2437 Z1.5725
G1 X9.0830 Y-9.2409 Z1.5725
G1 X9.0572 Y-9.2421 Z1.5725
G1 X9.0318 Y-9.2474 Z1.5725
G1 X9.0075 Y-9.2567 Z1.5725
G1 X8.9847 Y-9.2697 Z1.5725
G1 X8.9642 Y-9.2862 Z1.5725
G1 X8.9465 Y-9.3057 Z1.5725
G1 X8.9319 Y-9.3280 Z1.5725
G1 X8.9210 Y-9.3523 Z1.5725
G1 X8.9140 Y-9.3782 Z1.5725
G1 X8.9111 Y-9.4049 Z1.5725
G1 X8.9125 Y-9.4319 Z1.5725
G1 X8.9180 Y-9.4585 Z1.5725
G1 X8.9278 Y-9.4840 Z1.5725
G1 X8.9414 Y-9.5078 Z1.5725
G1 X8.9587 Y-9.5292 Z1.5725
G1 X8.9792 Y-9.5478 Z1.5725
G1 X9.0025 Y-9.5629 Z1.5725
G1 X9.0280 Y-9.5743 Z1.5725
G1 X9.0550 Y-9.5816 Z1.5725
G1 X9.0830 Y-9.5846 Z1.5725
G1 X9.1112 Y-9.5832 Z1.5725
G1 X9.1390 Y-9.5773 Z1.5725
G1 X9.1656 Y-9.5671 Z1.5725
G1 X9.1905 Y-9.5528 Z1.5725
G1 X9.2128 Y-9.5348 Z1.5725
G1 X9.2322 Y-9.5133 Z1.5725
G1 X9.2480 Y-9.4890 Z1.5725
G1 X9.2598 Y-9.4624 Z1.5725
G1 X9.2674 Y-9.4341 Z1.5725
G1 X9.2705 Y-9.4049 Z1.5725
G17
G3X8.8955Y-9.4049Z1.5725I-0.1875J0.0000
G3X9.2705Y-9.4049Z1.5725I0.1875J0.0000
G1 X9.0830 Y-9.4049 Z1.5725
G0 Z2.0600
G0 X9.0830 Y-9.4049 
G0 Z2.0600
G0 X10.4566 Y-9.3040 
G1 X10.4566 Y-9.3040 Z1.8100 F75.
G1 X10.4566 Y-9.3040 Z1.7850 F25.
G1 X10.4485 Y-9.2985 Z1.7819 F75.
G1 X10.4393 Y-9.2933 Z1.7785
G1 X10.4296 Y-9.2889 Z1.7751
G1 X10.4196 Y-9.2854 Z1.7718
G1 X10.4093 Y-9.2827 Z1.7684
G1 X10.3989 Y-9.2809 Z1.7650
G1 X10.3883 Y-9.2800 Z1.7616
G1 X10.3777 Y-9.2800 Z1.7583
G1 X10.3671 Y-9.2809 Z1.7549
G1 X10.3567 Y-9.2827 Z1.7515
G1 X10.3464 Y-9.2854 Z1.7481
G1 X10.3364 Y-9.2889 Z1.7447
G1 X10.3267 Y-9.2933 Z1.7414
G1 X10.3175 Y-9.2985 Z1.7380
G1 X10.3087 Y-9.3044 Z1.7346
G1 X10.3004 Y-9.3111 Z1.7312
G1 X10.2928 Y-9.3184 Z1.7279
G1 X10.2857 Y-9.3264 Z1.7245
G1 X10.2794 Y-9.3349 Z1.7211
G1 X10.2739 Y-9.3440 Z1.7177
G1 X10.2691 Y-9.3534 Z1.7143
G1 X10.2651 Y-9.3633 Z1.7110
G1 X10.2620 Y-9.3734 Z1.7076
G1 X10.2598 Y-9.3838 Z1.7042
G1 X10.2584 Y-9.3943 Z1.7008
G1 X10.2580 Y-9.4049 Z1.6975
G1 X10.2584 Y-9.4155 Z1.6941
G1 X10.2598 Y-9.4261 Z1.6907
G1 X10.2620 Y-9.4364 Z1.6873
G1 X10.2651 Y-9.4466 Z1.6840
G1 X10.2691 Y-9.4564 Z1.6806
G1 X10.2739 Y-9.4659 Z1.6772
G1 X10.2794 Y-9.4749 Z1.6738
G1 X10.2857 Y-9.4835 Z1.6704
G1 X10.2928 Y-9.4914 Z1.6671
G1 X10.3004 Y-9.4988 Z1.6637
G1 X10.3087 Y-9.5054 Z1.6603
G1 X10.3175 Y-9.5114 Z1.6569
G1 X10.3267 Y-9.5165 Z1.6536
G1 X10.3364 Y-9.5209 Z1.6502
G1 X10.3464 Y-9.5245 Z1.6468
G1 X10.3567 Y-9.5271 Z1.6434
G1 X10.3671 Y-9.5289 Z1.6400
G1 X10.3777 Y-9.5298 Z1.6367
G1 X10.3883 Y-9.5298 Z1.6333
G1 X10.3989 Y-9.5289 Z1.6299
G1 X10.4093 Y-9.5271 Z1.6265
G1 X10.4196 Y-9.5245 Z1.6232
G1 X10.4296 Y-9.5209 Z1.6198
G1 X10.4393 Y-9.5165 Z1.6164
G1 X10.4485 Y-9.5114 Z1.6130
G1 X10.4573 Y-9.5054 Z1.6097
G1 X10.4656 Y-9.4988 Z1.6063
G1 X10.4732 Y-9.4914 Z1.6029
G1 X10.4803 Y-9.4835 Z1.5995
G1 X10.4866 Y-9.4749 Z1.5961
G1 X10.4921 Y-9.4659 Z1.5928
G1 X10.4969 Y-9.4564 Z1.5894
G1 X10.5009 Y-9.4466 Z1.5860
G1 X10.5040 Y-9.4364 Z1.5826
G1 X10.5062 Y-9.4261 Z1.5793
G1 X10.5075 Y-9.4155 Z1.5759
G1 X10.5080 Y-9.4049 Z1.5725
G1 X10.5070 Y-9.3831 Z1.5725
G1 X10.5021 Y-9.3616 Z1.5725
G1 X10.4935 Y-9.3411 Z1.5725
G1 X10.4814 Y-9.3224 Z1.5725
G1 X10.4661 Y-9.3059 Z1.5725
G1 X10.4481 Y-9.2922 Z1.5725
G1 X10.4278 Y-9.2818 Z1.5725
G1 X10.4059 Y-9.2750 Z1.5725
G1 X10.3830 Y-9.2721 Z1.5725
G1 X10.3598 Y-9.2733 Z1.5725
G1 X10.3370 Y-9.2785 Z1.5725
G1 X10.3153 Y-9.2877 Z1.5725
G1 X10.2954 Y-9.3005 Z1.5725
G1 X10.2779 Y-9.3168 Z1.5725
G1 X10.2635 Y-9.3359 Z1.5725
G1 X10.2525 Y-9.3574 Z1.5725
G1 X10.2454 Y-9.3807 Z1.5725
G1 X10.2424 Y-9.4049 Z1.5725
G1 X10.2437 Y-9.4295 Z1.5725
G1 X10.2492 Y-9.4536 Z1.5725
G1 X10.2590 Y-9.4765 Z1.5725
G1 X10.2726 Y-9.4976 Z1.5725
G1 X10.2898 Y-9.5160 Z1.5725
G1 X10.3101 Y-9.5312 Z1.5725
G1 X10.3328 Y-9.5428 Z1.5725
G1 X10.3574 Y-9.5503 Z1.5725
G1 X10.3830 Y-9.5534 Z1.5725
G1 X10.4089 Y-9.5520 Z1.5725
G1 X10.4344 Y-9.5460 Z1.5725
G1 X10.4585 Y-9.5357 Z1.5725
G1 X10.4806 Y-9.5213 Z1.5725
G1 X10.5000 Y-9.5031 Z1.5725
G1 X10.5161 Y-9.4818 Z1.5725
G1 X10.5282 Y-9.4578 Z1.5725
G1 X10.5360 Y-9.4319 Z1.5725
G1 X10.5392 Y-9.4049 Z1.5725
G1 X10.5381 Y-9.3804 Z1.5725
G1 X10.5331 Y-9.3562 Z1.5725
G1 X10.5243 Y-9.3329 Z1.5725
G1 X10.5119 Y-9.3113 Z1.5725
G1 X10.4962 Y-9.2917 Z1.5725
G1 X10.4776 Y-9.2747 Z1.5725
G1 X10.4564 Y-9.2608 Z1.5725
G1 X10.4332 Y-9.2504 Z1.5725
G1 X10.4085 Y-9.2437 Z1.5725
G1 X10.3830 Y-9.2409 Z1.5725
G1 X10.3572 Y-9.2421 Z1.5725
G1 X10.3318 Y-9.2474 Z1.5725
G1 X10.3075 Y-9.2567 Z1.5725
G1 X10.2847 Y-9.2697 Z1.5725
G1 X10.2642 Y-9.2862 Z1.5725
G1 X10.2465 Y-9.3057 Z1.5725
G1 X10.2319 Y-9.3280 Z1.5725
G1 X10.2210 Y-9.3523 Z1.5725
G1 X10.2140 Y-9.3782 Z1.5725
G1 X10.2111 Y-9.4049 Z1.5725
G1 X10.2125 Y-9.4319 Z1.5725
G1 X10.2180 Y-9.4585 Z1.5725
G1 X10.2278 Y-9.4840 Z1.5725
G1 X10.2414 Y-9.5078 Z1.5725
G1 X10.2587 Y-9.5292 Z1.5725
G1 X10.2792 Y-9.5478 Z1.5725
G1 X10.3025 Y-9.5629 Z1.5725
G1 X10.3280 Y-9.5743 Z1.5725
G1 X10.3550 Y-9.5816 Z1.5725
G1 X10.3830 Y-9.5846 Z1.5725
G1 X10.4112 Y-9.5832 Z1.5725
G1 X10.4390 Y-9.5773 Z1.5725
G1 X10.4656 Y-9.5671 Z1.5725
G1 X10.4905 Y-9.5528 Z1.5725
G1 X10.5128 Y-9.5348 Z1.5725
G1 X10.5322 Y-9.5133 Z1.5725
G1 X10.5480 Y-9.4890 Z1.5725
G1 X10.5598 Y-9.4624 Z1.5725
G1 X10.5674 Y-9.4341 Z1.5725
G1 X10.5705 Y-9.4049 Z1.5725
G3X10.1955Y-9.4049Z1.5725I-0.1875J0.0000
G3X10.5705Y-9.4049Z1.5725I0.1875J0.0000
G1 X10.3830 Y-9.4049 Z1.5725
G0 Z2.0600
G0 X10.3830 Y-9.4049 
G0 Z2.0600
G0 X10.4566 Y-7.4040 
G1 X10.4566 Y-7.4040 Z1.8100 F75.
G1 X10.4566 Y-7.4040 Z1.7850 F25.
G1 X10.4485 Y-7.3985 Z1.7819 F75.
G1 X10.4393 Y-7.3933 Z1.7785
G1 X10.4296 Y-7.3889 Z1.7751
G1 X10.4196 Y-7.3854 Z1.7718
G1 X10.4093 Y-7.3827 Z1.7684
G1 X10.3989 Y-7.3809 Z1.7650
G1 X10.3883 Y-7.3800 Z1.7616
G1 X10.3777 Y-7.3800 Z1.7583
G1 X10.3671 Y-7.3809 Z1.7549
G1 X10.3567 Y-7.3827 Z1.7515
G1 X10.3464 Y-7.3854 Z1.7481
G1 X10.3364 Y-7.3889 Z1.7447
G1 X10.3267 Y-7.3933 Z1.7414
G1 X10.3175 Y-7.3985 Z1.7380
G1 X10.3087 Y-7.4044 Z1.7346
G1 X10.3004 Y-7.4111 Z1.7312
G1 X10.2928 Y-7.4184 Z1.7279
G1 X10.2857 Y-7.4264 Z1.7245
G1 X10.2794 Y-7.4349 Z1.7211
G1 X10.2739 Y-7.4440 Z1.7177
G1 X10.2691 Y-7.4534 Z1.7143
G1 X10.2651 Y-7.4633 Z1.7110
G1 X10.2620 Y-7.4734 Z1.7076
G1 X10.2598 Y-7.4838 Z1.7042
G1 X10.2584 Y-7.4943 Z1.7008
G1 X10.2580 Y-7.5049 Z1.6975
G1 X10.2584 Y-7.5155 Z1.6941
G1 X10.2598 Y-7.5261 Z1.6907
G1 X10.2620 Y-7.5364 Z1.6873
G1 X10.2651 Y-7.5466 Z1.6840
G1 X10.2691 Y-7.5564 Z1.6806
G1 X10.2739 Y-7.5659 Z1.6772
G1 X10.2794 Y-7.5749 Z1.6738
G1 X10.2857 Y-7.5835 Z1.6704
G1 X10.2928 Y-7.5914 Z1.6671
G1 X10.3004 Y-7.5988 Z1.6637
G1 X10.3087 Y-7.6054 Z1.6603
G1 X10.3175 Y-7.6114 Z1.6569
G1 X10.3267 Y-7.6165 Z1.6536
G1 X10.3364 Y-7.6209 Z1.6502
G1 X10.3464 Y-7.6245 Z1.6468
G1 X10.3567 Y-7.6271 Z1.6434
G1 X10.3671 Y-7.6289 Z1.6400
G1 X10.3777 Y-7.6298 Z1.6367
G1 X10.3883 Y-7.6298 Z1.6333
G1 X10.3989 Y-7.6289 Z1.6299
G1 X10.4093 Y-7.6271 Z1.6265
G1 X10.4196 Y-7.6245 Z1.6232
G1 X10.4296 Y-7.6209 Z1.6198
G1 X10.4393 Y-7.6165 Z1.6164
G1 X10.4485 Y-7.6114 Z1.6130
G1 X10.4573 Y-7.6054 Z1.6097
G1 X10.4656 Y-7.5988 Z1.6063
G1 X10.4732 Y-7.5914 Z1.6029
G1 X10.4803 Y-7.5835 Z1.5995
G1 X10.4866 Y-7.5749 Z1.5961
G1 X10.4921 Y-7.5659 Z1.5928
G1 X10.4969 Y-7.5564 Z1.5894
G1 X10.5009 Y-7.5466 Z1.5860
G1 X10.5040 Y-7.5364 Z1.5826
G1 X10.5062 Y-7.5261 Z1.5793
G1 X10.5075 Y-7.5155 Z1.5759
G1 X10.5080 Y-7.5049 Z1.5725
G1 X10.5070 Y-7.4831 Z1.5725
G1 X10.5021 Y-7.4616 Z1.5725
G1 X10.4935 Y-7.4411 Z1.5725
G1 X10.4814 Y-7.4224 Z1.5725
G1 X10.4661 Y-7.4059 Z1.5725
G1 X10.4481 Y-7.3922 Z1.5725
G1 X10.4278 Y-7.3818 Z1.5725
G1 X10.4059 Y-7.3750 Z1.5725
G1 X10.3830 Y-7.3721 Z1.5725
G1 X10.3598 Y-7.3733 Z1.5725
G1 X10.3370 Y-7.3785 Z1.5725
G1 X10.3153 Y-7.3877 Z1.5725
G1 X10.2954 Y-7.4005 Z1.5725
G1 X10.2779 Y-7.4168 Z1.5725
G1 X10.2635 Y-7.4359 Z1.5725
G1 X10.2525 Y-7.4574 Z1.5725
G1 X10.2454 Y-7.4807 Z1.5725
G1 X10.2424 Y-7.5049 Z1.5725
G1 X10.2437 Y-7.5295 Z1.5725
G1 X10.2492 Y-7.5536 Z1.5725
G1 X10.2590 Y-7.5765 Z1.5725
G1 X10.2726 Y-7.5976 Z1.5725
G1 X10.2898 Y-7.6160 Z1.5725
G1 X10.3101 Y-7.6312 Z1.5725
G1 X10.3328 Y-7.6428 Z1.5725
G1 X10.3574 Y-7.6503 Z1.5725
G1 X10.3830 Y-7.6534 Z1.5725
G1 X10.4089 Y-7.6520 Z1.5725
G1 X10.4344 Y-7.6460 Z1.5725
G1 X10.4585 Y-7.6357 Z1.5725
G1 X10.4806 Y-7.6213 Z1.5725
G1 X10.5000 Y-7.6031 Z1.5725
G1 X10.5161 Y-7.5818 Z1.5725
G1 X10.5282 Y-7.5578 Z1.5725
G1 X10.5360 Y-7.5319 Z1.5725
G1 X10.5392 Y-7.5049 Z1.5725
G1 X10.5381 Y-7.4804 Z1.5725
G1 X10.5331 Y-7.4562 Z1.5725
G1 X10.5243 Y-7.4329 Z1.5725
G1 X10.5119 Y-7.4113 Z1.5725
G1 X10.4962 Y-7.3917 Z1.5725
G1 X10.4776 Y-7.3747 Z1.5725
G1 X10.4564 Y-7.3608 Z1.5725
G1 X10.4332 Y-7.3504 Z1.5725
G1 X10.4085 Y-7.3437 Z1.5725
G1 X10.3830 Y-7.3409 Z1.5725
G1 X10.3572 Y-7.3421 Z1.5725
G1 X10.3318 Y-7.3474 Z1.5725
G1 X10.3075 Y-7.3567 Z1.5725
G1 X10.2847 Y-7.3697 Z1.5725
G1 X10.2642 Y-7.3862 Z1.5725
G1 X10.2465 Y-7.4057 Z1.5725
G1 X10.2319 Y-7.4280 Z1.5725
G1 X10.2210 Y-7.4523 Z1.5725
G1 X10.2140 Y-7.4782 Z1.5725
G1 X10.2111 Y-7.5049 Z1.5725
G1 X10.2125 Y-7.5319 Z1.5725
G1 X10.2180 Y-7.5585 Z1.5725
G1 X10.2278 Y-7.5840 Z1.5725
G1 X10.2414 Y-7.6078 Z1.5725
G1 X10.2587 Y-7.6292 Z1.5725
G1 X10.2792 Y-7.6478 Z1.5725
G1 X10.3025 Y-7.6629 Z1.5725
G1 X10.3280 Y-7.6743 Z1.5725
G1 X10.3550 Y-7.6816 Z1.5725
G1 X10.3830 Y-7.6846 Z1.5725
G1 X10.4112 Y-7.6832 Z1.5725
G1 X10.4390 Y-7.6773 Z1.5725
G1 X10.4656 Y-7.6671 Z1.5725
G1 X10.4905 Y-7.6528 Z1.5725
G1 X10.5128 Y-7.6348 Z1.5725
G1 X10.5322 Y-7.6133 Z1.5725
G1 X10.5480 Y-7.5890 Z1.5725
G1 X10.5598 Y-7.5624 Z1.5725
G1 X10.5674 Y-7.5341 Z1.5725
G1 X10.5705 Y-7.5049 Z1.5725
G3X10.1955Y-7.5049Z1.5725I-0.1875J0.0000
G3X10.5705Y-7.5049Z1.5725I0.1875J0.0000
G1 X10.3830 Y-7.5049 Z1.5725
G0 Z2.0600
G0 X10.3830 Y-7.5049 
G0 Z2.0600
G0 X9.1566 Y-7.4040 
G1 X9.1566 Y-7.4040 Z1.8100 F75.
G1 X9.1566 Y-7.4040 Z1.7850 F25.
G1 X9.1485 Y-7.3985 Z1.7819 F75.
G1 X9.1393 Y-7.3933 Z1.7785
G1 X9.1296 Y-7.3889 Z1.7751
G1 X9.1196 Y-7.3854 Z1.7718
G1 X9.1093 Y-7.3827 Z1.7684
G1 X9.0989 Y-7.3809 Z1.7650
G1 X9.0883 Y-7.3800 Z1.7616
G1 X9.0777 Y-7.3800 Z1.7583
G1 X9.0671 Y-7.3809 Z1.7549
G1 X9.0567 Y-7.3827 Z1.7515
G1 X9.0464 Y-7.3854 Z1.7481
G1 X9.0364 Y-7.3889 Z1.7447
G1 X9.0267 Y-7.3933 Z1.7414
G1 X9.0175 Y-7.3985 Z1.7380
G1 X9.0087 Y-7.4044 Z1.7346
G1 X9.0004 Y-7.4111 Z1.7312
G1 X8.9928 Y-7.4184 Z1.7279
G1 X8.9857 Y-7.4264 Z1.7245
G1 X8.9794 Y-7.4349 Z1.7211
G1 X8.9739 Y-7.4440 Z1.7177
G1 X8.9691 Y-7.4534 Z1.7143
G1 X8.9651 Y-7.4633 Z1.7110
G1 X8.9620 Y-7.4734 Z1.7076
G1 X8.9598 Y-7.4838 Z1.7042
G1 X8.9584 Y-7.4943 Z1.7008
G1 X8.9580 Y-7.5049 Z1.6975
G1 X8.9584 Y-7.5155 Z1.6941
G1 X8.9598 Y-7.5261 Z1.6907
G1 X8.9620 Y-7.5364 Z1.6873
G1 X8.9651 Y-7.5466 Z1.6840
G1 X8.9691 Y-7.5564 Z1.6806
G1 X8.9739 Y-7.5659 Z1.6772
G1 X8.9794 Y-7.5749 Z1.6738
G1 X8.9857 Y-7.5835 Z1.6704
G1 X8.9928 Y-7.5914 Z1.6671
G1 X9.0004 Y-7.5988 Z1.6637
G1 X9.0087 Y-7.6054 Z1.6603
G1 X9.0175 Y-7.6114 Z1.6569
G1 X9.0267 Y-7.6165 Z1.6536
G1 X9.0364 Y-7.6209 Z1.6502
G1 X9.0464 Y-7.6245 Z1.6468
G1 X9.0567 Y-7.6271 Z1.6434
G1 X9.0671 Y-7.6289 Z1.6400
G1 X9.0777 Y-7.6298 Z1.6367
G1 X9.0883 Y-7.6298 Z1.6333
G1 X9.0989 Y-7.6289 Z1.6299
G1 X9.1093 Y-7.6271 Z1.6265
G1 X9.1196 Y-7.6245 Z1.6232
G1 X9.1296 Y-7.6209 Z1.6198
G1 X9.1393 Y-7.6165 Z1.6164
G1 X9.1485 Y-7.6114 Z1.6130
G1 X9.1573 Y-7.6054 Z1.6097
G1 X9.1656 Y-7.5988 Z1.6063
G1 X9.1732 Y-7.5914 Z1.6029
G1 X9.1803 Y-7.5835 Z1.5995
G1 X9.1866 Y-7.5749 Z1.5961
G1 X9.1921 Y-7.5659 Z1.5928
G1 X9.1969 Y-7.5564 Z1.5894
G1 X9.2009 Y-7.5466 Z1.5860
G1 X9.2040 Y-7.5364 Z1.5826
G1 X9.2062 Y-7.5261 Z1.5793
G1 X9.2075 Y-7.5155 Z1.5759
G1 X9.2080 Y-7.5049 Z1.5725
G1 X9.2070 Y-7.4831 Z1.5725
G1 X9.2021 Y-7.4616 Z1.5725
G1 X9.1935 Y-7.4411 Z1.5725
G1 X9.1814 Y-7.4224 Z1.5725
G1 X9.1661 Y-7.4059 Z1.5725
G1 X9.1481 Y-7.3922 Z1.5725
G1 X9.1278 Y-7.3818 Z1.5725
G1 X9.1059 Y-7.3750 Z1.5725
G1 X9.0830 Y-7.3721 Z1.5725
G1 X9.0598 Y-7.3733 Z1.5725
G1 X9.0370 Y-7.3785 Z1.5725
G1 X9.0153 Y-7.3877 Z1.5725
G1 X8.9954 Y-7.4005 Z1.5725
G1 X8.9779 Y-7.4168 Z1.5725
G1 X8.9635 Y-7.4359 Z1.5725
G1 X8.9525 Y-7.4574 Z1.5725
G1 X8.9454 Y-7.4807 Z1.5725
G1 X8.9424 Y-7.5049 Z1.5725
G1 X8.9437 Y-7.5295 Z1.5725
G1 X8.9492 Y-7.5536 Z1.5725
G1 X8.9590 Y-7.5765 Z1.5725
G1 X8.9726 Y-7.5976 Z1.5725
G1 X8.9898 Y-7.6160 Z1.5725
G1 X9.0101 Y-7.6312 Z1.5725
G1 X9.0328 Y-7.6428 Z1.5725
G1 X9.0574 Y-7.6503 Z1.5725
G1 X9.0830 Y-7.6534 Z1.5725
G1 X9.1089 Y-7.6520 Z1.5725
G1 X9.1344 Y-7.6460 Z1.5725
G1 X9.1585 Y-7.6357 Z1.5725
G1 X9.1806 Y-7.6213 Z1.5725
G1 X9.2000 Y-7.6031 Z1.5725
G1 X9.2161 Y-7.5818 Z1.5725
G1 X9.2282 Y-7.5578 Z1.5725
G1 X9.2360 Y-7.5319 Z1.5725
G1 X9.2392 Y-7.5049 Z1.5725
G1 X9.2381 Y-7.4804 Z1.5725
G1 X9.2331 Y-7.4562 Z1.5725
G1 X9.2243 Y-7.4329 Z1.5725
G1 X9.2119 Y-7.4113 Z1.5725
G1 X9.1962 Y-7.3917 Z1.5725
G1 X9.1776 Y-7.3747 Z1.5725
G1 X9.1564 Y-7.3608 Z1.5725
G1 X9.1332 Y-7.3504 Z1.5725
G1 X9.1085 Y-7.3437 Z1.5725
G1 X9.0830 Y-7.3409 Z1.5725
G1 X9.0572 Y-7.3421 Z1.5725
G1 X9.0318 Y-7.3474 Z1.5725
G1 X9.0075 Y-7.3567 Z1.5725
G1 X8.9847 Y-7.3697 Z1.5725
G1 X8.9642 Y-7.3862 Z1.5725
G1 X8.9465 Y-7.4057 Z1.5725
G1 X8.9319 Y-7.4280 Z1.5725
G1 X8.9210 Y-7.4523 Z1.5725
G1 X8.9140 Y-7.4782 Z1.5725
G1 X8.9111 Y-7.5049 Z1.5725
G1 X8.9125 Y-7.5319 Z1.5725
G1 X8.9180 Y-7.5585 Z1.5725
G1 X8.9278 Y-7.5840 Z1.5725
G1 X8.9414 Y-7.6078 Z1.5725
G1 X8.9587 Y-7.6292 Z1.5725
G1 X8.9792 Y-7.6478 Z1.5725
G1 X9.0025 Y-7.6629 Z1.5725
G1 X9.0280 Y-7.6743 Z1.5725
G1 X9.0550 Y-7.6816 Z1.5725
G1 X9.0830 Y-7.6846 Z1.5725
G1 X9.1112 Y-7.6832 Z1.5725
G1 X9.1390 Y-7.6773 Z1.5725
G1 X9.1656 Y-7.6671 Z1.5725
G1 X9.1905 Y-7.6528 Z1.5725
G1 X9.2128 Y-7.6348 Z1.5725
G1 X9.2322 Y-7.6133 Z1.5725
G1 X9.2480 Y-7.5890 Z1.5725
G1 X9.2598 Y-7.5624 Z1.5725
G1 X9.2674 Y-7.5341 Z1.5725
G1 X9.2705 Y-7.5049 Z1.5725
G3X8.8955Y-7.5049Z1.5725I-0.1875J0.0000
G3X9.2705Y-7.5049Z1.5725I0.1875J0.0000
G1 X9.0830 Y-7.5049 Z1.5725
G0 Z4.0000
G0 X9.0830 Y-7.5049 
M5
G53 Z
X2Y0
