( MOP:  boat-route-front-01 )
( FILE: G:\Shared drives\AlloyProjectFiles\Customer CAD files\Alloy-Standard-Builds-CAM\s-in\PUPs\boat-route-front-01.nc)
G90
(  BEGIN TOOL LIST )
(  TOOL 11 - Downcut PT750 ROUGH - DESC: 0.7500 DIA, 2 FLUTE,  CARBIDE MAT )
(  ENDOF TOOL LIST )
( boat-route-front-01)
T11
S14000
M3
G0 Z4.0000
G0 X9.8309 Y-13.4424 
G1 X9.8309 Y-13.4424 Z1.7600 F75.
G1 X9.8309 Y-12.1221 Z1.5272 F50.
G1 X9.7334 Y-12.1221 Z1.5100
G1 X9.6358 Y-12.1221 Z1.5100 F150.
G1 X9.6358 Y-14.5567 Z1.5100
G1 X9.8309 Y-14.5567 Z1.5100
G1 X9.8309 Y-12.1221 Z1.5100
G1 X9.7334 Y-12.1221 Z1.5100
G1 X9.7334 Y-11.8746 Z1.5100
G1 X9.3883 Y-11.8746 Z1.5100
G1 X9.3883 Y-14.8042 Z1.5100
G1 X10.0784 Y-14.8042 Z1.5100
G1 X10.0784 Y-11.8746 Z1.5100
G1 X9.7334 Y-11.8746 Z1.5100
G1 X9.7334 Y-11.6271 Z1.5100
G1 X9.1408 Y-11.6271 Z1.5100
G1 X9.1408 Y-15.0517 Z1.5100
G1 X10.3259 Y-15.0517 Z1.5100
G1 X10.3259 Y-11.6271 Z1.5100
G1 X9.7334 Y-11.6271 Z1.5100
G1 X9.7334 Y-11.3796 Z1.5100
G1 X8.8933 Y-11.3796 Z1.5100
G1 X8.8933 Y-15.2992 Z1.5100
G1 X10.5734 Y-15.2992 Z1.5100
G1 X10.5734 Y-11.3796 Z1.5100
G1 X9.7334 Y-11.3796 Z1.5100
G1 X9.7334 Y-11.1321 Z1.5100
G1 X8.6458 Y-11.1321 Z1.5100
G1 X8.6458 Y-15.5467 Z1.5100
G1 X10.8209 Y-15.5467 Z1.5100
G1 X10.8209 Y-11.1321 Z1.5100
G1 X9.7334 Y-11.1321 Z1.5100
G1 X9.7334 Y-10.8846 Z1.5100
G1 X8.3983 Y-10.8846 Z1.5100
G1 X8.3983 Y-15.7942 Z1.5100
G1 X11.0684 Y-15.7942 Z1.5100
G1 X11.0684 Y-10.8846 Z1.5100
G1 X9.7334 Y-10.8846 Z1.5100
G0 Z1.7600
G0 X9.7334 Y-10.8846 
G0 Z1.7600
G0 X9.8309 Y-13.4424 
G1 X9.8309 Y-13.4424 Z1.5100 F75.
G1 X9.8309 Y-12.1221 Z1.2772 F50.
G1 X9.7334 Y-12.1221 Z1.2600
G1 X9.6358 Y-12.1221 Z1.2600 F150.
G1 X9.6358 Y-14.5567 Z1.2600
G1 X9.8309 Y-14.5567 Z1.2600
G1 X9.8309 Y-12.1221 Z1.2600
G1 X9.7334 Y-12.1221 Z1.2600
G1 X9.7334 Y-11.8746 Z1.2600
G1 X9.3883 Y-11.8746 Z1.2600
G1 X9.3883 Y-14.8042 Z1.2600
G1 X10.0784 Y-14.8042 Z1.2600
G1 X10.0784 Y-11.8746 Z1.2600
G1 X9.7334 Y-11.8746 Z1.2600
G1 X9.7334 Y-11.6271 Z1.2600
G1 X9.1408 Y-11.6271 Z1.2600
G1 X9.1408 Y-15.0517 Z1.2600
G1 X10.3259 Y-15.0517 Z1.2600
G1 X10.3259 Y-11.6271 Z1.2600
G1 X9.7334 Y-11.6271 Z1.2600
G1 X9.7334 Y-11.3796 Z1.2600
G1 X8.8933 Y-11.3796 Z1.2600
G1 X8.8933 Y-15.2992 Z1.2600
G1 X10.5734 Y-15.2992 Z1.2600
G1 X10.5734 Y-11.3796 Z1.2600
G1 X9.7334 Y-11.3796 Z1.2600
G1 X9.7334 Y-11.1321 Z1.2600
G1 X8.6458 Y-11.1321 Z1.2600
G1 X8.6458 Y-15.5467 Z1.2600
G1 X10.8209 Y-15.5467 Z1.2600
G1 X10.8209 Y-11.1321 Z1.2600
G1 X9.7334 Y-11.1321 Z1.2600
G1 X9.7334 Y-10.8846 Z1.2600
G1 X8.3983 Y-10.8846 Z1.2600
G1 X8.3983 Y-15.7942 Z1.2600
G1 X11.0684 Y-15.7942 Z1.2600
G1 X11.0684 Y-10.8846 Z1.2600
G1 X9.7334 Y-10.8846 Z1.2600
G0 Z1.5100
G0 X9.7334 Y-10.8846 
G0 Z1.5100
G0 X9.8309 Y-13.4424 
G1 X9.8309 Y-13.4424 Z1.2600 F75.
G1 X9.8309 Y-12.1221 Z1.0272 F50.
G1 X9.7334 Y-12.1221 Z1.0100
G1 X9.6358 Y-12.1221 Z1.0100 F150.
G1 X9.6358 Y-14.5567 Z1.0100
G1 X9.8309 Y-14.5567 Z1.0100
G1 X9.8309 Y-12.1221 Z1.0100
G1 X9.7334 Y-12.1221 Z1.0100
G1 X9.7334 Y-11.8746 Z1.0100
G1 X9.3883 Y-11.8746 Z1.0100
G1 X9.3883 Y-14.8042 Z1.0100
G1 X10.0784 Y-14.8042 Z1.0100
G1 X10.0784 Y-11.8746 Z1.0100
G1 X9.7334 Y-11.8746 Z1.0100
G1 X9.7334 Y-11.6271 Z1.0100
G1 X9.1408 Y-11.6271 Z1.0100
G1 X9.1408 Y-15.0517 Z1.0100
G1 X10.3259 Y-15.0517 Z1.0100
G1 X10.3259 Y-11.6271 Z1.0100
G1 X9.7334 Y-11.6271 Z1.0100
G1 X9.7334 Y-11.3796 Z1.0100
G1 X8.8933 Y-11.3796 Z1.0100
G1 X8.8933 Y-15.2992 Z1.0100
G1 X10.5734 Y-15.2992 Z1.0100
G1 X10.5734 Y-11.3796 Z1.0100
G1 X9.7334 Y-11.3796 Z1.0100
G1 X9.7334 Y-11.1321 Z1.0100
G1 X8.6458 Y-11.1321 Z1.0100
G1 X8.6458 Y-15.5467 Z1.0100
G1 X10.8209 Y-15.5467 Z1.0100
G1 X10.8209 Y-11.1321 Z1.0100
G1 X9.7334 Y-11.1321 Z1.0100
G1 X9.7334 Y-10.8846 Z1.0100
G1 X8.3983 Y-10.8846 Z1.0100
G1 X8.3983 Y-15.7942 Z1.0100
G1 X11.0684 Y-15.7942 Z1.0100
G1 X11.0684 Y-10.8846 Z1.0100
G1 X9.7334 Y-10.8846 Z1.0100
G0 Z4.0000
G0 X9.7334 Y-10.8846 
M5
G53 Z
X2Y0
