( MOP:  Hum-PUP-Bridge-front-01 )
( FILE: G:\Shared drives\AlloyProjectFiles\Customer CAD files\Alloy-Standard-Builds-CAM\s-in\PUPs\Hum-PUP-Bridge-front-01.nc)
G90
(  BEGIN TOOL LIST )
(  TOOL 11 - Downcut PT750 ROUGH - DESC: 0.7500 DIA, 2 FLUTE,  CARBIDE MAT )
(  ENDOF TOOL LIST )
( Hum-PUP-Bridge-front-01)
T11
S14000
M3
G0 Z4.0000
G0 X8.9191 Y-15.3038 
G1 X8.9191 Y-15.3038 Z1.7600 F75.
G1 X8.9083 Y-15.3038 Z1.7581 F50.
G1 X8.9046 Y-15.3119 Z1.7565
G1 X8.9008 Y-15.3199 Z1.7550
G1 X8.8968 Y-15.3278 Z1.7534
G1 X8.8928 Y-15.3357 Z1.7518
G1 X8.8886 Y-15.3436 Z1.7503
G1 X8.8844 Y-15.3513 Z1.7487
G1 X8.8800 Y-15.3591 Z1.7471
G1 X8.8756 Y-15.3667 Z1.7456
G1 X8.8710 Y-15.3744 Z1.7440
G1 X8.8663 Y-15.3819 Z1.7424
G1 X8.8616 Y-15.3894 Z1.7409
G1 X8.8567 Y-15.3968 Z1.7393
G1 X8.8518 Y-15.4042 Z1.7378
G1 X8.8467 Y-15.4115 Z1.7362
G1 X8.8416 Y-15.4187 Z1.7346
G1 X8.8467 Y-15.4259 Z1.7331
G1 X8.8518 Y-15.4332 Z1.7315
G1 X8.8567 Y-15.4406 Z1.7299
G1 X8.8616 Y-15.4480 Z1.7284
G1 X8.8663 Y-15.4555 Z1.7268
G1 X8.8710 Y-15.4631 Z1.7252
G1 X8.8756 Y-15.4707 Z1.7237
G1 X8.8800 Y-15.4784 Z1.7221
G1 X8.8844 Y-15.4861 Z1.7205
G1 X8.8886 Y-15.4939 Z1.7190
G1 X8.8928 Y-15.5017 Z1.7174
G1 X8.8968 Y-15.5096 Z1.7158
G1 X8.9008 Y-15.5176 Z1.7143
G1 X8.9046 Y-15.5256 Z1.7127
G1 X8.9083 Y-15.5336 Z1.7112
G1 X10.5584 Y-15.5336 Z1.4202
G1 X10.5621 Y-15.5256 Z1.4186
G1 X10.5660 Y-15.5176 Z1.4171
G1 X10.5699 Y-15.5096 Z1.4155
G1 X10.5740 Y-15.5017 Z1.4139
G1 X10.5781 Y-15.4939 Z1.4124
G1 X10.5824 Y-15.4861 Z1.4108
G1 X10.5867 Y-15.4784 Z1.4093
G1 X10.5912 Y-15.4707 Z1.4077
G1 X10.5957 Y-15.4631 Z1.4061
G1 X10.6004 Y-15.4555 Z1.4046
G1 X10.6052 Y-15.4480 Z1.4030
G1 X10.6100 Y-15.4406 Z1.4014
G1 X10.6150 Y-15.4332 Z1.3999
G1 X10.6200 Y-15.4259 Z1.3983
G1 X10.6252 Y-15.4187 Z1.3967
G1 X10.6226 Y-15.4151 Z1.3960
G1 X10.6200 Y-15.4115 Z1.3952
G1 X10.6175 Y-15.4078 Z1.3944
G1 X10.6150 Y-15.4042 Z1.3936
G1 X10.6125 Y-15.4005 Z1.3928
G1 X10.6100 Y-15.3968 Z1.3920
G1 X10.6076 Y-15.3931 Z1.3913
G1 X10.6052 Y-15.3894 Z1.3905
G1 X10.6028 Y-15.3857 Z1.3897
G1 X10.6004 Y-15.3819 Z1.3889
G1 X10.5981 Y-15.3781 Z1.3881
G1 X10.5957 Y-15.3744 Z1.3873
G1 X10.5934 Y-15.3706 Z1.3866
G1 X10.5912 Y-15.3667 Z1.3858
G1 X10.5889 Y-15.3629 Z1.3850
G17
G2X10.5584Y-15.3038Z1.3850I0.5815J0.3379 F150.
G1 X8.9083 Y-15.3038 Z1.3850
G2X8.8416Y-15.4187Z1.3850I-0.6119J0.2788
G2X8.9083Y-15.5336Z1.3850I-0.5452J-0.3937
G1 X10.5584 Y-15.5336 Z1.3850
G2X10.6252Y-15.4187Z1.3850I0.6120J-0.2788
G2X10.5889Y-15.3629Z1.3850I0.5452J0.3937
G1 X10.8029 Y-15.2386 Z1.3850
G2X10.7465Y-15.0563Z1.3850I0.3675J0.2136
G1 X8.7202 Y-15.0563 Z1.3850
G2X8.4709Y-15.4125Z1.3850I-0.4238J0.0313
G1 X8.4709 Y-15.4249 Z1.3850
G2X8.7202Y-15.7811Z1.3850I-0.1745J-0.3875
G1 X10.7465 Y-15.7811 Z1.3850
G2X10.9956Y-15.4250Z1.3850I0.4239J-0.0313
G1 X10.9956 Y-15.4124 Z1.3850
G2X10.8029Y-15.2386Z1.3850I0.1748J0.3874
G0 Z1.6350
G0 X10.8029 Y-15.2386 
G0 Z1.6350
G0 X8.9191 Y-15.3038 
G1 X8.9191 Y-15.3038 Z1.3850 F75.
G1 X8.9083 Y-15.3038 Z1.3831 F50.
G1 X8.9046 Y-15.3119 Z1.3815
G1 X8.9008 Y-15.3199 Z1.3800
G1 X8.8968 Y-15.3278 Z1.3784
G1 X8.8928 Y-15.3357 Z1.3768
G1 X8.8886 Y-15.3436 Z1.3753
G1 X8.8844 Y-15.3513 Z1.3737
G1 X8.8800 Y-15.3591 Z1.3721
G1 X8.8756 Y-15.3667 Z1.3706
G1 X8.8710 Y-15.3744 Z1.3690
G1 X8.8663 Y-15.3819 Z1.3674
G1 X8.8616 Y-15.3894 Z1.3659
G1 X8.8567 Y-15.3968 Z1.3643
G1 X8.8518 Y-15.4042 Z1.3628
G1 X8.8467 Y-15.4115 Z1.3612
G1 X8.8416 Y-15.4187 Z1.3596
G1 X8.8467 Y-15.4259 Z1.3581
G1 X8.8518 Y-15.4332 Z1.3565
G1 X8.8567 Y-15.4406 Z1.3549
G1 X8.8616 Y-15.4480 Z1.3534
G1 X8.8663 Y-15.4555 Z1.3518
G1 X8.8710 Y-15.4631 Z1.3502
G1 X8.8756 Y-15.4707 Z1.3487
G1 X8.8800 Y-15.4784 Z1.3471
G1 X8.8844 Y-15.4861 Z1.3455
G1 X8.8886 Y-15.4939 Z1.3440
G1 X8.8928 Y-15.5017 Z1.3424
G1 X8.8968 Y-15.5096 Z1.3408
G1 X8.9008 Y-15.5176 Z1.3393
G1 X8.9046 Y-15.5256 Z1.3377
G1 X8.9083 Y-15.5336 Z1.3362
G1 X10.5584 Y-15.5336 Z1.0452
G1 X10.5621 Y-15.5256 Z1.0436
G1 X10.5660 Y-15.5176 Z1.0421
G1 X10.5699 Y-15.5096 Z1.0405
G1 X10.5740 Y-15.5017 Z1.0389
G1 X10.5781 Y-15.4939 Z1.0374
G1 X10.5824 Y-15.4861 Z1.0358
G1 X10.5867 Y-15.4784 Z1.0343
G1 X10.5912 Y-15.4707 Z1.0327
G1 X10.5957 Y-15.4631 Z1.0311
G1 X10.6004 Y-15.4555 Z1.0296
G1 X10.6052 Y-15.4480 Z1.0280
G1 X10.6100 Y-15.4406 Z1.0264
G1 X10.6150 Y-15.4332 Z1.0249
G1 X10.6200 Y-15.4259 Z1.0233
G1 X10.6252 Y-15.4187 Z1.0217
G1 X10.6226 Y-15.4151 Z1.0210
G1 X10.6200 Y-15.4115 Z1.0202
G1 X10.6175 Y-15.4078 Z1.0194
G1 X10.6150 Y-15.4042 Z1.0186
G1 X10.6125 Y-15.4005 Z1.0178
G1 X10.6100 Y-15.3968 Z1.0170
G1 X10.6076 Y-15.3931 Z1.0163
G1 X10.6052 Y-15.3894 Z1.0155
G1 X10.6028 Y-15.3857 Z1.0147
G1 X10.6004 Y-15.3819 Z1.0139
G1 X10.5981 Y-15.3781 Z1.0131
G1 X10.5957 Y-15.3744 Z1.0123
G1 X10.5934 Y-15.3706 Z1.0116
G1 X10.5912 Y-15.3667 Z1.0108
G1 X10.5889 Y-15.3629 Z1.0100
G2X10.5584Y-15.3038Z1.0100I0.5815J0.3379 F150.
G1 X8.9083 Y-15.3038 Z1.0100
G2X8.8416Y-15.4187Z1.0100I-0.6119J0.2788
G2X8.9083Y-15.5336Z1.0100I-0.5452J-0.3937
G1 X10.5584 Y-15.5336 Z1.0100
G2X10.6252Y-15.4187Z1.0100I0.6120J-0.2788
G2X10.5889Y-15.3629Z1.0100I0.5452J0.3937
G1 X10.8029 Y-15.2386 Z1.0100
G2X10.7465Y-15.0563Z1.0100I0.3675J0.2136
G1 X8.7202 Y-15.0563 Z1.0100
G2X8.4709Y-15.4125Z1.0100I-0.4238J0.0313
G1 X8.4709 Y-15.4249 Z1.0100
G2X8.7202Y-15.7811Z1.0100I-0.1745J-0.3875
G1 X10.7465 Y-15.7811 Z1.0100
G2X10.9956Y-15.4250Z1.0100I0.4239J-0.0313
G1 X10.9956 Y-15.4124 Z1.0100
G2X10.8029Y-15.2386Z1.0100I0.1748J0.3874
G0 Z4.0000
G0 X10.8029 Y-15.2386 
M5
G53 Z
X2Y0
