( MOP:  Hum-PUP-Middle-front-03 )
( FILE: G:\Shared drives\AlloyProjectFiles\Customer CAD files\Alloy-Standard-Builds-CAM\s-in\PUPs\Hum-PUP-Middle-front-03.nc)
G90
(  BEGIN TOOL LIST )
(  TOOL 6 - Downcut PT250 - DESC: 0.2500 DIA, 2 FLUTE,  CARBIDE MAT )
(  ENDOF TOOL LIST )
( Hum-PUP-Middle-front-03)
( Max Depth 1.75)
T06
S12000
M3
G0 Z4.0000
G0 X11.1278 Y-13.5056 
G1 X11.1278 Y-13.5056 Z1.0100 F75.
G1 X11.1238 Y-13.5107 Z1.0089 F25.
G1 X11.1199 Y-13.5172 Z1.0075
G1 X11.1168 Y-13.5241 Z1.0062
G1 X11.1146 Y-13.5313 Z1.0049
G1 X11.1132 Y-13.5387 Z1.0035
G1 X11.1128 Y-13.5462 Z1.0022
G1 X11.1132 Y-13.5538 Z1.0009
G1 X11.1146 Y-13.5612 Z0.9995
G1 X11.1168 Y-13.5684 Z0.9982
G1 X11.1199 Y-13.5753 Z0.9969
G1 X11.1238 Y-13.5817 Z0.9956
G1 X11.1285 Y-13.5877 Z0.9942
G1 X11.1338 Y-13.5930 Z0.9929
G1 X11.1398 Y-13.5977 Z0.9916
G1 X11.1462 Y-13.6016 Z0.9902
G1 X11.1531 Y-13.6047 Z0.9889
G1 X11.1603 Y-13.6069 Z0.9876
G1 X11.1677 Y-13.6083 Z0.9862
G1 X11.1753 Y-13.6087 Z0.9849
G1 X11.1828 Y-13.6083 Z0.9836
G1 X11.1902 Y-13.6069 Z0.9822
G1 X11.1974 Y-13.6047 Z0.9809
G1 X11.2043 Y-13.6016 Z0.9796
G1 X11.2108 Y-13.5977 Z0.9783
G1 X11.2167 Y-13.5930 Z0.9769
G1 X11.2221 Y-13.5877 Z0.9756
G1 X11.2267 Y-13.5817 Z0.9743
G1 X11.2306 Y-13.5753 Z0.9729
G1 X11.2337 Y-13.5684 Z0.9716
G1 X11.2360 Y-13.5612 Z0.9703
G1 X11.2373 Y-13.5538 Z0.9689
G1 X11.2378 Y-13.5462 Z0.9676
G1 X11.2373 Y-13.5387 Z0.9663
G1 X11.2360 Y-13.5313 Z0.9649
G1 X11.2337 Y-13.5241 Z0.9636
G1 X11.2306 Y-13.5172 Z0.9623
G1 X11.2267 Y-13.5107 Z0.9610
G1 X11.2221 Y-13.5048 Z0.9596
G1 X11.2167 Y-13.4994 Z0.9583
G1 X11.2108 Y-13.4948 Z0.9570
G1 X11.2043 Y-13.4909 Z0.9556
G1 X11.1974 Y-13.4878 Z0.9543
G1 X11.1902 Y-13.4855 Z0.9530
G1 X11.1828 Y-13.4842 Z0.9516
G1 X11.1753 Y-13.4837 Z0.9503
G1 X11.1677 Y-13.4842 Z0.9490
G1 X11.1603 Y-13.4855 Z0.9476
G1 X11.1531 Y-13.4878 Z0.9463
G1 X11.1462 Y-13.4909 Z0.9450
G1 X11.1398 Y-13.4948 Z0.9436
G1 X11.1338 Y-13.4994 Z0.9423
G1 X11.1285 Y-13.5048 Z0.9410
G1 X11.1238 Y-13.5107 Z0.9397
G1 X11.1199 Y-13.5172 Z0.9383
G1 X11.1168 Y-13.5241 Z0.9370
G1 X11.1146 Y-13.5313 Z0.9357
G1 X11.1132 Y-13.5387 Z0.9343
G1 X11.1128 Y-13.5462 Z0.9330
G1 X11.1132 Y-13.5538 Z0.9317
G1 X11.1146 Y-13.5612 Z0.9303
G1 X11.1168 Y-13.5684 Z0.9290
G1 X11.1199 Y-13.5753 Z0.9277
G1 X11.1238 Y-13.5817 Z0.9263
G1 X11.1285 Y-13.5877 Z0.9250
G1 X11.1338 Y-13.5930 Z0.9237
G1 X11.1398 Y-13.5977 Z0.9224
G1 X11.1462 Y-13.6016 Z0.9210
G1 X11.1531 Y-13.6047 Z0.9197
G1 X11.1603 Y-13.6069 Z0.9184
G1 X11.1677 Y-13.6083 Z0.9170
G1 X11.1753 Y-13.6087 Z0.9157
G1 X11.1828 Y-13.6083 Z0.9144
G1 X11.1902 Y-13.6069 Z0.9130
G1 X11.1974 Y-13.6047 Z0.9117
G1 X11.2043 Y-13.6016 Z0.9104
G1 X11.2108 Y-13.5977 Z0.9090
G1 X11.2167 Y-13.5930 Z0.9077
G1 X11.2221 Y-13.5877 Z0.9064
G1 X11.2267 Y-13.5817 Z0.9051
G1 X11.2306 Y-13.5753 Z0.9037
G1 X11.2337 Y-13.5684 Z0.9024
G1 X11.2360 Y-13.5612 Z0.9011
G1 X11.2373 Y-13.5538 Z0.8997
G1 X11.2378 Y-13.5462 Z0.8984
G1 X11.2373 Y-13.5387 Z0.8971
G1 X11.2360 Y-13.5313 Z0.8957
G1 X11.2337 Y-13.5241 Z0.8944
G1 X11.2306 Y-13.5172 Z0.8931
G1 X11.2267 Y-13.5107 Z0.8917
G1 X11.2221 Y-13.5048 Z0.8904
G1 X11.2167 Y-13.4994 Z0.8891
G1 X11.2108 Y-13.4948 Z0.8878
G1 X11.2043 Y-13.4909 Z0.8864
G1 X11.1974 Y-13.4878 Z0.8851
G1 X11.1902 Y-13.4855 Z0.8838
G1 X11.1828 Y-13.4842 Z0.8824
G1 X11.1753 Y-13.4837 Z0.8811
G1 X11.1677 Y-13.4842 Z0.8798
G1 X11.1603 Y-13.4855 Z0.8784
G1 X11.1531 Y-13.4878 Z0.8771
G1 X11.1462 Y-13.4909 Z0.8758
G1 X11.1398 Y-13.4948 Z0.8744
G1 X11.1338 Y-13.4994 Z0.8731
G1 X11.1285 Y-13.5048 Z0.8718
G1 X11.1238 Y-13.5107 Z0.8705
G1 X11.1199 Y-13.5172 Z0.8691
G1 X11.1168 Y-13.5241 Z0.8678
G1 X11.1146 Y-13.5313 Z0.8665
G1 X11.1132 Y-13.5387 Z0.8651
G1 X11.1128 Y-13.5462 Z0.8638
G1 X11.1132 Y-13.5538 Z0.8625
G1 X11.1146 Y-13.5612 Z0.8611
G1 X11.1168 Y-13.5684 Z0.8598
G1 X11.1199 Y-13.5753 Z0.8585
G1 X11.1238 Y-13.5817 Z0.8571
G1 X11.1285 Y-13.5877 Z0.8558
G1 X11.1338 Y-13.5930 Z0.8545
G1 X11.1398 Y-13.5977 Z0.8532
G1 X11.1462 Y-13.6016 Z0.8518
G1 X11.1531 Y-13.6047 Z0.8505
G1 X11.1603 Y-13.6069 Z0.8492
G1 X11.1677 Y-13.6083 Z0.8478
G1 X11.1753 Y-13.6087 Z0.8465
G1 X11.1828 Y-13.6083 Z0.8452
G1 X11.1902 Y-13.6069 Z0.8438
G1 X11.1974 Y-13.6047 Z0.8425
G1 X11.2043 Y-13.6016 Z0.8412
G1 X11.2108 Y-13.5977 Z0.8398
G1 X11.2167 Y-13.5930 Z0.8385
G1 X11.2221 Y-13.5877 Z0.8372
G1 X11.2267 Y-13.5817 Z0.8359
G1 X11.2306 Y-13.5753 Z0.8345
G1 X11.2337 Y-13.5684 Z0.8332
G1 X11.2360 Y-13.5612 Z0.8319
G1 X11.2373 Y-13.5538 Z0.8305
G1 X11.2378 Y-13.5462 Z0.8292
G1 X11.2373 Y-13.5387 Z0.8279
G1 X11.2360 Y-13.5313 Z0.8265
G1 X11.2337 Y-13.5241 Z0.8252
G1 X11.2306 Y-13.5172 Z0.8239
G1 X11.2267 Y-13.5107 Z0.8225
G1 X11.2221 Y-13.5048 Z0.8212
G1 X11.2167 Y-13.4994 Z0.8199
G1 X11.2108 Y-13.4948 Z0.8186
G1 X11.2043 Y-13.4909 Z0.8172
G1 X11.1974 Y-13.4878 Z0.8159
G1 X11.1902 Y-13.4855 Z0.8146
G1 X11.1828 Y-13.4842 Z0.8132
G1 X11.1753 Y-13.4837 Z0.8119
G1 X11.1677 Y-13.4842 Z0.8106
G1 X11.1603 Y-13.4855 Z0.8092
G1 X11.1531 Y-13.4878 Z0.8079
G1 X11.1462 Y-13.4909 Z0.8066
G1 X11.1398 Y-13.4948 Z0.8052
G1 X11.1338 Y-13.4994 Z0.8039
G1 X11.1285 Y-13.5048 Z0.8026
G1 X11.1238 Y-13.5107 Z0.8013
G1 X11.1199 Y-13.5172 Z0.7999
G1 X11.1168 Y-13.5241 Z0.7986
G1 X11.1146 Y-13.5313 Z0.7973
G1 X11.1132 Y-13.5387 Z0.7959
G1 X11.1128 Y-13.5462 Z0.7946
G1 X11.1132 Y-13.5538 Z0.7933
G1 X11.1146 Y-13.5612 Z0.7919
G1 X11.1168 Y-13.5684 Z0.7906
G1 X11.1199 Y-13.5753 Z0.7893
G1 X11.1238 Y-13.5817 Z0.7879
G1 X11.1285 Y-13.5877 Z0.7866
G1 X11.1338 Y-13.5930 Z0.7853
G1 X11.1398 Y-13.5977 Z0.7840
G1 X11.1462 Y-13.6016 Z0.7826
G1 X11.1531 Y-13.6047 Z0.7813
G1 X11.1603 Y-13.6069 Z0.7800
G1 X11.1677 Y-13.6083 Z0.7786
G1 X11.1753 Y-13.6087 Z0.7773
G1 X11.1828 Y-13.6083 Z0.7760
G1 X11.1902 Y-13.6069 Z0.7746
G1 X11.1974 Y-13.6047 Z0.7733
G1 X11.2043 Y-13.6016 Z0.7720
G1 X11.2108 Y-13.5977 Z0.7706
G1 X11.2167 Y-13.5930 Z0.7693
G1 X11.2221 Y-13.5877 Z0.7680
G1 X11.2267 Y-13.5817 Z0.7667
G1 X11.2306 Y-13.5753 Z0.7653
G1 X11.2337 Y-13.5684 Z0.7640
G1 X11.2360 Y-13.5612 Z0.7627
G1 X11.2373 Y-13.5538 Z0.7613
G1 X11.2378 Y-13.5462 Z0.7600
G1 X11.2373 Y-13.5408 Z0.7600
G1 X11.2359 Y-13.5355 Z0.7600
G1 X11.2336 Y-13.5306 Z0.7600
G1 X11.2305 Y-13.5261 Z0.7600
G1 X11.2266 Y-13.5223 Z0.7600
G1 X11.2222 Y-13.5192 Z0.7600
G1 X11.2172 Y-13.5169 Z0.7600
G1 X11.2120 Y-13.5155 Z0.7600
G1 X11.2065 Y-13.5150 Z0.7600
G1 X11.2011 Y-13.5155 Z0.7600
G1 X11.1958 Y-13.5169 Z0.7600
G1 X11.1909 Y-13.5192 Z0.7600
G1 X11.1864 Y-13.5223 Z0.7600
G1 X11.1826 Y-13.5261 Z0.7600
G1 X11.1795 Y-13.5306 Z0.7600
G1 X11.1772 Y-13.5355 Z0.7600
G1 X11.1758 Y-13.5408 Z0.7600
G1 X11.1753 Y-13.5462 Z0.7600
G1 X11.2131 Y-13.5462 Z0.7600 F40.
G1 X11.2131 Y-13.1738 Z0.7600
G1 X11.1375 Y-13.1738 Z0.7600
G1 X11.1375 Y-13.5462 Z0.7600
G1 X11.1753 Y-13.5462 Z0.7600
G1 X11.1753 Y-13.6287 Z0.7600
G1 X11.2331 Y-13.6287 Z0.7600
G17
G3X11.2956Y-13.5662Z0.7600I0.0000J0.0625
G1 X11.2956 Y-13.1538 Z0.7600
G3X11.2331Y-13.0913Z0.7600I-0.0625J0.0000
G1 X11.1175 Y-13.0913 Z0.7600
G3X11.0550Y-13.1538Z0.7600I0.0000J-0.0625
G1 X11.0550 Y-13.5662 Z0.7600
G3X11.1175Y-13.6287Z0.7600I0.0625J0.0000
G1 X11.1753 Y-13.6287 Z0.7600
G0 Z2.0125
G0 X11.1753 Y-13.6287 
G0 Z2.0125
G0 X11.1278 Y-13.5056 
G1 X11.1278 Y-13.5056 Z0.7600 F75.
G1 X11.1238 Y-13.5107 Z0.7589 F25.
G1 X11.1199 Y-13.5172 Z0.7575
G1 X11.1168 Y-13.5241 Z0.7562
G1 X11.1146 Y-13.5313 Z0.7549
G1 X11.1132 Y-13.5387 Z0.7535
G1 X11.1128 Y-13.5462 Z0.7522
G1 X11.1132 Y-13.5538 Z0.7509
G1 X11.1146 Y-13.5612 Z0.7495
G1 X11.1168 Y-13.5684 Z0.7482
G1 X11.1199 Y-13.5753 Z0.7469
G1 X11.1238 Y-13.5817 Z0.7456
G1 X11.1285 Y-13.5877 Z0.7442
G1 X11.1338 Y-13.5930 Z0.7429
G1 X11.1398 Y-13.5977 Z0.7416
G1 X11.1462 Y-13.6016 Z0.7402
G1 X11.1531 Y-13.6047 Z0.7389
G1 X11.1603 Y-13.6069 Z0.7376
G1 X11.1677 Y-13.6083 Z0.7362
G1 X11.1753 Y-13.6087 Z0.7349
G1 X11.1828 Y-13.6083 Z0.7336
G1 X11.1902 Y-13.6069 Z0.7322
G1 X11.1974 Y-13.6047 Z0.7309
G1 X11.2043 Y-13.6016 Z0.7296
G1 X11.2108 Y-13.5977 Z0.7283
G1 X11.2167 Y-13.5930 Z0.7269
G1 X11.2221 Y-13.5877 Z0.7256
G1 X11.2267 Y-13.5817 Z0.7243
G1 X11.2306 Y-13.5753 Z0.7229
G1 X11.2337 Y-13.5684 Z0.7216
G1 X11.2360 Y-13.5612 Z0.7203
G1 X11.2373 Y-13.5538 Z0.7189
G1 X11.2378 Y-13.5462 Z0.7176
G1 X11.2373 Y-13.5387 Z0.7163
G1 X11.2360 Y-13.5313 Z0.7149
G1 X11.2337 Y-13.5241 Z0.7136
G1 X11.2306 Y-13.5172 Z0.7123
G1 X11.2267 Y-13.5107 Z0.7110
G1 X11.2221 Y-13.5048 Z0.7096
G1 X11.2167 Y-13.4994 Z0.7083
G1 X11.2108 Y-13.4948 Z0.7070
G1 X11.2043 Y-13.4909 Z0.7056
G1 X11.1974 Y-13.4878 Z0.7043
G1 X11.1902 Y-13.4855 Z0.7030
G1 X11.1828 Y-13.4842 Z0.7016
G1 X11.1753 Y-13.4837 Z0.7003
G1 X11.1677 Y-13.4842 Z0.6990
G1 X11.1603 Y-13.4855 Z0.6976
G1 X11.1531 Y-13.4878 Z0.6963
G1 X11.1462 Y-13.4909 Z0.6950
G1 X11.1398 Y-13.4948 Z0.6936
G1 X11.1338 Y-13.4994 Z0.6923
G1 X11.1285 Y-13.5048 Z0.6910
G1 X11.1238 Y-13.5107 Z0.6897
G1 X11.1199 Y-13.5172 Z0.6883
G1 X11.1168 Y-13.5241 Z0.6870
G1 X11.1146 Y-13.5313 Z0.6857
G1 X11.1132 Y-13.5387 Z0.6843
G1 X11.1128 Y-13.5462 Z0.6830
G1 X11.1132 Y-13.5538 Z0.6817
G1 X11.1146 Y-13.5612 Z0.6803
G1 X11.1168 Y-13.5684 Z0.6790
G1 X11.1199 Y-13.5753 Z0.6777
G1 X11.1238 Y-13.5817 Z0.6763
G1 X11.1285 Y-13.5877 Z0.6750
G1 X11.1338 Y-13.5930 Z0.6737
G1 X11.1398 Y-13.5977 Z0.6724
G1 X11.1462 Y-13.6016 Z0.6710
G1 X11.1531 Y-13.6047 Z0.6697
G1 X11.1603 Y-13.6069 Z0.6684
G1 X11.1677 Y-13.6083 Z0.6670
G1 X11.1753 Y-13.6087 Z0.6657
G1 X11.1828 Y-13.6083 Z0.6644
G1 X11.1902 Y-13.6069 Z0.6630
G1 X11.1974 Y-13.6047 Z0.6617
G1 X11.2043 Y-13.6016 Z0.6604
G1 X11.2108 Y-13.5977 Z0.6590
G1 X11.2167 Y-13.5930 Z0.6577
G1 X11.2221 Y-13.5877 Z0.6564
G1 X11.2267 Y-13.5817 Z0.6551
G1 X11.2306 Y-13.5753 Z0.6537
G1 X11.2337 Y-13.5684 Z0.6524
G1 X11.2360 Y-13.5612 Z0.6511
G1 X11.2373 Y-13.5538 Z0.6497
G1 X11.2378 Y-13.5462 Z0.6484
G1 X11.2373 Y-13.5387 Z0.6471
G1 X11.2360 Y-13.5313 Z0.6457
G1 X11.2337 Y-13.5241 Z0.6444
G1 X11.2306 Y-13.5172 Z0.6431
G1 X11.2267 Y-13.5107 Z0.6417
G1 X11.2221 Y-13.5048 Z0.6404
G1 X11.2167 Y-13.4994 Z0.6391
G1 X11.2108 Y-13.4948 Z0.6378
G1 X11.2043 Y-13.4909 Z0.6364
G1 X11.1974 Y-13.4878 Z0.6351
G1 X11.1902 Y-13.4855 Z0.6338
G1 X11.1828 Y-13.4842 Z0.6324
G1 X11.1753 Y-13.4837 Z0.6311
G1 X11.1677 Y-13.4842 Z0.6298
G1 X11.1603 Y-13.4855 Z0.6284
G1 X11.1531 Y-13.4878 Z0.6271
G1 X11.1462 Y-13.4909 Z0.6258
G1 X11.1398 Y-13.4948 Z0.6244
G1 X11.1338 Y-13.4994 Z0.6231
G1 X11.1285 Y-13.5048 Z0.6218
G1 X11.1238 Y-13.5107 Z0.6205
G1 X11.1199 Y-13.5172 Z0.6191
G1 X11.1168 Y-13.5241 Z0.6178
G1 X11.1146 Y-13.5313 Z0.6165
G1 X11.1132 Y-13.5387 Z0.6151
G1 X11.1128 Y-13.5462 Z0.6138
G1 X11.1132 Y-13.5538 Z0.6125
G1 X11.1146 Y-13.5612 Z0.6111
G1 X11.1168 Y-13.5684 Z0.6098
G1 X11.1199 Y-13.5753 Z0.6085
G1 X11.1238 Y-13.5817 Z0.6071
G1 X11.1285 Y-13.5877 Z0.6058
G1 X11.1338 Y-13.5930 Z0.6045
G1 X11.1398 Y-13.5977 Z0.6032
G1 X11.1462 Y-13.6016 Z0.6018
G1 X11.1531 Y-13.6047 Z0.6005
G1 X11.1603 Y-13.6069 Z0.5992
G1 X11.1677 Y-13.6083 Z0.5978
G1 X11.1753 Y-13.6087 Z0.5965
G1 X11.1828 Y-13.6083 Z0.5952
G1 X11.1902 Y-13.6069 Z0.5938
G1 X11.1974 Y-13.6047 Z0.5925
G1 X11.2043 Y-13.6016 Z0.5912
G1 X11.2108 Y-13.5977 Z0.5898
G1 X11.2167 Y-13.5930 Z0.5885
G1 X11.2221 Y-13.5877 Z0.5872
G1 X11.2267 Y-13.5817 Z0.5859
G1 X11.2306 Y-13.5753 Z0.5845
G1 X11.2337 Y-13.5684 Z0.5832
G1 X11.2360 Y-13.5612 Z0.5819
G1 X11.2373 Y-13.5538 Z0.5805
G1 X11.2378 Y-13.5462 Z0.5792
G1 X11.2373 Y-13.5387 Z0.5779
G1 X11.2360 Y-13.5313 Z0.5765
G1 X11.2337 Y-13.5241 Z0.5752
G1 X11.2306 Y-13.5172 Z0.5739
G1 X11.2267 Y-13.5107 Z0.5725
G1 X11.2221 Y-13.5048 Z0.5712
G1 X11.2167 Y-13.4994 Z0.5699
G1 X11.2108 Y-13.4948 Z0.5686
G1 X11.2043 Y-13.4909 Z0.5672
G1 X11.1974 Y-13.4878 Z0.5659
G1 X11.1902 Y-13.4855 Z0.5646
G1 X11.1828 Y-13.4842 Z0.5632
G1 X11.1753 Y-13.4837 Z0.5619
G1 X11.1677 Y-13.4842 Z0.5606
G1 X11.1603 Y-13.4855 Z0.5592
G1 X11.1531 Y-13.4878 Z0.5579
G1 X11.1462 Y-13.4909 Z0.5566
G1 X11.1398 Y-13.4948 Z0.5552
G1 X11.1338 Y-13.4994 Z0.5539
G1 X11.1285 Y-13.5048 Z0.5526
G1 X11.1238 Y-13.5107 Z0.5513
G1 X11.1199 Y-13.5172 Z0.5499
G1 X11.1168 Y-13.5241 Z0.5486
G1 X11.1146 Y-13.5313 Z0.5473
G1 X11.1132 Y-13.5387 Z0.5459
G1 X11.1128 Y-13.5462 Z0.5446
G1 X11.1132 Y-13.5538 Z0.5433
G1 X11.1146 Y-13.5612 Z0.5419
G1 X11.1168 Y-13.5684 Z0.5406
G1 X11.1199 Y-13.5753 Z0.5393
G1 X11.1238 Y-13.5817 Z0.5379
G1 X11.1285 Y-13.5877 Z0.5366
G1 X11.1338 Y-13.5930 Z0.5353
G1 X11.1398 Y-13.5977 Z0.5340
G1 X11.1462 Y-13.6016 Z0.5326
G1 X11.1531 Y-13.6047 Z0.5313
G1 X11.1603 Y-13.6069 Z0.5300
G1 X11.1677 Y-13.6083 Z0.5286
G1 X11.1753 Y-13.6087 Z0.5273
G1 X11.1828 Y-13.6083 Z0.5260
G1 X11.1902 Y-13.6069 Z0.5246
G1 X11.1974 Y-13.6047 Z0.5233
G1 X11.2043 Y-13.6016 Z0.5220
G1 X11.2108 Y-13.5977 Z0.5206
G1 X11.2167 Y-13.5930 Z0.5193
G1 X11.2221 Y-13.5877 Z0.5180
G1 X11.2267 Y-13.5817 Z0.5167
G1 X11.2306 Y-13.5753 Z0.5153
G1 X11.2337 Y-13.5684 Z0.5140
G1 X11.2360 Y-13.5612 Z0.5127
G1 X11.2373 Y-13.5538 Z0.5113
G1 X11.2378 Y-13.5462 Z0.5100
G1 X11.2373 Y-13.5408 Z0.5100
G1 X11.2359 Y-13.5355 Z0.5100
G1 X11.2336 Y-13.5306 Z0.5100
G1 X11.2305 Y-13.5261 Z0.5100
G1 X11.2266 Y-13.5223 Z0.5100
G1 X11.2222 Y-13.5192 Z0.5100
G1 X11.2172 Y-13.5169 Z0.5100
G1 X11.2120 Y-13.5155 Z0.5100
G1 X11.2065 Y-13.5150 Z0.5100
G1 X11.2011 Y-13.5155 Z0.5100
G1 X11.1958 Y-13.5169 Z0.5100
G1 X11.1909 Y-13.5192 Z0.5100
G1 X11.1864 Y-13.5223 Z0.5100
G1 X11.1826 Y-13.5261 Z0.5100
G1 X11.1795 Y-13.5306 Z0.5100
G1 X11.1772 Y-13.5355 Z0.5100
G1 X11.1758 Y-13.5408 Z0.5100
G1 X11.1753 Y-13.5462 Z0.5100
G1 X11.2131 Y-13.5462 Z0.5100 F40.
G1 X11.2131 Y-13.1738 Z0.5100
G1 X11.1375 Y-13.1738 Z0.5100
G1 X11.1375 Y-13.5462 Z0.5100
G1 X11.1753 Y-13.5462 Z0.5100
G1 X11.1753 Y-13.6287 Z0.5100
G1 X11.2331 Y-13.6287 Z0.5100
G3X11.2956Y-13.5662Z0.5100I0.0000J0.0625
G1 X11.2956 Y-13.1538 Z0.5100
G3X11.2331Y-13.0913Z0.5100I-0.0625J0.0000
G1 X11.1175 Y-13.0913 Z0.5100
G3X11.0550Y-13.1538Z0.5100I0.0000J-0.0625
G1 X11.0550 Y-13.5662 Z0.5100
G3X11.1175Y-13.6287Z0.5100I0.0625J0.0000
G1 X11.1753 Y-13.6287 Z0.5100
G0 Z2.0125
G0 X11.1753 Y-13.6287 
G0 Z2.0125
G0 X8.2437 Y-13.5056 
G1 X8.2437 Y-13.5056 Z1.0100 F75.
G1 X8.2397 Y-13.5107 Z1.0089 F25.
G1 X8.2358 Y-13.5172 Z1.0075
G1 X8.2327 Y-13.5241 Z1.0062
G1 X8.2305 Y-13.5313 Z1.0049
G1 X8.2291 Y-13.5387 Z1.0035
G1 X8.2287 Y-13.5462 Z1.0022
G1 X8.2291 Y-13.5538 Z1.0009
G1 X8.2305 Y-13.5612 Z0.9995
G1 X8.2327 Y-13.5684 Z0.9982
G1 X8.2358 Y-13.5753 Z0.9969
G1 X8.2397 Y-13.5817 Z0.9956
G1 X8.2444 Y-13.5877 Z0.9942
G1 X8.2497 Y-13.5930 Z0.9929
G1 X8.2557 Y-13.5977 Z0.9916
G1 X8.2621 Y-13.6016 Z0.9902
G1 X8.2690 Y-13.6047 Z0.9889
G1 X8.2762 Y-13.6069 Z0.9876
G1 X8.2836 Y-13.6083 Z0.9862
G1 X8.2912 Y-13.6087 Z0.9849
G1 X8.2987 Y-13.6083 Z0.9836
G1 X8.3061 Y-13.6069 Z0.9822
G1 X8.3133 Y-13.6047 Z0.9809
G1 X8.3202 Y-13.6016 Z0.9796
G1 X8.3267 Y-13.5977 Z0.9783
G1 X8.3326 Y-13.5930 Z0.9769
G1 X8.3379 Y-13.5877 Z0.9756
G1 X8.3426 Y-13.5817 Z0.9743
G1 X8.3465 Y-13.5753 Z0.9729
G1 X8.3496 Y-13.5684 Z0.9716
G1 X8.3518 Y-13.5612 Z0.9703
G1 X8.3532 Y-13.5538 Z0.9689
G1 X8.3537 Y-13.5462 Z0.9676
G1 X8.3532 Y-13.5387 Z0.9663
G1 X8.3518 Y-13.5313 Z0.9649
G1 X8.3496 Y-13.5241 Z0.9636
G1 X8.3465 Y-13.5172 Z0.9623
G1 X8.3426 Y-13.5107 Z0.9610
G1 X8.3379 Y-13.5048 Z0.9596
G1 X8.3326 Y-13.4994 Z0.9583
G1 X8.3267 Y-13.4948 Z0.9570
G1 X8.3202 Y-13.4909 Z0.9556
G1 X8.3133 Y-13.4878 Z0.9543
G1 X8.3061 Y-13.4855 Z0.9530
G1 X8.2987 Y-13.4842 Z0.9516
G1 X8.2912 Y-13.4837 Z0.9503
G1 X8.2836 Y-13.4842 Z0.9490
G1 X8.2762 Y-13.4855 Z0.9476
G1 X8.2690 Y-13.4878 Z0.9463
G1 X8.2621 Y-13.4909 Z0.9450
G1 X8.2557 Y-13.4948 Z0.9436
G1 X8.2497 Y-13.4994 Z0.9423
G1 X8.2444 Y-13.5048 Z0.9410
G1 X8.2397 Y-13.5107 Z0.9397
G1 X8.2358 Y-13.5172 Z0.9383
G1 X8.2327 Y-13.5241 Z0.9370
G1 X8.2305 Y-13.5313 Z0.9357
G1 X8.2291 Y-13.5387 Z0.9343
G1 X8.2287 Y-13.5462 Z0.9330
G1 X8.2291 Y-13.5538 Z0.9317
G1 X8.2305 Y-13.5612 Z0.9303
G1 X8.2327 Y-13.5684 Z0.9290
G1 X8.2358 Y-13.5753 Z0.9277
G1 X8.2397 Y-13.5817 Z0.9263
G1 X8.2444 Y-13.5877 Z0.9250
G1 X8.2497 Y-13.5930 Z0.9237
G1 X8.2557 Y-13.5977 Z0.9224
G1 X8.2621 Y-13.6016 Z0.9210
G1 X8.2690 Y-13.6047 Z0.9197
G1 X8.2762 Y-13.6069 Z0.9184
G1 X8.2836 Y-13.6083 Z0.9170
G1 X8.2912 Y-13.6087 Z0.9157
G1 X8.2987 Y-13.6083 Z0.9144
G1 X8.3061 Y-13.6069 Z0.9130
G1 X8.3133 Y-13.6047 Z0.9117
G1 X8.3202 Y-13.6016 Z0.9104
G1 X8.3267 Y-13.5977 Z0.9090
G1 X8.3326 Y-13.5930 Z0.9077
G1 X8.3379 Y-13.5877 Z0.9064
G1 X8.3426 Y-13.5817 Z0.9051
G1 X8.3465 Y-13.5753 Z0.9037
G1 X8.3496 Y-13.5684 Z0.9024
G1 X8.3518 Y-13.5612 Z0.9011
G1 X8.3532 Y-13.5538 Z0.8997
G1 X8.3537 Y-13.5462 Z0.8984
G1 X8.3532 Y-13.5387 Z0.8971
G1 X8.3518 Y-13.5313 Z0.8957
G1 X8.3496 Y-13.5241 Z0.8944
G1 X8.3465 Y-13.5172 Z0.8931
G1 X8.3426 Y-13.5107 Z0.8917
G1 X8.3379 Y-13.5048 Z0.8904
G1 X8.3326 Y-13.4994 Z0.8891
G1 X8.3267 Y-13.4948 Z0.8878
G1 X8.3202 Y-13.4909 Z0.8864
G1 X8.3133 Y-13.4878 Z0.8851
G1 X8.3061 Y-13.4855 Z0.8838
G1 X8.2987 Y-13.4842 Z0.8824
G1 X8.2912 Y-13.4837 Z0.8811
G1 X8.2836 Y-13.4842 Z0.8798
G1 X8.2762 Y-13.4855 Z0.8784
G1 X8.2690 Y-13.4878 Z0.8771
G1 X8.2621 Y-13.4909 Z0.8758
G1 X8.2557 Y-13.4948 Z0.8744
G1 X8.2497 Y-13.4994 Z0.8731
G1 X8.2444 Y-13.5048 Z0.8718
G1 X8.2397 Y-13.5107 Z0.8705
G1 X8.2358 Y-13.5172 Z0.8691
G1 X8.2327 Y-13.5241 Z0.8678
G1 X8.2305 Y-13.5313 Z0.8665
G1 X8.2291 Y-13.5387 Z0.8651
G1 X8.2287 Y-13.5462 Z0.8638
G1 X8.2291 Y-13.5538 Z0.8625
G1 X8.2305 Y-13.5612 Z0.8611
G1 X8.2327 Y-13.5684 Z0.8598
G1 X8.2358 Y-13.5753 Z0.8585
G1 X8.2397 Y-13.5817 Z0.8571
G1 X8.2444 Y-13.5877 Z0.8558
G1 X8.2497 Y-13.5930 Z0.8545
G1 X8.2557 Y-13.5977 Z0.8532
G1 X8.2621 Y-13.6016 Z0.8518
G1 X8.2690 Y-13.6047 Z0.8505
G1 X8.2762 Y-13.6069 Z0.8492
G1 X8.2836 Y-13.6083 Z0.8478
G1 X8.2912 Y-13.6087 Z0.8465
G1 X8.2987 Y-13.6083 Z0.8452
G1 X8.3061 Y-13.6069 Z0.8438
G1 X8.3133 Y-13.6047 Z0.8425
G1 X8.3202 Y-13.6016 Z0.8412
G1 X8.3267 Y-13.5977 Z0.8398
G1 X8.3326 Y-13.5930 Z0.8385
G1 X8.3379 Y-13.5877 Z0.8372
G1 X8.3426 Y-13.5817 Z0.8359
G1 X8.3465 Y-13.5753 Z0.8345
G1 X8.3496 Y-13.5684 Z0.8332
G1 X8.3518 Y-13.5612 Z0.8319
G1 X8.3532 Y-13.5538 Z0.8305
G1 X8.3537 Y-13.5462 Z0.8292
G1 X8.3532 Y-13.5387 Z0.8279
G1 X8.3518 Y-13.5313 Z0.8265
G1 X8.3496 Y-13.5241 Z0.8252
G1 X8.3465 Y-13.5172 Z0.8239
G1 X8.3426 Y-13.5107 Z0.8225
G1 X8.3379 Y-13.5048 Z0.8212
G1 X8.3326 Y-13.4994 Z0.8199
G1 X8.3267 Y-13.4948 Z0.8186
G1 X8.3202 Y-13.4909 Z0.8172
G1 X8.3133 Y-13.4878 Z0.8159
G1 X8.3061 Y-13.4855 Z0.8146
G1 X8.2987 Y-13.4842 Z0.8132
G1 X8.2912 Y-13.4837 Z0.8119
G1 X8.2836 Y-13.4842 Z0.8106
G1 X8.2762 Y-13.4855 Z0.8092
G1 X8.2690 Y-13.4878 Z0.8079
G1 X8.2621 Y-13.4909 Z0.8066
G1 X8.2557 Y-13.4948 Z0.8052
G1 X8.2497 Y-13.4994 Z0.8039
G1 X8.2444 Y-13.5048 Z0.8026
G1 X8.2397 Y-13.5107 Z0.8013
G1 X8.2358 Y-13.5172 Z0.7999
G1 X8.2327 Y-13.5241 Z0.7986
G1 X8.2305 Y-13.5313 Z0.7973
G1 X8.2291 Y-13.5387 Z0.7959
G1 X8.2287 Y-13.5462 Z0.7946
G1 X8.2291 Y-13.5538 Z0.7933
G1 X8.2305 Y-13.5612 Z0.7919
G1 X8.2327 Y-13.5684 Z0.7906
G1 X8.2358 Y-13.5753 Z0.7893
G1 X8.2397 Y-13.5817 Z0.7879
G1 X8.2444 Y-13.5877 Z0.7866
G1 X8.2497 Y-13.5930 Z0.7853
G1 X8.2557 Y-13.5977 Z0.7840
G1 X8.2621 Y-13.6016 Z0.7826
G1 X8.2690 Y-13.6047 Z0.7813
G1 X8.2762 Y-13.6069 Z0.7800
G1 X8.2836 Y-13.6083 Z0.7786
G1 X8.2912 Y-13.6087 Z0.7773
G1 X8.2987 Y-13.6083 Z0.7760
G1 X8.3061 Y-13.6069 Z0.7746
G1 X8.3133 Y-13.6047 Z0.7733
G1 X8.3202 Y-13.6016 Z0.7720
G1 X8.3267 Y-13.5977 Z0.7706
G1 X8.3326 Y-13.5930 Z0.7693
G1 X8.3379 Y-13.5877 Z0.7680
G1 X8.3426 Y-13.5817 Z0.7667
G1 X8.3465 Y-13.5753 Z0.7653
G1 X8.3496 Y-13.5684 Z0.7640
G1 X8.3518 Y-13.5612 Z0.7627
G1 X8.3532 Y-13.5538 Z0.7613
G1 X8.3537 Y-13.5462 Z0.7600
G1 X8.3532 Y-13.5408 Z0.7600
G1 X8.3518 Y-13.5355 Z0.7600
G1 X8.3495 Y-13.5306 Z0.7600
G1 X8.3464 Y-13.5261 Z0.7600
G1 X8.3425 Y-13.5223 Z0.7600
G1 X8.3380 Y-13.5192 Z0.7600
G1 X8.3331 Y-13.5169 Z0.7600
G1 X8.3278 Y-13.5155 Z0.7600
G1 X8.3224 Y-13.5150 Z0.7600
G1 X8.3170 Y-13.5155 Z0.7600
G1 X8.3117 Y-13.5169 Z0.7600
G1 X8.3068 Y-13.5192 Z0.7600
G1 X8.3023 Y-13.5223 Z0.7600
G1 X8.2985 Y-13.5261 Z0.7600
G1 X8.2953 Y-13.5306 Z0.7600
G1 X8.2930 Y-13.5355 Z0.7600
G1 X8.2916 Y-13.5408 Z0.7600
G1 X8.2912 Y-13.5462 Z0.7600
G1 X8.3289 Y-13.5462 Z0.7600 F40.
G1 X8.3289 Y-13.1738 Z0.7600
G1 X8.2534 Y-13.1738 Z0.7600
G1 X8.2534 Y-13.5462 Z0.7600
G1 X8.2912 Y-13.5462 Z0.7600
G1 X8.2912 Y-13.6287 Z0.7600
G1 X8.3489 Y-13.6287 Z0.7600
G3X8.4114Y-13.5662Z0.7600I0.0000J0.0625
G1 X8.4114 Y-13.1538 Z0.7600
G3X8.3489Y-13.0913Z0.7600I-0.0625J0.0000
G1 X8.2334 Y-13.0913 Z0.7600
G3X8.1709Y-13.1538Z0.7600I0.0000J-0.0625
G1 X8.1709 Y-13.5662 Z0.7600
G3X8.2334Y-13.6287Z0.7600I0.0625J0.0000
G1 X8.2912 Y-13.6287 Z0.7600
G0 Z2.0125
G0 X8.2912 Y-13.6287 
G0 Z2.0125
G0 X8.2437 Y-13.5056 
G1 X8.2437 Y-13.5056 Z0.7600 F75.
G1 X8.2397 Y-13.5107 Z0.7589 F25.
G1 X8.2358 Y-13.5172 Z0.7575
G1 X8.2327 Y-13.5241 Z0.7562
G1 X8.2305 Y-13.5313 Z0.7549
G1 X8.2291 Y-13.5387 Z0.7535
G1 X8.2287 Y-13.5462 Z0.7522
G1 X8.2291 Y-13.5538 Z0.7509
G1 X8.2305 Y-13.5612 Z0.7495
G1 X8.2327 Y-13.5684 Z0.7482
G1 X8.2358 Y-13.5753 Z0.7469
G1 X8.2397 Y-13.5817 Z0.7456
G1 X8.2444 Y-13.5877 Z0.7442
G1 X8.2497 Y-13.5930 Z0.7429
G1 X8.2557 Y-13.5977 Z0.7416
G1 X8.2621 Y-13.6016 Z0.7402
G1 X8.2690 Y-13.6047 Z0.7389
G1 X8.2762 Y-13.6069 Z0.7376
G1 X8.2836 Y-13.6083 Z0.7362
G1 X8.2912 Y-13.6087 Z0.7349
G1 X8.2987 Y-13.6083 Z0.7336
G1 X8.3061 Y-13.6069 Z0.7322
G1 X8.3133 Y-13.6047 Z0.7309
G1 X8.3202 Y-13.6016 Z0.7296
G1 X8.3267 Y-13.5977 Z0.7283
G1 X8.3326 Y-13.5930 Z0.7269
G1 X8.3379 Y-13.5877 Z0.7256
G1 X8.3426 Y-13.5817 Z0.7243
G1 X8.3465 Y-13.5753 Z0.7229
G1 X8.3496 Y-13.5684 Z0.7216
G1 X8.3518 Y-13.5612 Z0.7203
G1 X8.3532 Y-13.5538 Z0.7189
G1 X8.3537 Y-13.5462 Z0.7176
G1 X8.3532 Y-13.5387 Z0.7163
G1 X8.3518 Y-13.5313 Z0.7149
G1 X8.3496 Y-13.5241 Z0.7136
G1 X8.3465 Y-13.5172 Z0.7123
G1 X8.3426 Y-13.5107 Z0.7110
G1 X8.3379 Y-13.5048 Z0.7096
G1 X8.3326 Y-13.4994 Z0.7083
G1 X8.3267 Y-13.4948 Z0.7070
G1 X8.3202 Y-13.4909 Z0.7056
G1 X8.3133 Y-13.4878 Z0.7043
G1 X8.3061 Y-13.4855 Z0.7030
G1 X8.2987 Y-13.4842 Z0.7016
G1 X8.2912 Y-13.4837 Z0.7003
G1 X8.2836 Y-13.4842 Z0.6990
G1 X8.2762 Y-13.4855 Z0.6976
G1 X8.2690 Y-13.4878 Z0.6963
G1 X8.2621 Y-13.4909 Z0.6950
G1 X8.2557 Y-13.4948 Z0.6936
G1 X8.2497 Y-13.4994 Z0.6923
G1 X8.2444 Y-13.5048 Z0.6910
G1 X8.2397 Y-13.5107 Z0.6897
G1 X8.2358 Y-13.5172 Z0.6883
G1 X8.2327 Y-13.5241 Z0.6870
G1 X8.2305 Y-13.5313 Z0.6857
G1 X8.2291 Y-13.5387 Z0.6843
G1 X8.2287 Y-13.5462 Z0.6830
G1 X8.2291 Y-13.5538 Z0.6817
G1 X8.2305 Y-13.5612 Z0.6803
G1 X8.2327 Y-13.5684 Z0.6790
G1 X8.2358 Y-13.5753 Z0.6777
G1 X8.2397 Y-13.5817 Z0.6763
G1 X8.2444 Y-13.5877 Z0.6750
G1 X8.2497 Y-13.5930 Z0.6737
G1 X8.2557 Y-13.5977 Z0.6724
G1 X8.2621 Y-13.6016 Z0.6710
G1 X8.2690 Y-13.6047 Z0.6697
G1 X8.2762 Y-13.6069 Z0.6684
G1 X8.2836 Y-13.6083 Z0.6670
G1 X8.2912 Y-13.6087 Z0.6657
G1 X8.2987 Y-13.6083 Z0.6644
G1 X8.3061 Y-13.6069 Z0.6630
G1 X8.3133 Y-13.6047 Z0.6617
G1 X8.3202 Y-13.6016 Z0.6604
G1 X8.3267 Y-13.5977 Z0.6590
G1 X8.3326 Y-13.5930 Z0.6577
G1 X8.3379 Y-13.5877 Z0.6564
G1 X8.3426 Y-13.5817 Z0.6551
G1 X8.3465 Y-13.5753 Z0.6537
G1 X8.3496 Y-13.5684 Z0.6524
G1 X8.3518 Y-13.5612 Z0.6511
G1 X8.3532 Y-13.5538 Z0.6497
G1 X8.3537 Y-13.5462 Z0.6484
G1 X8.3532 Y-13.5387 Z0.6471
G1 X8.3518 Y-13.5313 Z0.6457
G1 X8.3496 Y-13.5241 Z0.6444
G1 X8.3465 Y-13.5172 Z0.6431
G1 X8.3426 Y-13.5107 Z0.6417
G1 X8.3379 Y-13.5048 Z0.6404
G1 X8.3326 Y-13.4994 Z0.6391
G1 X8.3267 Y-13.4948 Z0.6378
G1 X8.3202 Y-13.4909 Z0.6364
G1 X8.3133 Y-13.4878 Z0.6351
G1 X8.3061 Y-13.4855 Z0.6338
G1 X8.2987 Y-13.4842 Z0.6324
G1 X8.2912 Y-13.4837 Z0.6311
G1 X8.2836 Y-13.4842 Z0.6298
G1 X8.2762 Y-13.4855 Z0.6284
G1 X8.2690 Y-13.4878 Z0.6271
G1 X8.2621 Y-13.4909 Z0.6258
G1 X8.2557 Y-13.4948 Z0.6244
G1 X8.2497 Y-13.4994 Z0.6231
G1 X8.2444 Y-13.5048 Z0.6218
G1 X8.2397 Y-13.5107 Z0.6205
G1 X8.2358 Y-13.5172 Z0.6191
G1 X8.2327 Y-13.5241 Z0.6178
G1 X8.2305 Y-13.5313 Z0.6165
G1 X8.2291 Y-13.5387 Z0.6151
G1 X8.2287 Y-13.5462 Z0.6138
G1 X8.2291 Y-13.5538 Z0.6125
G1 X8.2305 Y-13.5612 Z0.6111
G1 X8.2327 Y-13.5684 Z0.6098
G1 X8.2358 Y-13.5753 Z0.6085
G1 X8.2397 Y-13.5817 Z0.6071
G1 X8.2444 Y-13.5877 Z0.6058
G1 X8.2497 Y-13.5930 Z0.6045
G1 X8.2557 Y-13.5977 Z0.6032
G1 X8.2621 Y-13.6016 Z0.6018
G1 X8.2690 Y-13.6047 Z0.6005
G1 X8.2762 Y-13.6069 Z0.5992
G1 X8.2836 Y-13.6083 Z0.5978
G1 X8.2912 Y-13.6087 Z0.5965
G1 X8.2987 Y-13.6083 Z0.5952
G1 X8.3061 Y-13.6069 Z0.5938
G1 X8.3133 Y-13.6047 Z0.5925
G1 X8.3202 Y-13.6016 Z0.5912
G1 X8.3267 Y-13.5977 Z0.5898
G1 X8.3326 Y-13.5930 Z0.5885
G1 X8.3379 Y-13.5877 Z0.5872
G1 X8.3426 Y-13.5817 Z0.5859
G1 X8.3465 Y-13.5753 Z0.5845
G1 X8.3496 Y-13.5684 Z0.5832
G1 X8.3518 Y-13.5612 Z0.5819
G1 X8.3532 Y-13.5538 Z0.5805
G1 X8.3537 Y-13.5462 Z0.5792
G1 X8.3532 Y-13.5387 Z0.5779
G1 X8.3518 Y-13.5313 Z0.5765
G1 X8.3496 Y-13.5241 Z0.5752
G1 X8.3465 Y-13.5172 Z0.5739
G1 X8.3426 Y-13.5107 Z0.5725
G1 X8.3379 Y-13.5048 Z0.5712
G1 X8.3326 Y-13.4994 Z0.5699
G1 X8.3267 Y-13.4948 Z0.5686
G1 X8.3202 Y-13.4909 Z0.5672
G1 X8.3133 Y-13.4878 Z0.5659
G1 X8.3061 Y-13.4855 Z0.5646
G1 X8.2987 Y-13.4842 Z0.5632
G1 X8.2912 Y-13.4837 Z0.5619
G1 X8.2836 Y-13.4842 Z0.5606
G1 X8.2762 Y-13.4855 Z0.5592
G1 X8.2690 Y-13.4878 Z0.5579
G1 X8.2621 Y-13.4909 Z0.5566
G1 X8.2557 Y-13.4948 Z0.5552
G1 X8.2497 Y-13.4994 Z0.5539
G1 X8.2444 Y-13.5048 Z0.5526
G1 X8.2397 Y-13.5107 Z0.5513
G1 X8.2358 Y-13.5172 Z0.5499
G1 X8.2327 Y-13.5241 Z0.5486
G1 X8.2305 Y-13.5313 Z0.5473
G1 X8.2291 Y-13.5387 Z0.5459
G1 X8.2287 Y-13.5462 Z0.5446
G1 X8.2291 Y-13.5538 Z0.5433
G1 X8.2305 Y-13.5612 Z0.5419
G1 X8.2327 Y-13.5684 Z0.5406
G1 X8.2358 Y-13.5753 Z0.5393
G1 X8.2397 Y-13.5817 Z0.5379
G1 X8.2444 Y-13.5877 Z0.5366
G1 X8.2497 Y-13.5930 Z0.5353
G1 X8.2557 Y-13.5977 Z0.5340
G1 X8.2621 Y-13.6016 Z0.5326
G1 X8.2690 Y-13.6047 Z0.5313
G1 X8.2762 Y-13.6069 Z0.5300
G1 X8.2836 Y-13.6083 Z0.5286
G1 X8.2912 Y-13.6087 Z0.5273
G1 X8.2987 Y-13.6083 Z0.5260
G1 X8.3061 Y-13.6069 Z0.5246
G1 X8.3133 Y-13.6047 Z0.5233
G1 X8.3202 Y-13.6016 Z0.5220
G1 X8.3267 Y-13.5977 Z0.5206
G1 X8.3326 Y-13.5930 Z0.5193
G1 X8.3379 Y-13.5877 Z0.5180
G1 X8.3426 Y-13.5817 Z0.5167
G1 X8.3465 Y-13.5753 Z0.5153
G1 X8.3496 Y-13.5684 Z0.5140
G1 X8.3518 Y-13.5612 Z0.5127
G1 X8.3532 Y-13.5538 Z0.5113
G1 X8.3537 Y-13.5462 Z0.5100
G1 X8.3532 Y-13.5408 Z0.5100
G1 X8.3518 Y-13.5355 Z0.5100
G1 X8.3495 Y-13.5306 Z0.5100
G1 X8.3464 Y-13.5261 Z0.5100
G1 X8.3425 Y-13.5223 Z0.5100
G1 X8.3380 Y-13.5192 Z0.5100
G1 X8.3331 Y-13.5169 Z0.5100
G1 X8.3278 Y-13.5155 Z0.5100
G1 X8.3224 Y-13.5150 Z0.5100
G1 X8.3170 Y-13.5155 Z0.5100
G1 X8.3117 Y-13.5169 Z0.5100
G1 X8.3068 Y-13.5192 Z0.5100
G1 X8.3023 Y-13.5223 Z0.5100
G1 X8.2985 Y-13.5261 Z0.5100
G1 X8.2953 Y-13.5306 Z0.5100
G1 X8.2930 Y-13.5355 Z0.5100
G1 X8.2916 Y-13.5408 Z0.5100
G1 X8.2912 Y-13.5462 Z0.5100
G1 X8.3289 Y-13.5462 Z0.5100 F40.
G1 X8.3289 Y-13.1738 Z0.5100
G1 X8.2534 Y-13.1738 Z0.5100
G1 X8.2534 Y-13.5462 Z0.5100
G1 X8.2912 Y-13.5462 Z0.5100
G1 X8.2912 Y-13.6287 Z0.5100
G1 X8.3489 Y-13.6287 Z0.5100
G3X8.4114Y-13.5662Z0.5100I0.0000J0.0625
G1 X8.4114 Y-13.1538 Z0.5100
G3X8.3489Y-13.0913Z0.5100I-0.0625J0.0000
G1 X8.2334 Y-13.0913 Z0.5100
G3X8.1709Y-13.1538Z0.5100I0.0000J-0.0625
G1 X8.1709 Y-13.5662 Z0.5100
G3X8.2334Y-13.6287Z0.5100I0.0625J0.0000
G1 X8.2912 Y-13.6287 Z0.5100
G0 Z4.0000
G0 X8.2912 Y-13.6287 
M5
G53 Z
X2Y0
