( MOP:  P90-PUP-Neck-front-01 )
( FILE: G:\Shared drives\AlloyProjectFiles\Customer CAD files\Alloy-Standard-Builds-CAM\s-in\PUPs\P90-PUP-Neck-front-01.nc)
G90
(  BEGIN TOOL LIST )
(  TOOL 11 - Downcut PT750 ROUGH - DESC: 0.7500 DIA, 2 FLUTE,  CARBIDE MAT )
(  ENDOF TOOL LIST )
( P90-PUP-Neck-front-01)
T11
S14000
M3
G0 Z4.0000
G0 X8.7023 Y-11.2727 
G1 X8.7023 Y-11.2727 Z1.7850 F75.
G1 X8.7023 Y-11.2727 Z1.7600 F50.
G1 X10.7734 Y-11.2727 Z1.3948
G1 X10.7734 Y-11.2171 Z1.3850
G1 X10.7734 Y-11.1614 Z1.3850 F150.
G1 X8.6934 Y-11.1614 Z1.3850
G1 X8.6934 Y-11.2727 Z1.3850
G1 X10.7734 Y-11.2727 Z1.3850
G1 X10.7734 Y-11.2171 Z1.3850
G1 X11.0209 Y-11.2171 Z1.3850
G1 X11.0209 Y-10.9139 Z1.3850
G1 X8.4459 Y-10.9139 Z1.3850
G1 X8.4459 Y-11.5202 Z1.3850
G1 X11.0209 Y-11.5202 Z1.3850
G1 X11.0209 Y-11.2171 Z1.3850
G1 X10.9767 Y-11.2171 Z1.4292
G1 X10.9767 Y-11.2171 Z1.4542
G0 Z1.7042
G0 X10.9767 Y-11.2171 
G0 Z1.7042
G0 X8.7023 Y-11.2727 
G1 X8.7023 Y-11.2727 Z1.4100 F75.
G1 X8.7023 Y-11.2727 Z1.3850 F50.
G1 X10.7734 Y-11.2727 Z1.0198
G1 X10.7734 Y-11.2171 Z1.0100
G1 X10.7734 Y-11.1614 Z1.0100 F150.
G1 X8.6934 Y-11.1614 Z1.0100
G1 X8.6934 Y-11.2727 Z1.0100
G1 X10.7734 Y-11.2727 Z1.0100
G1 X10.7734 Y-11.2171 Z1.0100
G1 X11.0209 Y-11.2171 Z1.0100
G1 X11.0209 Y-10.9139 Z1.0100
G1 X8.4459 Y-10.9139 Z1.0100
G1 X8.4459 Y-11.5202 Z1.0100
G1 X11.0209 Y-11.5202 Z1.0100
G1 X11.0209 Y-11.2171 Z1.0100
G1 X10.9767 Y-11.2171 Z1.0542
G1 X10.9767 Y-11.2171 Z1.0792
G0 Z4.0000
G0 X10.9767 Y-11.2171 
M5
G53 Z
X2Y0
