( MOP:  S-PUP-Neck-front-01 )
( FILE: G:\Shared drives\AlloyProjectFiles\Customer CAD files\Alloy-Standard-Builds-CAM\s-in\PUPs\S-PUP-Neck-front-01.nc)
G90
(  BEGIN TOOL LIST )
(  TOOL 4 - Downcut PT500 - DESC: 0.5000 DIA, 2 FLUTE,  CARBIDE MAT )
(  ENDOF TOOL LIST )
( S-PUP-Neck-front-01)
T04
S12000
M3
G0 Z4.0000
G0 X9.9019 Y-10.9789 
G1 X9.9019 Y-10.9789 Z1.7975 F75.
G1 X8.8371 Y-10.9789 Z1.6098 F50.
G1 X9.5282 Y-11.1641 Z1.4836
G1 X9.7330 Y-11.1641 Z1.4475
G1 X9.9378 Y-11.1641 Z1.4475 F100.
G1 X10.6288 Y-10.9789 Z1.4475
G1 X8.8371 Y-10.9789 Z1.4475
G1 X9.5282 Y-11.1641 Z1.4475
G1 X9.7330 Y-11.1641 Z1.4475
G1 X9.7330 Y-11.3291 Z1.4475
G1 X9.9595 Y-11.3291 Z1.4475
G1 X11.0563 Y-11.0352 Z1.4475
G17
G3X11.0271Y-10.8139Z1.4475I-0.0292J0.1087
G1 X8.4389 Y-10.8139 Z1.4475
G3X8.4097Y-11.0352Z1.4475I0.0000J-0.1126
G1 X9.5065 Y-11.3291 Z1.4475
G1 X9.7330 Y-11.3291 Z1.4475
G0 Z1.4850
G0 X9.7330 Y-11.3291 
G0 Z1.4850
G0 X9.9019 Y-10.9789 
G1 X8.8371 Y-10.9789 Z1.2973 F50.
G1 X9.5282 Y-11.1641 Z1.1711
G1 X9.7330 Y-11.1641 Z1.1350
G1 X9.9378 Y-11.1641 Z1.1350 F100.
G1 X10.6288 Y-10.9789 Z1.1350
G1 X8.8371 Y-10.9789 Z1.1350
G1 X9.5282 Y-11.1641 Z1.1350
G1 X9.7330 Y-11.1641 Z1.1350
G1 X9.7330 Y-11.3291 Z1.1350
G1 X9.9595 Y-11.3291 Z1.1350
G1 X11.0563 Y-11.0352 Z1.1350
G3X11.0271Y-10.8139Z1.1350I-0.0292J0.1087
G1 X8.4389 Y-10.8139 Z1.1350
G3X8.4097Y-11.0352Z1.1350I0.0000J-0.1126
G1 X9.5065 Y-11.3291 Z1.1350
G1 X9.7330 Y-11.3291 Z1.1350
G0 Z4.0000
G0 X9.7330 Y-11.3291 
M5
G53 Z
X2Y0
