( BEGIN FILE 04-front-prep-pt25-drill-lam.ncTNUM: -1 )
( Lefty:False Nunits:3 )
( cline: 9.733 delta:15.5 )
( start_unit: 1 num_units: 3)
( MOP:  04-front-prep-pt25-drill-lam )
( FILE: G:\Shared drives\AlloyProjectFiles\Customer CAD files\Alloy-Standard-Builds-CAM\s-in\04-front-prep-pt25-drill-lam.nc)
G90
(  BEGIN TOOL LIST )
(  TOOL 6 - Downcut PT250 - DESC: 0.2500 DIA, 2 FLUTE,  CARBIDE MAT )
(  ENDOF TOOL LIST )
( 04-front-prep-pt25-drill-lam)
( Max Depth 1.75)
T06
S12000
M3
G0 Z4.0000
G0 X14.7330 Y-22.4266 
G0 Z1.6000
G81 X14.7330 Y-22.4266 Z0.9500 R1.6000 F75.0
G80
G0 Z1.7500
G0 X4.7330 Y-22.4266 
G0 Z1.6000
G81 X4.7330 Y-22.4266 Z0.9500 R1.6000 F75.0
G80
G0 Z1.7500
G0 X3.4830 Y-11.6766 
G0 Z1.6000
G81 X3.4830 Y-11.6766 Z0.9500 R1.6000 F75.0
G80
G0 Z1.7500
G0 X15.9830 Y-11.6766 
G0 Z1.6000
G81 X15.9830 Y-11.6766 Z0.9500 R1.6000 F75.0
G80
G0 Z4.0000
G0 X15.9830 Y-11.6766 
M5
G53 Z
( MOP:  04-front-prep-pt25-drill-lam )
( FILE: G:\Shared drives\AlloyProjectFiles\Customer CAD files\Alloy-Standard-Builds-CAM\s-in\04-front-prep-pt25-drill-lam.nc)
G90
(  BEGIN TOOL LIST )
(  TOOL 6 - Downcut PT250 - DESC: 0.2500 DIA, 2 FLUTE,  CARBIDE MAT )
(  ENDOF TOOL LIST )
( 04-front-prep-pt25-drill-lam)
( Max Depth 1.75)
T06
S12000
M3
G0 Z4.0000
G0 X30.2330 Y-22.4266 
G0 Z1.6000
G81 X30.2330 Y-22.4266 Z0.9500 R1.6000 F75.0
G80
G0 Z1.7500
G0 X20.2330 Y-22.4266 
G0 Z1.6000
G81 X20.2330 Y-22.4266 Z0.9500 R1.6000 F75.0
G80
G0 Z1.7500
G0 X18.9830 Y-11.6766 
G0 Z1.6000
G81 X18.9830 Y-11.6766 Z0.9500 R1.6000 F75.0
G80
G0 Z1.7500
G0 X31.4830 Y-11.6766 
G0 Z1.6000
G81 X31.4830 Y-11.6766 Z0.9500 R1.6000 F75.0
G80
G0 Z4.0000
G0 X31.4830 Y-11.6766 
M5
G53 Z
( MOP:  04-front-prep-pt25-drill-lam )
( FILE: G:\Shared drives\AlloyProjectFiles\Customer CAD files\Alloy-Standard-Builds-CAM\s-in\04-front-prep-pt25-drill-lam.nc)
G90
(  BEGIN TOOL LIST )
(  TOOL 6 - Downcut PT250 - DESC: 0.2500 DIA, 2 FLUTE,  CARBIDE MAT )
(  ENDOF TOOL LIST )
( 04-front-prep-pt25-drill-lam)
( Max Depth 1.75)
T06
S12000
M3
G0 Z4.0000
G0 X45.7330 Y-22.4266 
G0 Z1.6000
G81 X45.7330 Y-22.4266 Z0.9500 R1.6000 F75.0
G80
G0 Z1.7500
G0 X35.7330 Y-22.4266 
G0 Z1.6000
G81 X35.7330 Y-22.4266 Z0.9500 R1.6000 F75.0
G80
G0 Z1.7500
G0 X34.4830 Y-11.6766 
G0 Z1.6000
G81 X34.4830 Y-11.6766 Z0.9500 R1.6000 F75.0
G80
G0 Z1.7500
G0 X46.9830 Y-11.6766 
G0 Z1.6000
G81 X46.9830 Y-11.6766 Z0.9500 R1.6000 F75.0
G80
G0 Z4.0000
G0 X46.9830 Y-11.6766 
M5
G53 Z
( END FILE 04-front-prep-pt25-drill-lam.nc )
