( BEGIN FILE 04-front-prep-01-facing-1pt50-lam-start.ncTNUM: -1 )
( Lefty:False Nunits:3 )
( cline: 9.733 delta:15.5 )
( start_unit: 1 num_units: 3)
( MOP:  04-front-prep-01-facing-1pt50-lam-start )
( FILE: G:\Shared drives\AlloyProjectFiles\Customer CAD files\Alloy-Standard-Builds-CAM\s-in\04-front-prep-01-facing-1pt50-lam-start.nc)
G90
(  BEGIN TOOL LIST )
(  TOOL 1 - Surface 2PT500 - DESC: 2.5000 DIA, 2 FLUTE,  CARBIDE MAT )
(  ENDOF TOOL LIST )
( 04-front-prep-01-facing-1pt50-lam-start)
T01
S12000
M3
G0 Z4.0000
G0 X2.4571 Y-0.5639 
G1 X2.4571 Y-0.5639 Z1.7700 F75.
G1 X1.7731 Y-2.4433 Z1.7700 F50.
G1 X1.1080 Y-4.2707 Z1.7700 F250.
G1 X1.1080 Y-6.0980 Z1.7700
G1 X2.4382 Y-2.4433 Z1.7700
G1 X3.1033 Y-2.4433 Z1.7700
G1 X1.1080 Y-7.9254 Z1.7700
G1 X1.1080 Y-9.7528 Z1.7700
G1 X3.7684 Y-2.4433 Z1.7700
G1 X4.4336 Y-2.4433 Z1.7700
G1 X1.1080 Y-11.5802 Z1.7700
G1 X1.1080 Y-13.4075 Z1.7700
G1 X5.0987 Y-2.4433 Z1.7700
G1 X5.7638 Y-2.4433 Z1.7700
G1 X1.1080 Y-15.2349 Z1.7700
G1 X1.1080 Y-17.0623 Z1.7700
G1 X6.4289 Y-2.4433 Z1.7700
G1 X7.0940 Y-2.4433 Z1.7700
G1 X1.1080 Y-18.8897 Z1.7700
G1 X1.1080 Y-20.7171 Z1.7700
G1 X7.7591 Y-2.4433 Z1.7700
G1 X8.4242 Y-2.4433 Z1.7700
G1 X1.1080 Y-22.5444 Z1.7700
G1 X1.1080 Y-24.3718 Z1.7700
G1 X9.0893 Y-2.4433 Z1.7700
G1 X9.7544 Y-2.4433 Z1.7700
G1 X1.3432 Y-25.5530 Z1.7700
G1 X1.3858 Y-25.5879 Z1.7700
G1 X1.4938 Y-25.6457 Z1.7700
G1 X1.6111 Y-25.6813 Z1.7700
G1 X1.7330 Y-25.6933 Z1.7700
G1 X1.9572 Y-25.6933 Z1.7700
G1 X10.4196 Y-2.4433 Z1.7700
G1 X11.0847 Y-2.4433 Z1.7700
G1 X2.6224 Y-25.6933 Z1.7700
G1 X3.2875 Y-25.6933 Z1.7700
G1 X11.7498 Y-2.4433 Z1.7700
G1 X12.4149 Y-2.4433 Z1.7700
G1 X3.9526 Y-25.6933 Z1.7700
G1 X4.6177 Y-25.6933 Z1.7700
G1 X13.0800 Y-2.4433 Z1.7700
G1 X13.7451 Y-2.4433 Z1.7700
G1 X5.2828 Y-25.6933 Z1.7700
G1 X5.9479 Y-25.6933 Z1.7700
G1 X14.4102 Y-2.4433 Z1.7700
G1 X15.0753 Y-2.4433 Z1.7700
G1 X6.6130 Y-25.6933 Z1.7700
G1 X7.2781 Y-25.6933 Z1.7700
G1 X15.7404 Y-2.4433 Z1.7700
G1 X16.4056 Y-2.4433 Z1.7700
G1 X7.9432 Y-25.6933 Z1.7700
G1 X8.6084 Y-25.6933 Z1.7700
G1 X17.0707 Y-2.4433 Z1.7700
G1 X17.7330 Y-2.4433 Z1.7700
G1 X17.7357 Y-2.4435 Z1.7700
G1 X9.2735 Y-25.6933 Z1.7700
G1 X9.9386 Y-25.6933 Z1.7700
G1 X18.2807 Y-2.7735 Z1.7700
G1 X18.3104 Y-2.8291 Z1.7700
G1 X18.3460 Y-2.9463 Z1.7700
G1 X18.3580 Y-3.0683 Z1.7700
G1 X18.3580 Y-4.3885 Z1.7700
G1 X10.6037 Y-25.6933 Z1.7700
G1 X11.2688 Y-25.6933 Z1.7700
G1 X18.3580 Y-6.2159 Z1.7700
G1 X18.3580 Y-8.0432 Z1.7700
G1 X11.9339 Y-25.6933 Z1.7700
G1 X12.5990 Y-25.6933 Z1.7700
G1 X18.3580 Y-9.8706 Z1.7700
G1 X18.3580 Y-11.6980 Z1.7700
G1 X13.2641 Y-25.6933 Z1.7700
G1 X13.9292 Y-25.6933 Z1.7700
G1 X18.3580 Y-13.5254 Z1.7700
G1 X18.3580 Y-15.3528 Z1.7700
G1 X14.5944 Y-25.6933 Z1.7700
G1 X15.2595 Y-25.6933 Z1.7700
G1 X18.3580 Y-17.1801 Z1.7700
G1 X18.3580 Y-19.0075 Z1.7700
G1 X15.9246 Y-25.6933 Z1.7700
G1 X16.5897 Y-25.6933 Z1.7700
G1 X18.3580 Y-20.8349 Z1.7700
G1 X18.3580 Y-22.6623 Z1.7700
G1 X17.2548 Y-25.6933 Z1.7700
G1 X17.7330 Y-25.6933 Z1.7700
G1 X17.8549 Y-25.6813 Z1.7700
G1 X17.9329 Y-25.6576 Z1.7700
G1 X18.3580 Y-24.4896 Z1.7700
G1 X19.0420 Y-22.6103 Z1.7700
G0 Z2.0200
G0 X19.0420 Y-22.6103 
G0 Z2.0200
G0 X2.4571 Y-0.5639 
G1 X2.4571 Y-0.5639 Z1.6400 F75.
G1 X1.7731 Y-2.4433 Z1.6400 F50.
G1 X1.1080 Y-4.2707 Z1.6400 F250.
G1 X1.1080 Y-6.0980 Z1.6400
G1 X2.4382 Y-2.4433 Z1.6400
G1 X3.1033 Y-2.4433 Z1.6400
G1 X1.1080 Y-7.9254 Z1.6400
G1 X1.1080 Y-9.7528 Z1.6400
G1 X3.7684 Y-2.4433 Z1.6400
G1 X4.4336 Y-2.4433 Z1.6400
G1 X1.1080 Y-11.5802 Z1.6400
G1 X1.1080 Y-13.4075 Z1.6400
G1 X5.0987 Y-2.4433 Z1.6400
G1 X5.7638 Y-2.4433 Z1.6400
G1 X1.1080 Y-15.2349 Z1.6400
G1 X1.1080 Y-17.0623 Z1.6400
G1 X6.4289 Y-2.4433 Z1.6400
G1 X7.0940 Y-2.4433 Z1.6400
G1 X1.1080 Y-18.8897 Z1.6400
G1 X1.1080 Y-20.7171 Z1.6400
G1 X7.7591 Y-2.4433 Z1.6400
G1 X8.4242 Y-2.4433 Z1.6400
G1 X1.1080 Y-22.5444 Z1.6400
G1 X1.1080 Y-24.3718 Z1.6400
G1 X9.0893 Y-2.4433 Z1.6400
G1 X9.7544 Y-2.4433 Z1.6400
G1 X1.3432 Y-25.5530 Z1.6400
G1 X1.3858 Y-25.5879 Z1.6400
G1 X1.4938 Y-25.6457 Z1.6400
G1 X1.6111 Y-25.6813 Z1.6400
G1 X1.7330 Y-25.6933 Z1.6400
G1 X1.9572 Y-25.6933 Z1.6400
G1 X10.4196 Y-2.4433 Z1.6400
G1 X11.0847 Y-2.4433 Z1.6400
G1 X2.6224 Y-25.6933 Z1.6400
G1 X3.2875 Y-25.6933 Z1.6400
G1 X11.7498 Y-2.4433 Z1.6400
G1 X12.4149 Y-2.4433 Z1.6400
G1 X3.9526 Y-25.6933 Z1.6400
G1 X4.6177 Y-25.6933 Z1.6400
G1 X13.0800 Y-2.4433 Z1.6400
G1 X13.7451 Y-2.4433 Z1.6400
G1 X5.2828 Y-25.6933 Z1.6400
G1 X5.9479 Y-25.6933 Z1.6400
G1 X14.4102 Y-2.4433 Z1.6400
G1 X15.0753 Y-2.4433 Z1.6400
G1 X6.6130 Y-25.6933 Z1.6400
G1 X7.2781 Y-25.6933 Z1.6400
G1 X15.7404 Y-2.4433 Z1.6400
G1 X16.4056 Y-2.4433 Z1.6400
G1 X7.9432 Y-25.6933 Z1.6400
G1 X8.6084 Y-25.6933 Z1.6400
G1 X17.0707 Y-2.4433 Z1.6400
G1 X17.7330 Y-2.4433 Z1.6400
G1 X17.7357 Y-2.4435 Z1.6400
G1 X9.2735 Y-25.6933 Z1.6400
G1 X9.9386 Y-25.6933 Z1.6400
G1 X18.2807 Y-2.7735 Z1.6400
G1 X18.3104 Y-2.8291 Z1.6400
G1 X18.3460 Y-2.9463 Z1.6400
G1 X18.3580 Y-3.0683 Z1.6400
G1 X18.3580 Y-4.3885 Z1.6400
G1 X10.6037 Y-25.6933 Z1.6400
G1 X11.2688 Y-25.6933 Z1.6400
G1 X18.3580 Y-6.2159 Z1.6400
G1 X18.3580 Y-8.0432 Z1.6400
G1 X11.9339 Y-25.6933 Z1.6400
G1 X12.5990 Y-25.6933 Z1.6400
G1 X18.3580 Y-9.8706 Z1.6400
G1 X18.3580 Y-11.6980 Z1.6400
G1 X13.2641 Y-25.6933 Z1.6400
G1 X13.9292 Y-25.6933 Z1.6400
G1 X18.3580 Y-13.5254 Z1.6400
G1 X18.3580 Y-15.3528 Z1.6400
G1 X14.5944 Y-25.6933 Z1.6400
G1 X15.2595 Y-25.6933 Z1.6400
G1 X18.3580 Y-17.1801 Z1.6400
G1 X18.3580 Y-19.0075 Z1.6400
G1 X15.9246 Y-25.6933 Z1.6400
G1 X16.5897 Y-25.6933 Z1.6400
G1 X18.3580 Y-20.8349 Z1.6400
G1 X18.3580 Y-22.6623 Z1.6400
G1 X17.2548 Y-25.6933 Z1.6400
G1 X17.7330 Y-25.6933 Z1.6400
G1 X17.8549 Y-25.6813 Z1.6400
G1 X17.9329 Y-25.6576 Z1.6400
G1 X18.3580 Y-24.4896 Z1.6400
G1 X19.0420 Y-22.6103 Z1.6400
G0 Z1.8900
G0 X19.0420 Y-22.6103 
G0 Z1.8900
G0 X2.4571 Y-0.5639 
G1 X2.4571 Y-0.5639 Z1.5100 F75.
G1 X1.7731 Y-2.4433 Z1.5100 F50.
G1 X1.1080 Y-4.2707 Z1.5100 F250.
G1 X1.1080 Y-6.0980 Z1.5100
G1 X2.4382 Y-2.4433 Z1.5100
G1 X3.1033 Y-2.4433 Z1.5100
G1 X1.1080 Y-7.9254 Z1.5100
G1 X1.1080 Y-9.7528 Z1.5100
G1 X3.7684 Y-2.4433 Z1.5100
G1 X4.4336 Y-2.4433 Z1.5100
G1 X1.1080 Y-11.5802 Z1.5100
G1 X1.1080 Y-13.4075 Z1.5100
G1 X5.0987 Y-2.4433 Z1.5100
G1 X5.7638 Y-2.4433 Z1.5100
G1 X1.1080 Y-15.2349 Z1.5100
G1 X1.1080 Y-17.0623 Z1.5100
G1 X6.4289 Y-2.4433 Z1.5100
G1 X7.0940 Y-2.4433 Z1.5100
G1 X1.1080 Y-18.8897 Z1.5100
G1 X1.1080 Y-20.7171 Z1.5100
G1 X7.7591 Y-2.4433 Z1.5100
G1 X8.4242 Y-2.4433 Z1.5100
G1 X1.1080 Y-22.5444 Z1.5100
G1 X1.1080 Y-24.3718 Z1.5100
G1 X9.0893 Y-2.4433 Z1.5100
G1 X9.7544 Y-2.4433 Z1.5100
G1 X1.3432 Y-25.5530 Z1.5100
G1 X1.3858 Y-25.5879 Z1.5100
G1 X1.4938 Y-25.6457 Z1.5100
G1 X1.6111 Y-25.6813 Z1.5100
G1 X1.7330 Y-25.6933 Z1.5100
G1 X1.9572 Y-25.6933 Z1.5100
G1 X10.4196 Y-2.4433 Z1.5100
G1 X11.0847 Y-2.4433 Z1.5100
G1 X2.6224 Y-25.6933 Z1.5100
G1 X3.2875 Y-25.6933 Z1.5100
G1 X11.7498 Y-2.4433 Z1.5100
G1 X12.4149 Y-2.4433 Z1.5100
G1 X3.9526 Y-25.6933 Z1.5100
G1 X4.6177 Y-25.6933 Z1.5100
G1 X13.0800 Y-2.4433 Z1.5100
G1 X13.7451 Y-2.4433 Z1.5100
G1 X5.2828 Y-25.6933 Z1.5100
G1 X5.9479 Y-25.6933 Z1.5100
G1 X14.4102 Y-2.4433 Z1.5100
G1 X15.0753 Y-2.4433 Z1.5100
G1 X6.6130 Y-25.6933 Z1.5100
G1 X7.2781 Y-25.6933 Z1.5100
G1 X15.7404 Y-2.4433 Z1.5100
G1 X16.4056 Y-2.4433 Z1.5100
G1 X7.9432 Y-25.6933 Z1.5100
G1 X8.6084 Y-25.6933 Z1.5100
G1 X17.0707 Y-2.4433 Z1.5100
G1 X17.7330 Y-2.4433 Z1.5100
G1 X17.7357 Y-2.4435 Z1.5100
G1 X9.2735 Y-25.6933 Z1.5100
G1 X9.9386 Y-25.6933 Z1.5100
G1 X18.2807 Y-2.7735 Z1.5100
G1 X18.3104 Y-2.8291 Z1.5100
G1 X18.3460 Y-2.9463 Z1.5100
G1 X18.3580 Y-3.0683 Z1.5100
G1 X18.3580 Y-4.3885 Z1.5100
G1 X10.6037 Y-25.6933 Z1.5100
G1 X11.2688 Y-25.6933 Z1.5100
G1 X18.3580 Y-6.2159 Z1.5100
G1 X18.3580 Y-8.0432 Z1.5100
G1 X11.9339 Y-25.6933 Z1.5100
G1 X12.5990 Y-25.6933 Z1.5100
G1 X18.3580 Y-9.8706 Z1.5100
G1 X18.3580 Y-11.6980 Z1.5100
G1 X13.2641 Y-25.6933 Z1.5100
G1 X13.9292 Y-25.6933 Z1.5100
G1 X18.3580 Y-13.5254 Z1.5100
G1 X18.3580 Y-15.3528 Z1.5100
G1 X14.5944 Y-25.6933 Z1.5100
G1 X15.2595 Y-25.6933 Z1.5100
G1 X18.3580 Y-17.1801 Z1.5100
G1 X18.3580 Y-19.0075 Z1.5100
G1 X15.9246 Y-25.6933 Z1.5100
G1 X16.5897 Y-25.6933 Z1.5100
G1 X18.3580 Y-20.8349 Z1.5100
G1 X18.3580 Y-22.6623 Z1.5100
G1 X17.2548 Y-25.6933 Z1.5100
G1 X17.7330 Y-25.6933 Z1.5100
G1 X17.8549 Y-25.6813 Z1.5100
G1 X17.9329 Y-25.6576 Z1.5100
G1 X18.3580 Y-24.4896 Z1.5100
G1 X19.0420 Y-22.6103 Z1.5100
G0 Z4.0000
G0 X19.0420 Y-22.6103 
M5
G53 Z
( MOP:  04-front-prep-01-facing-1pt50-lam-start )
( FILE: G:\Shared drives\AlloyProjectFiles\Customer CAD files\Alloy-Standard-Builds-CAM\s-in\04-front-prep-01-facing-1pt50-lam-start.nc)
G90
(  BEGIN TOOL LIST )
(  TOOL 1 - Surface 2PT500 - DESC: 2.5000 DIA, 2 FLUTE,  CARBIDE MAT )
(  ENDOF TOOL LIST )
( 04-front-prep-01-facing-1pt50-lam-start)
T01
S12000
M3
G0 Z4.0000
G0 X17.9571 Y-0.5639 
G1 X17.9571 Y-0.5639 Z1.7700 F75.
G1 X17.2731 Y-2.4433 Z1.7700 F50.
G1 X16.6080 Y-4.2707 Z1.7700 F250.
G1 X16.6080 Y-6.0980 Z1.7700
G1 X17.9382 Y-2.4433 Z1.7700
G1 X18.6033 Y-2.4433 Z1.7700
G1 X16.6080 Y-7.9254 Z1.7700
G1 X16.6080 Y-9.7528 Z1.7700
G1 X19.2684 Y-2.4433 Z1.7700
G1 X19.9336 Y-2.4433 Z1.7700
G1 X16.6080 Y-11.5802 Z1.7700
G1 X16.6080 Y-13.4075 Z1.7700
G1 X20.5987 Y-2.4433 Z1.7700
G1 X21.2638 Y-2.4433 Z1.7700
G1 X16.6080 Y-15.2349 Z1.7700
G1 X16.6080 Y-17.0623 Z1.7700
G1 X21.9289 Y-2.4433 Z1.7700
G1 X22.5940 Y-2.4433 Z1.7700
G1 X16.6080 Y-18.8897 Z1.7700
G1 X16.6080 Y-20.7171 Z1.7700
G1 X23.2591 Y-2.4433 Z1.7700
G1 X23.9242 Y-2.4433 Z1.7700
G1 X16.6080 Y-22.5444 Z1.7700
G1 X16.6080 Y-24.3718 Z1.7700
G1 X24.5893 Y-2.4433 Z1.7700
G1 X25.2544 Y-2.4433 Z1.7700
G1 X16.8432 Y-25.5530 Z1.7700
G1 X16.8858 Y-25.5879 Z1.7700
G1 X16.9938 Y-25.6457 Z1.7700
G1 X17.1111 Y-25.6813 Z1.7700
G1 X17.2330 Y-25.6933 Z1.7700
G1 X17.4572 Y-25.6933 Z1.7700
G1 X25.9196 Y-2.4433 Z1.7700
G1 X26.5847 Y-2.4433 Z1.7700
G1 X18.1224 Y-25.6933 Z1.7700
G1 X18.7875 Y-25.6933 Z1.7700
G1 X27.2498 Y-2.4433 Z1.7700
G1 X27.9149 Y-2.4433 Z1.7700
G1 X19.4526 Y-25.6933 Z1.7700
G1 X20.1177 Y-25.6933 Z1.7700
G1 X28.5800 Y-2.4433 Z1.7700
G1 X29.2451 Y-2.4433 Z1.7700
G1 X20.7828 Y-25.6933 Z1.7700
G1 X21.4479 Y-25.6933 Z1.7700
G1 X29.9102 Y-2.4433 Z1.7700
G1 X30.5753 Y-2.4433 Z1.7700
G1 X22.1130 Y-25.6933 Z1.7700
G1 X22.7781 Y-25.6933 Z1.7700
G1 X31.2404 Y-2.4433 Z1.7700
G1 X31.9056 Y-2.4433 Z1.7700
G1 X23.4432 Y-25.6933 Z1.7700
G1 X24.1084 Y-25.6933 Z1.7700
G1 X32.5707 Y-2.4433 Z1.7700
G1 X33.2330 Y-2.4433 Z1.7700
G1 X33.2357 Y-2.4435 Z1.7700
G1 X24.7735 Y-25.6933 Z1.7700
G1 X25.4386 Y-25.6933 Z1.7700
G1 X33.7807 Y-2.7735 Z1.7700
G1 X33.8104 Y-2.8291 Z1.7700
G1 X33.8460 Y-2.9463 Z1.7700
G1 X33.8580 Y-3.0683 Z1.7700
G1 X33.8580 Y-4.3885 Z1.7700
G1 X26.1037 Y-25.6933 Z1.7700
G1 X26.7688 Y-25.6933 Z1.7700
G1 X33.8580 Y-6.2159 Z1.7700
G1 X33.8580 Y-8.0432 Z1.7700
G1 X27.4339 Y-25.6933 Z1.7700
G1 X28.0990 Y-25.6933 Z1.7700
G1 X33.8580 Y-9.8706 Z1.7700
G1 X33.8580 Y-11.6980 Z1.7700
G1 X28.7641 Y-25.6933 Z1.7700
G1 X29.4292 Y-25.6933 Z1.7700
G1 X33.8580 Y-13.5254 Z1.7700
G1 X33.8580 Y-15.3528 Z1.7700
G1 X30.0944 Y-25.6933 Z1.7700
G1 X30.7595 Y-25.6933 Z1.7700
G1 X33.8580 Y-17.1801 Z1.7700
G1 X33.8580 Y-19.0075 Z1.7700
G1 X31.4246 Y-25.6933 Z1.7700
G1 X32.0897 Y-25.6933 Z1.7700
G1 X33.8580 Y-20.8349 Z1.7700
G1 X33.8580 Y-22.6623 Z1.7700
G1 X32.7548 Y-25.6933 Z1.7700
G1 X33.2330 Y-25.6933 Z1.7700
G1 X33.3549 Y-25.6813 Z1.7700
G1 X33.4329 Y-25.6576 Z1.7700
G1 X33.8580 Y-24.4896 Z1.7700
G1 X34.5420 Y-22.6103 Z1.7700
G0 Z2.0200
G0 X34.5420 Y-22.6103 
G0 Z2.0200
G0 X17.9571 Y-0.5639 
G1 X17.9571 Y-0.5639 Z1.6400 F75.
G1 X17.2731 Y-2.4433 Z1.6400 F50.
G1 X16.6080 Y-4.2707 Z1.6400 F250.
G1 X16.6080 Y-6.0980 Z1.6400
G1 X17.9382 Y-2.4433 Z1.6400
G1 X18.6033 Y-2.4433 Z1.6400
G1 X16.6080 Y-7.9254 Z1.6400
G1 X16.6080 Y-9.7528 Z1.6400
G1 X19.2684 Y-2.4433 Z1.6400
G1 X19.9336 Y-2.4433 Z1.6400
G1 X16.6080 Y-11.5802 Z1.6400
G1 X16.6080 Y-13.4075 Z1.6400
G1 X20.5987 Y-2.4433 Z1.6400
G1 X21.2638 Y-2.4433 Z1.6400
G1 X16.6080 Y-15.2349 Z1.6400
G1 X16.6080 Y-17.0623 Z1.6400
G1 X21.9289 Y-2.4433 Z1.6400
G1 X22.5940 Y-2.4433 Z1.6400
G1 X16.6080 Y-18.8897 Z1.6400
G1 X16.6080 Y-20.7171 Z1.6400
G1 X23.2591 Y-2.4433 Z1.6400
G1 X23.9242 Y-2.4433 Z1.6400
G1 X16.6080 Y-22.5444 Z1.6400
G1 X16.6080 Y-24.3718 Z1.6400
G1 X24.5893 Y-2.4433 Z1.6400
G1 X25.2544 Y-2.4433 Z1.6400
G1 X16.8432 Y-25.5530 Z1.6400
G1 X16.8858 Y-25.5879 Z1.6400
G1 X16.9938 Y-25.6457 Z1.6400
G1 X17.1111 Y-25.6813 Z1.6400
G1 X17.2330 Y-25.6933 Z1.6400
G1 X17.4572 Y-25.6933 Z1.6400
G1 X25.9196 Y-2.4433 Z1.6400
G1 X26.5847 Y-2.4433 Z1.6400
G1 X18.1224 Y-25.6933 Z1.6400
G1 X18.7875 Y-25.6933 Z1.6400
G1 X27.2498 Y-2.4433 Z1.6400
G1 X27.9149 Y-2.4433 Z1.6400
G1 X19.4526 Y-25.6933 Z1.6400
G1 X20.1177 Y-25.6933 Z1.6400
G1 X28.5800 Y-2.4433 Z1.6400
G1 X29.2451 Y-2.4433 Z1.6400
G1 X20.7828 Y-25.6933 Z1.6400
G1 X21.4479 Y-25.6933 Z1.6400
G1 X29.9102 Y-2.4433 Z1.6400
G1 X30.5753 Y-2.4433 Z1.6400
G1 X22.1130 Y-25.6933 Z1.6400
G1 X22.7781 Y-25.6933 Z1.6400
G1 X31.2404 Y-2.4433 Z1.6400
G1 X31.9056 Y-2.4433 Z1.6400
G1 X23.4432 Y-25.6933 Z1.6400
G1 X24.1084 Y-25.6933 Z1.6400
G1 X32.5707 Y-2.4433 Z1.6400
G1 X33.2330 Y-2.4433 Z1.6400
G1 X33.2357 Y-2.4435 Z1.6400
G1 X24.7735 Y-25.6933 Z1.6400
G1 X25.4386 Y-25.6933 Z1.6400
G1 X33.7807 Y-2.7735 Z1.6400
G1 X33.8104 Y-2.8291 Z1.6400
G1 X33.8460 Y-2.9463 Z1.6400
G1 X33.8580 Y-3.0683 Z1.6400
G1 X33.8580 Y-4.3885 Z1.6400
G1 X26.1037 Y-25.6933 Z1.6400
G1 X26.7688 Y-25.6933 Z1.6400
G1 X33.8580 Y-6.2159 Z1.6400
G1 X33.8580 Y-8.0432 Z1.6400
G1 X27.4339 Y-25.6933 Z1.6400
G1 X28.0990 Y-25.6933 Z1.6400
G1 X33.8580 Y-9.8706 Z1.6400
G1 X33.8580 Y-11.6980 Z1.6400
G1 X28.7641 Y-25.6933 Z1.6400
G1 X29.4292 Y-25.6933 Z1.6400
G1 X33.8580 Y-13.5254 Z1.6400
G1 X33.8580 Y-15.3528 Z1.6400
G1 X30.0944 Y-25.6933 Z1.6400
G1 X30.7595 Y-25.6933 Z1.6400
G1 X33.8580 Y-17.1801 Z1.6400
G1 X33.8580 Y-19.0075 Z1.6400
G1 X31.4246 Y-25.6933 Z1.6400
G1 X32.0897 Y-25.6933 Z1.6400
G1 X33.8580 Y-20.8349 Z1.6400
G1 X33.8580 Y-22.6623 Z1.6400
G1 X32.7548 Y-25.6933 Z1.6400
G1 X33.2330 Y-25.6933 Z1.6400
G1 X33.3549 Y-25.6813 Z1.6400
G1 X33.4329 Y-25.6576 Z1.6400
G1 X33.8580 Y-24.4896 Z1.6400
G1 X34.5420 Y-22.6103 Z1.6400
G0 Z1.8900
G0 X34.5420 Y-22.6103 
G0 Z1.8900
G0 X17.9571 Y-0.5639 
G1 X17.9571 Y-0.5639 Z1.5100 F75.
G1 X17.2731 Y-2.4433 Z1.5100 F50.
G1 X16.6080 Y-4.2707 Z1.5100 F250.
G1 X16.6080 Y-6.0980 Z1.5100
G1 X17.9382 Y-2.4433 Z1.5100
G1 X18.6033 Y-2.4433 Z1.5100
G1 X16.6080 Y-7.9254 Z1.5100
G1 X16.6080 Y-9.7528 Z1.5100
G1 X19.2684 Y-2.4433 Z1.5100
G1 X19.9336 Y-2.4433 Z1.5100
G1 X16.6080 Y-11.5802 Z1.5100
G1 X16.6080 Y-13.4075 Z1.5100
G1 X20.5987 Y-2.4433 Z1.5100
G1 X21.2638 Y-2.4433 Z1.5100
G1 X16.6080 Y-15.2349 Z1.5100
G1 X16.6080 Y-17.0623 Z1.5100
G1 X21.9289 Y-2.4433 Z1.5100
G1 X22.5940 Y-2.4433 Z1.5100
G1 X16.6080 Y-18.8897 Z1.5100
G1 X16.6080 Y-20.7171 Z1.5100
G1 X23.2591 Y-2.4433 Z1.5100
G1 X23.9242 Y-2.4433 Z1.5100
G1 X16.6080 Y-22.5444 Z1.5100
G1 X16.6080 Y-24.3718 Z1.5100
G1 X24.5893 Y-2.4433 Z1.5100
G1 X25.2544 Y-2.4433 Z1.5100
G1 X16.8432 Y-25.5530 Z1.5100
G1 X16.8858 Y-25.5879 Z1.5100
G1 X16.9938 Y-25.6457 Z1.5100
G1 X17.1111 Y-25.6813 Z1.5100
G1 X17.2330 Y-25.6933 Z1.5100
G1 X17.4572 Y-25.6933 Z1.5100
G1 X25.9196 Y-2.4433 Z1.5100
G1 X26.5847 Y-2.4433 Z1.5100
G1 X18.1224 Y-25.6933 Z1.5100
G1 X18.7875 Y-25.6933 Z1.5100
G1 X27.2498 Y-2.4433 Z1.5100
G1 X27.9149 Y-2.4433 Z1.5100
G1 X19.4526 Y-25.6933 Z1.5100
G1 X20.1177 Y-25.6933 Z1.5100
G1 X28.5800 Y-2.4433 Z1.5100
G1 X29.2451 Y-2.4433 Z1.5100
G1 X20.7828 Y-25.6933 Z1.5100
G1 X21.4479 Y-25.6933 Z1.5100
G1 X29.9102 Y-2.4433 Z1.5100
G1 X30.5753 Y-2.4433 Z1.5100
G1 X22.1130 Y-25.6933 Z1.5100
G1 X22.7781 Y-25.6933 Z1.5100
G1 X31.2404 Y-2.4433 Z1.5100
G1 X31.9056 Y-2.4433 Z1.5100
G1 X23.4432 Y-25.6933 Z1.5100
G1 X24.1084 Y-25.6933 Z1.5100
G1 X32.5707 Y-2.4433 Z1.5100
G1 X33.2330 Y-2.4433 Z1.5100
G1 X33.2357 Y-2.4435 Z1.5100
G1 X24.7735 Y-25.6933 Z1.5100
G1 X25.4386 Y-25.6933 Z1.5100
G1 X33.7807 Y-2.7735 Z1.5100
G1 X33.8104 Y-2.8291 Z1.5100
G1 X33.8460 Y-2.9463 Z1.5100
G1 X33.8580 Y-3.0683 Z1.5100
G1 X33.8580 Y-4.3885 Z1.5100
G1 X26.1037 Y-25.6933 Z1.5100
G1 X26.7688 Y-25.6933 Z1.5100
G1 X33.8580 Y-6.2159 Z1.5100
G1 X33.8580 Y-8.0432 Z1.5100
G1 X27.4339 Y-25.6933 Z1.5100
G1 X28.0990 Y-25.6933 Z1.5100
G1 X33.8580 Y-9.8706 Z1.5100
G1 X33.8580 Y-11.6980 Z1.5100
G1 X28.7641 Y-25.6933 Z1.5100
G1 X29.4292 Y-25.6933 Z1.5100
G1 X33.8580 Y-13.5254 Z1.5100
G1 X33.8580 Y-15.3528 Z1.5100
G1 X30.0944 Y-25.6933 Z1.5100
G1 X30.7595 Y-25.6933 Z1.5100
G1 X33.8580 Y-17.1801 Z1.5100
G1 X33.8580 Y-19.0075 Z1.5100
G1 X31.4246 Y-25.6933 Z1.5100
G1 X32.0897 Y-25.6933 Z1.5100
G1 X33.8580 Y-20.8349 Z1.5100
G1 X33.8580 Y-22.6623 Z1.5100
G1 X32.7548 Y-25.6933 Z1.5100
G1 X33.2330 Y-25.6933 Z1.5100
G1 X33.3549 Y-25.6813 Z1.5100
G1 X33.4329 Y-25.6576 Z1.5100
G1 X33.8580 Y-24.4896 Z1.5100
G1 X34.5420 Y-22.6103 Z1.5100
G0 Z4.0000
G0 X34.5420 Y-22.6103 
M5
G53 Z
( MOP:  04-front-prep-01-facing-1pt50-lam-start )
( FILE: G:\Shared drives\AlloyProjectFiles\Customer CAD files\Alloy-Standard-Builds-CAM\s-in\04-front-prep-01-facing-1pt50-lam-start.nc)
G90
(  BEGIN TOOL LIST )
(  TOOL 1 - Surface 2PT500 - DESC: 2.5000 DIA, 2 FLUTE,  CARBIDE MAT )
(  ENDOF TOOL LIST )
( 04-front-prep-01-facing-1pt50-lam-start)
T01
S12000
M3
G0 Z4.0000
G0 X33.4571 Y-0.5639 
G1 X33.4571 Y-0.5639 Z1.7700 F75.
G1 X32.7731 Y-2.4433 Z1.7700 F50.
G1 X32.1080 Y-4.2707 Z1.7700 F250.
G1 X32.1080 Y-6.0980 Z1.7700
G1 X33.4382 Y-2.4433 Z1.7700
G1 X34.1033 Y-2.4433 Z1.7700
G1 X32.1080 Y-7.9254 Z1.7700
G1 X32.1080 Y-9.7528 Z1.7700
G1 X34.7684 Y-2.4433 Z1.7700
G1 X35.4336 Y-2.4433 Z1.7700
G1 X32.1080 Y-11.5802 Z1.7700
G1 X32.1080 Y-13.4075 Z1.7700
G1 X36.0987 Y-2.4433 Z1.7700
G1 X36.7638 Y-2.4433 Z1.7700
G1 X32.1080 Y-15.2349 Z1.7700
G1 X32.1080 Y-17.0623 Z1.7700
G1 X37.4289 Y-2.4433 Z1.7700
G1 X38.0940 Y-2.4433 Z1.7700
G1 X32.1080 Y-18.8897 Z1.7700
G1 X32.1080 Y-20.7171 Z1.7700
G1 X38.7591 Y-2.4433 Z1.7700
G1 X39.4242 Y-2.4433 Z1.7700
G1 X32.1080 Y-22.5444 Z1.7700
G1 X32.1080 Y-24.3718 Z1.7700
G1 X40.0893 Y-2.4433 Z1.7700
G1 X40.7544 Y-2.4433 Z1.7700
G1 X32.3432 Y-25.5530 Z1.7700
G1 X32.3858 Y-25.5879 Z1.7700
G1 X32.4938 Y-25.6457 Z1.7700
G1 X32.6111 Y-25.6813 Z1.7700
G1 X32.7330 Y-25.6933 Z1.7700
G1 X32.9572 Y-25.6933 Z1.7700
G1 X41.4196 Y-2.4433 Z1.7700
G1 X42.0847 Y-2.4433 Z1.7700
G1 X33.6224 Y-25.6933 Z1.7700
G1 X34.2875 Y-25.6933 Z1.7700
G1 X42.7498 Y-2.4433 Z1.7700
G1 X43.4149 Y-2.4433 Z1.7700
G1 X34.9526 Y-25.6933 Z1.7700
G1 X35.6177 Y-25.6933 Z1.7700
G1 X44.0800 Y-2.4433 Z1.7700
G1 X44.7451 Y-2.4433 Z1.7700
G1 X36.2828 Y-25.6933 Z1.7700
G1 X36.9479 Y-25.6933 Z1.7700
G1 X45.4102 Y-2.4433 Z1.7700
G1 X46.0753 Y-2.4433 Z1.7700
G1 X37.6130 Y-25.6933 Z1.7700
G1 X38.2781 Y-25.6933 Z1.7700
G1 X46.7404 Y-2.4433 Z1.7700
G1 X47.4056 Y-2.4433 Z1.7700
G1 X38.9432 Y-25.6933 Z1.7700
G1 X39.6084 Y-25.6933 Z1.7700
G1 X48.0707 Y-2.4433 Z1.7700
G1 X48.7330 Y-2.4433 Z1.7700
G1 X48.7357 Y-2.4435 Z1.7700
G1 X40.2735 Y-25.6933 Z1.7700
G1 X40.9386 Y-25.6933 Z1.7700
G1 X49.2807 Y-2.7735 Z1.7700
G1 X49.3104 Y-2.8291 Z1.7700
G1 X49.3460 Y-2.9463 Z1.7700
G1 X49.3580 Y-3.0683 Z1.7700
G1 X49.3580 Y-4.3885 Z1.7700
G1 X41.6037 Y-25.6933 Z1.7700
G1 X42.2688 Y-25.6933 Z1.7700
G1 X49.3580 Y-6.2159 Z1.7700
G1 X49.3580 Y-8.0432 Z1.7700
G1 X42.9339 Y-25.6933 Z1.7700
G1 X43.5990 Y-25.6933 Z1.7700
G1 X49.3580 Y-9.8706 Z1.7700
G1 X49.3580 Y-11.6980 Z1.7700
G1 X44.2641 Y-25.6933 Z1.7700
G1 X44.9292 Y-25.6933 Z1.7700
G1 X49.3580 Y-13.5254 Z1.7700
G1 X49.3580 Y-15.3528 Z1.7700
G1 X45.5944 Y-25.6933 Z1.7700
G1 X46.2595 Y-25.6933 Z1.7700
G1 X49.3580 Y-17.1801 Z1.7700
G1 X49.3580 Y-19.0075 Z1.7700
G1 X46.9246 Y-25.6933 Z1.7700
G1 X47.5897 Y-25.6933 Z1.7700
G1 X49.3580 Y-20.8349 Z1.7700
G1 X49.3580 Y-22.6623 Z1.7700
G1 X48.2548 Y-25.6933 Z1.7700
G1 X48.7330 Y-25.6933 Z1.7700
G1 X48.8549 Y-25.6813 Z1.7700
G1 X48.9329 Y-25.6576 Z1.7700
G1 X49.3580 Y-24.4896 Z1.7700
G1 X50.0420 Y-22.6103 Z1.7700
G0 Z2.0200
G0 X50.0420 Y-22.6103 
G0 Z2.0200
G0 X33.4571 Y-0.5639 
G1 X33.4571 Y-0.5639 Z1.6400 F75.
G1 X32.7731 Y-2.4433 Z1.6400 F50.
G1 X32.1080 Y-4.2707 Z1.6400 F250.
G1 X32.1080 Y-6.0980 Z1.6400
G1 X33.4382 Y-2.4433 Z1.6400
G1 X34.1033 Y-2.4433 Z1.6400
G1 X32.1080 Y-7.9254 Z1.6400
G1 X32.1080 Y-9.7528 Z1.6400
G1 X34.7684 Y-2.4433 Z1.6400
G1 X35.4336 Y-2.4433 Z1.6400
G1 X32.1080 Y-11.5802 Z1.6400
G1 X32.1080 Y-13.4075 Z1.6400
G1 X36.0987 Y-2.4433 Z1.6400
G1 X36.7638 Y-2.4433 Z1.6400
G1 X32.1080 Y-15.2349 Z1.6400
G1 X32.1080 Y-17.0623 Z1.6400
G1 X37.4289 Y-2.4433 Z1.6400
G1 X38.0940 Y-2.4433 Z1.6400
G1 X32.1080 Y-18.8897 Z1.6400
G1 X32.1080 Y-20.7171 Z1.6400
G1 X38.7591 Y-2.4433 Z1.6400
G1 X39.4242 Y-2.4433 Z1.6400
G1 X32.1080 Y-22.5444 Z1.6400
G1 X32.1080 Y-24.3718 Z1.6400
G1 X40.0893 Y-2.4433 Z1.6400
G1 X40.7544 Y-2.4433 Z1.6400
G1 X32.3432 Y-25.5530 Z1.6400
G1 X32.3858 Y-25.5879 Z1.6400
G1 X32.4938 Y-25.6457 Z1.6400
G1 X32.6111 Y-25.6813 Z1.6400
G1 X32.7330 Y-25.6933 Z1.6400
G1 X32.9572 Y-25.6933 Z1.6400
G1 X41.4196 Y-2.4433 Z1.6400
G1 X42.0847 Y-2.4433 Z1.6400
G1 X33.6224 Y-25.6933 Z1.6400
G1 X34.2875 Y-25.6933 Z1.6400
G1 X42.7498 Y-2.4433 Z1.6400
G1 X43.4149 Y-2.4433 Z1.6400
G1 X34.9526 Y-25.6933 Z1.6400
G1 X35.6177 Y-25.6933 Z1.6400
G1 X44.0800 Y-2.4433 Z1.6400
G1 X44.7451 Y-2.4433 Z1.6400
G1 X36.2828 Y-25.6933 Z1.6400
G1 X36.9479 Y-25.6933 Z1.6400
G1 X45.4102 Y-2.4433 Z1.6400
G1 X46.0753 Y-2.4433 Z1.6400
G1 X37.6130 Y-25.6933 Z1.6400
G1 X38.2781 Y-25.6933 Z1.6400
G1 X46.7404 Y-2.4433 Z1.6400
G1 X47.4056 Y-2.4433 Z1.6400
G1 X38.9432 Y-25.6933 Z1.6400
G1 X39.6084 Y-25.6933 Z1.6400
G1 X48.0707 Y-2.4433 Z1.6400
G1 X48.7330 Y-2.4433 Z1.6400
G1 X48.7357 Y-2.4435 Z1.6400
G1 X40.2735 Y-25.6933 Z1.6400
G1 X40.9386 Y-25.6933 Z1.6400
G1 X49.2807 Y-2.7735 Z1.6400
G1 X49.3104 Y-2.8291 Z1.6400
G1 X49.3460 Y-2.9463 Z1.6400
G1 X49.3580 Y-3.0683 Z1.6400
G1 X49.3580 Y-4.3885 Z1.6400
G1 X41.6037 Y-25.6933 Z1.6400
G1 X42.2688 Y-25.6933 Z1.6400
G1 X49.3580 Y-6.2159 Z1.6400
G1 X49.3580 Y-8.0432 Z1.6400
G1 X42.9339 Y-25.6933 Z1.6400
G1 X43.5990 Y-25.6933 Z1.6400
G1 X49.3580 Y-9.8706 Z1.6400
G1 X49.3580 Y-11.6980 Z1.6400
G1 X44.2641 Y-25.6933 Z1.6400
G1 X44.9292 Y-25.6933 Z1.6400
G1 X49.3580 Y-13.5254 Z1.6400
G1 X49.3580 Y-15.3528 Z1.6400
G1 X45.5944 Y-25.6933 Z1.6400
G1 X46.2595 Y-25.6933 Z1.6400
G1 X49.3580 Y-17.1801 Z1.6400
G1 X49.3580 Y-19.0075 Z1.6400
G1 X46.9246 Y-25.6933 Z1.6400
G1 X47.5897 Y-25.6933 Z1.6400
G1 X49.3580 Y-20.8349 Z1.6400
G1 X49.3580 Y-22.6623 Z1.6400
G1 X48.2548 Y-25.6933 Z1.6400
G1 X48.7330 Y-25.6933 Z1.6400
G1 X48.8549 Y-25.6813 Z1.6400
G1 X48.9329 Y-25.6576 Z1.6400
G1 X49.3580 Y-24.4896 Z1.6400
G1 X50.0420 Y-22.6103 Z1.6400
G0 Z1.8900
G0 X50.0420 Y-22.6103 
G0 Z1.8900
G0 X33.4571 Y-0.5639 
G1 X33.4571 Y-0.5639 Z1.5100 F75.
G1 X32.7731 Y-2.4433 Z1.5100 F50.
G1 X32.1080 Y-4.2707 Z1.5100 F250.
G1 X32.1080 Y-6.0980 Z1.5100
G1 X33.4382 Y-2.4433 Z1.5100
G1 X34.1033 Y-2.4433 Z1.5100
G1 X32.1080 Y-7.9254 Z1.5100
G1 X32.1080 Y-9.7528 Z1.5100
G1 X34.7684 Y-2.4433 Z1.5100
G1 X35.4336 Y-2.4433 Z1.5100
G1 X32.1080 Y-11.5802 Z1.5100
G1 X32.1080 Y-13.4075 Z1.5100
G1 X36.0987 Y-2.4433 Z1.5100
G1 X36.7638 Y-2.4433 Z1.5100
G1 X32.1080 Y-15.2349 Z1.5100
G1 X32.1080 Y-17.0623 Z1.5100
G1 X37.4289 Y-2.4433 Z1.5100
G1 X38.0940 Y-2.4433 Z1.5100
G1 X32.1080 Y-18.8897 Z1.5100
G1 X32.1080 Y-20.7171 Z1.5100
G1 X38.7591 Y-2.4433 Z1.5100
G1 X39.4242 Y-2.4433 Z1.5100
G1 X32.1080 Y-22.5444 Z1.5100
G1 X32.1080 Y-24.3718 Z1.5100
G1 X40.0893 Y-2.4433 Z1.5100
G1 X40.7544 Y-2.4433 Z1.5100
G1 X32.3432 Y-25.5530 Z1.5100
G1 X32.3858 Y-25.5879 Z1.5100
G1 X32.4938 Y-25.6457 Z1.5100
G1 X32.6111 Y-25.6813 Z1.5100
G1 X32.7330 Y-25.6933 Z1.5100
G1 X32.9572 Y-25.6933 Z1.5100
G1 X41.4196 Y-2.4433 Z1.5100
G1 X42.0847 Y-2.4433 Z1.5100
G1 X33.6224 Y-25.6933 Z1.5100
G1 X34.2875 Y-25.6933 Z1.5100
G1 X42.7498 Y-2.4433 Z1.5100
G1 X43.4149 Y-2.4433 Z1.5100
G1 X34.9526 Y-25.6933 Z1.5100
G1 X35.6177 Y-25.6933 Z1.5100
G1 X44.0800 Y-2.4433 Z1.5100
G1 X44.7451 Y-2.4433 Z1.5100
G1 X36.2828 Y-25.6933 Z1.5100
G1 X36.9479 Y-25.6933 Z1.5100
G1 X45.4102 Y-2.4433 Z1.5100
G1 X46.0753 Y-2.4433 Z1.5100
G1 X37.6130 Y-25.6933 Z1.5100
G1 X38.2781 Y-25.6933 Z1.5100
G1 X46.7404 Y-2.4433 Z1.5100
G1 X47.4056 Y-2.4433 Z1.5100
G1 X38.9432 Y-25.6933 Z1.5100
G1 X39.6084 Y-25.6933 Z1.5100
G1 X48.0707 Y-2.4433 Z1.5100
G1 X48.7330 Y-2.4433 Z1.5100
G1 X48.7357 Y-2.4435 Z1.5100
G1 X40.2735 Y-25.6933 Z1.5100
G1 X40.9386 Y-25.6933 Z1.5100
G1 X49.2807 Y-2.7735 Z1.5100
G1 X49.3104 Y-2.8291 Z1.5100
G1 X49.3460 Y-2.9463 Z1.5100
G1 X49.3580 Y-3.0683 Z1.5100
G1 X49.3580 Y-4.3885 Z1.5100
G1 X41.6037 Y-25.6933 Z1.5100
G1 X42.2688 Y-25.6933 Z1.5100
G1 X49.3580 Y-6.2159 Z1.5100
G1 X49.3580 Y-8.0432 Z1.5100
G1 X42.9339 Y-25.6933 Z1.5100
G1 X43.5990 Y-25.6933 Z1.5100
G1 X49.3580 Y-9.8706 Z1.5100
G1 X49.3580 Y-11.6980 Z1.5100
G1 X44.2641 Y-25.6933 Z1.5100
G1 X44.9292 Y-25.6933 Z1.5100
G1 X49.3580 Y-13.5254 Z1.5100
G1 X49.3580 Y-15.3528 Z1.5100
G1 X45.5944 Y-25.6933 Z1.5100
G1 X46.2595 Y-25.6933 Z1.5100
G1 X49.3580 Y-17.1801 Z1.5100
G1 X49.3580 Y-19.0075 Z1.5100
G1 X46.9246 Y-25.6933 Z1.5100
G1 X47.5897 Y-25.6933 Z1.5100
G1 X49.3580 Y-20.8349 Z1.5100
G1 X49.3580 Y-22.6623 Z1.5100
G1 X48.2548 Y-25.6933 Z1.5100
G1 X48.7330 Y-25.6933 Z1.5100
G1 X48.8549 Y-25.6813 Z1.5100
G1 X48.9329 Y-25.6576 Z1.5100
G1 X49.3580 Y-24.4896 Z1.5100
G1 X50.0420 Y-22.6103 Z1.5100
G0 Z4.0000
G0 X50.0420 Y-22.6103 
M5
G53 Z
( END FILE 04-front-prep-01-facing-1pt50-lam-start.nc )
