( BEGIN FILE 05-Adcock-binding-with-elbow-PT10xPT375-01.ncTNUM: -1 )
( Lefty:False Nunits:3 )
( cline: 9.733 delta:15.5 )
( start_unit: 1 num_units: 3)
( MOP:  05-Adcock-binding-with-elbow-PT10xPT375-01 )
( FILE: G:\Shared drives\AlloyProjectFiles\Customer CAD files\Alloy-Standard-Builds-CAM\s-in\FullAdcock-Specific\05-Adcock-binding-with-elbow-PT10xPT375-01.nc)
G90
(  BEGIN TOOL LIST )
(  TOOL 6 - Downcut PT250 - DESC: 0.2500 DIA, 2 FLUTE,  CARBIDE MAT )
(  ENDOF TOOL LIST )
( 05-Adcock-binding-with-elbow-PT10xPT375-01)
( Max Depth 1.75)
T06
S12000
M3
G0 Z6.0000
G0 X3.6646 Y-16.7720 
G1 X3.6646 Y-16.7720 Z2.8883 F75.
G1 X3.5836 Y-17.1149 Z2.7600 F25.
G1 X3.5425 Y-17.2890 Z2.7369 F75.
G1 X3.5043 Y-17.4634 Z2.7115
G1 X3.4690 Y-17.6380 Z2.6830
G1 X3.4370 Y-17.8126 Z2.6511
G1 X3.4084 Y-17.9871 Z2.6159
G1 X3.3832 Y-18.1615 Z2.5772
G1 X3.3620 Y-18.3356 Z2.5352
G1 X3.3450 Y-18.5095 Z2.4905
G1 X3.3328 Y-18.6832 Z2.4436
G1 X3.3257 Y-18.8567 Z2.3949
G1 X3.3241 Y-19.0300 Z2.3450
G1 X3.3286 Y-19.2030 Z2.2944
G1 X3.3397 Y-19.3757 Z2.2435
G1 X3.3584 Y-19.5477 Z2.1928
G1 X3.3708 Y-19.6334 Z2.1676
G1 X3.3854 Y-19.7189 Z2.1427
G1 X3.4022 Y-19.8040 Z2.1181
G1 X3.4213 Y-19.8887 Z2.0939
G1 X3.4426 Y-19.9731 Z2.0702
G1 X3.4661 Y-20.0570 Z2.0471
G1 X3.4920 Y-20.1404 Z2.0247
G1 X3.5201 Y-20.2233 Z2.0029
G1 X3.5505 Y-20.3055 Z1.9818
G1 X3.5832 Y-20.3871 Z1.9615
G1 X3.6181 Y-20.4679 Z1.9419
G1 X3.6553 Y-20.5479 Z1.9232
G1 X3.6947 Y-20.6270 Z1.9053
G1 X3.7363 Y-20.7052 Z1.8884
G1 X3.7800 Y-20.7824 Z1.8723
G1 X3.8259 Y-20.8585 Z1.8573
G1 X3.8739 Y-20.9336 Z1.8433
G1 X3.9238 Y-21.0075 Z1.8303
G1 X3.9758 Y-21.0803 Z1.8183
G1 X4.0295 Y-21.1519 Z1.8073
G1 X4.0850 Y-21.2223 Z1.7972
G1 X4.1422 Y-21.2914 Z1.7882
G1 X4.2012 Y-21.3591 Z1.7802
G1 X4.2619 Y-21.4253 Z1.7733
G1 X4.3244 Y-21.4901 Z1.7675
G1 X4.3886 Y-21.5532 Z1.7629
G1 X4.4545 Y-21.6147 Z1.7594
G1 X4.5219 Y-21.6746 Z1.7571
G1 X4.5909 Y-21.7327 Z1.7559
G1 X4.6613 Y-21.7891 Z1.7558
G1 X4.7330 Y-21.8437 Z1.7568
G1 X4.8061 Y-21.8965 Z1.7589
G1 X4.8804 Y-21.9474 Z1.7621
G1 X4.9559 Y-21.9965 Z1.7664
G1 X5.0325 Y-22.0437 Z1.7718
G1 X5.1102 Y-22.0890 Z1.7782
G1 X5.1889 Y-22.1324 Z1.7857
G1 X5.2686 Y-22.1739 Z1.7941
G1 X5.3490 Y-22.2136 Z1.8035
G1 X5.4302 Y-22.2515 Z1.8137
G1 X5.5945 Y-22.3223 Z1.8367
G1 X5.7609 Y-22.3867 Z1.8625
G1 X5.9290 Y-22.4454 Z1.8908
G1 X6.0986 Y-22.4990 Z1.9211
G1 X6.2692 Y-22.5479 Z1.9532
G1 X6.4407 Y-22.5922 Z1.9868
G1 X6.6131 Y-22.6321 Z2.0216
G1 X6.7863 Y-22.6673 Z2.0578
G1 X6.9601 Y-22.6975 Z2.0952
G1 X7.1345 Y-22.7227 Z2.1336
G1 X7.3093 Y-22.7429 Z2.1730
G1 X7.4845 Y-22.7587 Z2.2130
G1 X7.6599 Y-22.7708 Z2.2531
G1 X7.8355 Y-22.7797 Z2.2931
G1 X8.0114 Y-22.7860 Z2.3327
G1 X8.1874 Y-22.7903 Z2.3716
G1 X8.5402 Y-22.7947 Z2.4465
G1 X8.8941 Y-22.7964 Z2.5166
G1 X9.2491 Y-22.7974 Z2.5805
G1 X9.6053 Y-22.7981 Z2.6372
G1 X9.7838 Y-22.7984 Z2.6625
G1 X9.9627 Y-22.7984 Z2.6857
G1 X10.3211 Y-22.7980 Z2.7262
G1 X10.6802 Y-22.7974 Z2.7600
G1 X11.0326 Y-22.7968 Z2.8883
G0 Z3.7600
G0 X11.0326 Y-22.7968 
G0 Z3.7600
G0 X3.6646 Y-16.7720 
G1 X3.6646 Y-16.7720 Z2.6383 F75.
G1 X3.5836 Y-17.1149 Z2.5100 F25.
G1 X3.5425 Y-17.2890 Z2.4869 F75.
G1 X3.5043 Y-17.4634 Z2.4615
G1 X3.4690 Y-17.6380 Z2.4330
G1 X3.4370 Y-17.8126 Z2.4011
G1 X3.4084 Y-17.9871 Z2.3659
G1 X3.3832 Y-18.1615 Z2.3272
G1 X3.3620 Y-18.3356 Z2.2852
G1 X3.3450 Y-18.5095 Z2.2405
G1 X3.3328 Y-18.6832 Z2.1936
G1 X3.3257 Y-18.8567 Z2.1449
G1 X3.3241 Y-19.0300 Z2.0950
G1 X3.3286 Y-19.2030 Z2.0444
G1 X3.3397 Y-19.3757 Z1.9935
G1 X3.3584 Y-19.5477 Z1.9428
G1 X3.3708 Y-19.6334 Z1.9176
G1 X3.3854 Y-19.7189 Z1.8927
G1 X3.4022 Y-19.8040 Z1.8681
G1 X3.4213 Y-19.8887 Z1.8439
G1 X3.4426 Y-19.9731 Z1.8202
G1 X3.4661 Y-20.0570 Z1.7971
G1 X3.4920 Y-20.1404 Z1.7747
G1 X3.5201 Y-20.2233 Z1.7529
G1 X3.5505 Y-20.3055 Z1.7318
G1 X3.5832 Y-20.3871 Z1.7115
G1 X3.6181 Y-20.4679 Z1.6919
G1 X3.6553 Y-20.5479 Z1.6732
G1 X3.6947 Y-20.6270 Z1.6553
G1 X3.7363 Y-20.7052 Z1.6384
G1 X3.7800 Y-20.7824 Z1.6223
G1 X3.8259 Y-20.8585 Z1.6073
G1 X3.8739 Y-20.9336 Z1.5933
G1 X3.9238 Y-21.0075 Z1.5803
G1 X3.9758 Y-21.0803 Z1.5683
G1 X4.0295 Y-21.1519 Z1.5573
G1 X4.0850 Y-21.2223 Z1.5472
G1 X4.1422 Y-21.2914 Z1.5382
G1 X4.2012 Y-21.3591 Z1.5302
G1 X4.2619 Y-21.4253 Z1.5233
G1 X4.3244 Y-21.4901 Z1.5175
G1 X4.3886 Y-21.5532 Z1.5129
G1 X4.4545 Y-21.6147 Z1.5094
G1 X4.5219 Y-21.6746 Z1.5071
G1 X4.5909 Y-21.7327 Z1.5059
G1 X4.6613 Y-21.7891 Z1.5058
G1 X4.7330 Y-21.8437 Z1.5068
G1 X4.8061 Y-21.8965 Z1.5089
G1 X4.8804 Y-21.9474 Z1.5121
G1 X4.9559 Y-21.9965 Z1.5164
G1 X5.0325 Y-22.0437 Z1.5218
G1 X5.1102 Y-22.0890 Z1.5282
G1 X5.1889 Y-22.1324 Z1.5357
G1 X5.2686 Y-22.1739 Z1.5441
G1 X5.3490 Y-22.2136 Z1.5535
G1 X5.4302 Y-22.2515 Z1.5637
G1 X5.5945 Y-22.3223 Z1.5867
G1 X5.7609 Y-22.3867 Z1.6125
G1 X5.9290 Y-22.4454 Z1.6408
G1 X6.0986 Y-22.4990 Z1.6711
G1 X6.2692 Y-22.5479 Z1.7032
G1 X6.4407 Y-22.5922 Z1.7368
G1 X6.6131 Y-22.6321 Z1.7716
G1 X6.7863 Y-22.6673 Z1.8078
G1 X6.9601 Y-22.6975 Z1.8452
G1 X7.1345 Y-22.7227 Z1.8836
G1 X7.3093 Y-22.7429 Z1.9230
G1 X7.4845 Y-22.7587 Z1.9630
G1 X7.6599 Y-22.7708 Z2.0031
G1 X7.8355 Y-22.7797 Z2.0431
G1 X8.0114 Y-22.7860 Z2.0827
G1 X8.1874 Y-22.7903 Z2.1216
G1 X8.5402 Y-22.7947 Z2.1965
G1 X8.8941 Y-22.7964 Z2.2666
G1 X9.2491 Y-22.7974 Z2.3305
G1 X9.6053 Y-22.7981 Z2.3872
G1 X9.7838 Y-22.7984 Z2.4125
G1 X9.9627 Y-22.7984 Z2.4357
G1 X10.3211 Y-22.7980 Z2.4762
G1 X10.6802 Y-22.7974 Z2.5100
G1 X11.0326 Y-22.7968 Z2.6383
G0 Z3.5100
G0 X11.0326 Y-22.7968 
G0 Z3.5100
G0 X3.6646 Y-16.7720 
G1 X3.6646 Y-16.7720 Z2.3883 F75.
G1 X3.5836 Y-17.1149 Z2.2600 F25.
G1 X3.5425 Y-17.2890 Z2.2369 F75.
G1 X3.5043 Y-17.4634 Z2.2115
G1 X3.4690 Y-17.6380 Z2.1830
G1 X3.4370 Y-17.8126 Z2.1511
G1 X3.4084 Y-17.9871 Z2.1159
G1 X3.3832 Y-18.1615 Z2.0772
G1 X3.3620 Y-18.3356 Z2.0352
G1 X3.3450 Y-18.5095 Z1.9905
G1 X3.3328 Y-18.6832 Z1.9436
G1 X3.3257 Y-18.8567 Z1.8949
G1 X3.3241 Y-19.0300 Z1.8450
G1 X3.3286 Y-19.2030 Z1.7944
G1 X3.3397 Y-19.3757 Z1.7435
G1 X3.3584 Y-19.5477 Z1.6928
G1 X3.3708 Y-19.6334 Z1.6676
G1 X3.3854 Y-19.7189 Z1.6427
G1 X3.4022 Y-19.8040 Z1.6181
G1 X3.4213 Y-19.8887 Z1.5939
G1 X3.4426 Y-19.9731 Z1.5702
G1 X3.4661 Y-20.0570 Z1.5471
G1 X3.4920 Y-20.1404 Z1.5247
G1 X3.5201 Y-20.2233 Z1.5029
G1 X3.5505 Y-20.3055 Z1.4818
G1 X3.5832 Y-20.3871 Z1.4615
G1 X3.6181 Y-20.4679 Z1.4419
G1 X3.6553 Y-20.5479 Z1.4232
G1 X3.6947 Y-20.6270 Z1.4053
G1 X3.7363 Y-20.7052 Z1.3884
G1 X3.7800 Y-20.7824 Z1.3723
G1 X3.8259 Y-20.8585 Z1.3573
G1 X3.8739 Y-20.9336 Z1.3433
G1 X3.9238 Y-21.0075 Z1.3303
G1 X3.9758 Y-21.0803 Z1.3183
G1 X4.0295 Y-21.1519 Z1.3073
G1 X4.0850 Y-21.2223 Z1.2972
G1 X4.1422 Y-21.2914 Z1.2882
G1 X4.2012 Y-21.3591 Z1.2802
G1 X4.2619 Y-21.4253 Z1.2733
G1 X4.3244 Y-21.4901 Z1.2675
G1 X4.3886 Y-21.5532 Z1.2629
G1 X4.4545 Y-21.6147 Z1.2594
G1 X4.5219 Y-21.6746 Z1.2571
G1 X4.5909 Y-21.7327 Z1.2559
G1 X4.6613 Y-21.7891 Z1.2558
G1 X4.7330 Y-21.8437 Z1.2568
G1 X4.8061 Y-21.8965 Z1.2589
G1 X4.8804 Y-21.9474 Z1.2621
G1 X4.9559 Y-21.9965 Z1.2664
G1 X5.0325 Y-22.0437 Z1.2718
G1 X5.1102 Y-22.0890 Z1.2782
G1 X5.1889 Y-22.1324 Z1.2857
G1 X5.2686 Y-22.1739 Z1.2941
G1 X5.3490 Y-22.2136 Z1.3035
G1 X5.4302 Y-22.2515 Z1.3137
G1 X5.5945 Y-22.3223 Z1.3367
G1 X5.7609 Y-22.3867 Z1.3625
G1 X5.9290 Y-22.4454 Z1.3908
G1 X6.0986 Y-22.4990 Z1.4211
G1 X6.2692 Y-22.5479 Z1.4532
G1 X6.4407 Y-22.5922 Z1.4868
G1 X6.6131 Y-22.6321 Z1.5216
G1 X6.7863 Y-22.6673 Z1.5578
G1 X6.9601 Y-22.6975 Z1.5952
G1 X7.1345 Y-22.7227 Z1.6336
G1 X7.3093 Y-22.7429 Z1.6730
G1 X7.4845 Y-22.7587 Z1.7130
G1 X7.6599 Y-22.7708 Z1.7531
G1 X7.8355 Y-22.7797 Z1.7931
G1 X8.0114 Y-22.7860 Z1.8327
G1 X8.1874 Y-22.7903 Z1.8716
G1 X8.5402 Y-22.7947 Z1.9465
G1 X8.8941 Y-22.7964 Z2.0166
G1 X9.2491 Y-22.7974 Z2.0805
G1 X9.6053 Y-22.7981 Z2.1372
G1 X9.7838 Y-22.7984 Z2.1625
G1 X9.9627 Y-22.7984 Z2.1857
G1 X10.3211 Y-22.7980 Z2.2262
G1 X10.6802 Y-22.7974 Z2.2600
G1 X11.0326 Y-22.7968 Z2.3883
G0 Z3.2600
G0 X11.0326 Y-22.7968 
G0 Z3.2600
G0 X3.6646 Y-16.7720 
G1 X3.6646 Y-16.7720 Z2.1383 F75.
G1 X3.5836 Y-17.1149 Z2.0100 F25.
G1 X3.5425 Y-17.2890 Z1.9869 F75.
G1 X3.5043 Y-17.4634 Z1.9615
G1 X3.4690 Y-17.6380 Z1.9330
G1 X3.4370 Y-17.8126 Z1.9011
G1 X3.4084 Y-17.9871 Z1.8659
G1 X3.3832 Y-18.1615 Z1.8272
G1 X3.3620 Y-18.3356 Z1.7852
G1 X3.3450 Y-18.5095 Z1.7405
G1 X3.3328 Y-18.6832 Z1.6936
G1 X3.3257 Y-18.8567 Z1.6449
G1 X3.3241 Y-19.0300 Z1.5950
G1 X3.3286 Y-19.2030 Z1.5444
G1 X3.3397 Y-19.3757 Z1.4935
G1 X3.3584 Y-19.5477 Z1.4428
G1 X3.3708 Y-19.6334 Z1.4176
G1 X3.3854 Y-19.7189 Z1.3927
G1 X3.4022 Y-19.8040 Z1.3681
G1 X3.4213 Y-19.8887 Z1.3439
G1 X3.4426 Y-19.9731 Z1.3202
G1 X3.4661 Y-20.0570 Z1.2971
G1 X3.4920 Y-20.1404 Z1.2747
G1 X3.5201 Y-20.2233 Z1.2529
G1 X3.5505 Y-20.3055 Z1.2318
G1 X3.5832 Y-20.3871 Z1.2115
G1 X3.6181 Y-20.4679 Z1.1919
G1 X3.6553 Y-20.5479 Z1.1732
G1 X3.6947 Y-20.6270 Z1.1553
G1 X3.7363 Y-20.7052 Z1.1384
G1 X3.7800 Y-20.7824 Z1.1223
G1 X3.8259 Y-20.8585 Z1.1073
G1 X3.8739 Y-20.9336 Z1.0933
G1 X3.9238 Y-21.0075 Z1.0803
G1 X3.9758 Y-21.0803 Z1.0683
G1 X4.0295 Y-21.1519 Z1.0573
G1 X4.0850 Y-21.2223 Z1.0472
G1 X4.1422 Y-21.2914 Z1.0382
G1 X4.2012 Y-21.3591 Z1.0302
G1 X4.2619 Y-21.4253 Z1.0233
G1 X4.3244 Y-21.4901 Z1.0175
G1 X4.3886 Y-21.5532 Z1.0129
G1 X4.4545 Y-21.6147 Z1.0094
G1 X4.5219 Y-21.6746 Z1.0071
G1 X4.5909 Y-21.7327 Z1.0059
G1 X4.6613 Y-21.7891 Z1.0058
G1 X4.7330 Y-21.8437 Z1.0068
G1 X4.8061 Y-21.8965 Z1.0089
G1 X4.8804 Y-21.9474 Z1.0121
G1 X4.9559 Y-21.9965 Z1.0164
G1 X5.0325 Y-22.0437 Z1.0218
G1 X5.1102 Y-22.0890 Z1.0282
G1 X5.1889 Y-22.1324 Z1.0357
G1 X5.2686 Y-22.1739 Z1.0441
G1 X5.3490 Y-22.2136 Z1.0535
G1 X5.4302 Y-22.2515 Z1.0637
G1 X5.5945 Y-22.3223 Z1.0867
G1 X5.7609 Y-22.3867 Z1.1125
G1 X5.9290 Y-22.4454 Z1.1408
G1 X6.0986 Y-22.4990 Z1.1711
G1 X6.2692 Y-22.5479 Z1.2032
G1 X6.4407 Y-22.5922 Z1.2368
G1 X6.6131 Y-22.6321 Z1.2716
G1 X6.7863 Y-22.6673 Z1.3078
G1 X6.9601 Y-22.6975 Z1.3452
G1 X7.1345 Y-22.7227 Z1.3836
G1 X7.3093 Y-22.7429 Z1.4230
G1 X7.4845 Y-22.7587 Z1.4630
G1 X7.6599 Y-22.7708 Z1.5031
G1 X7.8355 Y-22.7797 Z1.5431
G1 X8.0114 Y-22.7860 Z1.5827
G1 X8.1874 Y-22.7903 Z1.6216
G1 X8.5402 Y-22.7947 Z1.6965
G1 X8.8941 Y-22.7964 Z1.7666
G1 X9.2491 Y-22.7974 Z1.8305
G1 X9.6053 Y-22.7981 Z1.8872
G1 X9.7838 Y-22.7984 Z1.9125
G1 X9.9627 Y-22.7984 Z1.9357
G1 X10.3211 Y-22.7980 Z1.9762
G1 X10.6802 Y-22.7974 Z2.0100
G1 X11.0326 Y-22.7968 Z2.1383
G0 Z2.7625
G0 X11.0326 Y-22.7968 
G0 Z2.7625
G0 X3.6646 Y-16.7720 
G1 X3.6646 Y-16.7720 Z1.8883 F75.
G1 X3.5836 Y-17.1149 Z1.7600 F25.
G1 X3.5425 Y-17.2890 Z1.7369 F75.
G1 X3.5043 Y-17.4634 Z1.7115
G1 X3.4690 Y-17.6380 Z1.6830
G1 X3.4370 Y-17.8126 Z1.6511
G1 X3.4084 Y-17.9871 Z1.6159
G1 X3.3832 Y-18.1615 Z1.5772
G1 X3.3620 Y-18.3356 Z1.5352
G1 X3.3450 Y-18.5095 Z1.4905
G1 X3.3328 Y-18.6832 Z1.4436
G1 X3.3257 Y-18.8567 Z1.3949
G1 X3.3241 Y-19.0300 Z1.3450
G1 X3.3286 Y-19.2030 Z1.2944
G1 X3.3397 Y-19.3757 Z1.2435
G1 X3.3584 Y-19.5477 Z1.1928
G1 X3.3708 Y-19.6334 Z1.1676
G1 X3.3854 Y-19.7189 Z1.1427
G1 X3.4022 Y-19.8040 Z1.1181
G1 X3.4213 Y-19.8887 Z1.0939
G1 X3.4426 Y-19.9731 Z1.0702
G1 X3.4661 Y-20.0570 Z1.0471
G1 X3.4920 Y-20.1404 Z1.0247
G1 X3.5201 Y-20.2233 Z1.0029
G1 X3.5505 Y-20.3055 Z0.9818
G1 X3.5832 Y-20.3871 Z0.9615
G1 X3.6181 Y-20.4679 Z0.9419
G1 X3.6553 Y-20.5479 Z0.9232
G1 X3.6947 Y-20.6270 Z0.9053
G1 X3.7363 Y-20.7052 Z0.8884
G1 X3.7800 Y-20.7824 Z0.8723
G1 X3.8259 Y-20.8585 Z0.8573
G1 X3.8739 Y-20.9336 Z0.8433
G1 X3.9238 Y-21.0075 Z0.8303
G1 X3.9758 Y-21.0803 Z0.8183
G1 X4.0295 Y-21.1519 Z0.8073
G1 X4.0850 Y-21.2223 Z0.7972
G1 X4.1422 Y-21.2914 Z0.7882
G1 X4.2012 Y-21.3591 Z0.7802
G1 X4.2619 Y-21.4253 Z0.7733
G1 X4.3244 Y-21.4901 Z0.7675
G1 X4.3886 Y-21.5532 Z0.7629
G1 X4.4545 Y-21.6147 Z0.7594
G1 X4.5219 Y-21.6746 Z0.7571
G1 X4.5909 Y-21.7327 Z0.7559
G1 X4.6613 Y-21.7891 Z0.7558
G1 X4.7330 Y-21.8437 Z0.7568
G1 X4.8061 Y-21.8965 Z0.7589
G1 X4.8804 Y-21.9474 Z0.7621
G1 X4.9559 Y-21.9965 Z0.7664
G1 X5.0325 Y-22.0437 Z0.7718
G1 X5.1102 Y-22.0890 Z0.7782
G1 X5.1889 Y-22.1324 Z0.7857
G1 X5.2686 Y-22.1739 Z0.7941
G1 X5.3490 Y-22.2136 Z0.8035
G1 X5.4302 Y-22.2515 Z0.8137
G1 X5.5945 Y-22.3223 Z0.8367
G1 X5.7609 Y-22.3867 Z0.8625
G1 X5.9290 Y-22.4454 Z0.8908
G1 X6.0986 Y-22.4990 Z0.9211
G1 X6.2692 Y-22.5479 Z0.9532
G1 X6.4407 Y-22.5922 Z0.9868
G1 X6.6131 Y-22.6321 Z1.0216
G1 X6.7863 Y-22.6673 Z1.0578
G1 X6.9601 Y-22.6975 Z1.0952
G1 X7.1345 Y-22.7227 Z1.1336
G1 X7.3093 Y-22.7429 Z1.1730
G1 X7.4845 Y-22.7587 Z1.2130
G1 X7.6599 Y-22.7708 Z1.2531
G1 X7.8355 Y-22.7797 Z1.2931
G1 X8.0114 Y-22.7860 Z1.3327
G1 X8.1874 Y-22.7903 Z1.3716
G1 X8.5402 Y-22.7947 Z1.4465
G1 X8.8941 Y-22.7964 Z1.5166
G1 X9.2491 Y-22.7974 Z1.5805
G1 X9.6053 Y-22.7981 Z1.6372
G1 X9.7838 Y-22.7984 Z1.6625
G1 X9.9627 Y-22.7984 Z1.6857
G1 X10.3211 Y-22.7980 Z1.7262
G1 X10.6802 Y-22.7974 Z1.7600
G1 X11.0326 Y-22.7968 Z1.8883
G0 Z6.0000
G0 X11.0326 Y-22.7968 
M5
G53 Z
( MOP:  05-Adcock-binding-with-elbow-PT10xPT375-01 )
( FILE: G:\Shared drives\AlloyProjectFiles\Customer CAD files\Alloy-Standard-Builds-CAM\s-in\FullAdcock-Specific\05-Adcock-binding-with-elbow-PT10xPT375-01.nc)
G90
(  BEGIN TOOL LIST )
(  TOOL 6 - Downcut PT250 - DESC: 0.2500 DIA, 2 FLUTE,  CARBIDE MAT )
(  ENDOF TOOL LIST )
( 05-Adcock-binding-with-elbow-PT10xPT375-01)
( Max Depth 1.75)
T06
S12000
M3
G0 Z6.0000
G0 X19.1646 Y-16.7720 
G1 X19.1646 Y-16.7720 Z2.8883 F75.
G1 X19.0836 Y-17.1149 Z2.7600 F25.
G1 X19.0425 Y-17.2890 Z2.7369 F75.
G1 X19.0043 Y-17.4634 Z2.7115
G1 X18.9690 Y-17.6380 Z2.6830
G1 X18.9370 Y-17.8126 Z2.6511
G1 X18.9084 Y-17.9871 Z2.6159
G1 X18.8832 Y-18.1615 Z2.5772
G1 X18.8620 Y-18.3356 Z2.5352
G1 X18.8450 Y-18.5095 Z2.4905
G1 X18.8328 Y-18.6832 Z2.4436
G1 X18.8257 Y-18.8567 Z2.3949
G1 X18.8241 Y-19.0300 Z2.3450
G1 X18.8286 Y-19.2030 Z2.2944
G1 X18.8397 Y-19.3757 Z2.2435
G1 X18.8584 Y-19.5477 Z2.1928
G1 X18.8708 Y-19.6334 Z2.1676
G1 X18.8854 Y-19.7189 Z2.1427
G1 X18.9022 Y-19.8040 Z2.1181
G1 X18.9213 Y-19.8887 Z2.0939
G1 X18.9426 Y-19.9731 Z2.0702
G1 X18.9661 Y-20.0570 Z2.0471
G1 X18.9920 Y-20.1404 Z2.0247
G1 X19.0201 Y-20.2233 Z2.0029
G1 X19.0505 Y-20.3055 Z1.9818
G1 X19.0832 Y-20.3871 Z1.9615
G1 X19.1181 Y-20.4679 Z1.9419
G1 X19.1553 Y-20.5479 Z1.9232
G1 X19.1947 Y-20.6270 Z1.9053
G1 X19.2363 Y-20.7052 Z1.8884
G1 X19.2800 Y-20.7824 Z1.8723
G1 X19.3259 Y-20.8585 Z1.8573
G1 X19.3739 Y-20.9336 Z1.8433
G1 X19.4238 Y-21.0075 Z1.8303
G1 X19.4758 Y-21.0803 Z1.8183
G1 X19.5295 Y-21.1519 Z1.8073
G1 X19.5850 Y-21.2223 Z1.7972
G1 X19.6422 Y-21.2914 Z1.7882
G1 X19.7012 Y-21.3591 Z1.7802
G1 X19.7619 Y-21.4253 Z1.7733
G1 X19.8244 Y-21.4901 Z1.7675
G1 X19.8886 Y-21.5532 Z1.7629
G1 X19.9545 Y-21.6147 Z1.7594
G1 X20.0219 Y-21.6746 Z1.7571
G1 X20.0909 Y-21.7327 Z1.7559
G1 X20.1613 Y-21.7891 Z1.7558
G1 X20.2330 Y-21.8437 Z1.7568
G1 X20.3061 Y-21.8965 Z1.7589
G1 X20.3804 Y-21.9474 Z1.7621
G1 X20.4559 Y-21.9965 Z1.7664
G1 X20.5325 Y-22.0437 Z1.7718
G1 X20.6102 Y-22.0890 Z1.7782
G1 X20.6889 Y-22.1324 Z1.7857
G1 X20.7686 Y-22.1739 Z1.7941
G1 X20.8490 Y-22.2136 Z1.8035
G1 X20.9302 Y-22.2515 Z1.8137
G1 X21.0945 Y-22.3223 Z1.8367
G1 X21.2609 Y-22.3867 Z1.8625
G1 X21.4290 Y-22.4454 Z1.8908
G1 X21.5986 Y-22.4990 Z1.9211
G1 X21.7692 Y-22.5479 Z1.9532
G1 X21.9407 Y-22.5922 Z1.9868
G1 X22.1131 Y-22.6321 Z2.0216
G1 X22.2863 Y-22.6673 Z2.0578
G1 X22.4601 Y-22.6975 Z2.0952
G1 X22.6345 Y-22.7227 Z2.1336
G1 X22.8093 Y-22.7429 Z2.1730
G1 X22.9845 Y-22.7587 Z2.2130
G1 X23.1599 Y-22.7708 Z2.2531
G1 X23.3355 Y-22.7797 Z2.2931
G1 X23.5114 Y-22.7860 Z2.3327
G1 X23.6874 Y-22.7903 Z2.3716
G1 X24.0402 Y-22.7947 Z2.4465
G1 X24.3941 Y-22.7964 Z2.5166
G1 X24.7491 Y-22.7974 Z2.5805
G1 X25.1053 Y-22.7981 Z2.6372
G1 X25.2838 Y-22.7984 Z2.6625
G1 X25.4627 Y-22.7984 Z2.6857
G1 X25.8211 Y-22.7980 Z2.7262
G1 X26.1802 Y-22.7974 Z2.7600
G1 X26.5326 Y-22.7968 Z2.8883
G0 Z3.7600
G0 X26.5326 Y-22.7968 
G0 Z3.7600
G0 X19.1646 Y-16.7720 
G1 X19.1646 Y-16.7720 Z2.6383 F75.
G1 X19.0836 Y-17.1149 Z2.5100 F25.
G1 X19.0425 Y-17.2890 Z2.4869 F75.
G1 X19.0043 Y-17.4634 Z2.4615
G1 X18.9690 Y-17.6380 Z2.4330
G1 X18.9370 Y-17.8126 Z2.4011
G1 X18.9084 Y-17.9871 Z2.3659
G1 X18.8832 Y-18.1615 Z2.3272
G1 X18.8620 Y-18.3356 Z2.2852
G1 X18.8450 Y-18.5095 Z2.2405
G1 X18.8328 Y-18.6832 Z2.1936
G1 X18.8257 Y-18.8567 Z2.1449
G1 X18.8241 Y-19.0300 Z2.0950
G1 X18.8286 Y-19.2030 Z2.0444
G1 X18.8397 Y-19.3757 Z1.9935
G1 X18.8584 Y-19.5477 Z1.9428
G1 X18.8708 Y-19.6334 Z1.9176
G1 X18.8854 Y-19.7189 Z1.8927
G1 X18.9022 Y-19.8040 Z1.8681
G1 X18.9213 Y-19.8887 Z1.8439
G1 X18.9426 Y-19.9731 Z1.8202
G1 X18.9661 Y-20.0570 Z1.7971
G1 X18.9920 Y-20.1404 Z1.7747
G1 X19.0201 Y-20.2233 Z1.7529
G1 X19.0505 Y-20.3055 Z1.7318
G1 X19.0832 Y-20.3871 Z1.7115
G1 X19.1181 Y-20.4679 Z1.6919
G1 X19.1553 Y-20.5479 Z1.6732
G1 X19.1947 Y-20.6270 Z1.6553
G1 X19.2363 Y-20.7052 Z1.6384
G1 X19.2800 Y-20.7824 Z1.6223
G1 X19.3259 Y-20.8585 Z1.6073
G1 X19.3739 Y-20.9336 Z1.5933
G1 X19.4238 Y-21.0075 Z1.5803
G1 X19.4758 Y-21.0803 Z1.5683
G1 X19.5295 Y-21.1519 Z1.5573
G1 X19.5850 Y-21.2223 Z1.5472
G1 X19.6422 Y-21.2914 Z1.5382
G1 X19.7012 Y-21.3591 Z1.5302
G1 X19.7619 Y-21.4253 Z1.5233
G1 X19.8244 Y-21.4901 Z1.5175
G1 X19.8886 Y-21.5532 Z1.5129
G1 X19.9545 Y-21.6147 Z1.5094
G1 X20.0219 Y-21.6746 Z1.5071
G1 X20.0909 Y-21.7327 Z1.5059
G1 X20.1613 Y-21.7891 Z1.5058
G1 X20.2330 Y-21.8437 Z1.5068
G1 X20.3061 Y-21.8965 Z1.5089
G1 X20.3804 Y-21.9474 Z1.5121
G1 X20.4559 Y-21.9965 Z1.5164
G1 X20.5325 Y-22.0437 Z1.5218
G1 X20.6102 Y-22.0890 Z1.5282
G1 X20.6889 Y-22.1324 Z1.5357
G1 X20.7686 Y-22.1739 Z1.5441
G1 X20.8490 Y-22.2136 Z1.5535
G1 X20.9302 Y-22.2515 Z1.5637
G1 X21.0945 Y-22.3223 Z1.5867
G1 X21.2609 Y-22.3867 Z1.6125
G1 X21.4290 Y-22.4454 Z1.6408
G1 X21.5986 Y-22.4990 Z1.6711
G1 X21.7692 Y-22.5479 Z1.7032
G1 X21.9407 Y-22.5922 Z1.7368
G1 X22.1131 Y-22.6321 Z1.7716
G1 X22.2863 Y-22.6673 Z1.8078
G1 X22.4601 Y-22.6975 Z1.8452
G1 X22.6345 Y-22.7227 Z1.8836
G1 X22.8093 Y-22.7429 Z1.9230
G1 X22.9845 Y-22.7587 Z1.9630
G1 X23.1599 Y-22.7708 Z2.0031
G1 X23.3355 Y-22.7797 Z2.0431
G1 X23.5114 Y-22.7860 Z2.0827
G1 X23.6874 Y-22.7903 Z2.1216
G1 X24.0402 Y-22.7947 Z2.1965
G1 X24.3941 Y-22.7964 Z2.2666
G1 X24.7491 Y-22.7974 Z2.3305
G1 X25.1053 Y-22.7981 Z2.3872
G1 X25.2838 Y-22.7984 Z2.4125
G1 X25.4627 Y-22.7984 Z2.4357
G1 X25.8211 Y-22.7980 Z2.4762
G1 X26.1802 Y-22.7974 Z2.5100
G1 X26.5326 Y-22.7968 Z2.6383
G0 Z3.5100
G0 X26.5326 Y-22.7968 
G0 Z3.5100
G0 X19.1646 Y-16.7720 
G1 X19.1646 Y-16.7720 Z2.3883 F75.
G1 X19.0836 Y-17.1149 Z2.2600 F25.
G1 X19.0425 Y-17.2890 Z2.2369 F75.
G1 X19.0043 Y-17.4634 Z2.2115
G1 X18.9690 Y-17.6380 Z2.1830
G1 X18.9370 Y-17.8126 Z2.1511
G1 X18.9084 Y-17.9871 Z2.1159
G1 X18.8832 Y-18.1615 Z2.0772
G1 X18.8620 Y-18.3356 Z2.0352
G1 X18.8450 Y-18.5095 Z1.9905
G1 X18.8328 Y-18.6832 Z1.9436
G1 X18.8257 Y-18.8567 Z1.8949
G1 X18.8241 Y-19.0300 Z1.8450
G1 X18.8286 Y-19.2030 Z1.7944
G1 X18.8397 Y-19.3757 Z1.7435
G1 X18.8584 Y-19.5477 Z1.6928
G1 X18.8708 Y-19.6334 Z1.6676
G1 X18.8854 Y-19.7189 Z1.6427
G1 X18.9022 Y-19.8040 Z1.6181
G1 X18.9213 Y-19.8887 Z1.5939
G1 X18.9426 Y-19.9731 Z1.5702
G1 X18.9661 Y-20.0570 Z1.5471
G1 X18.9920 Y-20.1404 Z1.5247
G1 X19.0201 Y-20.2233 Z1.5029
G1 X19.0505 Y-20.3055 Z1.4818
G1 X19.0832 Y-20.3871 Z1.4615
G1 X19.1181 Y-20.4679 Z1.4419
G1 X19.1553 Y-20.5479 Z1.4232
G1 X19.1947 Y-20.6270 Z1.4053
G1 X19.2363 Y-20.7052 Z1.3884
G1 X19.2800 Y-20.7824 Z1.3723
G1 X19.3259 Y-20.8585 Z1.3573
G1 X19.3739 Y-20.9336 Z1.3433
G1 X19.4238 Y-21.0075 Z1.3303
G1 X19.4758 Y-21.0803 Z1.3183
G1 X19.5295 Y-21.1519 Z1.3073
G1 X19.5850 Y-21.2223 Z1.2972
G1 X19.6422 Y-21.2914 Z1.2882
G1 X19.7012 Y-21.3591 Z1.2802
G1 X19.7619 Y-21.4253 Z1.2733
G1 X19.8244 Y-21.4901 Z1.2675
G1 X19.8886 Y-21.5532 Z1.2629
G1 X19.9545 Y-21.6147 Z1.2594
G1 X20.0219 Y-21.6746 Z1.2571
G1 X20.0909 Y-21.7327 Z1.2559
G1 X20.1613 Y-21.7891 Z1.2558
G1 X20.2330 Y-21.8437 Z1.2568
G1 X20.3061 Y-21.8965 Z1.2589
G1 X20.3804 Y-21.9474 Z1.2621
G1 X20.4559 Y-21.9965 Z1.2664
G1 X20.5325 Y-22.0437 Z1.2718
G1 X20.6102 Y-22.0890 Z1.2782
G1 X20.6889 Y-22.1324 Z1.2857
G1 X20.7686 Y-22.1739 Z1.2941
G1 X20.8490 Y-22.2136 Z1.3035
G1 X20.9302 Y-22.2515 Z1.3137
G1 X21.0945 Y-22.3223 Z1.3367
G1 X21.2609 Y-22.3867 Z1.3625
G1 X21.4290 Y-22.4454 Z1.3908
G1 X21.5986 Y-22.4990 Z1.4211
G1 X21.7692 Y-22.5479 Z1.4532
G1 X21.9407 Y-22.5922 Z1.4868
G1 X22.1131 Y-22.6321 Z1.5216
G1 X22.2863 Y-22.6673 Z1.5578
G1 X22.4601 Y-22.6975 Z1.5952
G1 X22.6345 Y-22.7227 Z1.6336
G1 X22.8093 Y-22.7429 Z1.6730
G1 X22.9845 Y-22.7587 Z1.7130
G1 X23.1599 Y-22.7708 Z1.7531
G1 X23.3355 Y-22.7797 Z1.7931
G1 X23.5114 Y-22.7860 Z1.8327
G1 X23.6874 Y-22.7903 Z1.8716
G1 X24.0402 Y-22.7947 Z1.9465
G1 X24.3941 Y-22.7964 Z2.0166
G1 X24.7491 Y-22.7974 Z2.0805
G1 X25.1053 Y-22.7981 Z2.1372
G1 X25.2838 Y-22.7984 Z2.1625
G1 X25.4627 Y-22.7984 Z2.1857
G1 X25.8211 Y-22.7980 Z2.2262
G1 X26.1802 Y-22.7974 Z2.2600
G1 X26.5326 Y-22.7968 Z2.3883
G0 Z3.2600
G0 X26.5326 Y-22.7968 
G0 Z3.2600
G0 X19.1646 Y-16.7720 
G1 X19.1646 Y-16.7720 Z2.1383 F75.
G1 X19.0836 Y-17.1149 Z2.0100 F25.
G1 X19.0425 Y-17.2890 Z1.9869 F75.
G1 X19.0043 Y-17.4634 Z1.9615
G1 X18.9690 Y-17.6380 Z1.9330
G1 X18.9370 Y-17.8126 Z1.9011
G1 X18.9084 Y-17.9871 Z1.8659
G1 X18.8832 Y-18.1615 Z1.8272
G1 X18.8620 Y-18.3356 Z1.7852
G1 X18.8450 Y-18.5095 Z1.7405
G1 X18.8328 Y-18.6832 Z1.6936
G1 X18.8257 Y-18.8567 Z1.6449
G1 X18.8241 Y-19.0300 Z1.5950
G1 X18.8286 Y-19.2030 Z1.5444
G1 X18.8397 Y-19.3757 Z1.4935
G1 X18.8584 Y-19.5477 Z1.4428
G1 X18.8708 Y-19.6334 Z1.4176
G1 X18.8854 Y-19.7189 Z1.3927
G1 X18.9022 Y-19.8040 Z1.3681
G1 X18.9213 Y-19.8887 Z1.3439
G1 X18.9426 Y-19.9731 Z1.3202
G1 X18.9661 Y-20.0570 Z1.2971
G1 X18.9920 Y-20.1404 Z1.2747
G1 X19.0201 Y-20.2233 Z1.2529
G1 X19.0505 Y-20.3055 Z1.2318
G1 X19.0832 Y-20.3871 Z1.2115
G1 X19.1181 Y-20.4679 Z1.1919
G1 X19.1553 Y-20.5479 Z1.1732
G1 X19.1947 Y-20.6270 Z1.1553
G1 X19.2363 Y-20.7052 Z1.1384
G1 X19.2800 Y-20.7824 Z1.1223
G1 X19.3259 Y-20.8585 Z1.1073
G1 X19.3739 Y-20.9336 Z1.0933
G1 X19.4238 Y-21.0075 Z1.0803
G1 X19.4758 Y-21.0803 Z1.0683
G1 X19.5295 Y-21.1519 Z1.0573
G1 X19.5850 Y-21.2223 Z1.0472
G1 X19.6422 Y-21.2914 Z1.0382
G1 X19.7012 Y-21.3591 Z1.0302
G1 X19.7619 Y-21.4253 Z1.0233
G1 X19.8244 Y-21.4901 Z1.0175
G1 X19.8886 Y-21.5532 Z1.0129
G1 X19.9545 Y-21.6147 Z1.0094
G1 X20.0219 Y-21.6746 Z1.0071
G1 X20.0909 Y-21.7327 Z1.0059
G1 X20.1613 Y-21.7891 Z1.0058
G1 X20.2330 Y-21.8437 Z1.0068
G1 X20.3061 Y-21.8965 Z1.0089
G1 X20.3804 Y-21.9474 Z1.0121
G1 X20.4559 Y-21.9965 Z1.0164
G1 X20.5325 Y-22.0437 Z1.0218
G1 X20.6102 Y-22.0890 Z1.0282
G1 X20.6889 Y-22.1324 Z1.0357
G1 X20.7686 Y-22.1739 Z1.0441
G1 X20.8490 Y-22.2136 Z1.0535
G1 X20.9302 Y-22.2515 Z1.0637
G1 X21.0945 Y-22.3223 Z1.0867
G1 X21.2609 Y-22.3867 Z1.1125
G1 X21.4290 Y-22.4454 Z1.1408
G1 X21.5986 Y-22.4990 Z1.1711
G1 X21.7692 Y-22.5479 Z1.2032
G1 X21.9407 Y-22.5922 Z1.2368
G1 X22.1131 Y-22.6321 Z1.2716
G1 X22.2863 Y-22.6673 Z1.3078
G1 X22.4601 Y-22.6975 Z1.3452
G1 X22.6345 Y-22.7227 Z1.3836
G1 X22.8093 Y-22.7429 Z1.4230
G1 X22.9845 Y-22.7587 Z1.4630
G1 X23.1599 Y-22.7708 Z1.5031
G1 X23.3355 Y-22.7797 Z1.5431
G1 X23.5114 Y-22.7860 Z1.5827
G1 X23.6874 Y-22.7903 Z1.6216
G1 X24.0402 Y-22.7947 Z1.6965
G1 X24.3941 Y-22.7964 Z1.7666
G1 X24.7491 Y-22.7974 Z1.8305
G1 X25.1053 Y-22.7981 Z1.8872
G1 X25.2838 Y-22.7984 Z1.9125
G1 X25.4627 Y-22.7984 Z1.9357
G1 X25.8211 Y-22.7980 Z1.9762
G1 X26.1802 Y-22.7974 Z2.0100
G1 X26.5326 Y-22.7968 Z2.1383
G0 Z2.7625
G0 X26.5326 Y-22.7968 
G0 Z2.7625
G0 X19.1646 Y-16.7720 
G1 X19.1646 Y-16.7720 Z1.8883 F75.
G1 X19.0836 Y-17.1149 Z1.7600 F25.
G1 X19.0425 Y-17.2890 Z1.7369 F75.
G1 X19.0043 Y-17.4634 Z1.7115
G1 X18.9690 Y-17.6380 Z1.6830
G1 X18.9370 Y-17.8126 Z1.6511
G1 X18.9084 Y-17.9871 Z1.6159
G1 X18.8832 Y-18.1615 Z1.5772
G1 X18.8620 Y-18.3356 Z1.5352
G1 X18.8450 Y-18.5095 Z1.4905
G1 X18.8328 Y-18.6832 Z1.4436
G1 X18.8257 Y-18.8567 Z1.3949
G1 X18.8241 Y-19.0300 Z1.3450
G1 X18.8286 Y-19.2030 Z1.2944
G1 X18.8397 Y-19.3757 Z1.2435
G1 X18.8584 Y-19.5477 Z1.1928
G1 X18.8708 Y-19.6334 Z1.1676
G1 X18.8854 Y-19.7189 Z1.1427
G1 X18.9022 Y-19.8040 Z1.1181
G1 X18.9213 Y-19.8887 Z1.0939
G1 X18.9426 Y-19.9731 Z1.0702
G1 X18.9661 Y-20.0570 Z1.0471
G1 X18.9920 Y-20.1404 Z1.0247
G1 X19.0201 Y-20.2233 Z1.0029
G1 X19.0505 Y-20.3055 Z0.9818
G1 X19.0832 Y-20.3871 Z0.9615
G1 X19.1181 Y-20.4679 Z0.9419
G1 X19.1553 Y-20.5479 Z0.9232
G1 X19.1947 Y-20.6270 Z0.9053
G1 X19.2363 Y-20.7052 Z0.8884
G1 X19.2800 Y-20.7824 Z0.8723
G1 X19.3259 Y-20.8585 Z0.8573
G1 X19.3739 Y-20.9336 Z0.8433
G1 X19.4238 Y-21.0075 Z0.8303
G1 X19.4758 Y-21.0803 Z0.8183
G1 X19.5295 Y-21.1519 Z0.8073
G1 X19.5850 Y-21.2223 Z0.7972
G1 X19.6422 Y-21.2914 Z0.7882
G1 X19.7012 Y-21.3591 Z0.7802
G1 X19.7619 Y-21.4253 Z0.7733
G1 X19.8244 Y-21.4901 Z0.7675
G1 X19.8886 Y-21.5532 Z0.7629
G1 X19.9545 Y-21.6147 Z0.7594
G1 X20.0219 Y-21.6746 Z0.7571
G1 X20.0909 Y-21.7327 Z0.7559
G1 X20.1613 Y-21.7891 Z0.7558
G1 X20.2330 Y-21.8437 Z0.7568
G1 X20.3061 Y-21.8965 Z0.7589
G1 X20.3804 Y-21.9474 Z0.7621
G1 X20.4559 Y-21.9965 Z0.7664
G1 X20.5325 Y-22.0437 Z0.7718
G1 X20.6102 Y-22.0890 Z0.7782
G1 X20.6889 Y-22.1324 Z0.7857
G1 X20.7686 Y-22.1739 Z0.7941
G1 X20.8490 Y-22.2136 Z0.8035
G1 X20.9302 Y-22.2515 Z0.8137
G1 X21.0945 Y-22.3223 Z0.8367
G1 X21.2609 Y-22.3867 Z0.8625
G1 X21.4290 Y-22.4454 Z0.8908
G1 X21.5986 Y-22.4990 Z0.9211
G1 X21.7692 Y-22.5479 Z0.9532
G1 X21.9407 Y-22.5922 Z0.9868
G1 X22.1131 Y-22.6321 Z1.0216
G1 X22.2863 Y-22.6673 Z1.0578
G1 X22.4601 Y-22.6975 Z1.0952
G1 X22.6345 Y-22.7227 Z1.1336
G1 X22.8093 Y-22.7429 Z1.1730
G1 X22.9845 Y-22.7587 Z1.2130
G1 X23.1599 Y-22.7708 Z1.2531
G1 X23.3355 Y-22.7797 Z1.2931
G1 X23.5114 Y-22.7860 Z1.3327
G1 X23.6874 Y-22.7903 Z1.3716
G1 X24.0402 Y-22.7947 Z1.4465
G1 X24.3941 Y-22.7964 Z1.5166
G1 X24.7491 Y-22.7974 Z1.5805
G1 X25.1053 Y-22.7981 Z1.6372
G1 X25.2838 Y-22.7984 Z1.6625
G1 X25.4627 Y-22.7984 Z1.6857
G1 X25.8211 Y-22.7980 Z1.7262
G1 X26.1802 Y-22.7974 Z1.7600
G1 X26.5326 Y-22.7968 Z1.8883
G0 Z6.0000
G0 X26.5326 Y-22.7968 
M5
G53 Z
( MOP:  05-Adcock-binding-with-elbow-PT10xPT375-01 )
( FILE: G:\Shared drives\AlloyProjectFiles\Customer CAD files\Alloy-Standard-Builds-CAM\s-in\FullAdcock-Specific\05-Adcock-binding-with-elbow-PT10xPT375-01.nc)
G90
(  BEGIN TOOL LIST )
(  TOOL 6 - Downcut PT250 - DESC: 0.2500 DIA, 2 FLUTE,  CARBIDE MAT )
(  ENDOF TOOL LIST )
( 05-Adcock-binding-with-elbow-PT10xPT375-01)
( Max Depth 1.75)
T06
S12000
M3
G0 Z6.0000
G0 X34.6646 Y-16.7720 
G1 X34.6646 Y-16.7720 Z2.8883 F75.
G1 X34.5836 Y-17.1149 Z2.7600 F25.
G1 X34.5425 Y-17.2890 Z2.7369 F75.
G1 X34.5043 Y-17.4634 Z2.7115
G1 X34.4690 Y-17.6380 Z2.6830
G1 X34.4370 Y-17.8126 Z2.6511
G1 X34.4084 Y-17.9871 Z2.6159
G1 X34.3832 Y-18.1615 Z2.5772
G1 X34.3620 Y-18.3356 Z2.5352
G1 X34.3450 Y-18.5095 Z2.4905
G1 X34.3328 Y-18.6832 Z2.4436
G1 X34.3257 Y-18.8567 Z2.3949
G1 X34.3241 Y-19.0300 Z2.3450
G1 X34.3286 Y-19.2030 Z2.2944
G1 X34.3397 Y-19.3757 Z2.2435
G1 X34.3584 Y-19.5477 Z2.1928
G1 X34.3708 Y-19.6334 Z2.1676
G1 X34.3854 Y-19.7189 Z2.1427
G1 X34.4022 Y-19.8040 Z2.1181
G1 X34.4213 Y-19.8887 Z2.0939
G1 X34.4426 Y-19.9731 Z2.0702
G1 X34.4661 Y-20.0570 Z2.0471
G1 X34.4920 Y-20.1404 Z2.0247
G1 X34.5201 Y-20.2233 Z2.0029
G1 X34.5505 Y-20.3055 Z1.9818
G1 X34.5832 Y-20.3871 Z1.9615
G1 X34.6181 Y-20.4679 Z1.9419
G1 X34.6553 Y-20.5479 Z1.9232
G1 X34.6947 Y-20.6270 Z1.9053
G1 X34.7363 Y-20.7052 Z1.8884
G1 X34.7800 Y-20.7824 Z1.8723
G1 X34.8259 Y-20.8585 Z1.8573
G1 X34.8739 Y-20.9336 Z1.8433
G1 X34.9238 Y-21.0075 Z1.8303
G1 X34.9758 Y-21.0803 Z1.8183
G1 X35.0295 Y-21.1519 Z1.8073
G1 X35.0850 Y-21.2223 Z1.7972
G1 X35.1422 Y-21.2914 Z1.7882
G1 X35.2012 Y-21.3591 Z1.7802
G1 X35.2619 Y-21.4253 Z1.7733
G1 X35.3244 Y-21.4901 Z1.7675
G1 X35.3886 Y-21.5532 Z1.7629
G1 X35.4545 Y-21.6147 Z1.7594
G1 X35.5219 Y-21.6746 Z1.7571
G1 X35.5909 Y-21.7327 Z1.7559
G1 X35.6613 Y-21.7891 Z1.7558
G1 X35.7330 Y-21.8437 Z1.7568
G1 X35.8061 Y-21.8965 Z1.7589
G1 X35.8804 Y-21.9474 Z1.7621
G1 X35.9559 Y-21.9965 Z1.7664
G1 X36.0325 Y-22.0437 Z1.7718
G1 X36.1102 Y-22.0890 Z1.7782
G1 X36.1889 Y-22.1324 Z1.7857
G1 X36.2686 Y-22.1739 Z1.7941
G1 X36.3490 Y-22.2136 Z1.8035
G1 X36.4302 Y-22.2515 Z1.8137
G1 X36.5945 Y-22.3223 Z1.8367
G1 X36.7609 Y-22.3867 Z1.8625
G1 X36.9290 Y-22.4454 Z1.8908
G1 X37.0986 Y-22.4990 Z1.9211
G1 X37.2692 Y-22.5479 Z1.9532
G1 X37.4407 Y-22.5922 Z1.9868
G1 X37.6131 Y-22.6321 Z2.0216
G1 X37.7863 Y-22.6673 Z2.0578
G1 X37.9601 Y-22.6975 Z2.0952
G1 X38.1345 Y-22.7227 Z2.1336
G1 X38.3093 Y-22.7429 Z2.1730
G1 X38.4845 Y-22.7587 Z2.2130
G1 X38.6599 Y-22.7708 Z2.2531
G1 X38.8355 Y-22.7797 Z2.2931
G1 X39.0114 Y-22.7860 Z2.3327
G1 X39.1874 Y-22.7903 Z2.3716
G1 X39.5402 Y-22.7947 Z2.4465
G1 X39.8941 Y-22.7964 Z2.5166
G1 X40.2491 Y-22.7974 Z2.5805
G1 X40.6053 Y-22.7981 Z2.6372
G1 X40.7838 Y-22.7984 Z2.6625
G1 X40.9627 Y-22.7984 Z2.6857
G1 X41.3211 Y-22.7980 Z2.7262
G1 X41.6802 Y-22.7974 Z2.7600
G1 X42.0326 Y-22.7968 Z2.8883
G0 Z3.7600
G0 X42.0326 Y-22.7968 
G0 Z3.7600
G0 X34.6646 Y-16.7720 
G1 X34.6646 Y-16.7720 Z2.6383 F75.
G1 X34.5836 Y-17.1149 Z2.5100 F25.
G1 X34.5425 Y-17.2890 Z2.4869 F75.
G1 X34.5043 Y-17.4634 Z2.4615
G1 X34.4690 Y-17.6380 Z2.4330
G1 X34.4370 Y-17.8126 Z2.4011
G1 X34.4084 Y-17.9871 Z2.3659
G1 X34.3832 Y-18.1615 Z2.3272
G1 X34.3620 Y-18.3356 Z2.2852
G1 X34.3450 Y-18.5095 Z2.2405
G1 X34.3328 Y-18.6832 Z2.1936
G1 X34.3257 Y-18.8567 Z2.1449
G1 X34.3241 Y-19.0300 Z2.0950
G1 X34.3286 Y-19.2030 Z2.0444
G1 X34.3397 Y-19.3757 Z1.9935
G1 X34.3584 Y-19.5477 Z1.9428
G1 X34.3708 Y-19.6334 Z1.9176
G1 X34.3854 Y-19.7189 Z1.8927
G1 X34.4022 Y-19.8040 Z1.8681
G1 X34.4213 Y-19.8887 Z1.8439
G1 X34.4426 Y-19.9731 Z1.8202
G1 X34.4661 Y-20.0570 Z1.7971
G1 X34.4920 Y-20.1404 Z1.7747
G1 X34.5201 Y-20.2233 Z1.7529
G1 X34.5505 Y-20.3055 Z1.7318
G1 X34.5832 Y-20.3871 Z1.7115
G1 X34.6181 Y-20.4679 Z1.6919
G1 X34.6553 Y-20.5479 Z1.6732
G1 X34.6947 Y-20.6270 Z1.6553
G1 X34.7363 Y-20.7052 Z1.6384
G1 X34.7800 Y-20.7824 Z1.6223
G1 X34.8259 Y-20.8585 Z1.6073
G1 X34.8739 Y-20.9336 Z1.5933
G1 X34.9238 Y-21.0075 Z1.5803
G1 X34.9758 Y-21.0803 Z1.5683
G1 X35.0295 Y-21.1519 Z1.5573
G1 X35.0850 Y-21.2223 Z1.5472
G1 X35.1422 Y-21.2914 Z1.5382
G1 X35.2012 Y-21.3591 Z1.5302
G1 X35.2619 Y-21.4253 Z1.5233
G1 X35.3244 Y-21.4901 Z1.5175
G1 X35.3886 Y-21.5532 Z1.5129
G1 X35.4545 Y-21.6147 Z1.5094
G1 X35.5219 Y-21.6746 Z1.5071
G1 X35.5909 Y-21.7327 Z1.5059
G1 X35.6613 Y-21.7891 Z1.5058
G1 X35.7330 Y-21.8437 Z1.5068
G1 X35.8061 Y-21.8965 Z1.5089
G1 X35.8804 Y-21.9474 Z1.5121
G1 X35.9559 Y-21.9965 Z1.5164
G1 X36.0325 Y-22.0437 Z1.5218
G1 X36.1102 Y-22.0890 Z1.5282
G1 X36.1889 Y-22.1324 Z1.5357
G1 X36.2686 Y-22.1739 Z1.5441
G1 X36.3490 Y-22.2136 Z1.5535
G1 X36.4302 Y-22.2515 Z1.5637
G1 X36.5945 Y-22.3223 Z1.5867
G1 X36.7609 Y-22.3867 Z1.6125
G1 X36.9290 Y-22.4454 Z1.6408
G1 X37.0986 Y-22.4990 Z1.6711
G1 X37.2692 Y-22.5479 Z1.7032
G1 X37.4407 Y-22.5922 Z1.7368
G1 X37.6131 Y-22.6321 Z1.7716
G1 X37.7863 Y-22.6673 Z1.8078
G1 X37.9601 Y-22.6975 Z1.8452
G1 X38.1345 Y-22.7227 Z1.8836
G1 X38.3093 Y-22.7429 Z1.9230
G1 X38.4845 Y-22.7587 Z1.9630
G1 X38.6599 Y-22.7708 Z2.0031
G1 X38.8355 Y-22.7797 Z2.0431
G1 X39.0114 Y-22.7860 Z2.0827
G1 X39.1874 Y-22.7903 Z2.1216
G1 X39.5402 Y-22.7947 Z2.1965
G1 X39.8941 Y-22.7964 Z2.2666
G1 X40.2491 Y-22.7974 Z2.3305
G1 X40.6053 Y-22.7981 Z2.3872
G1 X40.7838 Y-22.7984 Z2.4125
G1 X40.9627 Y-22.7984 Z2.4357
G1 X41.3211 Y-22.7980 Z2.4762
G1 X41.6802 Y-22.7974 Z2.5100
G1 X42.0326 Y-22.7968 Z2.6383
G0 Z3.5100
G0 X42.0326 Y-22.7968 
G0 Z3.5100
G0 X34.6646 Y-16.7720 
G1 X34.6646 Y-16.7720 Z2.3883 F75.
G1 X34.5836 Y-17.1149 Z2.2600 F25.
G1 X34.5425 Y-17.2890 Z2.2369 F75.
G1 X34.5043 Y-17.4634 Z2.2115
G1 X34.4690 Y-17.6380 Z2.1830
G1 X34.4370 Y-17.8126 Z2.1511
G1 X34.4084 Y-17.9871 Z2.1159
G1 X34.3832 Y-18.1615 Z2.0772
G1 X34.3620 Y-18.3356 Z2.0352
G1 X34.3450 Y-18.5095 Z1.9905
G1 X34.3328 Y-18.6832 Z1.9436
G1 X34.3257 Y-18.8567 Z1.8949
G1 X34.3241 Y-19.0300 Z1.8450
G1 X34.3286 Y-19.2030 Z1.7944
G1 X34.3397 Y-19.3757 Z1.7435
G1 X34.3584 Y-19.5477 Z1.6928
G1 X34.3708 Y-19.6334 Z1.6676
G1 X34.3854 Y-19.7189 Z1.6427
G1 X34.4022 Y-19.8040 Z1.6181
G1 X34.4213 Y-19.8887 Z1.5939
G1 X34.4426 Y-19.9731 Z1.5702
G1 X34.4661 Y-20.0570 Z1.5471
G1 X34.4920 Y-20.1404 Z1.5247
G1 X34.5201 Y-20.2233 Z1.5029
G1 X34.5505 Y-20.3055 Z1.4818
G1 X34.5832 Y-20.3871 Z1.4615
G1 X34.6181 Y-20.4679 Z1.4419
G1 X34.6553 Y-20.5479 Z1.4232
G1 X34.6947 Y-20.6270 Z1.4053
G1 X34.7363 Y-20.7052 Z1.3884
G1 X34.7800 Y-20.7824 Z1.3723
G1 X34.8259 Y-20.8585 Z1.3573
G1 X34.8739 Y-20.9336 Z1.3433
G1 X34.9238 Y-21.0075 Z1.3303
G1 X34.9758 Y-21.0803 Z1.3183
G1 X35.0295 Y-21.1519 Z1.3073
G1 X35.0850 Y-21.2223 Z1.2972
G1 X35.1422 Y-21.2914 Z1.2882
G1 X35.2012 Y-21.3591 Z1.2802
G1 X35.2619 Y-21.4253 Z1.2733
G1 X35.3244 Y-21.4901 Z1.2675
G1 X35.3886 Y-21.5532 Z1.2629
G1 X35.4545 Y-21.6147 Z1.2594
G1 X35.5219 Y-21.6746 Z1.2571
G1 X35.5909 Y-21.7327 Z1.2559
G1 X35.6613 Y-21.7891 Z1.2558
G1 X35.7330 Y-21.8437 Z1.2568
G1 X35.8061 Y-21.8965 Z1.2589
G1 X35.8804 Y-21.9474 Z1.2621
G1 X35.9559 Y-21.9965 Z1.2664
G1 X36.0325 Y-22.0437 Z1.2718
G1 X36.1102 Y-22.0890 Z1.2782
G1 X36.1889 Y-22.1324 Z1.2857
G1 X36.2686 Y-22.1739 Z1.2941
G1 X36.3490 Y-22.2136 Z1.3035
G1 X36.4302 Y-22.2515 Z1.3137
G1 X36.5945 Y-22.3223 Z1.3367
G1 X36.7609 Y-22.3867 Z1.3625
G1 X36.9290 Y-22.4454 Z1.3908
G1 X37.0986 Y-22.4990 Z1.4211
G1 X37.2692 Y-22.5479 Z1.4532
G1 X37.4407 Y-22.5922 Z1.4868
G1 X37.6131 Y-22.6321 Z1.5216
G1 X37.7863 Y-22.6673 Z1.5578
G1 X37.9601 Y-22.6975 Z1.5952
G1 X38.1345 Y-22.7227 Z1.6336
G1 X38.3093 Y-22.7429 Z1.6730
G1 X38.4845 Y-22.7587 Z1.7130
G1 X38.6599 Y-22.7708 Z1.7531
G1 X38.8355 Y-22.7797 Z1.7931
G1 X39.0114 Y-22.7860 Z1.8327
G1 X39.1874 Y-22.7903 Z1.8716
G1 X39.5402 Y-22.7947 Z1.9465
G1 X39.8941 Y-22.7964 Z2.0166
G1 X40.2491 Y-22.7974 Z2.0805
G1 X40.6053 Y-22.7981 Z2.1372
G1 X40.7838 Y-22.7984 Z2.1625
G1 X40.9627 Y-22.7984 Z2.1857
G1 X41.3211 Y-22.7980 Z2.2262
G1 X41.6802 Y-22.7974 Z2.2600
G1 X42.0326 Y-22.7968 Z2.3883
G0 Z3.2600
G0 X42.0326 Y-22.7968 
G0 Z3.2600
G0 X34.6646 Y-16.7720 
G1 X34.6646 Y-16.7720 Z2.1383 F75.
G1 X34.5836 Y-17.1149 Z2.0100 F25.
G1 X34.5425 Y-17.2890 Z1.9869 F75.
G1 X34.5043 Y-17.4634 Z1.9615
G1 X34.4690 Y-17.6380 Z1.9330
G1 X34.4370 Y-17.8126 Z1.9011
G1 X34.4084 Y-17.9871 Z1.8659
G1 X34.3832 Y-18.1615 Z1.8272
G1 X34.3620 Y-18.3356 Z1.7852
G1 X34.3450 Y-18.5095 Z1.7405
G1 X34.3328 Y-18.6832 Z1.6936
G1 X34.3257 Y-18.8567 Z1.6449
G1 X34.3241 Y-19.0300 Z1.5950
G1 X34.3286 Y-19.2030 Z1.5444
G1 X34.3397 Y-19.3757 Z1.4935
G1 X34.3584 Y-19.5477 Z1.4428
G1 X34.3708 Y-19.6334 Z1.4176
G1 X34.3854 Y-19.7189 Z1.3927
G1 X34.4022 Y-19.8040 Z1.3681
G1 X34.4213 Y-19.8887 Z1.3439
G1 X34.4426 Y-19.9731 Z1.3202
G1 X34.4661 Y-20.0570 Z1.2971
G1 X34.4920 Y-20.1404 Z1.2747
G1 X34.5201 Y-20.2233 Z1.2529
G1 X34.5505 Y-20.3055 Z1.2318
G1 X34.5832 Y-20.3871 Z1.2115
G1 X34.6181 Y-20.4679 Z1.1919
G1 X34.6553 Y-20.5479 Z1.1732
G1 X34.6947 Y-20.6270 Z1.1553
G1 X34.7363 Y-20.7052 Z1.1384
G1 X34.7800 Y-20.7824 Z1.1223
G1 X34.8259 Y-20.8585 Z1.1073
G1 X34.8739 Y-20.9336 Z1.0933
G1 X34.9238 Y-21.0075 Z1.0803
G1 X34.9758 Y-21.0803 Z1.0683
G1 X35.0295 Y-21.1519 Z1.0573
G1 X35.0850 Y-21.2223 Z1.0472
G1 X35.1422 Y-21.2914 Z1.0382
G1 X35.2012 Y-21.3591 Z1.0302
G1 X35.2619 Y-21.4253 Z1.0233
G1 X35.3244 Y-21.4901 Z1.0175
G1 X35.3886 Y-21.5532 Z1.0129
G1 X35.4545 Y-21.6147 Z1.0094
G1 X35.5219 Y-21.6746 Z1.0071
G1 X35.5909 Y-21.7327 Z1.0059
G1 X35.6613 Y-21.7891 Z1.0058
G1 X35.7330 Y-21.8437 Z1.0068
G1 X35.8061 Y-21.8965 Z1.0089
G1 X35.8804 Y-21.9474 Z1.0121
G1 X35.9559 Y-21.9965 Z1.0164
G1 X36.0325 Y-22.0437 Z1.0218
G1 X36.1102 Y-22.0890 Z1.0282
G1 X36.1889 Y-22.1324 Z1.0357
G1 X36.2686 Y-22.1739 Z1.0441
G1 X36.3490 Y-22.2136 Z1.0535
G1 X36.4302 Y-22.2515 Z1.0637
G1 X36.5945 Y-22.3223 Z1.0867
G1 X36.7609 Y-22.3867 Z1.1125
G1 X36.9290 Y-22.4454 Z1.1408
G1 X37.0986 Y-22.4990 Z1.1711
G1 X37.2692 Y-22.5479 Z1.2032
G1 X37.4407 Y-22.5922 Z1.2368
G1 X37.6131 Y-22.6321 Z1.2716
G1 X37.7863 Y-22.6673 Z1.3078
G1 X37.9601 Y-22.6975 Z1.3452
G1 X38.1345 Y-22.7227 Z1.3836
G1 X38.3093 Y-22.7429 Z1.4230
G1 X38.4845 Y-22.7587 Z1.4630
G1 X38.6599 Y-22.7708 Z1.5031
G1 X38.8355 Y-22.7797 Z1.5431
G1 X39.0114 Y-22.7860 Z1.5827
G1 X39.1874 Y-22.7903 Z1.6216
G1 X39.5402 Y-22.7947 Z1.6965
G1 X39.8941 Y-22.7964 Z1.7666
G1 X40.2491 Y-22.7974 Z1.8305
G1 X40.6053 Y-22.7981 Z1.8872
G1 X40.7838 Y-22.7984 Z1.9125
G1 X40.9627 Y-22.7984 Z1.9357
G1 X41.3211 Y-22.7980 Z1.9762
G1 X41.6802 Y-22.7974 Z2.0100
G1 X42.0326 Y-22.7968 Z2.1383
G0 Z2.7625
G0 X42.0326 Y-22.7968 
G0 Z2.7625
G0 X34.6646 Y-16.7720 
G1 X34.6646 Y-16.7720 Z1.8883 F75.
G1 X34.5836 Y-17.1149 Z1.7600 F25.
G1 X34.5425 Y-17.2890 Z1.7369 F75.
G1 X34.5043 Y-17.4634 Z1.7115
G1 X34.4690 Y-17.6380 Z1.6830
G1 X34.4370 Y-17.8126 Z1.6511
G1 X34.4084 Y-17.9871 Z1.6159
G1 X34.3832 Y-18.1615 Z1.5772
G1 X34.3620 Y-18.3356 Z1.5352
G1 X34.3450 Y-18.5095 Z1.4905
G1 X34.3328 Y-18.6832 Z1.4436
G1 X34.3257 Y-18.8567 Z1.3949
G1 X34.3241 Y-19.0300 Z1.3450
G1 X34.3286 Y-19.2030 Z1.2944
G1 X34.3397 Y-19.3757 Z1.2435
G1 X34.3584 Y-19.5477 Z1.1928
G1 X34.3708 Y-19.6334 Z1.1676
G1 X34.3854 Y-19.7189 Z1.1427
G1 X34.4022 Y-19.8040 Z1.1181
G1 X34.4213 Y-19.8887 Z1.0939
G1 X34.4426 Y-19.9731 Z1.0702
G1 X34.4661 Y-20.0570 Z1.0471
G1 X34.4920 Y-20.1404 Z1.0247
G1 X34.5201 Y-20.2233 Z1.0029
G1 X34.5505 Y-20.3055 Z0.9818
G1 X34.5832 Y-20.3871 Z0.9615
G1 X34.6181 Y-20.4679 Z0.9419
G1 X34.6553 Y-20.5479 Z0.9232
G1 X34.6947 Y-20.6270 Z0.9053
G1 X34.7363 Y-20.7052 Z0.8884
G1 X34.7800 Y-20.7824 Z0.8723
G1 X34.8259 Y-20.8585 Z0.8573
G1 X34.8739 Y-20.9336 Z0.8433
G1 X34.9238 Y-21.0075 Z0.8303
G1 X34.9758 Y-21.0803 Z0.8183
G1 X35.0295 Y-21.1519 Z0.8073
G1 X35.0850 Y-21.2223 Z0.7972
G1 X35.1422 Y-21.2914 Z0.7882
G1 X35.2012 Y-21.3591 Z0.7802
G1 X35.2619 Y-21.4253 Z0.7733
G1 X35.3244 Y-21.4901 Z0.7675
G1 X35.3886 Y-21.5532 Z0.7629
G1 X35.4545 Y-21.6147 Z0.7594
G1 X35.5219 Y-21.6746 Z0.7571
G1 X35.5909 Y-21.7327 Z0.7559
G1 X35.6613 Y-21.7891 Z0.7558
G1 X35.7330 Y-21.8437 Z0.7568
G1 X35.8061 Y-21.8965 Z0.7589
G1 X35.8804 Y-21.9474 Z0.7621
G1 X35.9559 Y-21.9965 Z0.7664
G1 X36.0325 Y-22.0437 Z0.7718
G1 X36.1102 Y-22.0890 Z0.7782
G1 X36.1889 Y-22.1324 Z0.7857
G1 X36.2686 Y-22.1739 Z0.7941
G1 X36.3490 Y-22.2136 Z0.8035
G1 X36.4302 Y-22.2515 Z0.8137
G1 X36.5945 Y-22.3223 Z0.8367
G1 X36.7609 Y-22.3867 Z0.8625
G1 X36.9290 Y-22.4454 Z0.8908
G1 X37.0986 Y-22.4990 Z0.9211
G1 X37.2692 Y-22.5479 Z0.9532
G1 X37.4407 Y-22.5922 Z0.9868
G1 X37.6131 Y-22.6321 Z1.0216
G1 X37.7863 Y-22.6673 Z1.0578
G1 X37.9601 Y-22.6975 Z1.0952
G1 X38.1345 Y-22.7227 Z1.1336
G1 X38.3093 Y-22.7429 Z1.1730
G1 X38.4845 Y-22.7587 Z1.2130
G1 X38.6599 Y-22.7708 Z1.2531
G1 X38.8355 Y-22.7797 Z1.2931
G1 X39.0114 Y-22.7860 Z1.3327
G1 X39.1874 Y-22.7903 Z1.3716
G1 X39.5402 Y-22.7947 Z1.4465
G1 X39.8941 Y-22.7964 Z1.5166
G1 X40.2491 Y-22.7974 Z1.5805
G1 X40.6053 Y-22.7981 Z1.6372
G1 X40.7838 Y-22.7984 Z1.6625
G1 X40.9627 Y-22.7984 Z1.6857
G1 X41.3211 Y-22.7980 Z1.7262
G1 X41.6802 Y-22.7974 Z1.7600
G1 X42.0326 Y-22.7968 Z1.8883
G0 Z6.0000
G0 X42.0326 Y-22.7968 
M5
G53 Z
( END FILE 05-Adcock-binding-with-elbow-PT10xPT375-01.nc )
