( BEGIN FILE 07-FullBody-04-start.ncTNUM: -1 )
( Lefty:False Nunits:3 )
( cline: 9.733 delta:15.5 )
( start_unit: 1 num_units: 3)
( MOP:  07-FullBody-04-start )
( FILE: G:\Shared drives\AlloyProjectFiles\Customer CAD files\Alloy-Standard-Builds-CAM\s-in\Full or Blank\07-FullBody-04-start.nc)
G90
(  BEGIN TOOL LIST )
(  TOOL 2 - Drill PT3937 10mm - DESC: 0.3937 DIA, 2 FLUTE,  CARBIDE MAT )
(  ENDOF TOOL LIST )
( 07-FullBody-04-start)
T02
S6000
M3
G0 Z6.0000
G0 X4.4830 Y-23.5516 
G0 Z1.9000
G83 X4.4830 Y-23.5516 Z0.8000 R1.9000 Q0.5 F30.0
G80
G0 Z2.0500
G0 X3.4830 Y-22.5516 
G0 Z1.9000
G83 X3.4830 Y-22.5516 Z0.8000 R1.9000 Q0.5 F30.0
G80
G0 Z2.0500
G0 X3.4830 Y-12.4266 
G0 Z1.9000
G83 X3.4830 Y-12.4266 Z0.8000 R1.9000 Q0.5 F30.0
G80
G0 Z2.0500
G0 X3.4830 Y-4.5516 
G0 Z1.9000
G83 X3.4830 Y-4.5516 Z0.8000 R1.9000 Q0.5 F30.0
G80
G0 Z2.0500
G0 X7.7330 Y-5.5516 
G0 Z1.9000
G83 X7.7330 Y-5.5516 Z0.8000 R1.9000 Q0.5 F30.0
G80
G0 Z2.0500
G0 X11.7330 Y-5.5516 
G0 Z1.9000
G83 X11.7330 Y-5.5516 Z0.8000 R1.9000 Q0.5 F30.0
G80
G0 Z2.0500
G0 X15.9830 Y-4.5516 
G0 Z1.9000
G83 X15.9830 Y-4.5516 Z0.8000 R1.9000 Q0.5 F30.0
G80
G0 Z2.0500
G0 X15.9830 Y-12.4266 
G0 Z1.9000
G83 X15.9830 Y-12.4266 Z0.8000 R1.9000 Q0.5 F30.0
G80
G0 Z2.0500
G0 X15.9830 Y-22.5516 
G0 Z1.9000
G83 X15.9830 Y-22.5516 Z0.8000 R1.9000 Q0.5 F30.0
G80
G0 Z2.0500
G0 X14.9830 Y-23.5516 
G0 Z1.9000
G83 X14.9830 Y-23.5516 Z0.8000 R1.9000 Q0.5 F30.0
G80
G0 Z6.0000
G0 X14.9830 Y-23.5516 
M5
G53 Z
( MOP:  07-FullBody-04-start )
( FILE: G:\Shared drives\AlloyProjectFiles\Customer CAD files\Alloy-Standard-Builds-CAM\s-in\Full or Blank\07-FullBody-04-start.nc)
G90
(  BEGIN TOOL LIST )
(  TOOL 2 - Drill PT3937 10mm - DESC: 0.3937 DIA, 2 FLUTE,  CARBIDE MAT )
(  ENDOF TOOL LIST )
( 07-FullBody-04-start)
T02
S6000
M3
G0 Z6.0000
G0 X19.9830 Y-23.5516 
G0 Z1.9000
G83 X19.9830 Y-23.5516 Z0.8000 R1.9000 Q0.5 F30.0
G80
G0 Z2.0500
G0 X18.9830 Y-22.5516 
G0 Z1.9000
G83 X18.9830 Y-22.5516 Z0.8000 R1.9000 Q0.5 F30.0
G80
G0 Z2.0500
G0 X18.9830 Y-12.4266 
G0 Z1.9000
G83 X18.9830 Y-12.4266 Z0.8000 R1.9000 Q0.5 F30.0
G80
G0 Z2.0500
G0 X18.9830 Y-4.5516 
G0 Z1.9000
G83 X18.9830 Y-4.5516 Z0.8000 R1.9000 Q0.5 F30.0
G80
G0 Z2.0500
G0 X23.2330 Y-5.5516 
G0 Z1.9000
G83 X23.2330 Y-5.5516 Z0.8000 R1.9000 Q0.5 F30.0
G80
G0 Z2.0500
G0 X27.2330 Y-5.5516 
G0 Z1.9000
G83 X27.2330 Y-5.5516 Z0.8000 R1.9000 Q0.5 F30.0
G80
G0 Z2.0500
G0 X31.4830 Y-4.5516 
G0 Z1.9000
G83 X31.4830 Y-4.5516 Z0.8000 R1.9000 Q0.5 F30.0
G80
G0 Z2.0500
G0 X31.4830 Y-12.4266 
G0 Z1.9000
G83 X31.4830 Y-12.4266 Z0.8000 R1.9000 Q0.5 F30.0
G80
G0 Z2.0500
G0 X31.4830 Y-22.5516 
G0 Z1.9000
G83 X31.4830 Y-22.5516 Z0.8000 R1.9000 Q0.5 F30.0
G80
G0 Z2.0500
G0 X30.4830 Y-23.5516 
G0 Z1.9000
G83 X30.4830 Y-23.5516 Z0.8000 R1.9000 Q0.5 F30.0
G80
G0 Z6.0000
G0 X30.4830 Y-23.5516 
M5
G53 Z
( MOP:  07-FullBody-04-start )
( FILE: G:\Shared drives\AlloyProjectFiles\Customer CAD files\Alloy-Standard-Builds-CAM\s-in\Full or Blank\07-FullBody-04-start.nc)
G90
(  BEGIN TOOL LIST )
(  TOOL 2 - Drill PT3937 10mm - DESC: 0.3937 DIA, 2 FLUTE,  CARBIDE MAT )
(  ENDOF TOOL LIST )
( 07-FullBody-04-start)
T02
S6000
M3
G0 Z6.0000
G0 X35.4830 Y-23.5516 
G0 Z1.9000
G83 X35.4830 Y-23.5516 Z0.8000 R1.9000 Q0.5 F30.0
G80
G0 Z2.0500
G0 X34.4830 Y-22.5516 
G0 Z1.9000
G83 X34.4830 Y-22.5516 Z0.8000 R1.9000 Q0.5 F30.0
G80
G0 Z2.0500
G0 X34.4830 Y-12.4266 
G0 Z1.9000
G83 X34.4830 Y-12.4266 Z0.8000 R1.9000 Q0.5 F30.0
G80
G0 Z2.0500
G0 X34.4830 Y-4.5516 
G0 Z1.9000
G83 X34.4830 Y-4.5516 Z0.8000 R1.9000 Q0.5 F30.0
G80
G0 Z2.0500
G0 X38.7330 Y-5.5516 
G0 Z1.9000
G83 X38.7330 Y-5.5516 Z0.8000 R1.9000 Q0.5 F30.0
G80
G0 Z2.0500
G0 X42.7330 Y-5.5516 
G0 Z1.9000
G83 X42.7330 Y-5.5516 Z0.8000 R1.9000 Q0.5 F30.0
G80
G0 Z2.0500
G0 X46.9830 Y-4.5516 
G0 Z1.9000
G83 X46.9830 Y-4.5516 Z0.8000 R1.9000 Q0.5 F30.0
G80
G0 Z2.0500
G0 X46.9830 Y-12.4266 
G0 Z1.9000
G83 X46.9830 Y-12.4266 Z0.8000 R1.9000 Q0.5 F30.0
G80
G0 Z2.0500
G0 X46.9830 Y-22.5516 
G0 Z1.9000
G83 X46.9830 Y-22.5516 Z0.8000 R1.9000 Q0.5 F30.0
G80
G0 Z2.0500
G0 X45.9830 Y-23.5516 
G0 Z1.9000
G83 X45.9830 Y-23.5516 Z0.8000 R1.9000 Q0.5 F30.0
G80
G0 Z6.0000
G0 X45.9830 Y-23.5516 
M5
G53 Z
( END FILE 07-FullBody-04-start.nc )
