( BEGIN FILE Adcock-pot1-front.ncTNUM: -1 )
( Lefty:False Nunits:3 )
( cline: 9.733 delta:15.5 )
( start_unit: 1 num_units: 3)
( MOP:  Adcock-pot1-front )
( FILE: G:\Shared drives\AlloyProjectFiles\Customer CAD files\Alloy-Standard-Builds-CAM\s-in\FullAdcock-Specific\Adcock-pot1-front.nc)
G90
(  BEGIN TOOL LIST )
(  TOOL 7 - Downcut PT125 - DESC: 0.1250 DIA, 2 FLUTE,  CARBIDE MAT )
(  ENDOF TOOL LIST )
( Adcock-pot1-front)
T07
S12000
M3
G0 Z4.0000
G0 X12.7303 Y-16.4856 
G1 X12.7303 Y-16.4856 Z1.8000 F75.
G1 X12.7303 Y-16.4856 Z1.7750 F25.
G1 X12.7317 Y-16.4866 Z1.7744 F75.
G1 X12.7410 Y-16.4918 Z1.7711
G1 X12.7507 Y-16.4962 Z1.7677
G1 X12.7607 Y-16.4997 Z1.7643
G1 X12.7709 Y-16.5024 Z1.7609
G1 X12.7814 Y-16.5042 Z1.7575
G1 X12.7920 Y-16.5051 Z1.7542
G1 X12.8026 Y-16.5051 Z1.7508
G1 X12.8131 Y-16.5042 Z1.7474
G1 X12.8236 Y-16.5024 Z1.7440
G1 X12.8339 Y-16.4997 Z1.7407
G1 X12.8439 Y-16.4962 Z1.7373
G1 X12.8535 Y-16.4918 Z1.7339
G1 X12.8628 Y-16.4866 Z1.7305
G1 X12.8716 Y-16.4807 Z1.7272
G1 X12.8799 Y-16.4740 Z1.7238
G1 X12.8875 Y-16.4667 Z1.7204
G1 X12.8945 Y-16.4587 Z1.7170
G1 X12.9008 Y-16.4502 Z1.7136
G1 X12.9064 Y-16.4412 Z1.7103
G1 X12.9112 Y-16.4317 Z1.7069
G1 X12.9151 Y-16.4218 Z1.7035
G1 X12.9182 Y-16.4117 Z1.7001
G1 X12.9205 Y-16.4013 Z1.6968
G1 X12.9218 Y-16.3908 Z1.6934
G1 X12.9223 Y-16.3802 Z1.6900
G17
G3X12.6723Y-16.3802Z1.6900I-0.1250J0.0000
G3X12.9223Y-16.3802Z1.6900I0.1250J0.0000
G1 X12.8051 Y-16.5049 Z1.6900
G1 X12.8131 Y-16.5042 Z1.6874
G1 X12.8236 Y-16.5024 Z1.6840
G1 X12.8339 Y-16.4997 Z1.6807
G1 X12.8439 Y-16.4962 Z1.6773
G1 X12.8535 Y-16.4918 Z1.6739
G1 X12.8628 Y-16.4866 Z1.6705
G1 X12.8716 Y-16.4807 Z1.6672
G1 X12.8799 Y-16.4740 Z1.6638
G1 X12.8875 Y-16.4667 Z1.6604
G1 X12.8945 Y-16.4587 Z1.6570
G1 X12.9008 Y-16.4502 Z1.6536
G1 X12.9064 Y-16.4412 Z1.6503
G1 X12.9112 Y-16.4317 Z1.6469
G1 X12.9151 Y-16.4218 Z1.6435
G1 X12.9182 Y-16.4117 Z1.6401
G1 X12.9205 Y-16.4013 Z1.6368
G1 X12.9218 Y-16.3908 Z1.6334
G1 X12.9223 Y-16.3802 Z1.6300
G3X12.6723Y-16.3802Z1.6300I-0.1250J0.0000
G3X12.9223Y-16.3802Z1.6300I0.1250J0.0000
G1 X12.8051 Y-16.5049 Z1.6300
G1 X12.8131 Y-16.5042 Z1.6274
G1 X12.8236 Y-16.5024 Z1.6240
G1 X12.8339 Y-16.4997 Z1.6207
G1 X12.8439 Y-16.4962 Z1.6173
G1 X12.8535 Y-16.4918 Z1.6139
G1 X12.8628 Y-16.4866 Z1.6105
G1 X12.8716 Y-16.4807 Z1.6072
G1 X12.8799 Y-16.4740 Z1.6038
G1 X12.8875 Y-16.4667 Z1.6004
G1 X12.8945 Y-16.4587 Z1.5970
G1 X12.9008 Y-16.4502 Z1.5936
G1 X12.9064 Y-16.4412 Z1.5903
G1 X12.9112 Y-16.4317 Z1.5869
G1 X12.9151 Y-16.4218 Z1.5835
G1 X12.9182 Y-16.4117 Z1.5801
G1 X12.9205 Y-16.4013 Z1.5768
G1 X12.9218 Y-16.3908 Z1.5734
G1 X12.9223 Y-16.3802 Z1.5700
G3X12.6723Y-16.3802Z1.5700I-0.1250J0.0000
G3X12.9223Y-16.3802Z1.5700I0.1250J0.0000
G1 X12.8051 Y-16.5049 Z1.5700
G1 X12.8131 Y-16.5042 Z1.5674
G1 X12.8236 Y-16.5024 Z1.5640
G1 X12.8339 Y-16.4997 Z1.5607
G1 X12.8439 Y-16.4962 Z1.5573
G1 X12.8535 Y-16.4918 Z1.5539
G1 X12.8628 Y-16.4866 Z1.5505
G1 X12.8716 Y-16.4807 Z1.5472
G1 X12.8799 Y-16.4740 Z1.5438
G1 X12.8875 Y-16.4667 Z1.5404
G1 X12.8945 Y-16.4587 Z1.5370
G1 X12.9008 Y-16.4502 Z1.5336
G1 X12.9064 Y-16.4412 Z1.5303
G1 X12.9112 Y-16.4317 Z1.5269
G1 X12.9151 Y-16.4218 Z1.5235
G1 X12.9182 Y-16.4117 Z1.5201
G1 X12.9205 Y-16.4013 Z1.5168
G1 X12.9218 Y-16.3908 Z1.5134
G1 X12.9223 Y-16.3802 Z1.5100
G3X12.6723Y-16.3802Z1.5100I-0.1250J0.0000
G3X12.9223Y-16.3802Z1.5100I0.1250J0.0000
G1 X12.8051 Y-16.5049 Z1.5100
G1 X12.8131 Y-16.5042 Z1.5074
G1 X12.8236 Y-16.5024 Z1.5040
G1 X12.8339 Y-16.4997 Z1.5007
G1 X12.8439 Y-16.4962 Z1.4973
G1 X12.8535 Y-16.4918 Z1.4939
G1 X12.8628 Y-16.4866 Z1.4905
G1 X12.8716 Y-16.4807 Z1.4872
G1 X12.8799 Y-16.4740 Z1.4838
G1 X12.8875 Y-16.4667 Z1.4804
G1 X12.8945 Y-16.4587 Z1.4770
G1 X12.9008 Y-16.4502 Z1.4736
G1 X12.9064 Y-16.4412 Z1.4703
G1 X12.9112 Y-16.4317 Z1.4669
G1 X12.9151 Y-16.4218 Z1.4635
G1 X12.9182 Y-16.4117 Z1.4601
G1 X12.9205 Y-16.4013 Z1.4568
G1 X12.9218 Y-16.3908 Z1.4534
G1 X12.9223 Y-16.3802 Z1.4500
G3X12.6723Y-16.3802Z1.4500I-0.1250J0.0000
G3X12.9223Y-16.3802Z1.4500I0.1250J0.0000
G1 X12.7973 Y-16.3802 Z1.4500
G0 Z4.0000
G0 X12.7973 Y-16.3802 
M5
G53 Z
( MOP:  Adcock-pot1-front )
( FILE: G:\Shared drives\AlloyProjectFiles\Customer CAD files\Alloy-Standard-Builds-CAM\s-in\FullAdcock-Specific\Adcock-pot1-front.nc)
G90
(  BEGIN TOOL LIST )
(  TOOL 7 - Downcut PT125 - DESC: 0.1250 DIA, 2 FLUTE,  CARBIDE MAT )
(  ENDOF TOOL LIST )
( Adcock-pot1-front)
T07
S12000
M3
G0 Z4.0000
G0 X28.2303 Y-16.4856 
G1 X28.2303 Y-16.4856 Z1.8000 F75.
G1 X28.2303 Y-16.4856 Z1.7750 F25.
G1 X28.2317 Y-16.4866 Z1.7744 F75.
G1 X28.2410 Y-16.4918 Z1.7711
G1 X28.2507 Y-16.4962 Z1.7677
G1 X28.2607 Y-16.4997 Z1.7643
G1 X28.2709 Y-16.5024 Z1.7609
G1 X28.2814 Y-16.5042 Z1.7575
G1 X28.2920 Y-16.5051 Z1.7542
G1 X28.3026 Y-16.5051 Z1.7508
G1 X28.3131 Y-16.5042 Z1.7474
G1 X28.3236 Y-16.5024 Z1.7440
G1 X28.3339 Y-16.4997 Z1.7407
G1 X28.3439 Y-16.4962 Z1.7373
G1 X28.3535 Y-16.4918 Z1.7339
G1 X28.3628 Y-16.4866 Z1.7305
G1 X28.3716 Y-16.4807 Z1.7272
G1 X28.3799 Y-16.4740 Z1.7238
G1 X28.3875 Y-16.4667 Z1.7204
G1 X28.3945 Y-16.4587 Z1.7170
G1 X28.4008 Y-16.4502 Z1.7136
G1 X28.4064 Y-16.4412 Z1.7103
G1 X28.4112 Y-16.4317 Z1.7069
G1 X28.4151 Y-16.4218 Z1.7035
G1 X28.4182 Y-16.4117 Z1.7001
G1 X28.4205 Y-16.4013 Z1.6968
G1 X28.4218 Y-16.3908 Z1.6934
G1 X28.4223 Y-16.3802 Z1.6900
G17
G3X28.1723Y-16.3802Z1.6900I-0.1250J0.0000
G3X28.4223Y-16.3802Z1.6900I0.1250J0.0000
G1 X28.3051 Y-16.5049 Z1.6900
G1 X28.3131 Y-16.5042 Z1.6874
G1 X28.3236 Y-16.5024 Z1.6840
G1 X28.3339 Y-16.4997 Z1.6807
G1 X28.3439 Y-16.4962 Z1.6773
G1 X28.3535 Y-16.4918 Z1.6739
G1 X28.3628 Y-16.4866 Z1.6705
G1 X28.3716 Y-16.4807 Z1.6672
G1 X28.3799 Y-16.4740 Z1.6638
G1 X28.3875 Y-16.4667 Z1.6604
G1 X28.3945 Y-16.4587 Z1.6570
G1 X28.4008 Y-16.4502 Z1.6536
G1 X28.4064 Y-16.4412 Z1.6503
G1 X28.4112 Y-16.4317 Z1.6469
G1 X28.4151 Y-16.4218 Z1.6435
G1 X28.4182 Y-16.4117 Z1.6401
G1 X28.4205 Y-16.4013 Z1.6368
G1 X28.4218 Y-16.3908 Z1.6334
G1 X28.4223 Y-16.3802 Z1.6300
G3X28.1723Y-16.3802Z1.6300I-0.1250J0.0000
G3X28.4223Y-16.3802Z1.6300I0.1250J0.0000
G1 X28.3051 Y-16.5049 Z1.6300
G1 X28.3131 Y-16.5042 Z1.6274
G1 X28.3236 Y-16.5024 Z1.6240
G1 X28.3339 Y-16.4997 Z1.6207
G1 X28.3439 Y-16.4962 Z1.6173
G1 X28.3535 Y-16.4918 Z1.6139
G1 X28.3628 Y-16.4866 Z1.6105
G1 X28.3716 Y-16.4807 Z1.6072
G1 X28.3799 Y-16.4740 Z1.6038
G1 X28.3875 Y-16.4667 Z1.6004
G1 X28.3945 Y-16.4587 Z1.5970
G1 X28.4008 Y-16.4502 Z1.5936
G1 X28.4064 Y-16.4412 Z1.5903
G1 X28.4112 Y-16.4317 Z1.5869
G1 X28.4151 Y-16.4218 Z1.5835
G1 X28.4182 Y-16.4117 Z1.5801
G1 X28.4205 Y-16.4013 Z1.5768
G1 X28.4218 Y-16.3908 Z1.5734
G1 X28.4223 Y-16.3802 Z1.5700
G3X28.1723Y-16.3802Z1.5700I-0.1250J0.0000
G3X28.4223Y-16.3802Z1.5700I0.1250J0.0000
G1 X28.3051 Y-16.5049 Z1.5700
G1 X28.3131 Y-16.5042 Z1.5674
G1 X28.3236 Y-16.5024 Z1.5640
G1 X28.3339 Y-16.4997 Z1.5607
G1 X28.3439 Y-16.4962 Z1.5573
G1 X28.3535 Y-16.4918 Z1.5539
G1 X28.3628 Y-16.4866 Z1.5505
G1 X28.3716 Y-16.4807 Z1.5472
G1 X28.3799 Y-16.4740 Z1.5438
G1 X28.3875 Y-16.4667 Z1.5404
G1 X28.3945 Y-16.4587 Z1.5370
G1 X28.4008 Y-16.4502 Z1.5336
G1 X28.4064 Y-16.4412 Z1.5303
G1 X28.4112 Y-16.4317 Z1.5269
G1 X28.4151 Y-16.4218 Z1.5235
G1 X28.4182 Y-16.4117 Z1.5201
G1 X28.4205 Y-16.4013 Z1.5168
G1 X28.4218 Y-16.3908 Z1.5134
G1 X28.4223 Y-16.3802 Z1.5100
G3X28.1723Y-16.3802Z1.5100I-0.1250J0.0000
G3X28.4223Y-16.3802Z1.5100I0.1250J0.0000
G1 X28.3051 Y-16.5049 Z1.5100
G1 X28.3131 Y-16.5042 Z1.5074
G1 X28.3236 Y-16.5024 Z1.5040
G1 X28.3339 Y-16.4997 Z1.5007
G1 X28.3439 Y-16.4962 Z1.4973
G1 X28.3535 Y-16.4918 Z1.4939
G1 X28.3628 Y-16.4866 Z1.4905
G1 X28.3716 Y-16.4807 Z1.4872
G1 X28.3799 Y-16.4740 Z1.4838
G1 X28.3875 Y-16.4667 Z1.4804
G1 X28.3945 Y-16.4587 Z1.4770
G1 X28.4008 Y-16.4502 Z1.4736
G1 X28.4064 Y-16.4412 Z1.4703
G1 X28.4112 Y-16.4317 Z1.4669
G1 X28.4151 Y-16.4218 Z1.4635
G1 X28.4182 Y-16.4117 Z1.4601
G1 X28.4205 Y-16.4013 Z1.4568
G1 X28.4218 Y-16.3908 Z1.4534
G1 X28.4223 Y-16.3802 Z1.4500
G3X28.1723Y-16.3802Z1.4500I-0.1250J0.0000
G3X28.4223Y-16.3802Z1.4500I0.1250J0.0000
G1 X28.2973 Y-16.3802 Z1.4500
G0 Z4.0000
G0 X28.2973 Y-16.3802 
M5
G53 Z
( MOP:  Adcock-pot1-front )
( FILE: G:\Shared drives\AlloyProjectFiles\Customer CAD files\Alloy-Standard-Builds-CAM\s-in\FullAdcock-Specific\Adcock-pot1-front.nc)
G90
(  BEGIN TOOL LIST )
(  TOOL 7 - Downcut PT125 - DESC: 0.1250 DIA, 2 FLUTE,  CARBIDE MAT )
(  ENDOF TOOL LIST )
( Adcock-pot1-front)
T07
S12000
M3
G0 Z4.0000
G0 X43.7303 Y-16.4856 
G1 X43.7303 Y-16.4856 Z1.8000 F75.
G1 X43.7303 Y-16.4856 Z1.7750 F25.
G1 X43.7317 Y-16.4866 Z1.7744 F75.
G1 X43.7410 Y-16.4918 Z1.7711
G1 X43.7507 Y-16.4962 Z1.7677
G1 X43.7607 Y-16.4997 Z1.7643
G1 X43.7709 Y-16.5024 Z1.7609
G1 X43.7814 Y-16.5042 Z1.7575
G1 X43.7920 Y-16.5051 Z1.7542
G1 X43.8026 Y-16.5051 Z1.7508
G1 X43.8131 Y-16.5042 Z1.7474
G1 X43.8236 Y-16.5024 Z1.7440
G1 X43.8339 Y-16.4997 Z1.7407
G1 X43.8439 Y-16.4962 Z1.7373
G1 X43.8535 Y-16.4918 Z1.7339
G1 X43.8628 Y-16.4866 Z1.7305
G1 X43.8716 Y-16.4807 Z1.7272
G1 X43.8799 Y-16.4740 Z1.7238
G1 X43.8875 Y-16.4667 Z1.7204
G1 X43.8945 Y-16.4587 Z1.7170
G1 X43.9008 Y-16.4502 Z1.7136
G1 X43.9064 Y-16.4412 Z1.7103
G1 X43.9112 Y-16.4317 Z1.7069
G1 X43.9151 Y-16.4218 Z1.7035
G1 X43.9182 Y-16.4117 Z1.7001
G1 X43.9205 Y-16.4013 Z1.6968
G1 X43.9218 Y-16.3908 Z1.6934
G1 X43.9223 Y-16.3802 Z1.6900
G17
G3X43.6723Y-16.3802Z1.6900I-0.1250J0.0000
G3X43.9223Y-16.3802Z1.6900I0.1250J0.0000
G1 X43.8051 Y-16.5049 Z1.6900
G1 X43.8131 Y-16.5042 Z1.6874
G1 X43.8236 Y-16.5024 Z1.6840
G1 X43.8339 Y-16.4997 Z1.6807
G1 X43.8439 Y-16.4962 Z1.6773
G1 X43.8535 Y-16.4918 Z1.6739
G1 X43.8628 Y-16.4866 Z1.6705
G1 X43.8716 Y-16.4807 Z1.6672
G1 X43.8799 Y-16.4740 Z1.6638
G1 X43.8875 Y-16.4667 Z1.6604
G1 X43.8945 Y-16.4587 Z1.6570
G1 X43.9008 Y-16.4502 Z1.6536
G1 X43.9064 Y-16.4412 Z1.6503
G1 X43.9112 Y-16.4317 Z1.6469
G1 X43.9151 Y-16.4218 Z1.6435
G1 X43.9182 Y-16.4117 Z1.6401
G1 X43.9205 Y-16.4013 Z1.6368
G1 X43.9218 Y-16.3908 Z1.6334
G1 X43.9223 Y-16.3802 Z1.6300
G3X43.6723Y-16.3802Z1.6300I-0.1250J0.0000
G3X43.9223Y-16.3802Z1.6300I0.1250J0.0000
G1 X43.8051 Y-16.5049 Z1.6300
G1 X43.8131 Y-16.5042 Z1.6274
G1 X43.8236 Y-16.5024 Z1.6240
G1 X43.8339 Y-16.4997 Z1.6207
G1 X43.8439 Y-16.4962 Z1.6173
G1 X43.8535 Y-16.4918 Z1.6139
G1 X43.8628 Y-16.4866 Z1.6105
G1 X43.8716 Y-16.4807 Z1.6072
G1 X43.8799 Y-16.4740 Z1.6038
G1 X43.8875 Y-16.4667 Z1.6004
G1 X43.8945 Y-16.4587 Z1.5970
G1 X43.9008 Y-16.4502 Z1.5936
G1 X43.9064 Y-16.4412 Z1.5903
G1 X43.9112 Y-16.4317 Z1.5869
G1 X43.9151 Y-16.4218 Z1.5835
G1 X43.9182 Y-16.4117 Z1.5801
G1 X43.9205 Y-16.4013 Z1.5768
G1 X43.9218 Y-16.3908 Z1.5734
G1 X43.9223 Y-16.3802 Z1.5700
G3X43.6723Y-16.3802Z1.5700I-0.1250J0.0000
G3X43.9223Y-16.3802Z1.5700I0.1250J0.0000
G1 X43.8051 Y-16.5049 Z1.5700
G1 X43.8131 Y-16.5042 Z1.5674
G1 X43.8236 Y-16.5024 Z1.5640
G1 X43.8339 Y-16.4997 Z1.5607
G1 X43.8439 Y-16.4962 Z1.5573
G1 X43.8535 Y-16.4918 Z1.5539
G1 X43.8628 Y-16.4866 Z1.5505
G1 X43.8716 Y-16.4807 Z1.5472
G1 X43.8799 Y-16.4740 Z1.5438
G1 X43.8875 Y-16.4667 Z1.5404
G1 X43.8945 Y-16.4587 Z1.5370
G1 X43.9008 Y-16.4502 Z1.5336
G1 X43.9064 Y-16.4412 Z1.5303
G1 X43.9112 Y-16.4317 Z1.5269
G1 X43.9151 Y-16.4218 Z1.5235
G1 X43.9182 Y-16.4117 Z1.5201
G1 X43.9205 Y-16.4013 Z1.5168
G1 X43.9218 Y-16.3908 Z1.5134
G1 X43.9223 Y-16.3802 Z1.5100
G3X43.6723Y-16.3802Z1.5100I-0.1250J0.0000
G3X43.9223Y-16.3802Z1.5100I0.1250J0.0000
G1 X43.8051 Y-16.5049 Z1.5100
G1 X43.8131 Y-16.5042 Z1.5074
G1 X43.8236 Y-16.5024 Z1.5040
G1 X43.8339 Y-16.4997 Z1.5007
G1 X43.8439 Y-16.4962 Z1.4973
G1 X43.8535 Y-16.4918 Z1.4939
G1 X43.8628 Y-16.4866 Z1.4905
G1 X43.8716 Y-16.4807 Z1.4872
G1 X43.8799 Y-16.4740 Z1.4838
G1 X43.8875 Y-16.4667 Z1.4804
G1 X43.8945 Y-16.4587 Z1.4770
G1 X43.9008 Y-16.4502 Z1.4736
G1 X43.9064 Y-16.4412 Z1.4703
G1 X43.9112 Y-16.4317 Z1.4669
G1 X43.9151 Y-16.4218 Z1.4635
G1 X43.9182 Y-16.4117 Z1.4601
G1 X43.9205 Y-16.4013 Z1.4568
G1 X43.9218 Y-16.3908 Z1.4534
G1 X43.9223 Y-16.3802 Z1.4500
G3X43.6723Y-16.3802Z1.4500I-0.1250J0.0000
G3X43.9223Y-16.3802Z1.4500I0.1250J0.0000
G1 X43.7973 Y-16.3802 Z1.4500
G0 Z4.0000
G0 X43.7973 Y-16.3802 
M5
G53 Z
( END FILE Adcock-pot1-front.nc )
