( BEGIN FILE Adcock-BladeSwitch-front-01.ncTNUM: -1 )
( Lefty:False Nunits:3 )
( cline: 9.733 delta:15.5 )
( start_unit: 1 num_units: 3)
( MOP:  Adcock-BladeSwitch-front-01 )
( FILE: G:\Shared drives\AlloyProjectFiles\Customer CAD files\Alloy-Standard-Builds-CAM\s-in\Control\Adcock-BladeSwitch-front-01.nc)
G90
(  BEGIN TOOL LIST )
(  TOOL 7 - Downcut PT125 - DESC: 0.1250 DIA, 2 FLUTE,  CARBIDE MAT )
(  ENDOF TOOL LIST )
( Adcock-BladeSwitch-front-01)
T07
S11000
M3
G0 Z4.0000
G0 X13.7782 Y-16.5746 
G0 Z1.8500
G81 X13.7782 Y-16.5746 Z1.2500 R1.8500 F60.0
G80
G0 Z2.0000
G0 X14.6200 Y-17.9519 
G0 Z1.8500
G81 X14.6200 Y-17.9519 Z1.2500 R1.8500 F60.0
G80
G0 Z4.0000
G0 X14.6200 Y-17.9519 
M5
G53 Z
( MOP:  Adcock-BladeSwitch-front-01 )
( FILE: G:\Shared drives\AlloyProjectFiles\Customer CAD files\Alloy-Standard-Builds-CAM\s-in\Control\Adcock-BladeSwitch-front-01.nc)
G90
(  BEGIN TOOL LIST )
(  TOOL 7 - Downcut PT125 - DESC: 0.1250 DIA, 2 FLUTE,  CARBIDE MAT )
(  ENDOF TOOL LIST )
( Adcock-BladeSwitch-front-01)
T07
S11000
M3
G0 Z4.0000
G0 X29.2782 Y-16.5746 
G0 Z1.8500
G81 X29.2782 Y-16.5746 Z1.2500 R1.8500 F60.0
G80
G0 Z2.0000
G0 X30.1200 Y-17.9519 
G0 Z1.8500
G81 X30.1200 Y-17.9519 Z1.2500 R1.8500 F60.0
G80
G0 Z4.0000
G0 X30.1200 Y-17.9519 
M5
G53 Z
( MOP:  Adcock-BladeSwitch-front-01 )
( FILE: G:\Shared drives\AlloyProjectFiles\Customer CAD files\Alloy-Standard-Builds-CAM\s-in\Control\Adcock-BladeSwitch-front-01.nc)
G90
(  BEGIN TOOL LIST )
(  TOOL 7 - Downcut PT125 - DESC: 0.1250 DIA, 2 FLUTE,  CARBIDE MAT )
(  ENDOF TOOL LIST )
( Adcock-BladeSwitch-front-01)
T07
S11000
M3
G0 Z4.0000
G0 X44.7782 Y-16.5746 
G0 Z1.8500
G81 X44.7782 Y-16.5746 Z1.2500 R1.8500 F60.0
G80
G0 Z2.0000
G0 X45.6200 Y-17.9519 
G0 Z1.8500
G81 X45.6200 Y-17.9519 Z1.2500 R1.8500 F60.0
G80
G0 Z4.0000
G0 X45.6200 Y-17.9519 
M5
G53 Z
( END FILE Adcock-BladeSwitch-front-01.nc )
