( BEGIN FILE Adcock-BladeSwitch-front-02.ncTNUM: -1 )
( Lefty:False Nunits:3 )
( cline: 9.733 delta:15.5 )
( start_unit: 1 num_units: 3)
( MOP:  Adcock-BladeSwitch-front-02 )
( FILE: G:\Shared drives\AlloyProjectFiles\Customer CAD files\Alloy-Standard-Builds-CAM\s-in\Control\Adcock-BladeSwitch-front-02.nc)
G90
(  BEGIN TOOL LIST )
(  TOOL 20 - Downcut 2mm - DESC: 0.0787 DIA, 2 FLUTE,  CARBIDE MAT )
(  ENDOF TOOL LIST )
( Adcock-BladeSwitch-front-02)
T20
S14000
M3
G0 Z4.0000
G0 X14.1797 Y-17.2315 
G1 X14.1797 Y-17.2315 Z1.7750 F75.
G1 X14.4755 Y-17.7155 Z1.6750 F25.
G1 X13.9227 Y-16.8110 Z1.6750 F35.
G0 Z2.0000
G0 X13.9227 Y-16.8110 
G0 Z2.0000
G0 X14.2184 Y-17.2949 
G1 X14.2184 Y-17.2949 Z1.7000 F75.
G1 X13.9227 Y-16.8110 Z1.6000 F25.
G1 X14.4755 Y-17.7155 Z1.6000 F35.
G0 Z2.0000
G0 X14.4755 Y-17.7155 
G0 Z2.0000
G0 X14.1797 Y-17.2315 
G1 X14.1797 Y-17.2315 Z1.6250 F75.
G1 X14.4755 Y-17.7155 Z1.5250 F25.
G1 X13.9227 Y-16.8110 Z1.5250 F35.
G0 Z2.0000
G0 X13.9227 Y-16.8110 
G0 Z2.0000
G0 X14.2184 Y-17.2949 
G1 X14.2184 Y-17.2949 Z1.5500 F75.
G1 X13.9227 Y-16.8110 Z1.4500 F25.
G1 X14.4755 Y-17.7155 Z1.4500 F35.
G0 Z4.0000
G0 X14.4755 Y-17.7155 
M5
G53 Z
( MOP:  Adcock-BladeSwitch-front-02 )
( FILE: G:\Shared drives\AlloyProjectFiles\Customer CAD files\Alloy-Standard-Builds-CAM\s-in\Control\Adcock-BladeSwitch-front-02.nc)
G90
(  BEGIN TOOL LIST )
(  TOOL 20 - Downcut 2mm - DESC: 0.0787 DIA, 2 FLUTE,  CARBIDE MAT )
(  ENDOF TOOL LIST )
( Adcock-BladeSwitch-front-02)
T20
S14000
M3
G0 Z4.0000
G0 X29.6797 Y-17.2315 
G1 X29.6797 Y-17.2315 Z1.7750 F75.
G1 X29.9755 Y-17.7155 Z1.6750 F25.
G1 X29.4227 Y-16.8110 Z1.6750 F35.
G0 Z2.0000
G0 X29.4227 Y-16.8110 
G0 Z2.0000
G0 X29.7184 Y-17.2949 
G1 X29.7184 Y-17.2949 Z1.7000 F75.
G1 X29.4227 Y-16.8110 Z1.6000 F25.
G1 X29.9755 Y-17.7155 Z1.6000 F35.
G0 Z2.0000
G0 X29.9755 Y-17.7155 
G0 Z2.0000
G0 X29.6797 Y-17.2315 
G1 X29.6797 Y-17.2315 Z1.6250 F75.
G1 X29.9755 Y-17.7155 Z1.5250 F25.
G1 X29.4227 Y-16.8110 Z1.5250 F35.
G0 Z2.0000
G0 X29.4227 Y-16.8110 
G0 Z2.0000
G0 X29.7184 Y-17.2949 
G1 X29.7184 Y-17.2949 Z1.5500 F75.
G1 X29.4227 Y-16.8110 Z1.4500 F25.
G1 X29.9755 Y-17.7155 Z1.4500 F35.
G0 Z4.0000
G0 X29.9755 Y-17.7155 
M5
G53 Z
( MOP:  Adcock-BladeSwitch-front-02 )
( FILE: G:\Shared drives\AlloyProjectFiles\Customer CAD files\Alloy-Standard-Builds-CAM\s-in\Control\Adcock-BladeSwitch-front-02.nc)
G90
(  BEGIN TOOL LIST )
(  TOOL 20 - Downcut 2mm - DESC: 0.0787 DIA, 2 FLUTE,  CARBIDE MAT )
(  ENDOF TOOL LIST )
( Adcock-BladeSwitch-front-02)
T20
S14000
M3
G0 Z4.0000
G0 X45.1797 Y-17.2315 
G1 X45.1797 Y-17.2315 Z1.7750 F75.
G1 X45.4755 Y-17.7155 Z1.6750 F25.
G1 X44.9227 Y-16.8110 Z1.6750 F35.
G0 Z2.0000
G0 X44.9227 Y-16.8110 
G0 Z2.0000
G0 X45.2184 Y-17.2949 
G1 X45.2184 Y-17.2949 Z1.7000 F75.
G1 X44.9227 Y-16.8110 Z1.6000 F25.
G1 X45.4755 Y-17.7155 Z1.6000 F35.
G0 Z2.0000
G0 X45.4755 Y-17.7155 
G0 Z2.0000
G0 X45.1797 Y-17.2315 
G1 X45.1797 Y-17.2315 Z1.6250 F75.
G1 X45.4755 Y-17.7155 Z1.5250 F25.
G1 X44.9227 Y-16.8110 Z1.5250 F35.
G0 Z2.0000
G0 X44.9227 Y-16.8110 
G0 Z2.0000
G0 X45.2184 Y-17.2949 
G1 X45.2184 Y-17.2949 Z1.5500 F75.
G1 X44.9227 Y-16.8110 Z1.4500 F25.
G1 X45.4755 Y-17.7155 Z1.4500 F35.
G0 Z4.0000
G0 X45.4755 Y-17.7155 
M5
G53 Z
( END FILE Adcock-BladeSwitch-front-02.nc )
