( BEGIN FILE BackRoundover-PT5-02-back.ncTNUM: -1 )
( Lefty:False Nunits:3 )
( cline: 9.733 delta:15.5 )
( start_unit: 1 num_units: 3)
( MOP:  BackRoundover-PT5-02-back )
( FILE: G:\Shared drives\AlloyProjectFiles\Customer CAD files\Alloy-Standard-Builds-CAM\s-in\FullStandardS-Specific\BackRoundover-PT5-02-back.nc)
G90
(  BEGIN TOOL LIST )
(  TOOL 14 - Roundover PT500 - DESC: 0.5000 DIA, 2 FLUTE,  CARBIDE MAT )
(  ENDOF TOOL LIST )
( BackRoundover-PT5-02-back)
( CMT Orange tools  827.627.11 .5 Dia .5 Rad,  Cut Depth .5)
T14
S12000
M3
G0 Z4.0000
G0 X11.6677 Y-7.0549 
G1 X11.6677 Y-7.0549 Z1.5350 F75.
G17
G3X11.5427Y-7.1799Z1.5350I0.0000J-0.1250 F25.
G3X11.9623Y-7.5026Z1.5350I0.3340J0.0000 F60.
G3X12.6184Y-7.1150Z1.5350I-0.3868J1.4037
G3X13.0370Y-6.3708Z1.5350I-1.1949J1.1618
G3X13.1014Y-6.0097Z1.5350I-2.4189J0.6181
G1 X13.1106 Y-5.9166 Z1.5350
G1 X13.1236 Y-5.7251 Z1.5350
G1 X13.1396 Y-5.3428 Z1.5350
G2X13.1734Y-5.0667Z1.5350I1.8916J-0.0914
G2X13.2471Y-4.8542Z1.5350I0.8698J-0.1825
G2X13.4875Y-4.5758Z1.5350I0.6911J-0.3539
G2X14.3260Y-4.4512Z1.5350I0.5436J-0.7743
G2X14.5311Y-4.5480Z1.5350I-0.3287J-0.9618
G2X14.8341Y-4.8059Z1.5350I-0.6629J-1.0857
G2X15.0409Y-5.1075Z1.5350I-1.3016J-1.1143
G2X15.2152Y-5.4651Z1.5350I-3.5152J-1.9341
G2X15.3696Y-5.9611Z1.5350I-2.8363J-1.1554
G2X15.4828Y-6.9310Z1.5350I-4.8971J-1.0630
G1 X15.4845 Y-7.0527 Z1.5350
G1 X15.4814 Y-7.2900 Z1.5350
G2X15.3620Y-8.4607Z1.5350I-8.4374J0.2686
G1 X15.3173 Y-8.6905 Z1.5350
G2X15.1475Y-9.3304Z1.5350I-6.6171J1.4127
G1 X15.0921 Y-9.5080 Z1.5350
G1 X14.9792 Y-9.8559 Z1.5350
G3X14.7069Y-10.6957Z1.5350I43.0307J-14.4197
G3X14.5047Y-11.4814Z1.5350I7.6131J-2.3774
G3X14.4439Y-11.9218Z1.5350I3.9411J-0.7690
G3X14.4384Y-12.2690Z1.5350I2.7525J-0.2169
G3X14.4803Y-12.5976Z1.5350I2.1449J0.1063
G3X14.6392Y-13.1213Z1.5350I3.4216J0.7525
G3X14.9479Y-13.8672Z1.5350I15.7807J6.0942
G2X15.3747Y-14.8580Z1.5350I-43.9238J-19.5083
G2X15.9808Y-16.6050Z1.5350I-15.0588J-6.2026
G2X16.2714Y-17.8972Z1.5350I-11.2371J-3.2065
G2X16.3642Y-18.8196Z1.5350I-7.3326J-1.2032
G2X16.3475Y-19.4282Z1.5350I-4.8380J-0.1721
G2X16.0776Y-20.5046Z1.5350I-3.5537J0.3193
G2X15.0409Y-21.8876Z1.5350I-3.4437J1.5012
G2X14.0875Y-22.4751Z1.5350I-2.5452J3.0632
G2X13.0952Y-22.8067Z1.5350I-2.4440J5.6627
G2X12.3859Y-22.9424Z1.5350I-1.5764J6.3186
G1 X12.1524 Y-22.9695 Z1.5350
G1 X11.9135 Y-22.9894 Z1.5350
G1 X11.6650 Y-23.0034 Z1.5350
G1 X11.4025 Y-23.0124 Z1.5350
G1 X11.1208 Y-23.0178 Z1.5350
G1 X10.4855 Y-23.0217 Z1.5350
G2X8.4549Y-23.0211Z1.5350I-0.9360J301.8845
G2X7.4737Y-22.9895Z1.5350I0.0662J17.2681
G2X6.8424Y-22.9256Z1.5350I0.5390J8.4796
G2X6.2726Y-22.8142Z1.5350I0.7764J5.4839
G2X5.7422Y-22.6443Z1.5350I1.1069J4.3667
G2X5.0807Y-22.3253Z1.5350I1.8223J4.6250
G2X4.3764Y-21.8383Z1.5350I2.5003J4.3687
G2X4.0511Y-21.5307Z1.5350I2.1941J2.6462
G1 X3.9630 Y-21.4286 Z1.5350
G1 X3.8859 Y-21.3277 Z1.5350
G2X3.5903Y-20.8362Z1.5350I3.2420J2.2845
G2X3.4121Y-20.4355Z1.5350I3.6661J1.8708
G2X3.1887Y-19.4663Z1.5350I3.3187J1.2753
G2X3.1707Y-18.9337Z1.5350I4.6946J0.4250
G1 X3.1793 Y-18.7164 Z1.5350
G1 X3.1962 Y-18.4967 Z1.5350
G2X3.3380Y-17.6020Z1.5350I7.5602J-0.7396
G2X3.7298Y-16.2636Z1.5350I10.1360J-2.2411
G2X4.0748Y-15.4181Z1.5350I11.4523J-4.1795
G1 X4.2573 Y-15.0233 Z1.5350
G3X4.6046Y-14.2788Z1.5350I-33.9880J16.3083
G3X4.8160Y-13.7573Z1.5350I-7.0296J3.1532
G3X4.9193Y-13.4253Z1.5350I-3.8209J1.3703
G3X5.0051Y-12.8711Z1.5350I-2.4627J0.6650
G3X4.9465Y-12.3287Z1.5350I-1.9434J0.0645
G1 X4.9258 Y-12.2481 Z1.5350
G1 X4.9028 Y-12.1678 Z1.5350
G1 X4.8482 Y-11.9998 Z1.5350
G1 X4.7855 Y-11.8291 Z1.5350
G1 X4.7161 Y-11.6547 Z1.5350
G1 X4.4829 Y-11.1020 Z1.5350
G2X4.2542Y-10.5068Z1.5350I8.8190J3.7312
G2X4.0091Y-8.5680Z1.5350I4.5837J1.5642
G2X4.1329Y-7.9039Z1.5350I3.1799J-0.2489
G2X4.3057Y-7.5091Z1.5350I1.7553J-0.5335
G2X4.6024Y-7.1636Z1.5350I1.1137J-0.6561
G2X5.0302Y-6.9593Z1.5350I0.6335J-0.7767
G2X5.6493Y-7.0771Z1.5350I0.1684J-0.8013
G2X5.9466Y-7.4311Z1.5350I-0.4747J-0.7006
G1 X5.9736 Y-7.4958 Z1.5350
G1 X5.9960 Y-7.5628 Z1.5350
G1 X6.0288 Y-7.6848 Z1.5350
G1 X6.1207 Y-8.0864 Z1.5350
G3X6.2183Y-8.4261Z1.5350I3.3468J0.7777
G3X6.4244Y-8.8351Z1.5350I1.6304J0.5654
G1 X6.4616 Y-8.8854 Z1.5350
G1 X6.5027 Y-8.9359 Z1.5350
G3X7.7850Y-9.0708Z1.5350I0.7130J0.6153
G3X7.8090Y-8.8956Z1.5350I-0.0756J0.0996 F75.
G0 Z2.7645
G0 X7.8090 Y-8.8956 
G0 Z2.7645
G0 X11.6677 Y-7.0549 
G1 X11.6677 Y-7.0549 Z1.3100 F75.
G3X11.5427Y-7.1799Z1.3100I0.0000J-0.1250 F25.
G3X11.9623Y-7.5026Z1.3100I0.3340J0.0000 F60.
G3X12.6184Y-7.1150Z1.3100I-0.3868J1.4037
G3X13.0370Y-6.3708Z1.3100I-1.1949J1.1618
G3X13.1014Y-6.0097Z1.3100I-2.4189J0.6181
G1 X13.1106 Y-5.9166 Z1.3100
G1 X13.1236 Y-5.7251 Z1.3100
G1 X13.1396 Y-5.3428 Z1.3100
G2X13.1734Y-5.0667Z1.3100I1.8916J-0.0914
G2X13.2471Y-4.8542Z1.3100I0.8698J-0.1825
G2X13.4875Y-4.5758Z1.3100I0.6911J-0.3539
G2X14.3260Y-4.4512Z1.3100I0.5436J-0.7743
G2X14.5311Y-4.5480Z1.3100I-0.3287J-0.9618
G2X14.8341Y-4.8059Z1.3100I-0.6629J-1.0857
G2X15.0409Y-5.1075Z1.3100I-1.3016J-1.1143
G2X15.2152Y-5.4651Z1.3100I-3.5152J-1.9341
G2X15.3696Y-5.9611Z1.3100I-2.8363J-1.1554
G2X15.4828Y-6.9310Z1.3100I-4.8971J-1.0630
G1 X15.4845 Y-7.0527 Z1.3100
G1 X15.4814 Y-7.2900 Z1.3100
G2X15.3620Y-8.4607Z1.3100I-8.4374J0.2686
G1 X15.3173 Y-8.6905 Z1.3100
G2X15.1475Y-9.3304Z1.3100I-6.6171J1.4127
G1 X15.0921 Y-9.5080 Z1.3100
G1 X14.9792 Y-9.8559 Z1.3100
G3X14.7069Y-10.6957Z1.3100I43.0307J-14.4197
G3X14.5047Y-11.4814Z1.3100I7.6131J-2.3774
G3X14.4439Y-11.9218Z1.3100I3.9411J-0.7690
G3X14.4384Y-12.2690Z1.3100I2.7525J-0.2169
G3X14.4803Y-12.5976Z1.3100I2.1449J0.1063
G3X14.6392Y-13.1213Z1.3100I3.4216J0.7525
G3X14.9479Y-13.8672Z1.3100I15.7807J6.0942
G2X15.3747Y-14.8580Z1.3100I-43.9238J-19.5083
G2X15.9808Y-16.6050Z1.3100I-15.0588J-6.2026
G2X16.2714Y-17.8972Z1.3100I-11.2371J-3.2065
G2X16.3642Y-18.8196Z1.3100I-7.3326J-1.2032
G2X16.3475Y-19.4282Z1.3100I-4.8380J-0.1721
G2X16.0776Y-20.5046Z1.3100I-3.5537J0.3193
G2X15.0409Y-21.8876Z1.3100I-3.4437J1.5012
G2X14.0875Y-22.4751Z1.3100I-2.5452J3.0632
G2X13.0952Y-22.8067Z1.3100I-2.4440J5.6627
G2X12.3859Y-22.9424Z1.3100I-1.5764J6.3186
G1 X12.1524 Y-22.9695 Z1.3100
G1 X11.9135 Y-22.9894 Z1.3100
G1 X11.6650 Y-23.0034 Z1.3100
G1 X11.4025 Y-23.0124 Z1.3100
G1 X11.1208 Y-23.0178 Z1.3100
G1 X10.4855 Y-23.0217 Z1.3100
G2X8.4549Y-23.0211Z1.3100I-0.9360J301.8845
G2X7.4737Y-22.9895Z1.3100I0.0662J17.2681
G2X6.8424Y-22.9256Z1.3100I0.5390J8.4796
G2X6.2726Y-22.8142Z1.3100I0.7764J5.4839
G2X5.7422Y-22.6443Z1.3100I1.1069J4.3667
G2X5.0807Y-22.3253Z1.3100I1.8223J4.6250
G2X4.3764Y-21.8383Z1.3100I2.5003J4.3687
G2X4.0511Y-21.5307Z1.3100I2.1941J2.6462
G1 X3.9630 Y-21.4286 Z1.3100
G1 X3.8859 Y-21.3277 Z1.3100
G2X3.5903Y-20.8362Z1.3100I3.2420J2.2845
G2X3.4121Y-20.4355Z1.3100I3.6661J1.8708
G2X3.1887Y-19.4663Z1.3100I3.3187J1.2753
G2X3.1707Y-18.9337Z1.3100I4.6946J0.4250
G1 X3.1793 Y-18.7164 Z1.3100
G1 X3.1962 Y-18.4967 Z1.3100
G2X3.3380Y-17.6020Z1.3100I7.5602J-0.7396
G2X3.7298Y-16.2636Z1.3100I10.1360J-2.2411
G2X4.0748Y-15.4181Z1.3100I11.4523J-4.1795
G1 X4.2573 Y-15.0233 Z1.3100
G3X4.6046Y-14.2788Z1.3100I-33.9880J16.3083
G3X4.8160Y-13.7573Z1.3100I-7.0296J3.1532
G3X4.9193Y-13.4253Z1.3100I-3.8209J1.3703
G3X5.0051Y-12.8711Z1.3100I-2.4627J0.6650
G3X4.9465Y-12.3287Z1.3100I-1.9434J0.0645
G1 X4.9258 Y-12.2481 Z1.3100
G1 X4.9028 Y-12.1678 Z1.3100
G1 X4.8482 Y-11.9998 Z1.3100
G1 X4.7855 Y-11.8291 Z1.3100
G1 X4.7161 Y-11.6547 Z1.3100
G1 X4.4829 Y-11.1020 Z1.3100
G2X4.2542Y-10.5068Z1.3100I8.8190J3.7312
G2X4.0091Y-8.5680Z1.3100I4.5837J1.5642
G2X4.1329Y-7.9039Z1.3100I3.1799J-0.2489
G2X4.3057Y-7.5091Z1.3100I1.7553J-0.5335
G2X4.6024Y-7.1636Z1.3100I1.1137J-0.6561
G2X5.0302Y-6.9593Z1.3100I0.6335J-0.7767
G2X5.6493Y-7.0771Z1.3100I0.1684J-0.8013
G2X5.9466Y-7.4311Z1.3100I-0.4747J-0.7006
G1 X5.9736 Y-7.4958 Z1.3100
G1 X5.9960 Y-7.5628 Z1.3100
G1 X6.0288 Y-7.6848 Z1.3100
G1 X6.1207 Y-8.0864 Z1.3100
G3X6.2183Y-8.4261Z1.3100I3.3468J0.7777
G3X6.4244Y-8.8351Z1.3100I1.6304J0.5654
G1 X6.4616 Y-8.8854 Z1.3100
G1 X6.5027 Y-8.9359 Z1.3100
G3X7.7850Y-9.0708Z1.3100I0.7130J0.6153
G3X7.8090Y-8.8956Z1.3100I-0.0756J0.0996 F75.
G0 Z2.7645
G0 X7.8090 Y-8.8956 
G0 Z2.7645
G0 X11.6677 Y-7.0549 
G1 X11.6677 Y-7.0549 Z1.2600 F75.
G3X11.5427Y-7.1799Z1.2600I0.0000J-0.1250 F25.
G3X11.9623Y-7.5026Z1.2600I0.3340J0.0000 F60.
G3X12.6184Y-7.1150Z1.2600I-0.3868J1.4037
G3X13.0370Y-6.3708Z1.2600I-1.1949J1.1618
G3X13.1014Y-6.0097Z1.2600I-2.4189J0.6181
G1 X13.1106 Y-5.9166 Z1.2600
G1 X13.1236 Y-5.7251 Z1.2600
G1 X13.1396 Y-5.3428 Z1.2600
G2X13.1734Y-5.0667Z1.2600I1.8916J-0.0914
G2X13.2471Y-4.8542Z1.2600I0.8698J-0.1825
G2X13.4875Y-4.5758Z1.2600I0.6911J-0.3539
G2X14.3260Y-4.4512Z1.2600I0.5436J-0.7743
G2X14.5311Y-4.5480Z1.2600I-0.3287J-0.9618
G2X14.8341Y-4.8059Z1.2600I-0.6629J-1.0857
G2X15.0409Y-5.1075Z1.2600I-1.3016J-1.1143
G2X15.2152Y-5.4651Z1.2600I-3.5152J-1.9341
G2X15.3696Y-5.9611Z1.2600I-2.8363J-1.1554
G2X15.4828Y-6.9310Z1.2600I-4.8971J-1.0630
G1 X15.4845 Y-7.0527 Z1.2600
G1 X15.4814 Y-7.2900 Z1.2600
G2X15.3620Y-8.4607Z1.2600I-8.4374J0.2686
G1 X15.3173 Y-8.6905 Z1.2600
G2X15.1475Y-9.3304Z1.2600I-6.6171J1.4127
G1 X15.0921 Y-9.5080 Z1.2600
G1 X14.9792 Y-9.8559 Z1.2600
G3X14.7069Y-10.6957Z1.2600I43.0307J-14.4197
G3X14.5047Y-11.4814Z1.2600I7.6131J-2.3774
G3X14.4439Y-11.9218Z1.2600I3.9411J-0.7690
G3X14.4384Y-12.2690Z1.2600I2.7525J-0.2169
G3X14.4803Y-12.5976Z1.2600I2.1449J0.1063
G3X14.6392Y-13.1213Z1.2600I3.4216J0.7525
G3X14.9479Y-13.8672Z1.2600I15.7807J6.0942
G2X15.3747Y-14.8580Z1.2600I-43.9238J-19.5083
G2X15.9808Y-16.6050Z1.2600I-15.0588J-6.2026
G2X16.2714Y-17.8972Z1.2600I-11.2371J-3.2065
G2X16.3642Y-18.8196Z1.2600I-7.3326J-1.2032
G2X16.3475Y-19.4282Z1.2600I-4.8380J-0.1721
G2X16.0776Y-20.5046Z1.2600I-3.5537J0.3193
G2X15.0409Y-21.8876Z1.2600I-3.4437J1.5012
G2X14.0875Y-22.4751Z1.2600I-2.5452J3.0632
G2X13.0952Y-22.8067Z1.2600I-2.4440J5.6627
G2X12.3859Y-22.9424Z1.2600I-1.5764J6.3186
G1 X12.1524 Y-22.9695 Z1.2600
G1 X11.9135 Y-22.9894 Z1.2600
G1 X11.6650 Y-23.0034 Z1.2600
G1 X11.4025 Y-23.0124 Z1.2600
G1 X11.1208 Y-23.0178 Z1.2600
G1 X10.4855 Y-23.0217 Z1.2600
G2X8.4549Y-23.0211Z1.2600I-0.9360J301.8845
G2X7.4737Y-22.9895Z1.2600I0.0662J17.2681
G2X6.8424Y-22.9256Z1.2600I0.5390J8.4796
G2X6.2726Y-22.8142Z1.2600I0.7764J5.4839
G2X5.7422Y-22.6443Z1.2600I1.1069J4.3667
G2X5.0807Y-22.3253Z1.2600I1.8223J4.6250
G2X4.3764Y-21.8383Z1.2600I2.5003J4.3687
G2X4.0511Y-21.5307Z1.2600I2.1941J2.6462
G1 X3.9630 Y-21.4286 Z1.2600
G1 X3.8859 Y-21.3277 Z1.2600
G2X3.5903Y-20.8362Z1.2600I3.2420J2.2845
G2X3.4121Y-20.4355Z1.2600I3.6661J1.8708
G2X3.1887Y-19.4663Z1.2600I3.3187J1.2753
G2X3.1707Y-18.9337Z1.2600I4.6946J0.4250
G1 X3.1793 Y-18.7164 Z1.2600
G1 X3.1962 Y-18.4967 Z1.2600
G2X3.3380Y-17.6020Z1.2600I7.5602J-0.7396
G2X3.7298Y-16.2636Z1.2600I10.1360J-2.2411
G2X4.0748Y-15.4181Z1.2600I11.4523J-4.1795
G1 X4.2573 Y-15.0233 Z1.2600
G3X4.6046Y-14.2788Z1.2600I-33.9880J16.3083
G3X4.8160Y-13.7573Z1.2600I-7.0296J3.1532
G3X4.9193Y-13.4253Z1.2600I-3.8209J1.3703
G3X5.0051Y-12.8711Z1.2600I-2.4627J0.6650
G3X4.9465Y-12.3287Z1.2600I-1.9434J0.0645
G1 X4.9258 Y-12.2481 Z1.2600
G1 X4.9028 Y-12.1678 Z1.2600
G1 X4.8482 Y-11.9998 Z1.2600
G1 X4.7855 Y-11.8291 Z1.2600
G1 X4.7161 Y-11.6547 Z1.2600
G1 X4.4829 Y-11.1020 Z1.2600
G2X4.2542Y-10.5068Z1.2600I8.8190J3.7312
G2X4.0091Y-8.5680Z1.2600I4.5837J1.5642
G2X4.1329Y-7.9039Z1.2600I3.1799J-0.2489
G2X4.3057Y-7.5091Z1.2600I1.7553J-0.5335
G2X4.6024Y-7.1636Z1.2600I1.1137J-0.6561
G2X5.0302Y-6.9593Z1.2600I0.6335J-0.7767
G2X5.6493Y-7.0771Z1.2600I0.1684J-0.8013
G2X5.9466Y-7.4311Z1.2600I-0.4747J-0.7006
G1 X5.9736 Y-7.4958 Z1.2600
G1 X5.9960 Y-7.5628 Z1.2600
G1 X6.0288 Y-7.6848 Z1.2600
G1 X6.1207 Y-8.0864 Z1.2600
G3X6.2183Y-8.4261Z1.2600I3.3468J0.7777
G3X6.4244Y-8.8351Z1.2600I1.6304J0.5654
G1 X6.4616 Y-8.8854 Z1.2600
G1 X6.5027 Y-8.9359 Z1.2600
G3X7.7850Y-9.0708Z1.2600I0.7130J0.6153
G3X7.8090Y-8.8956Z1.2600I-0.0756J0.0996 F75.
G0 Z4.0000
G0 X7.8090 Y-8.8956 
M5
G53 Z
( MOP:  BackRoundover-PT5-02-back )
( FILE: G:\Shared drives\AlloyProjectFiles\Customer CAD files\Alloy-Standard-Builds-CAM\s-in\FullStandardS-Specific\BackRoundover-PT5-02-back.nc)
G90
(  BEGIN TOOL LIST )
(  TOOL 14 - Roundover PT500 - DESC: 0.5000 DIA, 2 FLUTE,  CARBIDE MAT )
(  ENDOF TOOL LIST )
( BackRoundover-PT5-02-back)
( CMT Orange tools  827.627.11 .5 Dia .5 Rad,  Cut Depth .5)
T14
S12000
M3
G0 Z4.0000
G0 X27.1677 Y-7.0549 
G1 X27.1677 Y-7.0549 Z1.5350 F75.
G17
G3X27.0427Y-7.1799Z1.5350I0.0000J-0.1250 F25.
G3X27.4623Y-7.5026Z1.5350I0.3340J0.0000 F60.
G3X28.1184Y-7.1150Z1.5350I-0.3868J1.4037
G3X28.5370Y-6.3708Z1.5350I-1.1949J1.1618
G3X28.6014Y-6.0097Z1.5350I-2.4189J0.6181
G1 X28.6106 Y-5.9166 Z1.5350
G1 X28.6236 Y-5.7251 Z1.5350
G1 X28.6396 Y-5.3428 Z1.5350
G2X28.6734Y-5.0667Z1.5350I1.8916J-0.0914
G2X28.7471Y-4.8542Z1.5350I0.8698J-0.1825
G2X28.9875Y-4.5758Z1.5350I0.6911J-0.3539
G2X29.8260Y-4.4512Z1.5350I0.5436J-0.7743
G2X30.0311Y-4.5480Z1.5350I-0.3287J-0.9618
G2X30.3341Y-4.8059Z1.5350I-0.6629J-1.0857
G2X30.5409Y-5.1075Z1.5350I-1.3016J-1.1143
G2X30.7152Y-5.4651Z1.5350I-3.5152J-1.9341
G2X30.8696Y-5.9611Z1.5350I-2.8363J-1.1554
G2X30.9828Y-6.9310Z1.5350I-4.8971J-1.0630
G1 X30.9845 Y-7.0527 Z1.5350
G1 X30.9814 Y-7.2900 Z1.5350
G2X30.8620Y-8.4607Z1.5350I-8.4374J0.2686
G1 X30.8173 Y-8.6905 Z1.5350
G2X30.6475Y-9.3304Z1.5350I-6.6171J1.4127
G1 X30.5921 Y-9.5080 Z1.5350
G1 X30.4792 Y-9.8559 Z1.5350
G3X30.2069Y-10.6957Z1.5350I43.0307J-14.4197
G3X30.0047Y-11.4814Z1.5350I7.6131J-2.3774
G3X29.9439Y-11.9218Z1.5350I3.9411J-0.7690
G3X29.9384Y-12.2690Z1.5350I2.7525J-0.2169
G3X29.9803Y-12.5976Z1.5350I2.1449J0.1063
G3X30.1392Y-13.1213Z1.5350I3.4216J0.7525
G3X30.4479Y-13.8672Z1.5350I15.7807J6.0942
G2X30.8747Y-14.8580Z1.5350I-43.9238J-19.5083
G2X31.4808Y-16.6050Z1.5350I-15.0588J-6.2026
G2X31.7714Y-17.8972Z1.5350I-11.2371J-3.2065
G2X31.8642Y-18.8196Z1.5350I-7.3326J-1.2032
G2X31.8475Y-19.4282Z1.5350I-4.8380J-0.1721
G2X31.5776Y-20.5046Z1.5350I-3.5537J0.3193
G2X30.5409Y-21.8876Z1.5350I-3.4437J1.5012
G2X29.5875Y-22.4751Z1.5350I-2.5452J3.0632
G2X28.5952Y-22.8067Z1.5350I-2.4440J5.6627
G2X27.8859Y-22.9424Z1.5350I-1.5764J6.3186
G1 X27.6524 Y-22.9695 Z1.5350
G1 X27.4135 Y-22.9894 Z1.5350
G1 X27.1650 Y-23.0034 Z1.5350
G1 X26.9025 Y-23.0124 Z1.5350
G1 X26.6208 Y-23.0178 Z1.5350
G1 X25.9855 Y-23.0217 Z1.5350
G2X23.9549Y-23.0211Z1.5350I-0.9360J301.8845
G2X22.9737Y-22.9895Z1.5350I0.0662J17.2681
G2X22.3424Y-22.9256Z1.5350I0.5390J8.4796
G2X21.7726Y-22.8142Z1.5350I0.7764J5.4839
G2X21.2422Y-22.6443Z1.5350I1.1069J4.3667
G2X20.5807Y-22.3253Z1.5350I1.8223J4.6250
G2X19.8764Y-21.8383Z1.5350I2.5003J4.3687
G2X19.5511Y-21.5307Z1.5350I2.1941J2.6462
G1 X19.4630 Y-21.4286 Z1.5350
G1 X19.3859 Y-21.3277 Z1.5350
G2X19.0903Y-20.8362Z1.5350I3.2420J2.2845
G2X18.9121Y-20.4355Z1.5350I3.6661J1.8708
G2X18.6887Y-19.4663Z1.5350I3.3187J1.2753
G2X18.6707Y-18.9337Z1.5350I4.6946J0.4250
G1 X18.6793 Y-18.7164 Z1.5350
G1 X18.6962 Y-18.4967 Z1.5350
G2X18.8380Y-17.6020Z1.5350I7.5602J-0.7396
G2X19.2298Y-16.2636Z1.5350I10.1360J-2.2411
G2X19.5748Y-15.4181Z1.5350I11.4523J-4.1795
G1 X19.7573 Y-15.0233 Z1.5350
G3X20.1046Y-14.2788Z1.5350I-33.9880J16.3083
G3X20.3160Y-13.7573Z1.5350I-7.0296J3.1532
G3X20.4193Y-13.4253Z1.5350I-3.8209J1.3703
G3X20.5051Y-12.8711Z1.5350I-2.4627J0.6650
G3X20.4465Y-12.3287Z1.5350I-1.9434J0.0645
G1 X20.4258 Y-12.2481 Z1.5350
G1 X20.4028 Y-12.1678 Z1.5350
G1 X20.3482 Y-11.9998 Z1.5350
G1 X20.2855 Y-11.8291 Z1.5350
G1 X20.2161 Y-11.6547 Z1.5350
G1 X19.9829 Y-11.1020 Z1.5350
G2X19.7542Y-10.5068Z1.5350I8.8190J3.7312
G2X19.5091Y-8.5680Z1.5350I4.5837J1.5642
G2X19.6329Y-7.9039Z1.5350I3.1799J-0.2489
G2X19.8057Y-7.5091Z1.5350I1.7553J-0.5335
G2X20.1024Y-7.1636Z1.5350I1.1137J-0.6561
G2X20.5302Y-6.9593Z1.5350I0.6335J-0.7767
G2X21.1493Y-7.0771Z1.5350I0.1684J-0.8013
G2X21.4466Y-7.4311Z1.5350I-0.4747J-0.7006
G1 X21.4736 Y-7.4958 Z1.5350
G1 X21.4960 Y-7.5628 Z1.5350
G1 X21.5288 Y-7.6848 Z1.5350
G1 X21.6207 Y-8.0864 Z1.5350
G3X21.7183Y-8.4261Z1.5350I3.3468J0.7777
G3X21.9244Y-8.8351Z1.5350I1.6304J0.5654
G1 X21.9616 Y-8.8854 Z1.5350
G1 X22.0027 Y-8.9359 Z1.5350
G3X23.2850Y-9.0708Z1.5350I0.7130J0.6153
G3X23.3090Y-8.8956Z1.5350I-0.0756J0.0996 F75.
G0 Z2.7645
G0 X23.3090 Y-8.8956 
G0 Z2.7645
G0 X27.1677 Y-7.0549 
G1 X27.1677 Y-7.0549 Z1.3100 F75.
G3X27.0427Y-7.1799Z1.3100I0.0000J-0.1250 F25.
G3X27.4623Y-7.5026Z1.3100I0.3340J0.0000 F60.
G3X28.1184Y-7.1150Z1.3100I-0.3868J1.4037
G3X28.5370Y-6.3708Z1.3100I-1.1949J1.1618
G3X28.6014Y-6.0097Z1.3100I-2.4189J0.6181
G1 X28.6106 Y-5.9166 Z1.3100
G1 X28.6236 Y-5.7251 Z1.3100
G1 X28.6396 Y-5.3428 Z1.3100
G2X28.6734Y-5.0667Z1.3100I1.8916J-0.0914
G2X28.7471Y-4.8542Z1.3100I0.8698J-0.1825
G2X28.9875Y-4.5758Z1.3100I0.6911J-0.3539
G2X29.8260Y-4.4512Z1.3100I0.5436J-0.7743
G2X30.0311Y-4.5480Z1.3100I-0.3287J-0.9618
G2X30.3341Y-4.8059Z1.3100I-0.6629J-1.0857
G2X30.5409Y-5.1075Z1.3100I-1.3016J-1.1143
G2X30.7152Y-5.4651Z1.3100I-3.5152J-1.9341
G2X30.8696Y-5.9611Z1.3100I-2.8363J-1.1554
G2X30.9828Y-6.9310Z1.3100I-4.8971J-1.0630
G1 X30.9845 Y-7.0527 Z1.3100
G1 X30.9814 Y-7.2900 Z1.3100
G2X30.8620Y-8.4607Z1.3100I-8.4374J0.2686
G1 X30.8173 Y-8.6905 Z1.3100
G2X30.6475Y-9.3304Z1.3100I-6.6171J1.4127
G1 X30.5921 Y-9.5080 Z1.3100
G1 X30.4792 Y-9.8559 Z1.3100
G3X30.2069Y-10.6957Z1.3100I43.0307J-14.4197
G3X30.0047Y-11.4814Z1.3100I7.6131J-2.3774
G3X29.9439Y-11.9218Z1.3100I3.9411J-0.7690
G3X29.9384Y-12.2690Z1.3100I2.7525J-0.2169
G3X29.9803Y-12.5976Z1.3100I2.1449J0.1063
G3X30.1392Y-13.1213Z1.3100I3.4216J0.7525
G3X30.4479Y-13.8672Z1.3100I15.7807J6.0942
G2X30.8747Y-14.8580Z1.3100I-43.9238J-19.5083
G2X31.4808Y-16.6050Z1.3100I-15.0588J-6.2026
G2X31.7714Y-17.8972Z1.3100I-11.2371J-3.2065
G2X31.8642Y-18.8196Z1.3100I-7.3326J-1.2032
G2X31.8475Y-19.4282Z1.3100I-4.8380J-0.1721
G2X31.5776Y-20.5046Z1.3100I-3.5537J0.3193
G2X30.5409Y-21.8876Z1.3100I-3.4437J1.5012
G2X29.5875Y-22.4751Z1.3100I-2.5452J3.0632
G2X28.5952Y-22.8067Z1.3100I-2.4440J5.6627
G2X27.8859Y-22.9424Z1.3100I-1.5764J6.3186
G1 X27.6524 Y-22.9695 Z1.3100
G1 X27.4135 Y-22.9894 Z1.3100
G1 X27.1650 Y-23.0034 Z1.3100
G1 X26.9025 Y-23.0124 Z1.3100
G1 X26.6208 Y-23.0178 Z1.3100
G1 X25.9855 Y-23.0217 Z1.3100
G2X23.9549Y-23.0211Z1.3100I-0.9360J301.8845
G2X22.9737Y-22.9895Z1.3100I0.0662J17.2681
G2X22.3424Y-22.9256Z1.3100I0.5390J8.4796
G2X21.7726Y-22.8142Z1.3100I0.7764J5.4839
G2X21.2422Y-22.6443Z1.3100I1.1069J4.3667
G2X20.5807Y-22.3253Z1.3100I1.8223J4.6250
G2X19.8764Y-21.8383Z1.3100I2.5003J4.3687
G2X19.5511Y-21.5307Z1.3100I2.1941J2.6462
G1 X19.4630 Y-21.4286 Z1.3100
G1 X19.3859 Y-21.3277 Z1.3100
G2X19.0903Y-20.8362Z1.3100I3.2420J2.2845
G2X18.9121Y-20.4355Z1.3100I3.6661J1.8708
G2X18.6887Y-19.4663Z1.3100I3.3187J1.2753
G2X18.6707Y-18.9337Z1.3100I4.6946J0.4250
G1 X18.6793 Y-18.7164 Z1.3100
G1 X18.6962 Y-18.4967 Z1.3100
G2X18.8380Y-17.6020Z1.3100I7.5602J-0.7396
G2X19.2298Y-16.2636Z1.3100I10.1360J-2.2411
G2X19.5748Y-15.4181Z1.3100I11.4523J-4.1795
G1 X19.7573 Y-15.0233 Z1.3100
G3X20.1046Y-14.2788Z1.3100I-33.9880J16.3083
G3X20.3160Y-13.7573Z1.3100I-7.0296J3.1532
G3X20.4193Y-13.4253Z1.3100I-3.8209J1.3703
G3X20.5051Y-12.8711Z1.3100I-2.4627J0.6650
G3X20.4465Y-12.3287Z1.3100I-1.9434J0.0645
G1 X20.4258 Y-12.2481 Z1.3100
G1 X20.4028 Y-12.1678 Z1.3100
G1 X20.3482 Y-11.9998 Z1.3100
G1 X20.2855 Y-11.8291 Z1.3100
G1 X20.2161 Y-11.6547 Z1.3100
G1 X19.9829 Y-11.1020 Z1.3100
G2X19.7542Y-10.5068Z1.3100I8.8190J3.7312
G2X19.5091Y-8.5680Z1.3100I4.5837J1.5642
G2X19.6329Y-7.9039Z1.3100I3.1799J-0.2489
G2X19.8057Y-7.5091Z1.3100I1.7553J-0.5335
G2X20.1024Y-7.1636Z1.3100I1.1137J-0.6561
G2X20.5302Y-6.9593Z1.3100I0.6335J-0.7767
G2X21.1493Y-7.0771Z1.3100I0.1684J-0.8013
G2X21.4466Y-7.4311Z1.3100I-0.4747J-0.7006
G1 X21.4736 Y-7.4958 Z1.3100
G1 X21.4960 Y-7.5628 Z1.3100
G1 X21.5288 Y-7.6848 Z1.3100
G1 X21.6207 Y-8.0864 Z1.3100
G3X21.7183Y-8.4261Z1.3100I3.3468J0.7777
G3X21.9244Y-8.8351Z1.3100I1.6304J0.5654
G1 X21.9616 Y-8.8854 Z1.3100
G1 X22.0027 Y-8.9359 Z1.3100
G3X23.2850Y-9.0708Z1.3100I0.7130J0.6153
G3X23.3090Y-8.8956Z1.3100I-0.0756J0.0996 F75.
G0 Z2.7645
G0 X23.3090 Y-8.8956 
G0 Z2.7645
G0 X27.1677 Y-7.0549 
G1 X27.1677 Y-7.0549 Z1.2600 F75.
G3X27.0427Y-7.1799Z1.2600I0.0000J-0.1250 F25.
G3X27.4623Y-7.5026Z1.2600I0.3340J0.0000 F60.
G3X28.1184Y-7.1150Z1.2600I-0.3868J1.4037
G3X28.5370Y-6.3708Z1.2600I-1.1949J1.1618
G3X28.6014Y-6.0097Z1.2600I-2.4189J0.6181
G1 X28.6106 Y-5.9166 Z1.2600
G1 X28.6236 Y-5.7251 Z1.2600
G1 X28.6396 Y-5.3428 Z1.2600
G2X28.6734Y-5.0667Z1.2600I1.8916J-0.0914
G2X28.7471Y-4.8542Z1.2600I0.8698J-0.1825
G2X28.9875Y-4.5758Z1.2600I0.6911J-0.3539
G2X29.8260Y-4.4512Z1.2600I0.5436J-0.7743
G2X30.0311Y-4.5480Z1.2600I-0.3287J-0.9618
G2X30.3341Y-4.8059Z1.2600I-0.6629J-1.0857
G2X30.5409Y-5.1075Z1.2600I-1.3016J-1.1143
G2X30.7152Y-5.4651Z1.2600I-3.5152J-1.9341
G2X30.8696Y-5.9611Z1.2600I-2.8363J-1.1554
G2X30.9828Y-6.9310Z1.2600I-4.8971J-1.0630
G1 X30.9845 Y-7.0527 Z1.2600
G1 X30.9814 Y-7.2900 Z1.2600
G2X30.8620Y-8.4607Z1.2600I-8.4374J0.2686
G1 X30.8173 Y-8.6905 Z1.2600
G2X30.6475Y-9.3304Z1.2600I-6.6171J1.4127
G1 X30.5921 Y-9.5080 Z1.2600
G1 X30.4792 Y-9.8559 Z1.2600
G3X30.2069Y-10.6957Z1.2600I43.0307J-14.4197
G3X30.0047Y-11.4814Z1.2600I7.6131J-2.3774
G3X29.9439Y-11.9218Z1.2600I3.9411J-0.7690
G3X29.9384Y-12.2690Z1.2600I2.7525J-0.2169
G3X29.9803Y-12.5976Z1.2600I2.1449J0.1063
G3X30.1392Y-13.1213Z1.2600I3.4216J0.7525
G3X30.4479Y-13.8672Z1.2600I15.7807J6.0942
G2X30.8747Y-14.8580Z1.2600I-43.9238J-19.5083
G2X31.4808Y-16.6050Z1.2600I-15.0588J-6.2026
G2X31.7714Y-17.8972Z1.2600I-11.2371J-3.2065
G2X31.8642Y-18.8196Z1.2600I-7.3326J-1.2032
G2X31.8475Y-19.4282Z1.2600I-4.8380J-0.1721
G2X31.5776Y-20.5046Z1.2600I-3.5537J0.3193
G2X30.5409Y-21.8876Z1.2600I-3.4437J1.5012
G2X29.5875Y-22.4751Z1.2600I-2.5452J3.0632
G2X28.5952Y-22.8067Z1.2600I-2.4440J5.6627
G2X27.8859Y-22.9424Z1.2600I-1.5764J6.3186
G1 X27.6524 Y-22.9695 Z1.2600
G1 X27.4135 Y-22.9894 Z1.2600
G1 X27.1650 Y-23.0034 Z1.2600
G1 X26.9025 Y-23.0124 Z1.2600
G1 X26.6208 Y-23.0178 Z1.2600
G1 X25.9855 Y-23.0217 Z1.2600
G2X23.9549Y-23.0211Z1.2600I-0.9360J301.8845
G2X22.9737Y-22.9895Z1.2600I0.0662J17.2681
G2X22.3424Y-22.9256Z1.2600I0.5390J8.4796
G2X21.7726Y-22.8142Z1.2600I0.7764J5.4839
G2X21.2422Y-22.6443Z1.2600I1.1069J4.3667
G2X20.5807Y-22.3253Z1.2600I1.8223J4.6250
G2X19.8764Y-21.8383Z1.2600I2.5003J4.3687
G2X19.5511Y-21.5307Z1.2600I2.1941J2.6462
G1 X19.4630 Y-21.4286 Z1.2600
G1 X19.3859 Y-21.3277 Z1.2600
G2X19.0903Y-20.8362Z1.2600I3.2420J2.2845
G2X18.9121Y-20.4355Z1.2600I3.6661J1.8708
G2X18.6887Y-19.4663Z1.2600I3.3187J1.2753
G2X18.6707Y-18.9337Z1.2600I4.6946J0.4250
G1 X18.6793 Y-18.7164 Z1.2600
G1 X18.6962 Y-18.4967 Z1.2600
G2X18.8380Y-17.6020Z1.2600I7.5602J-0.7396
G2X19.2298Y-16.2636Z1.2600I10.1360J-2.2411
G2X19.5748Y-15.4181Z1.2600I11.4523J-4.1795
G1 X19.7573 Y-15.0233 Z1.2600
G3X20.1046Y-14.2788Z1.2600I-33.9880J16.3083
G3X20.3160Y-13.7573Z1.2600I-7.0296J3.1532
G3X20.4193Y-13.4253Z1.2600I-3.8209J1.3703
G3X20.5051Y-12.8711Z1.2600I-2.4627J0.6650
G3X20.4465Y-12.3287Z1.2600I-1.9434J0.0645
G1 X20.4258 Y-12.2481 Z1.2600
G1 X20.4028 Y-12.1678 Z1.2600
G1 X20.3482 Y-11.9998 Z1.2600
G1 X20.2855 Y-11.8291 Z1.2600
G1 X20.2161 Y-11.6547 Z1.2600
G1 X19.9829 Y-11.1020 Z1.2600
G2X19.7542Y-10.5068Z1.2600I8.8190J3.7312
G2X19.5091Y-8.5680Z1.2600I4.5837J1.5642
G2X19.6329Y-7.9039Z1.2600I3.1799J-0.2489
G2X19.8057Y-7.5091Z1.2600I1.7553J-0.5335
G2X20.1024Y-7.1636Z1.2600I1.1137J-0.6561
G2X20.5302Y-6.9593Z1.2600I0.6335J-0.7767
G2X21.1493Y-7.0771Z1.2600I0.1684J-0.8013
G2X21.4466Y-7.4311Z1.2600I-0.4747J-0.7006
G1 X21.4736 Y-7.4958 Z1.2600
G1 X21.4960 Y-7.5628 Z1.2600
G1 X21.5288 Y-7.6848 Z1.2600
G1 X21.6207 Y-8.0864 Z1.2600
G3X21.7183Y-8.4261Z1.2600I3.3468J0.7777
G3X21.9244Y-8.8351Z1.2600I1.6304J0.5654
G1 X21.9616 Y-8.8854 Z1.2600
G1 X22.0027 Y-8.9359 Z1.2600
G3X23.2850Y-9.0708Z1.2600I0.7130J0.6153
G3X23.3090Y-8.8956Z1.2600I-0.0756J0.0996 F75.
G0 Z4.0000
G0 X23.3090 Y-8.8956 
M5
G53 Z
( MOP:  BackRoundover-PT5-02-back )
( FILE: G:\Shared drives\AlloyProjectFiles\Customer CAD files\Alloy-Standard-Builds-CAM\s-in\FullStandardS-Specific\BackRoundover-PT5-02-back.nc)
G90
(  BEGIN TOOL LIST )
(  TOOL 14 - Roundover PT500 - DESC: 0.5000 DIA, 2 FLUTE,  CARBIDE MAT )
(  ENDOF TOOL LIST )
( BackRoundover-PT5-02-back)
( CMT Orange tools  827.627.11 .5 Dia .5 Rad,  Cut Depth .5)
T14
S12000
M3
G0 Z4.0000
G0 X42.6677 Y-7.0549 
G1 X42.6677 Y-7.0549 Z1.5350 F75.
G17
G3X42.5427Y-7.1799Z1.5350I0.0000J-0.1250 F25.
G3X42.9623Y-7.5026Z1.5350I0.3340J0.0000 F60.
G3X43.6184Y-7.1150Z1.5350I-0.3868J1.4037
G3X44.0370Y-6.3708Z1.5350I-1.1949J1.1618
G3X44.1014Y-6.0097Z1.5350I-2.4189J0.6181
G1 X44.1106 Y-5.9166 Z1.5350
G1 X44.1236 Y-5.7251 Z1.5350
G1 X44.1396 Y-5.3428 Z1.5350
G2X44.1734Y-5.0667Z1.5350I1.8916J-0.0914
G2X44.2471Y-4.8542Z1.5350I0.8698J-0.1825
G2X44.4875Y-4.5758Z1.5350I0.6911J-0.3539
G2X45.3260Y-4.4512Z1.5350I0.5436J-0.7743
G2X45.5311Y-4.5480Z1.5350I-0.3287J-0.9618
G2X45.8341Y-4.8059Z1.5350I-0.6629J-1.0857
G2X46.0409Y-5.1075Z1.5350I-1.3016J-1.1143
G2X46.2152Y-5.4651Z1.5350I-3.5152J-1.9341
G2X46.3696Y-5.9611Z1.5350I-2.8363J-1.1554
G2X46.4828Y-6.9310Z1.5350I-4.8971J-1.0630
G1 X46.4845 Y-7.0527 Z1.5350
G1 X46.4814 Y-7.2900 Z1.5350
G2X46.3620Y-8.4607Z1.5350I-8.4374J0.2686
G1 X46.3173 Y-8.6905 Z1.5350
G2X46.1475Y-9.3304Z1.5350I-6.6171J1.4127
G1 X46.0921 Y-9.5080 Z1.5350
G1 X45.9792 Y-9.8559 Z1.5350
G3X45.7069Y-10.6957Z1.5350I43.0307J-14.4197
G3X45.5047Y-11.4814Z1.5350I7.6131J-2.3774
G3X45.4439Y-11.9218Z1.5350I3.9411J-0.7690
G3X45.4384Y-12.2690Z1.5350I2.7525J-0.2169
G3X45.4803Y-12.5976Z1.5350I2.1449J0.1063
G3X45.6392Y-13.1213Z1.5350I3.4216J0.7525
G3X45.9479Y-13.8672Z1.5350I15.7807J6.0942
G2X46.3747Y-14.8580Z1.5350I-43.9238J-19.5083
G2X46.9808Y-16.6050Z1.5350I-15.0588J-6.2026
G2X47.2714Y-17.8972Z1.5350I-11.2371J-3.2065
G2X47.3642Y-18.8196Z1.5350I-7.3326J-1.2032
G2X47.3475Y-19.4282Z1.5350I-4.8380J-0.1721
G2X47.0776Y-20.5046Z1.5350I-3.5537J0.3193
G2X46.0409Y-21.8876Z1.5350I-3.4437J1.5012
G2X45.0875Y-22.4751Z1.5350I-2.5452J3.0632
G2X44.0952Y-22.8067Z1.5350I-2.4440J5.6627
G2X43.3859Y-22.9424Z1.5350I-1.5764J6.3186
G1 X43.1524 Y-22.9695 Z1.5350
G1 X42.9135 Y-22.9894 Z1.5350
G1 X42.6650 Y-23.0034 Z1.5350
G1 X42.4025 Y-23.0124 Z1.5350
G1 X42.1208 Y-23.0178 Z1.5350
G1 X41.4855 Y-23.0217 Z1.5350
G2X39.4549Y-23.0211Z1.5350I-0.9360J301.8845
G2X38.4737Y-22.9895Z1.5350I0.0662J17.2681
G2X37.8424Y-22.9256Z1.5350I0.5390J8.4796
G2X37.2726Y-22.8142Z1.5350I0.7764J5.4839
G2X36.7422Y-22.6443Z1.5350I1.1069J4.3667
G2X36.0807Y-22.3253Z1.5350I1.8223J4.6250
G2X35.3764Y-21.8383Z1.5350I2.5003J4.3687
G2X35.0511Y-21.5307Z1.5350I2.1941J2.6462
G1 X34.9630 Y-21.4286 Z1.5350
G1 X34.8859 Y-21.3277 Z1.5350
G2X34.5903Y-20.8362Z1.5350I3.2420J2.2845
G2X34.4121Y-20.4355Z1.5350I3.6661J1.8708
G2X34.1887Y-19.4663Z1.5350I3.3187J1.2753
G2X34.1707Y-18.9337Z1.5350I4.6946J0.4250
G1 X34.1793 Y-18.7164 Z1.5350
G1 X34.1962 Y-18.4967 Z1.5350
G2X34.3380Y-17.6020Z1.5350I7.5602J-0.7396
G2X34.7298Y-16.2636Z1.5350I10.1360J-2.2411
G2X35.0748Y-15.4181Z1.5350I11.4523J-4.1795
G1 X35.2573 Y-15.0233 Z1.5350
G3X35.6046Y-14.2788Z1.5350I-33.9880J16.3083
G3X35.8160Y-13.7573Z1.5350I-7.0296J3.1532
G3X35.9193Y-13.4253Z1.5350I-3.8209J1.3703
G3X36.0051Y-12.8711Z1.5350I-2.4627J0.6650
G3X35.9465Y-12.3287Z1.5350I-1.9434J0.0645
G1 X35.9258 Y-12.2481 Z1.5350
G1 X35.9028 Y-12.1678 Z1.5350
G1 X35.8482 Y-11.9998 Z1.5350
G1 X35.7855 Y-11.8291 Z1.5350
G1 X35.7161 Y-11.6547 Z1.5350
G1 X35.4829 Y-11.1020 Z1.5350
G2X35.2542Y-10.5068Z1.5350I8.8190J3.7312
G2X35.0091Y-8.5680Z1.5350I4.5837J1.5642
G2X35.1329Y-7.9039Z1.5350I3.1799J-0.2489
G2X35.3057Y-7.5091Z1.5350I1.7553J-0.5335
G2X35.6024Y-7.1636Z1.5350I1.1137J-0.6561
G2X36.0302Y-6.9593Z1.5350I0.6335J-0.7767
G2X36.6493Y-7.0771Z1.5350I0.1684J-0.8013
G2X36.9466Y-7.4311Z1.5350I-0.4747J-0.7006
G1 X36.9736 Y-7.4958 Z1.5350
G1 X36.9960 Y-7.5628 Z1.5350
G1 X37.0288 Y-7.6848 Z1.5350
G1 X37.1207 Y-8.0864 Z1.5350
G3X37.2183Y-8.4261Z1.5350I3.3468J0.7777
G3X37.4244Y-8.8351Z1.5350I1.6304J0.5654
G1 X37.4616 Y-8.8854 Z1.5350
G1 X37.5027 Y-8.9359 Z1.5350
G3X38.7850Y-9.0708Z1.5350I0.7130J0.6153
G3X38.8090Y-8.8956Z1.5350I-0.0756J0.0996 F75.
G0 Z2.7645
G0 X38.8090 Y-8.8956 
G0 Z2.7645
G0 X42.6677 Y-7.0549 
G1 X42.6677 Y-7.0549 Z1.3100 F75.
G3X42.5427Y-7.1799Z1.3100I0.0000J-0.1250 F25.
G3X42.9623Y-7.5026Z1.3100I0.3340J0.0000 F60.
G3X43.6184Y-7.1150Z1.3100I-0.3868J1.4037
G3X44.0370Y-6.3708Z1.3100I-1.1949J1.1618
G3X44.1014Y-6.0097Z1.3100I-2.4189J0.6181
G1 X44.1106 Y-5.9166 Z1.3100
G1 X44.1236 Y-5.7251 Z1.3100
G1 X44.1396 Y-5.3428 Z1.3100
G2X44.1734Y-5.0667Z1.3100I1.8916J-0.0914
G2X44.2471Y-4.8542Z1.3100I0.8698J-0.1825
G2X44.4875Y-4.5758Z1.3100I0.6911J-0.3539
G2X45.3260Y-4.4512Z1.3100I0.5436J-0.7743
G2X45.5311Y-4.5480Z1.3100I-0.3287J-0.9618
G2X45.8341Y-4.8059Z1.3100I-0.6629J-1.0857
G2X46.0409Y-5.1075Z1.3100I-1.3016J-1.1143
G2X46.2152Y-5.4651Z1.3100I-3.5152J-1.9341
G2X46.3696Y-5.9611Z1.3100I-2.8363J-1.1554
G2X46.4828Y-6.9310Z1.3100I-4.8971J-1.0630
G1 X46.4845 Y-7.0527 Z1.3100
G1 X46.4814 Y-7.2900 Z1.3100
G2X46.3620Y-8.4607Z1.3100I-8.4374J0.2686
G1 X46.3173 Y-8.6905 Z1.3100
G2X46.1475Y-9.3304Z1.3100I-6.6171J1.4127
G1 X46.0921 Y-9.5080 Z1.3100
G1 X45.9792 Y-9.8559 Z1.3100
G3X45.7069Y-10.6957Z1.3100I43.0307J-14.4197
G3X45.5047Y-11.4814Z1.3100I7.6131J-2.3774
G3X45.4439Y-11.9218Z1.3100I3.9411J-0.7690
G3X45.4384Y-12.2690Z1.3100I2.7525J-0.2169
G3X45.4803Y-12.5976Z1.3100I2.1449J0.1063
G3X45.6392Y-13.1213Z1.3100I3.4216J0.7525
G3X45.9479Y-13.8672Z1.3100I15.7807J6.0942
G2X46.3747Y-14.8580Z1.3100I-43.9238J-19.5083
G2X46.9808Y-16.6050Z1.3100I-15.0588J-6.2026
G2X47.2714Y-17.8972Z1.3100I-11.2371J-3.2065
G2X47.3642Y-18.8196Z1.3100I-7.3326J-1.2032
G2X47.3475Y-19.4282Z1.3100I-4.8380J-0.1721
G2X47.0776Y-20.5046Z1.3100I-3.5537J0.3193
G2X46.0409Y-21.8876Z1.3100I-3.4437J1.5012
G2X45.0875Y-22.4751Z1.3100I-2.5452J3.0632
G2X44.0952Y-22.8067Z1.3100I-2.4440J5.6627
G2X43.3859Y-22.9424Z1.3100I-1.5764J6.3186
G1 X43.1524 Y-22.9695 Z1.3100
G1 X42.9135 Y-22.9894 Z1.3100
G1 X42.6650 Y-23.0034 Z1.3100
G1 X42.4025 Y-23.0124 Z1.3100
G1 X42.1208 Y-23.0178 Z1.3100
G1 X41.4855 Y-23.0217 Z1.3100
G2X39.4549Y-23.0211Z1.3100I-0.9360J301.8845
G2X38.4737Y-22.9895Z1.3100I0.0662J17.2681
G2X37.8424Y-22.9256Z1.3100I0.5390J8.4796
G2X37.2726Y-22.8142Z1.3100I0.7764J5.4839
G2X36.7422Y-22.6443Z1.3100I1.1069J4.3667
G2X36.0807Y-22.3253Z1.3100I1.8223J4.6250
G2X35.3764Y-21.8383Z1.3100I2.5003J4.3687
G2X35.0511Y-21.5307Z1.3100I2.1941J2.6462
G1 X34.9630 Y-21.4286 Z1.3100
G1 X34.8859 Y-21.3277 Z1.3100
G2X34.5903Y-20.8362Z1.3100I3.2420J2.2845
G2X34.4121Y-20.4355Z1.3100I3.6661J1.8708
G2X34.1887Y-19.4663Z1.3100I3.3187J1.2753
G2X34.1707Y-18.9337Z1.3100I4.6946J0.4250
G1 X34.1793 Y-18.7164 Z1.3100
G1 X34.1962 Y-18.4967 Z1.3100
G2X34.3380Y-17.6020Z1.3100I7.5602J-0.7396
G2X34.7298Y-16.2636Z1.3100I10.1360J-2.2411
G2X35.0748Y-15.4181Z1.3100I11.4523J-4.1795
G1 X35.2573 Y-15.0233 Z1.3100
G3X35.6046Y-14.2788Z1.3100I-33.9880J16.3083
G3X35.8160Y-13.7573Z1.3100I-7.0296J3.1532
G3X35.9193Y-13.4253Z1.3100I-3.8209J1.3703
G3X36.0051Y-12.8711Z1.3100I-2.4627J0.6650
G3X35.9465Y-12.3287Z1.3100I-1.9434J0.0645
G1 X35.9258 Y-12.2481 Z1.3100
G1 X35.9028 Y-12.1678 Z1.3100
G1 X35.8482 Y-11.9998 Z1.3100
G1 X35.7855 Y-11.8291 Z1.3100
G1 X35.7161 Y-11.6547 Z1.3100
G1 X35.4829 Y-11.1020 Z1.3100
G2X35.2542Y-10.5068Z1.3100I8.8190J3.7312
G2X35.0091Y-8.5680Z1.3100I4.5837J1.5642
G2X35.1329Y-7.9039Z1.3100I3.1799J-0.2489
G2X35.3057Y-7.5091Z1.3100I1.7553J-0.5335
G2X35.6024Y-7.1636Z1.3100I1.1137J-0.6561
G2X36.0302Y-6.9593Z1.3100I0.6335J-0.7767
G2X36.6493Y-7.0771Z1.3100I0.1684J-0.8013
G2X36.9466Y-7.4311Z1.3100I-0.4747J-0.7006
G1 X36.9736 Y-7.4958 Z1.3100
G1 X36.9960 Y-7.5628 Z1.3100
G1 X37.0288 Y-7.6848 Z1.3100
G1 X37.1207 Y-8.0864 Z1.3100
G3X37.2183Y-8.4261Z1.3100I3.3468J0.7777
G3X37.4244Y-8.8351Z1.3100I1.6304J0.5654
G1 X37.4616 Y-8.8854 Z1.3100
G1 X37.5027 Y-8.9359 Z1.3100
G3X38.7850Y-9.0708Z1.3100I0.7130J0.6153
G3X38.8090Y-8.8956Z1.3100I-0.0756J0.0996 F75.
G0 Z2.7645
G0 X38.8090 Y-8.8956 
G0 Z2.7645
G0 X42.6677 Y-7.0549 
G1 X42.6677 Y-7.0549 Z1.2600 F75.
G3X42.5427Y-7.1799Z1.2600I0.0000J-0.1250 F25.
G3X42.9623Y-7.5026Z1.2600I0.3340J0.0000 F60.
G3X43.6184Y-7.1150Z1.2600I-0.3868J1.4037
G3X44.0370Y-6.3708Z1.2600I-1.1949J1.1618
G3X44.1014Y-6.0097Z1.2600I-2.4189J0.6181
G1 X44.1106 Y-5.9166 Z1.2600
G1 X44.1236 Y-5.7251 Z1.2600
G1 X44.1396 Y-5.3428 Z1.2600
G2X44.1734Y-5.0667Z1.2600I1.8916J-0.0914
G2X44.2471Y-4.8542Z1.2600I0.8698J-0.1825
G2X44.4875Y-4.5758Z1.2600I0.6911J-0.3539
G2X45.3260Y-4.4512Z1.2600I0.5436J-0.7743
G2X45.5311Y-4.5480Z1.2600I-0.3287J-0.9618
G2X45.8341Y-4.8059Z1.2600I-0.6629J-1.0857
G2X46.0409Y-5.1075Z1.2600I-1.3016J-1.1143
G2X46.2152Y-5.4651Z1.2600I-3.5152J-1.9341
G2X46.3696Y-5.9611Z1.2600I-2.8363J-1.1554
G2X46.4828Y-6.9310Z1.2600I-4.8971J-1.0630
G1 X46.4845 Y-7.0527 Z1.2600
G1 X46.4814 Y-7.2900 Z1.2600
G2X46.3620Y-8.4607Z1.2600I-8.4374J0.2686
G1 X46.3173 Y-8.6905 Z1.2600
G2X46.1475Y-9.3304Z1.2600I-6.6171J1.4127
G1 X46.0921 Y-9.5080 Z1.2600
G1 X45.9792 Y-9.8559 Z1.2600
G3X45.7069Y-10.6957Z1.2600I43.0307J-14.4197
G3X45.5047Y-11.4814Z1.2600I7.6131J-2.3774
G3X45.4439Y-11.9218Z1.2600I3.9411J-0.7690
G3X45.4384Y-12.2690Z1.2600I2.7525J-0.2169
G3X45.4803Y-12.5976Z1.2600I2.1449J0.1063
G3X45.6392Y-13.1213Z1.2600I3.4216J0.7525
G3X45.9479Y-13.8672Z1.2600I15.7807J6.0942
G2X46.3747Y-14.8580Z1.2600I-43.9238J-19.5083
G2X46.9808Y-16.6050Z1.2600I-15.0588J-6.2026
G2X47.2714Y-17.8972Z1.2600I-11.2371J-3.2065
G2X47.3642Y-18.8196Z1.2600I-7.3326J-1.2032
G2X47.3475Y-19.4282Z1.2600I-4.8380J-0.1721
G2X47.0776Y-20.5046Z1.2600I-3.5537J0.3193
G2X46.0409Y-21.8876Z1.2600I-3.4437J1.5012
G2X45.0875Y-22.4751Z1.2600I-2.5452J3.0632
G2X44.0952Y-22.8067Z1.2600I-2.4440J5.6627
G2X43.3859Y-22.9424Z1.2600I-1.5764J6.3186
G1 X43.1524 Y-22.9695 Z1.2600
G1 X42.9135 Y-22.9894 Z1.2600
G1 X42.6650 Y-23.0034 Z1.2600
G1 X42.4025 Y-23.0124 Z1.2600
G1 X42.1208 Y-23.0178 Z1.2600
G1 X41.4855 Y-23.0217 Z1.2600
G2X39.4549Y-23.0211Z1.2600I-0.9360J301.8845
G2X38.4737Y-22.9895Z1.2600I0.0662J17.2681
G2X37.8424Y-22.9256Z1.2600I0.5390J8.4796
G2X37.2726Y-22.8142Z1.2600I0.7764J5.4839
G2X36.7422Y-22.6443Z1.2600I1.1069J4.3667
G2X36.0807Y-22.3253Z1.2600I1.8223J4.6250
G2X35.3764Y-21.8383Z1.2600I2.5003J4.3687
G2X35.0511Y-21.5307Z1.2600I2.1941J2.6462
G1 X34.9630 Y-21.4286 Z1.2600
G1 X34.8859 Y-21.3277 Z1.2600
G2X34.5903Y-20.8362Z1.2600I3.2420J2.2845
G2X34.4121Y-20.4355Z1.2600I3.6661J1.8708
G2X34.1887Y-19.4663Z1.2600I3.3187J1.2753
G2X34.1707Y-18.9337Z1.2600I4.6946J0.4250
G1 X34.1793 Y-18.7164 Z1.2600
G1 X34.1962 Y-18.4967 Z1.2600
G2X34.3380Y-17.6020Z1.2600I7.5602J-0.7396
G2X34.7298Y-16.2636Z1.2600I10.1360J-2.2411
G2X35.0748Y-15.4181Z1.2600I11.4523J-4.1795
G1 X35.2573 Y-15.0233 Z1.2600
G3X35.6046Y-14.2788Z1.2600I-33.9880J16.3083
G3X35.8160Y-13.7573Z1.2600I-7.0296J3.1532
G3X35.9193Y-13.4253Z1.2600I-3.8209J1.3703
G3X36.0051Y-12.8711Z1.2600I-2.4627J0.6650
G3X35.9465Y-12.3287Z1.2600I-1.9434J0.0645
G1 X35.9258 Y-12.2481 Z1.2600
G1 X35.9028 Y-12.1678 Z1.2600
G1 X35.8482 Y-11.9998 Z1.2600
G1 X35.7855 Y-11.8291 Z1.2600
G1 X35.7161 Y-11.6547 Z1.2600
G1 X35.4829 Y-11.1020 Z1.2600
G2X35.2542Y-10.5068Z1.2600I8.8190J3.7312
G2X35.0091Y-8.5680Z1.2600I4.5837J1.5642
G2X35.1329Y-7.9039Z1.2600I3.1799J-0.2489
G2X35.3057Y-7.5091Z1.2600I1.7553J-0.5335
G2X35.6024Y-7.1636Z1.2600I1.1137J-0.6561
G2X36.0302Y-6.9593Z1.2600I0.6335J-0.7767
G2X36.6493Y-7.0771Z1.2600I0.1684J-0.8013
G2X36.9466Y-7.4311Z1.2600I-0.4747J-0.7006
G1 X36.9736 Y-7.4958 Z1.2600
G1 X36.9960 Y-7.5628 Z1.2600
G1 X37.0288 Y-7.6848 Z1.2600
G1 X37.1207 Y-8.0864 Z1.2600
G3X37.2183Y-8.4261Z1.2600I3.3468J0.7777
G3X37.4244Y-8.8351Z1.2600I1.6304J0.5654
G1 X37.4616 Y-8.8854 Z1.2600
G1 X37.5027 Y-8.9359 Z1.2600
G3X38.7850Y-9.0708Z1.2600I0.7130J0.6153
G3X38.8090Y-8.8956Z1.2600I-0.0756J0.0996 F75.
G0 Z4.0000
G0 X38.8090 Y-8.8956 
M5
G53 Z
( END FILE BackRoundover-PT5-02-back.nc )
