( BEGIN FILE DStyle-FrontRoundover-PT125-01-front.ncTNUM: -1 )
( Lefty:False Nunits:3 )
( cline: 9.733 delta:15.5 )
( start_unit: 1 num_units: 3)
( MOP:  DStyle-FrontRoundover-PT125-01-front )
( FILE: G:\Shared drives\AlloyProjectFiles\Customer CAD files\Alloy-Standard-Builds-CAM\s-in\FullD-Style-Specific\DStyle-FrontRoundover-PT125-01-front.nc)
G90
(  BEGIN TOOL LIST )
(  TOOL 3 - Downcut PT750 - DESC: 0.7500 DIA, 2 FLUTE,  CARBIDE MAT )
(  ENDOF TOOL LIST )
( DStyle-FrontRoundover-PT125-01-front)
T03
S14000
M3
G0 Z4.0000
G0 X3.3892 Y-20.0374 
G1 X3.3892 Y-20.0374 Z1.6800 F75.
G1 X3.3656 Y-19.9684 Z1.6671 F50.
G1 X3.3176 Y-19.8050 Z1.6371
G1 X3.2765 Y-19.6402 Z1.6072
G1 X3.2422 Y-19.4743 Z1.5773
G1 X3.2145 Y-19.3076 Z1.5475
G1 X3.1933 Y-19.1405 Z1.5178
G1 X3.1783 Y-18.9731 Z1.4882
G1 X3.1694 Y-18.8057 Z1.4586
G1 X3.1663 Y-18.6435 Z1.4300
G17
G2X3.2165Y-17.9114Z1.4300I5.3781J-0.0011 F110.
G2X3.3964Y-17.0353Z1.4300I6.7600J-0.9323
G2X3.5483Y-16.5294Z1.4300I9.6453J-2.6190
G1 X3.6595 Y-16.2018 Z1.4300
G2X4.0238Y-15.2387Z1.4300I22.3309J-7.8972
G1 X4.2797 Y-14.6108 Z1.4300
G3X4.7867Y-13.3672Z1.4300I-59.8496J25.1258
G3X5.0475Y-12.6052Z1.4300I-8.1794J3.2254
G3X5.1318Y-12.2360Z1.4300I-3.3283J0.9541
G3X5.1447Y-11.4289Z1.4300I-2.7068J0.4468
G3X5.0147Y-10.8241Z1.4300I-4.1691J-0.5794
G3X4.8672Y-10.3664Z1.4300I-6.9969J-2.0021
G1 X4.7529 Y-10.0533 Z1.4300
G2X4.2969Y-8.7596Z1.4300I25.4645J9.7027
G2X3.9884Y-7.5659Z1.4300I9.4547J3.0797
G2X3.8646Y-6.3157Z1.4300I6.7280J1.2978
G2X3.8946Y-5.7601Z1.4300I4.6756J0.0258
G1 X3.9206 Y-5.5747 Z1.4300
G1 X3.9553 Y-5.3899 Z1.4300
G1 X3.9975 Y-5.2112 Z1.4300
G2X4.1981Y-4.6560Z1.4300I2.8760J-0.7249
G2X4.4233Y-4.2986Z1.4300I1.7779J-0.8707
G1 X4.4974 Y-4.2132 Z1.4300
G2X4.7675Y-4.0032Z1.4300I0.7772J-0.7207
G2X5.1392Y-3.9048Z1.4300I0.3968J-0.7479
G2X5.3111Y-3.9189Z1.4300I0.0141J-0.8877
G2X5.6420Y-4.0735Z1.4300I-0.1365J-0.7235
G2X5.8350Y-4.3293Z1.4300I-0.4563J-0.5448
G1 X5.8590 Y-4.3887 Z1.4300
G1 X5.8821 Y-4.4662 Z1.4300
G1 X5.8975 Y-4.5406 Z1.4300
G1 X5.9120 Y-4.6526 Z1.4300
G1 X5.9200 Y-4.7471 Z1.4300
G1 X5.9304 Y-4.9212 Z1.4300
G3X5.9608Y-5.4054Z1.4300I9.8277J0.3733
G3X6.1038Y-6.1644Z1.4300I4.3425J0.4254
G3X6.2270Y-6.5217Z1.4300I3.3351J0.9499
G3X6.8387Y-7.4189Z1.4300I2.3485J0.9441
G3X7.3554Y-7.7653Z1.4300I1.2811J1.3520
G3X7.6530Y-7.8523Z1.4300I0.4602J1.0219
G3X7.9254Y-7.8411Z1.4300I0.1064J0.7262
G3X8.1439Y-7.6855Z1.4300I-0.0763J0.3384
G3X8.2437Y-7.4554Z1.4300I-0.9818J0.5624
G3X8.2596Y-7.3551Z1.4300I-0.3329J0.1043
G1 X8.2613 Y-7.2519 Z1.4300
G2X8.6243Y-6.6992Z1.4300I0.6487J-0.0304
G2X8.9205Y-6.6301Z1.4300I0.2959J-0.5992
G1 X10.5640 Y-6.6305 Z1.4300
G2X11.1359Y-6.9889Z1.4300I-0.0141J-0.6581
G2X11.2058Y-7.2718Z1.4300I-0.5681J-0.2905
G1 X11.2280 Y-9.0975 Z1.4300
G3X11.2712Y-9.2619Z1.4300I0.3514J0.0045
G3X11.3693Y-9.4002Z1.4300I0.7577J0.4332
G3X11.6239Y-9.5623Z1.4300I0.3957J0.3405
G3X11.8991Y-9.5960Z1.4300I0.2540J0.9336
G3X12.4814Y-9.4524Z1.4300I-0.0343J1.3911
G3X13.0704Y-8.9542Z1.4300I-0.6984J1.4230
G3X13.3531Y-8.3752Z1.4300I-1.5758J1.1279
G3X13.4303Y-8.0455Z1.4300I-2.6189J0.7869
G1 X13.4579 Y-7.8644 Z1.4300
G1 X13.5075 Y-7.4716 Z1.4300
G2X13.5759Y-7.1298Z1.4300I2.7446J-0.3719
G2X13.7353Y-6.7893Z1.4300I1.0680J-0.2922
G2X13.9447Y-6.5893Z1.4300I0.6615J-0.4829
G2X14.0709Y-6.5244Z1.4300I0.4510J-0.7229
G1 X14.1392 Y-6.5005 Z1.4300
G2X14.2785Y-6.4751Z1.4300I0.2216J-0.8205
G1 X14.3492 Y-6.4718 Z1.4300
G2X14.4828Y-6.4851Z1.4300I-0.0208J-0.8904
G1 X14.5529 Y-6.5010 Z1.4300
G2X14.7301Y-6.5746Z1.4300I-0.2249J-0.7923
G1 X14.8051 Y-6.6215 Z1.4300
G2X15.0377Y-6.8474Z1.4300I-0.6042J-0.8546
G2X15.1520Y-7.0248Z1.4300I-1.0744J-0.8174
G1 X15.2059 Y-7.1334 Z1.4300
G1 X15.2543 Y-7.2528 Z1.4300
G2X15.3673Y-7.7084Z1.4300I-2.2497J-0.7996
G2X15.3958Y-8.5728Z1.4300I-3.9384J-0.5628
G2X15.3627Y-8.8933Z1.4300I-4.8216J0.3370
G1 X15.3301 Y-9.1011 Z1.4300
G1 X15.2900 Y-9.3064 Z1.4300
G2X15.0711Y-10.0971Z1.4300I-7.5960J1.6771
G1 X15.0066 Y-10.2861 Z1.4300
G1 X14.9407 Y-10.4724 Z1.4300
G1 X14.6764 Y-11.2045 Z1.4300
G1 X14.5492 Y-11.5682 Z1.4300
G3X14.4118Y-12.0066Z1.4300I7.0661J-2.4541
G3X14.3461Y-12.3996Z1.4300I1.7856J-0.5003
G3X14.3897Y-12.7619Z1.4300I1.1437J-0.0462
G3X14.4698Y-13.0029Z1.4300I2.5780J0.7228
G1 X14.5374 Y-13.1747 Z1.4300
G3X14.8299Y-13.8292Z1.4300I11.4851J4.7391
G1 X15.1137 Y-14.3946 Z1.4300
G1 X15.2846 Y-14.7493 Z1.4300
G2X15.5172Y-15.3059Z1.4300I-6.4174J-3.0081
G2X15.8968Y-16.3727Z1.4300I-27.7486J-10.4730
G1 X15.9921 Y-16.6724 Z1.4300
G2X16.2552Y-17.7736Z1.4300I-7.9014J-2.4699
G2X16.3181Y-18.9329Z1.4300I-5.3188J-0.8700
G2X16.1901Y-19.7675Z1.4300I-4.4404J0.2539
G2X15.8902Y-20.5683Z1.4300I-3.7776J0.9583
G1 X15.8084 Y-20.7202 Z1.4300
G1 X15.7194 Y-20.8683 Z1.4300
G1 X15.6232 Y-21.0121 Z1.4300
G1 X15.5201 Y-21.1513 Z1.4300
G1 X15.4101 Y-21.2853 Z1.4300
G1 X15.2936 Y-21.4137 Z1.4300
G1 X15.1709 Y-21.5363 Z1.4300
G1 X15.0424 Y-21.6525 Z1.4300
G1 X14.9085 Y-21.7621 Z1.4300
G1 X14.7699 Y-21.8648 Z1.4300
G1 X14.6272 Y-21.9604 Z1.4300
G2X14.0267Y-22.2751Z1.4300I-2.2129J3.4931
G2X13.2371Y-22.5351Z1.4300I-1.9679J4.6473
G2X11.9458Y-22.7127Z1.4300I-1.5535J6.5098
G1 X11.6343 Y-22.7234 Z1.4300
G1 X11.3236 Y-22.7305 Z1.4300
G2X7.9242Y-22.7110Z1.4300I-1.2901J71.5762
G2X7.2879Y-22.6792Z1.4300I0.3219J12.8037
G2X6.1580Y-22.4870Z1.4300I0.5231J6.4918
G2X5.3713Y-22.2075Z1.4300I1.3034J4.9171
G2X4.7753Y-21.8746Z1.4300I1.6604J3.6722
G1 X4.6349 Y-21.7744 Z1.4300
G1 X4.4992 Y-21.6674 Z1.4300
G1 X4.3685 Y-21.5538 Z1.4300
G1 X4.2435 Y-21.4339 Z1.4300
G1 X4.1244 Y-21.3078 Z1.4300
G1 X4.0118 Y-21.1760 Z1.4300
G1 X3.9059 Y-21.0390 Z1.4300
G1 X3.8068 Y-20.8970 Z1.4300
G1 X3.7150 Y-20.7507 Z1.4300
G1 X3.6304 Y-20.6003 Z1.4300
G1 X3.5531 Y-20.4464 Z1.4300
G2X3.3176Y-19.8050Z1.4300I3.4982J1.6486
G2X3.1933Y-19.1405Z1.4300I4.1531J1.1209
G2X3.1695Y-18.4547Z1.4300I4.7659J0.5086
G2X3.1903Y-18.1443Z1.4300I4.5755J-0.1513
G3X2.9630Y-17.8738Z1.4300I-0.2491J0.0215 F75.
G0 Z4.0000
G0 X2.9630 Y-17.8738 
M5
G53 Z
( MOP:  DStyle-FrontRoundover-PT125-01-front )
( FILE: G:\Shared drives\AlloyProjectFiles\Customer CAD files\Alloy-Standard-Builds-CAM\s-in\FullD-Style-Specific\DStyle-FrontRoundover-PT125-01-front.nc)
G90
(  BEGIN TOOL LIST )
(  TOOL 3 - Downcut PT750 - DESC: 0.7500 DIA, 2 FLUTE,  CARBIDE MAT )
(  ENDOF TOOL LIST )
( DStyle-FrontRoundover-PT125-01-front)
T03
S14000
M3
G0 Z4.0000
G0 X18.8892 Y-20.0374 
G1 X18.8892 Y-20.0374 Z1.6800 F75.
G1 X18.8656 Y-19.9684 Z1.6671 F50.
G1 X18.8176 Y-19.8050 Z1.6371
G1 X18.7765 Y-19.6402 Z1.6072
G1 X18.7422 Y-19.4743 Z1.5773
G1 X18.7145 Y-19.3076 Z1.5475
G1 X18.6933 Y-19.1405 Z1.5178
G1 X18.6783 Y-18.9731 Z1.4882
G1 X18.6694 Y-18.8057 Z1.4586
G1 X18.6663 Y-18.6435 Z1.4300
G17
G2X18.7165Y-17.9114Z1.4300I5.3781J-0.0011 F110.
G2X18.8964Y-17.0353Z1.4300I6.7600J-0.9323
G2X19.0483Y-16.5294Z1.4300I9.6453J-2.6190
G1 X19.1595 Y-16.2018 Z1.4300
G2X19.5238Y-15.2387Z1.4300I22.3309J-7.8972
G1 X19.7797 Y-14.6108 Z1.4300
G3X20.2867Y-13.3672Z1.4300I-59.8496J25.1258
G3X20.5475Y-12.6052Z1.4300I-8.1794J3.2254
G3X20.6318Y-12.2360Z1.4300I-3.3283J0.9541
G3X20.6447Y-11.4289Z1.4300I-2.7068J0.4468
G3X20.5147Y-10.8241Z1.4300I-4.1691J-0.5794
G3X20.3672Y-10.3664Z1.4300I-6.9969J-2.0021
G1 X20.2529 Y-10.0533 Z1.4300
G2X19.7969Y-8.7596Z1.4300I25.4645J9.7027
G2X19.4884Y-7.5659Z1.4300I9.4547J3.0797
G2X19.3646Y-6.3157Z1.4300I6.7280J1.2978
G2X19.3946Y-5.7601Z1.4300I4.6756J0.0258
G1 X19.4206 Y-5.5747 Z1.4300
G1 X19.4553 Y-5.3899 Z1.4300
G1 X19.4975 Y-5.2112 Z1.4300
G2X19.6981Y-4.6560Z1.4300I2.8760J-0.7249
G2X19.9233Y-4.2986Z1.4300I1.7779J-0.8707
G1 X19.9974 Y-4.2132 Z1.4300
G2X20.2675Y-4.0032Z1.4300I0.7772J-0.7207
G2X20.6392Y-3.9048Z1.4300I0.3968J-0.7479
G2X20.8111Y-3.9189Z1.4300I0.0141J-0.8877
G2X21.1420Y-4.0735Z1.4300I-0.1365J-0.7235
G2X21.3350Y-4.3293Z1.4300I-0.4563J-0.5448
G1 X21.3590 Y-4.3887 Z1.4300
G1 X21.3821 Y-4.4662 Z1.4300
G1 X21.3975 Y-4.5406 Z1.4300
G1 X21.4120 Y-4.6526 Z1.4300
G1 X21.4200 Y-4.7471 Z1.4300
G1 X21.4304 Y-4.9212 Z1.4300
G3X21.4608Y-5.4054Z1.4300I9.8277J0.3733
G3X21.6038Y-6.1644Z1.4300I4.3425J0.4254
G3X21.7270Y-6.5217Z1.4300I3.3351J0.9499
G3X22.3387Y-7.4189Z1.4300I2.3485J0.9441
G3X22.8554Y-7.7653Z1.4300I1.2811J1.3520
G3X23.1530Y-7.8523Z1.4300I0.4602J1.0219
G3X23.4254Y-7.8411Z1.4300I0.1064J0.7262
G3X23.6439Y-7.6855Z1.4300I-0.0763J0.3384
G3X23.7437Y-7.4554Z1.4300I-0.9818J0.5624
G3X23.7596Y-7.3551Z1.4300I-0.3329J0.1043
G1 X23.7613 Y-7.2519 Z1.4300
G2X24.1243Y-6.6992Z1.4300I0.6487J-0.0304
G2X24.4205Y-6.6301Z1.4300I0.2959J-0.5992
G1 X26.0640 Y-6.6305 Z1.4300
G2X26.6359Y-6.9889Z1.4300I-0.0141J-0.6581
G2X26.7058Y-7.2718Z1.4300I-0.5681J-0.2905
G1 X26.7280 Y-9.0975 Z1.4300
G3X26.7712Y-9.2619Z1.4300I0.3514J0.0045
G3X26.8693Y-9.4002Z1.4300I0.7577J0.4332
G3X27.1239Y-9.5623Z1.4300I0.3957J0.3405
G3X27.3991Y-9.5960Z1.4300I0.2540J0.9336
G3X27.9814Y-9.4524Z1.4300I-0.0343J1.3911
G3X28.5704Y-8.9542Z1.4300I-0.6984J1.4230
G3X28.8531Y-8.3752Z1.4300I-1.5758J1.1279
G3X28.9303Y-8.0455Z1.4300I-2.6189J0.7869
G1 X28.9579 Y-7.8644 Z1.4300
G1 X29.0075 Y-7.4716 Z1.4300
G2X29.0759Y-7.1298Z1.4300I2.7446J-0.3719
G2X29.2353Y-6.7893Z1.4300I1.0680J-0.2922
G2X29.4447Y-6.5893Z1.4300I0.6615J-0.4829
G2X29.5709Y-6.5244Z1.4300I0.4510J-0.7229
G1 X29.6392 Y-6.5005 Z1.4300
G2X29.7785Y-6.4751Z1.4300I0.2216J-0.8205
G1 X29.8492 Y-6.4718 Z1.4300
G2X29.9828Y-6.4851Z1.4300I-0.0208J-0.8904
G1 X30.0529 Y-6.5010 Z1.4300
G2X30.2301Y-6.5746Z1.4300I-0.2249J-0.7923
G1 X30.3051 Y-6.6215 Z1.4300
G2X30.5377Y-6.8474Z1.4300I-0.6042J-0.8546
G2X30.6520Y-7.0248Z1.4300I-1.0744J-0.8174
G1 X30.7059 Y-7.1334 Z1.4300
G1 X30.7543 Y-7.2528 Z1.4300
G2X30.8673Y-7.7084Z1.4300I-2.2497J-0.7996
G2X30.8958Y-8.5728Z1.4300I-3.9384J-0.5628
G2X30.8627Y-8.8933Z1.4300I-4.8216J0.3370
G1 X30.8301 Y-9.1011 Z1.4300
G1 X30.7900 Y-9.3064 Z1.4300
G2X30.5711Y-10.0971Z1.4300I-7.5960J1.6771
G1 X30.5066 Y-10.2861 Z1.4300
G1 X30.4407 Y-10.4724 Z1.4300
G1 X30.1764 Y-11.2045 Z1.4300
G1 X30.0492 Y-11.5682 Z1.4300
G3X29.9118Y-12.0066Z1.4300I7.0661J-2.4541
G3X29.8461Y-12.3996Z1.4300I1.7856J-0.5003
G3X29.8897Y-12.7619Z1.4300I1.1437J-0.0462
G3X29.9698Y-13.0029Z1.4300I2.5780J0.7228
G1 X30.0374 Y-13.1747 Z1.4300
G3X30.3299Y-13.8292Z1.4300I11.4851J4.7391
G1 X30.6137 Y-14.3946 Z1.4300
G1 X30.7846 Y-14.7493 Z1.4300
G2X31.0172Y-15.3059Z1.4300I-6.4174J-3.0081
G2X31.3968Y-16.3727Z1.4300I-27.7486J-10.4730
G1 X31.4921 Y-16.6724 Z1.4300
G2X31.7552Y-17.7736Z1.4300I-7.9014J-2.4699
G2X31.8181Y-18.9329Z1.4300I-5.3188J-0.8700
G2X31.6901Y-19.7675Z1.4300I-4.4404J0.2539
G2X31.3902Y-20.5683Z1.4300I-3.7776J0.9583
G1 X31.3084 Y-20.7202 Z1.4300
G1 X31.2194 Y-20.8683 Z1.4300
G1 X31.1232 Y-21.0121 Z1.4300
G1 X31.0201 Y-21.1513 Z1.4300
G1 X30.9101 Y-21.2853 Z1.4300
G1 X30.7936 Y-21.4137 Z1.4300
G1 X30.6709 Y-21.5363 Z1.4300
G1 X30.5424 Y-21.6525 Z1.4300
G1 X30.4085 Y-21.7621 Z1.4300
G1 X30.2699 Y-21.8648 Z1.4300
G1 X30.1272 Y-21.9604 Z1.4300
G2X29.5267Y-22.2751Z1.4300I-2.2129J3.4931
G2X28.7371Y-22.5351Z1.4300I-1.9679J4.6473
G2X27.4458Y-22.7127Z1.4300I-1.5535J6.5098
G1 X27.1343 Y-22.7234 Z1.4300
G1 X26.8236 Y-22.7305 Z1.4300
G2X23.4242Y-22.7110Z1.4300I-1.2901J71.5762
G2X22.7879Y-22.6792Z1.4300I0.3219J12.8037
G2X21.6580Y-22.4870Z1.4300I0.5231J6.4918
G2X20.8713Y-22.2075Z1.4300I1.3034J4.9171
G2X20.2753Y-21.8746Z1.4300I1.6604J3.6722
G1 X20.1349 Y-21.7744 Z1.4300
G1 X19.9992 Y-21.6674 Z1.4300
G1 X19.8685 Y-21.5538 Z1.4300
G1 X19.7435 Y-21.4339 Z1.4300
G1 X19.6244 Y-21.3078 Z1.4300
G1 X19.5118 Y-21.1760 Z1.4300
G1 X19.4059 Y-21.0390 Z1.4300
G1 X19.3068 Y-20.8970 Z1.4300
G1 X19.2150 Y-20.7507 Z1.4300
G1 X19.1304 Y-20.6003 Z1.4300
G1 X19.0531 Y-20.4464 Z1.4300
G2X18.8176Y-19.8050Z1.4300I3.4982J1.6486
G2X18.6933Y-19.1405Z1.4300I4.1531J1.1209
G2X18.6695Y-18.4547Z1.4300I4.7659J0.5086
G2X18.6903Y-18.1443Z1.4300I4.5755J-0.1513
G3X18.4630Y-17.8738Z1.4300I-0.2491J0.0215 F75.
G0 Z4.0000
G0 X18.4630 Y-17.8738 
M5
G53 Z
( MOP:  DStyle-FrontRoundover-PT125-01-front )
( FILE: G:\Shared drives\AlloyProjectFiles\Customer CAD files\Alloy-Standard-Builds-CAM\s-in\FullD-Style-Specific\DStyle-FrontRoundover-PT125-01-front.nc)
G90
(  BEGIN TOOL LIST )
(  TOOL 3 - Downcut PT750 - DESC: 0.7500 DIA, 2 FLUTE,  CARBIDE MAT )
(  ENDOF TOOL LIST )
( DStyle-FrontRoundover-PT125-01-front)
T03
S14000
M3
G0 Z4.0000
G0 X34.3892 Y-20.0374 
G1 X34.3892 Y-20.0374 Z1.6800 F75.
G1 X34.3656 Y-19.9684 Z1.6671 F50.
G1 X34.3176 Y-19.8050 Z1.6371
G1 X34.2765 Y-19.6402 Z1.6072
G1 X34.2422 Y-19.4743 Z1.5773
G1 X34.2145 Y-19.3076 Z1.5475
G1 X34.1933 Y-19.1405 Z1.5178
G1 X34.1783 Y-18.9731 Z1.4882
G1 X34.1694 Y-18.8057 Z1.4586
G1 X34.1663 Y-18.6435 Z1.4300
G17
G2X34.2165Y-17.9114Z1.4300I5.3781J-0.0011 F110.
G2X34.3964Y-17.0353Z1.4300I6.7600J-0.9323
G2X34.5483Y-16.5294Z1.4300I9.6453J-2.6190
G1 X34.6595 Y-16.2018 Z1.4300
G2X35.0238Y-15.2387Z1.4300I22.3309J-7.8972
G1 X35.2797 Y-14.6108 Z1.4300
G3X35.7867Y-13.3672Z1.4300I-59.8496J25.1258
G3X36.0475Y-12.6052Z1.4300I-8.1794J3.2254
G3X36.1318Y-12.2360Z1.4300I-3.3283J0.9541
G3X36.1447Y-11.4289Z1.4300I-2.7068J0.4468
G3X36.0147Y-10.8241Z1.4300I-4.1691J-0.5794
G3X35.8672Y-10.3664Z1.4300I-6.9969J-2.0021
G1 X35.7529 Y-10.0533 Z1.4300
G2X35.2969Y-8.7596Z1.4300I25.4645J9.7027
G2X34.9884Y-7.5659Z1.4300I9.4547J3.0797
G2X34.8646Y-6.3157Z1.4300I6.7280J1.2978
G2X34.8946Y-5.7601Z1.4300I4.6756J0.0258
G1 X34.9206 Y-5.5747 Z1.4300
G1 X34.9553 Y-5.3899 Z1.4300
G1 X34.9975 Y-5.2112 Z1.4300
G2X35.1981Y-4.6560Z1.4300I2.8760J-0.7249
G2X35.4233Y-4.2986Z1.4300I1.7779J-0.8707
G1 X35.4974 Y-4.2132 Z1.4300
G2X35.7675Y-4.0032Z1.4300I0.7772J-0.7207
G2X36.1392Y-3.9048Z1.4300I0.3968J-0.7479
G2X36.3111Y-3.9189Z1.4300I0.0141J-0.8877
G2X36.6420Y-4.0735Z1.4300I-0.1365J-0.7235
G2X36.8350Y-4.3293Z1.4300I-0.4563J-0.5448
G1 X36.8590 Y-4.3887 Z1.4300
G1 X36.8821 Y-4.4662 Z1.4300
G1 X36.8975 Y-4.5406 Z1.4300
G1 X36.9120 Y-4.6526 Z1.4300
G1 X36.9200 Y-4.7471 Z1.4300
G1 X36.9304 Y-4.9212 Z1.4300
G3X36.9608Y-5.4054Z1.4300I9.8277J0.3733
G3X37.1038Y-6.1644Z1.4300I4.3425J0.4254
G3X37.2270Y-6.5217Z1.4300I3.3351J0.9499
G3X37.8387Y-7.4189Z1.4300I2.3485J0.9441
G3X38.3554Y-7.7653Z1.4300I1.2811J1.3520
G3X38.6530Y-7.8523Z1.4300I0.4602J1.0219
G3X38.9254Y-7.8411Z1.4300I0.1064J0.7262
G3X39.1439Y-7.6855Z1.4300I-0.0763J0.3384
G3X39.2437Y-7.4554Z1.4300I-0.9818J0.5624
G3X39.2596Y-7.3551Z1.4300I-0.3329J0.1043
G1 X39.2613 Y-7.2519 Z1.4300
G2X39.6243Y-6.6992Z1.4300I0.6487J-0.0304
G2X39.9205Y-6.6301Z1.4300I0.2959J-0.5992
G1 X41.5640 Y-6.6305 Z1.4300
G2X42.1359Y-6.9889Z1.4300I-0.0141J-0.6581
G2X42.2058Y-7.2718Z1.4300I-0.5681J-0.2905
G1 X42.2280 Y-9.0975 Z1.4300
G3X42.2712Y-9.2619Z1.4300I0.3514J0.0045
G3X42.3693Y-9.4002Z1.4300I0.7577J0.4332
G3X42.6239Y-9.5623Z1.4300I0.3957J0.3405
G3X42.8991Y-9.5960Z1.4300I0.2540J0.9336
G3X43.4814Y-9.4524Z1.4300I-0.0343J1.3911
G3X44.0704Y-8.9542Z1.4300I-0.6984J1.4230
G3X44.3531Y-8.3752Z1.4300I-1.5758J1.1279
G3X44.4303Y-8.0455Z1.4300I-2.6189J0.7869
G1 X44.4579 Y-7.8644 Z1.4300
G1 X44.5075 Y-7.4716 Z1.4300
G2X44.5759Y-7.1298Z1.4300I2.7446J-0.3719
G2X44.7353Y-6.7893Z1.4300I1.0680J-0.2922
G2X44.9447Y-6.5893Z1.4300I0.6615J-0.4829
G2X45.0709Y-6.5244Z1.4300I0.4510J-0.7229
G1 X45.1392 Y-6.5005 Z1.4300
G2X45.2785Y-6.4751Z1.4300I0.2216J-0.8205
G1 X45.3492 Y-6.4718 Z1.4300
G2X45.4828Y-6.4851Z1.4300I-0.0208J-0.8904
G1 X45.5529 Y-6.5010 Z1.4300
G2X45.7301Y-6.5746Z1.4300I-0.2249J-0.7923
G1 X45.8051 Y-6.6215 Z1.4300
G2X46.0377Y-6.8474Z1.4300I-0.6042J-0.8546
G2X46.1520Y-7.0248Z1.4300I-1.0744J-0.8174
G1 X46.2059 Y-7.1334 Z1.4300
G1 X46.2543 Y-7.2528 Z1.4300
G2X46.3673Y-7.7084Z1.4300I-2.2497J-0.7996
G2X46.3958Y-8.5728Z1.4300I-3.9384J-0.5628
G2X46.3627Y-8.8933Z1.4300I-4.8216J0.3370
G1 X46.3301 Y-9.1011 Z1.4300
G1 X46.2900 Y-9.3064 Z1.4300
G2X46.0711Y-10.0971Z1.4300I-7.5960J1.6771
G1 X46.0066 Y-10.2861 Z1.4300
G1 X45.9407 Y-10.4724 Z1.4300
G1 X45.6764 Y-11.2045 Z1.4300
G1 X45.5492 Y-11.5682 Z1.4300
G3X45.4118Y-12.0066Z1.4300I7.0661J-2.4541
G3X45.3461Y-12.3996Z1.4300I1.7856J-0.5003
G3X45.3897Y-12.7619Z1.4300I1.1437J-0.0462
G3X45.4698Y-13.0029Z1.4300I2.5780J0.7228
G1 X45.5374 Y-13.1747 Z1.4300
G3X45.8299Y-13.8292Z1.4300I11.4851J4.7391
G1 X46.1137 Y-14.3946 Z1.4300
G1 X46.2846 Y-14.7493 Z1.4300
G2X46.5172Y-15.3059Z1.4300I-6.4174J-3.0081
G2X46.8968Y-16.3727Z1.4300I-27.7486J-10.4730
G1 X46.9921 Y-16.6724 Z1.4300
G2X47.2552Y-17.7736Z1.4300I-7.9014J-2.4699
G2X47.3181Y-18.9329Z1.4300I-5.3188J-0.8700
G2X47.1901Y-19.7675Z1.4300I-4.4404J0.2539
G2X46.8902Y-20.5683Z1.4300I-3.7776J0.9583
G1 X46.8084 Y-20.7202 Z1.4300
G1 X46.7194 Y-20.8683 Z1.4300
G1 X46.6232 Y-21.0121 Z1.4300
G1 X46.5201 Y-21.1513 Z1.4300
G1 X46.4101 Y-21.2853 Z1.4300
G1 X46.2936 Y-21.4137 Z1.4300
G1 X46.1709 Y-21.5363 Z1.4300
G1 X46.0424 Y-21.6525 Z1.4300
G1 X45.9085 Y-21.7621 Z1.4300
G1 X45.7699 Y-21.8648 Z1.4300
G1 X45.6272 Y-21.9604 Z1.4300
G2X45.0267Y-22.2751Z1.4300I-2.2129J3.4931
G2X44.2371Y-22.5351Z1.4300I-1.9679J4.6473
G2X42.9458Y-22.7127Z1.4300I-1.5535J6.5098
G1 X42.6343 Y-22.7234 Z1.4300
G1 X42.3236 Y-22.7305 Z1.4300
G2X38.9242Y-22.7110Z1.4300I-1.2901J71.5762
G2X38.2879Y-22.6792Z1.4300I0.3219J12.8037
G2X37.1580Y-22.4870Z1.4300I0.5231J6.4918
G2X36.3713Y-22.2075Z1.4300I1.3034J4.9171
G2X35.7753Y-21.8746Z1.4300I1.6604J3.6722
G1 X35.6349 Y-21.7744 Z1.4300
G1 X35.4992 Y-21.6674 Z1.4300
G1 X35.3685 Y-21.5538 Z1.4300
G1 X35.2435 Y-21.4339 Z1.4300
G1 X35.1244 Y-21.3078 Z1.4300
G1 X35.0118 Y-21.1760 Z1.4300
G1 X34.9059 Y-21.0390 Z1.4300
G1 X34.8068 Y-20.8970 Z1.4300
G1 X34.7150 Y-20.7507 Z1.4300
G1 X34.6304 Y-20.6003 Z1.4300
G1 X34.5531 Y-20.4464 Z1.4300
G2X34.3176Y-19.8050Z1.4300I3.4982J1.6486
G2X34.1933Y-19.1405Z1.4300I4.1531J1.1209
G2X34.1695Y-18.4547Z1.4300I4.7659J0.5086
G2X34.1903Y-18.1443Z1.4300I4.5755J-0.1513
G3X33.9630Y-17.8738Z1.4300I-0.2491J0.0215 F75.
G0 Z4.0000
G0 X33.9630 Y-17.8738 
M5
G53 Z
( END FILE DStyle-FrontRoundover-PT125-01-front.nc )
