( BEGIN FILE FrontRoundover-PT5-01-front.ncTNUM: -1 )
( Lefty:False Nunits:3 )
( cline: 9.733 delta:15.5 )
( start_unit: 1 num_units: 3)
( MOP:  FrontRoundover-PT5-01-front )
( FILE: G:\Shared drives\AlloyProjectFiles\Customer CAD files\Alloy-Standard-Builds-CAM\s-in\EdgeTreatment\FrontRoundover-PT5-01-front.nc)
G90
(  BEGIN TOOL LIST )
(  TOOL 11 - Downcut PT750 ROUGH - DESC: 0.7500 DIA, 2 FLUTE,  CARBIDE MAT )
(  ENDOF TOOL LIST )
( FrontRoundover-PT5-01-front)
T11
S14000
M3
G0 Z4.0000
G0 X3.1532 Y-20.3839 
G1 X3.1532 Y-20.3839 Z1.7600 F75.
G1 X3.1338 Y-20.3305 Z1.7500 F50.
G1 X3.0947 Y-20.2109 Z1.7278
G1 X3.0596 Y-20.0890 Z1.7054
G1 X3.0283 Y-19.9647 Z1.6828
G1 X3.0011 Y-19.8381 Z1.6600
G1 X2.9780 Y-19.7092 Z1.6369
G1 X2.9590 Y-19.5774 Z1.6134
G1 X2.9432 Y-19.4329 Z1.5878
G1 X2.9322 Y-19.2865 Z1.5619
G1 X2.9259 Y-19.1386 Z1.5358
G1 X2.9240 Y-18.9923 Z1.5100
G17
G2X2.9702Y-18.2415Z1.5100I6.5819J-0.0280 F150.
G2X3.1742Y-17.1070Z1.5100I9.8803J-1.1910
G2X3.4795Y-16.0196Z1.5100I13.8317J-3.2971
G2X4.0405Y-14.5257Z1.5100I16.3239J-5.2782
G1 X4.1478 Y-14.2768 Z1.5100
G3X4.5627Y-13.3130Z1.5100I-40.2445J17.8974
G1 X4.6631 Y-13.0592 Z1.5100
G3X4.8146Y-12.5610Z1.5100I-3.1022J1.2149
G3X4.8550Y-12.1997Z1.5100I-1.9538J0.4019
G3X4.8341Y-11.7984Z1.5100I-2.7636J0.0572
G3X4.7232Y-11.2165Z1.5100I-4.7248J-0.5990
G3X4.5414Y-10.5850Z1.5100I-10.2097J-2.5975
G1 X4.4333 Y-10.2516 Z1.5100
G2X4.1500Y-9.3779Z1.5100I45.5318J15.2468
G2X3.9253Y-8.4549Z1.5100I6.5722J2.0887
G1 X3.8871 Y-8.2089 Z1.5100
G2X3.8064Y-7.0924Z1.5100I8.5406J1.1783
G2X3.8979Y-6.0558Z1.5100I5.4627J0.0400
G2X4.0986Y-5.3755Z1.5100I3.3534J-0.6196
G1 X4.1641 Y-5.2314 Z1.5100
G1 X4.2415 Y-5.0792 Z1.5100
G2X4.4732Y-4.7225Z1.5100I1.8011J-0.9164
G2X4.8272Y-4.4088Z1.5100I1.1432J-0.9333
G2X5.0709Y-4.2897Z1.5100I0.6649J-1.0521
G1 X5.1618 Y-4.2621 Z1.5100
G1 X5.2567 Y-4.2422 Z1.5100
G1 X5.3548 Y-4.2310 Z1.5100
G2X5.5676Y-4.2367Z1.5100I0.0744J-1.1945
G1 X5.6681 Y-4.2533 Z1.5100
G1 X5.7684 Y-4.2793 Z1.5100
G1 X5.8653 Y-4.3141 Z1.5100
G2X5.9922Y-4.3767Z1.5100I-0.5044J-1.1817
G1 X6.0689 Y-4.4250 Z1.5100
G2X6.2127Y-4.5476Z1.5100I-0.7258J-0.9968
G2X6.4397Y-4.9366Z1.5100I-0.6818J-0.6586
G1 X6.4669 Y-5.0443 Z1.5100
G1 X6.4864 Y-5.1645 Z1.5100
G1 X6.4974 Y-5.2783 Z1.5100
G1 X6.5072 Y-5.4707 Z1.5100
G3X6.5343Y-5.9505Z1.5100I8.0308J0.2129
G3X6.6142Y-6.3822Z1.5100I2.3220J0.2064
G3X6.9750Y-6.9948Z1.5100I1.4251J0.4267
G3X7.7361Y-7.3700Z1.5100I0.9129J0.8923
G1 X7.8210 Y-7.3776 Z1.5100
G1 X7.9154 Y-7.3801 Z1.5100
G3X8.0773Y-7.3372Z1.5100I-0.0085J0.3587
G1 X8.0990 Y-7.3215 Z1.5100
G3X8.2186Y-7.1976Z1.5100I-0.5140J0.6160
G3X8.2569Y-7.0947Z1.5100I-0.3107J0.1741
G2X8.8570Y-6.6049Z1.5100I0.6001J-0.1227
G1 X10.6428 Y-6.6049 Z1.5100
G2X11.2552Y-7.2085Z1.5100I0.0000J-0.6125
G1 X11.2572 Y-8.9400 Z1.5100
G1 X11.2728 Y-8.9503 Z1.5100
G1 X11.2960 Y-8.9640 Z1.5100
G1 X11.3697 Y-9.0019 Z1.5100
G1 X11.4591 Y-9.0411 Z1.5100
G3X11.7422Y-9.1430Z1.5100I1.4300J3.5274
G3X12.0332Y-9.1763Z1.5100I0.2399J0.8097
G3X12.4146Y-9.1045Z1.5100I-0.0636J1.3873
G3X12.8853Y-8.7526Z1.5100I-0.3149J0.9118
G3X13.0654Y-8.4143Z1.5100I-1.1903J0.8508
G3X13.1315Y-8.2137Z1.5100I-2.0627J0.7915
G1 X13.1703 Y-8.0657 Z1.5100
G1 X13.2395 Y-7.7613 Z1.5100
G2X13.3210Y-7.4549Z1.5100I3.0112J-0.6375
G2X13.4907Y-7.1437Z1.5100I1.0266J-0.3576
G2X13.6803Y-6.9590Z1.5100I0.7845J-0.6158
G2X14.0737Y-6.7858Z1.5100I0.5784J-0.7803
G2X14.4175Y-6.7785Z1.5100I0.1930J-0.9996
G2X14.7492Y-6.8834Z1.5100I-0.1656J-1.1002
G2X15.0461Y-7.0901Z1.5100I-0.5642J-1.1272
G2X15.2885Y-7.3837Z1.5100I-1.0154J-1.0851
G2X15.4668Y-7.7525Z1.5100I-1.5753J-0.9892
G2X15.5981Y-8.2785Z1.5100I-2.6729J-0.9465
G2X15.6385Y-9.2303Z1.5100I-4.4222J-0.6645
G2X15.3675Y-10.5923Z1.5100I-5.0185J0.2903
G1 X15.2854 Y-10.8190 Z1.5100
G1 X15.1983 Y-11.0392 Z1.5100
G1 X14.9411 Y-11.6501 Z1.5100
G3X14.7635Y-12.1147Z1.5100I6.5863J-2.7839
G3X14.6569Y-12.5312Z1.5100I2.6035J-0.8879
G3X14.6541Y-13.0753Z1.5100I1.7645J-0.2812
G3X14.7746Y-13.5802Z1.5100I2.9234J0.4305
G1 X14.8038 Y-13.6671 Z1.5100
G1 X14.8716 Y-13.8507 Z1.5100
G3X15.1209Y-14.4268Z1.5100I8.7803J3.4589
G1 X15.4165 Y-15.0542 Z1.5100
G2X15.9058Y-16.2180Z1.5100I-12.3857J-5.8914
G2X16.2775Y-17.4684Z1.5100I-10.0891J-3.6799
G1 X16.3317 Y-17.7222 Z1.5100
G1 X16.3779 Y-17.9758 Z1.5100
G1 X16.4151 Y-18.2249 Z1.5100
G2X16.4625Y-19.3390Z1.5100I-5.8528J-0.8071
G2X16.3307Y-20.1536Z1.5100I-3.9277J0.2173
G2X16.1056Y-20.7631Z1.5100I-3.8661J1.0816
G1 X16.0203 Y-20.9375 Z1.5100
G2X15.7613Y-21.3738Z1.5100I-3.8008J1.9614
G1 X15.6757 Y-21.4923 Z1.5100
G1 X15.6277 Y-21.5526 Z1.5100
G1 X15.5727 Y-21.6168 Z1.5100
G1 X15.4636 Y-21.7333 Z1.5100
G1 X15.3404 Y-21.8515 Z1.5100
G1 X15.2073 Y-21.9680 Z1.5100
G1 X15.0636 Y-22.0833 Z1.5100
G1 X14.9103 Y-22.1968 Z1.5100
G2X14.3998Y-22.5180Z1.5100I-3.1232J4.3971
G1 X14.2155 Y-22.6156 Z1.5100
G1 X14.0296 Y-22.7048 Z1.5100
G2X13.0155Y-23.0348Z1.5100I-1.9546J4.2839
G1 X12.8002 Y-23.0752 Z1.5100
G1 X12.5783 Y-23.1085 Z1.5100
G1 X12.3486 Y-23.1354 Z1.5100
G2X11.5998Y-23.1841Z1.5100I-1.0811J10.8428
G2X10.7332Y-23.1973Z1.5100I-0.7957J23.8093
G2X8.3387Y-23.1927Z1.5100I-0.7176J249.1959
G2X7.5310Y-23.1633Z1.5100I0.1517J15.2900
G1 X7.2852 Y-23.1425 Z1.5100
G1 X7.0486 Y-23.1147 Z1.5100
G2X5.5526Y-22.7357Z1.5100I0.9485J6.8849
G2X4.7136Y-22.3163Z1.5100I1.5790J4.2075
G2X3.2730Y-20.6752Z1.5100I2.1353J3.3273
G2X2.9590Y-19.5774Z1.5100I3.3444J1.5506
G2X2.9240Y-18.9923Z1.5100I4.5787J0.5672
G2X2.9459Y-18.4929Z1.5100I5.6725J0.0018
G3X2.7158Y-18.2247Z1.5100I-0.2493J0.0189
G0 Z2.0100
G0 X2.7158 Y-18.2247 
G0 Z2.0100
G0 X3.1532 Y-20.3839 
G1 X3.1532 Y-20.3839 Z1.5100 F75.
G1 X3.1338 Y-20.3305 Z1.5000 F50.
G1 X3.0947 Y-20.2109 Z1.4778
G1 X3.0596 Y-20.0890 Z1.4554
G1 X3.0283 Y-19.9647 Z1.4328
G1 X3.0011 Y-19.8381 Z1.4100
G1 X2.9780 Y-19.7092 Z1.3869
G1 X2.9590 Y-19.5774 Z1.3634
G1 X2.9432 Y-19.4329 Z1.3378
G1 X2.9322 Y-19.2865 Z1.3119
G1 X2.9259 Y-19.1386 Z1.2858
G1 X2.9240 Y-18.9923 Z1.2600
G2X2.9702Y-18.2415Z1.2600I6.5819J-0.0280 F150.
G2X3.1742Y-17.1070Z1.2600I9.8803J-1.1910
G2X3.4795Y-16.0196Z1.2600I13.8317J-3.2971
G2X4.0405Y-14.5257Z1.2600I16.3239J-5.2782
G1 X4.1478 Y-14.2768 Z1.2600
G3X4.5627Y-13.3130Z1.2600I-40.2445J17.8974
G1 X4.6631 Y-13.0592 Z1.2600
G3X4.8146Y-12.5610Z1.2600I-3.1022J1.2149
G3X4.8550Y-12.1997Z1.2600I-1.9538J0.4019
G3X4.8341Y-11.7984Z1.2600I-2.7636J0.0572
G3X4.7232Y-11.2165Z1.2600I-4.7248J-0.5990
G3X4.5414Y-10.5850Z1.2600I-10.2097J-2.5975
G1 X4.4333 Y-10.2516 Z1.2600
G2X4.1500Y-9.3779Z1.2600I45.5318J15.2468
G2X3.9253Y-8.4549Z1.2600I6.5722J2.0887
G1 X3.8871 Y-8.2089 Z1.2600
G2X3.8064Y-7.0924Z1.2600I8.5406J1.1783
G2X3.8979Y-6.0558Z1.2600I5.4627J0.0400
G2X4.0986Y-5.3755Z1.2600I3.3534J-0.6196
G1 X4.1641 Y-5.2314 Z1.2600
G1 X4.2415 Y-5.0792 Z1.2600
G2X4.4732Y-4.7225Z1.2600I1.8011J-0.9164
G2X4.8272Y-4.4088Z1.2600I1.1432J-0.9333
G2X5.0709Y-4.2897Z1.2600I0.6649J-1.0521
G1 X5.1618 Y-4.2621 Z1.2600
G1 X5.2567 Y-4.2422 Z1.2600
G1 X5.3548 Y-4.2310 Z1.2600
G2X5.5676Y-4.2367Z1.2600I0.0744J-1.1945
G1 X5.6681 Y-4.2533 Z1.2600
G1 X5.7684 Y-4.2793 Z1.2600
G1 X5.8653 Y-4.3141 Z1.2600
G2X5.9922Y-4.3767Z1.2600I-0.5044J-1.1817
G1 X6.0689 Y-4.4250 Z1.2600
G2X6.2127Y-4.5476Z1.2600I-0.7258J-0.9968
G2X6.4397Y-4.9366Z1.2600I-0.6818J-0.6586
G1 X6.4669 Y-5.0443 Z1.2600
G1 X6.4864 Y-5.1645 Z1.2600
G1 X6.4974 Y-5.2783 Z1.2600
G1 X6.5072 Y-5.4707 Z1.2600
G3X6.5343Y-5.9505Z1.2600I8.0308J0.2129
G3X6.6142Y-6.3822Z1.2600I2.3220J0.2064
G3X6.9750Y-6.9948Z1.2600I1.4251J0.4267
G3X7.7361Y-7.3700Z1.2600I0.9129J0.8923
G1 X7.8210 Y-7.3776 Z1.2600
G1 X7.9154 Y-7.3801 Z1.2600
G3X8.0773Y-7.3372Z1.2600I-0.0085J0.3587
G1 X8.0990 Y-7.3215 Z1.2600
G3X8.2186Y-7.1976Z1.2600I-0.5140J0.6160
G3X8.2569Y-7.0947Z1.2600I-0.3107J0.1741
G2X8.8570Y-6.6049Z1.2600I0.6001J-0.1227
G1 X10.6428 Y-6.6049 Z1.2600
G2X11.2552Y-7.2085Z1.2600I0.0000J-0.6125
G1 X11.2572 Y-8.9400 Z1.2600
G1 X11.2728 Y-8.9503 Z1.2600
G1 X11.2960 Y-8.9640 Z1.2600
G1 X11.3697 Y-9.0019 Z1.2600
G1 X11.4591 Y-9.0411 Z1.2600
G3X11.7422Y-9.1430Z1.2600I1.4300J3.5274
G3X12.0332Y-9.1763Z1.2600I0.2399J0.8097
G3X12.4146Y-9.1045Z1.2600I-0.0636J1.3873
G3X12.8853Y-8.7526Z1.2600I-0.3149J0.9118
G3X13.0654Y-8.4143Z1.2600I-1.1903J0.8508
G3X13.1315Y-8.2137Z1.2600I-2.0627J0.7915
G1 X13.1703 Y-8.0657 Z1.2600
G1 X13.2395 Y-7.7613 Z1.2600
G2X13.3210Y-7.4549Z1.2600I3.0112J-0.6375
G2X13.4907Y-7.1437Z1.2600I1.0266J-0.3576
G2X13.6803Y-6.9590Z1.2600I0.7845J-0.6158
G2X14.0737Y-6.7858Z1.2600I0.5784J-0.7803
G2X14.4175Y-6.7785Z1.2600I0.1930J-0.9996
G2X14.7492Y-6.8834Z1.2600I-0.1656J-1.1002
G2X15.0461Y-7.0901Z1.2600I-0.5642J-1.1272
G2X15.2885Y-7.3837Z1.2600I-1.0154J-1.0851
G2X15.4668Y-7.7525Z1.2600I-1.5753J-0.9892
G2X15.5981Y-8.2785Z1.2600I-2.6729J-0.9465
G2X15.6385Y-9.2303Z1.2600I-4.4222J-0.6645
G2X15.3675Y-10.5923Z1.2600I-5.0185J0.2903
G1 X15.2854 Y-10.8190 Z1.2600
G1 X15.1983 Y-11.0392 Z1.2600
G1 X14.9411 Y-11.6501 Z1.2600
G3X14.7635Y-12.1147Z1.2600I6.5863J-2.7839
G3X14.6569Y-12.5312Z1.2600I2.6035J-0.8879
G3X14.6541Y-13.0753Z1.2600I1.7645J-0.2812
G3X14.7746Y-13.5802Z1.2600I2.9234J0.4305
G1 X14.8038 Y-13.6671 Z1.2600
G1 X14.8716 Y-13.8507 Z1.2600
G3X15.1209Y-14.4268Z1.2600I8.7803J3.4589
G1 X15.4165 Y-15.0542 Z1.2600
G2X15.9058Y-16.2180Z1.2600I-12.3857J-5.8914
G2X16.2775Y-17.4684Z1.2600I-10.0891J-3.6799
G1 X16.3317 Y-17.7222 Z1.2600
G1 X16.3779 Y-17.9758 Z1.2600
G1 X16.4151 Y-18.2249 Z1.2600
G2X16.4625Y-19.3390Z1.2600I-5.8528J-0.8071
G2X16.3307Y-20.1536Z1.2600I-3.9277J0.2173
G2X16.1056Y-20.7631Z1.2600I-3.8661J1.0816
G1 X16.0203 Y-20.9375 Z1.2600
G2X15.7613Y-21.3738Z1.2600I-3.8008J1.9614
G1 X15.6757 Y-21.4923 Z1.2600
G1 X15.6277 Y-21.5526 Z1.2600
G1 X15.5727 Y-21.6168 Z1.2600
G1 X15.4636 Y-21.7333 Z1.2600
G1 X15.3404 Y-21.8515 Z1.2600
G1 X15.2073 Y-21.9680 Z1.2600
G1 X15.0636 Y-22.0833 Z1.2600
G1 X14.9103 Y-22.1968 Z1.2600
G2X14.3998Y-22.5180Z1.2600I-3.1232J4.3971
G1 X14.2155 Y-22.6156 Z1.2600
G1 X14.0296 Y-22.7048 Z1.2600
G2X13.0155Y-23.0348Z1.2600I-1.9546J4.2839
G1 X12.8002 Y-23.0752 Z1.2600
G1 X12.5783 Y-23.1085 Z1.2600
G1 X12.3486 Y-23.1354 Z1.2600
G2X11.5998Y-23.1841Z1.2600I-1.0811J10.8428
G2X10.7332Y-23.1973Z1.2600I-0.7957J23.8093
G2X8.3387Y-23.1927Z1.2600I-0.7176J249.1959
G2X7.5310Y-23.1633Z1.2600I0.1517J15.2900
G1 X7.2852 Y-23.1425 Z1.2600
G1 X7.0486 Y-23.1147 Z1.2600
G2X5.5526Y-22.7357Z1.2600I0.9485J6.8849
G2X4.7136Y-22.3163Z1.2600I1.5790J4.2075
G2X3.2730Y-20.6752Z1.2600I2.1353J3.3273
G2X2.9590Y-19.5774Z1.2600I3.3444J1.5506
G2X2.9240Y-18.9923Z1.2600I4.5787J0.5672
G2X2.9459Y-18.4929Z1.2600I5.6725J0.0018
G3X2.7158Y-18.2247Z1.2600I-0.2493J0.0189
G0 Z4.0000
G0 X2.7158 Y-18.2247 
M5
G53 Z
( MOP:  FrontRoundover-PT5-01-front )
( FILE: G:\Shared drives\AlloyProjectFiles\Customer CAD files\Alloy-Standard-Builds-CAM\s-in\EdgeTreatment\FrontRoundover-PT5-01-front.nc)
G90
(  BEGIN TOOL LIST )
(  TOOL 11 - Downcut PT750 ROUGH - DESC: 0.7500 DIA, 2 FLUTE,  CARBIDE MAT )
(  ENDOF TOOL LIST )
( FrontRoundover-PT5-01-front)
T11
S14000
M3
G0 Z4.0000
G0 X18.6532 Y-20.3839 
G1 X18.6532 Y-20.3839 Z1.7600 F75.
G1 X18.6338 Y-20.3305 Z1.7500 F50.
G1 X18.5947 Y-20.2109 Z1.7278
G1 X18.5596 Y-20.0890 Z1.7054
G1 X18.5283 Y-19.9647 Z1.6828
G1 X18.5011 Y-19.8381 Z1.6600
G1 X18.4780 Y-19.7092 Z1.6369
G1 X18.4590 Y-19.5774 Z1.6134
G1 X18.4432 Y-19.4329 Z1.5878
G1 X18.4322 Y-19.2865 Z1.5619
G1 X18.4259 Y-19.1386 Z1.5358
G1 X18.4240 Y-18.9923 Z1.5100
G17
G2X18.4702Y-18.2415Z1.5100I6.5819J-0.0280 F150.
G2X18.6742Y-17.1070Z1.5100I9.8803J-1.1910
G2X18.9795Y-16.0196Z1.5100I13.8317J-3.2971
G2X19.5405Y-14.5257Z1.5100I16.3239J-5.2782
G1 X19.6478 Y-14.2768 Z1.5100
G3X20.0627Y-13.3130Z1.5100I-40.2445J17.8974
G1 X20.1631 Y-13.0592 Z1.5100
G3X20.3146Y-12.5610Z1.5100I-3.1022J1.2149
G3X20.3550Y-12.1997Z1.5100I-1.9538J0.4019
G3X20.3341Y-11.7984Z1.5100I-2.7636J0.0572
G3X20.2232Y-11.2165Z1.5100I-4.7248J-0.5990
G3X20.0414Y-10.5850Z1.5100I-10.2097J-2.5975
G1 X19.9333 Y-10.2516 Z1.5100
G2X19.6500Y-9.3779Z1.5100I45.5318J15.2468
G2X19.4253Y-8.4549Z1.5100I6.5722J2.0887
G1 X19.3871 Y-8.2089 Z1.5100
G2X19.3064Y-7.0924Z1.5100I8.5406J1.1783
G2X19.3979Y-6.0558Z1.5100I5.4627J0.0400
G2X19.5986Y-5.3755Z1.5100I3.3534J-0.6196
G1 X19.6641 Y-5.2314 Z1.5100
G1 X19.7415 Y-5.0792 Z1.5100
G2X19.9732Y-4.7225Z1.5100I1.8011J-0.9164
G2X20.3272Y-4.4088Z1.5100I1.1432J-0.9333
G2X20.5709Y-4.2897Z1.5100I0.6649J-1.0521
G1 X20.6618 Y-4.2621 Z1.5100
G1 X20.7567 Y-4.2422 Z1.5100
G1 X20.8548 Y-4.2310 Z1.5100
G2X21.0676Y-4.2367Z1.5100I0.0744J-1.1945
G1 X21.1681 Y-4.2533 Z1.5100
G1 X21.2684 Y-4.2793 Z1.5100
G1 X21.3653 Y-4.3141 Z1.5100
G2X21.4922Y-4.3767Z1.5100I-0.5044J-1.1817
G1 X21.5689 Y-4.4250 Z1.5100
G2X21.7127Y-4.5476Z1.5100I-0.7258J-0.9968
G2X21.9397Y-4.9366Z1.5100I-0.6818J-0.6586
G1 X21.9669 Y-5.0443 Z1.5100
G1 X21.9864 Y-5.1645 Z1.5100
G1 X21.9974 Y-5.2783 Z1.5100
G1 X22.0072 Y-5.4707 Z1.5100
G3X22.0343Y-5.9505Z1.5100I8.0308J0.2129
G3X22.1142Y-6.3822Z1.5100I2.3220J0.2064
G3X22.4750Y-6.9948Z1.5100I1.4251J0.4267
G3X23.2361Y-7.3700Z1.5100I0.9129J0.8923
G1 X23.3210 Y-7.3776 Z1.5100
G1 X23.4154 Y-7.3801 Z1.5100
G3X23.5773Y-7.3372Z1.5100I-0.0085J0.3587
G1 X23.5990 Y-7.3215 Z1.5100
G3X23.7186Y-7.1976Z1.5100I-0.5140J0.6160
G3X23.7569Y-7.0947Z1.5100I-0.3107J0.1741
G2X24.3570Y-6.6049Z1.5100I0.6001J-0.1227
G1 X26.1428 Y-6.6049 Z1.5100
G2X26.7552Y-7.2085Z1.5100I0.0000J-0.6125
G1 X26.7572 Y-8.9400 Z1.5100
G1 X26.7728 Y-8.9503 Z1.5100
G1 X26.7960 Y-8.9640 Z1.5100
G1 X26.8697 Y-9.0019 Z1.5100
G1 X26.9591 Y-9.0411 Z1.5100
G3X27.2422Y-9.1430Z1.5100I1.4300J3.5274
G3X27.5332Y-9.1763Z1.5100I0.2399J0.8097
G3X27.9146Y-9.1045Z1.5100I-0.0636J1.3873
G3X28.3853Y-8.7526Z1.5100I-0.3149J0.9118
G3X28.5654Y-8.4143Z1.5100I-1.1903J0.8508
G3X28.6315Y-8.2137Z1.5100I-2.0627J0.7915
G1 X28.6703 Y-8.0657 Z1.5100
G1 X28.7395 Y-7.7613 Z1.5100
G2X28.8210Y-7.4549Z1.5100I3.0112J-0.6375
G2X28.9907Y-7.1437Z1.5100I1.0266J-0.3576
G2X29.1803Y-6.9590Z1.5100I0.7845J-0.6158
G2X29.5737Y-6.7858Z1.5100I0.5784J-0.7803
G2X29.9175Y-6.7785Z1.5100I0.1930J-0.9996
G2X30.2492Y-6.8834Z1.5100I-0.1656J-1.1002
G2X30.5461Y-7.0901Z1.5100I-0.5642J-1.1272
G2X30.7885Y-7.3837Z1.5100I-1.0154J-1.0851
G2X30.9668Y-7.7525Z1.5100I-1.5753J-0.9892
G2X31.0981Y-8.2785Z1.5100I-2.6729J-0.9465
G2X31.1385Y-9.2303Z1.5100I-4.4222J-0.6645
G2X30.8675Y-10.5923Z1.5100I-5.0185J0.2903
G1 X30.7854 Y-10.8190 Z1.5100
G1 X30.6983 Y-11.0392 Z1.5100
G1 X30.4411 Y-11.6501 Z1.5100
G3X30.2635Y-12.1147Z1.5100I6.5863J-2.7839
G3X30.1569Y-12.5312Z1.5100I2.6035J-0.8879
G3X30.1541Y-13.0753Z1.5100I1.7645J-0.2812
G3X30.2746Y-13.5802Z1.5100I2.9234J0.4305
G1 X30.3038 Y-13.6671 Z1.5100
G1 X30.3716 Y-13.8507 Z1.5100
G3X30.6209Y-14.4268Z1.5100I8.7803J3.4589
G1 X30.9165 Y-15.0542 Z1.5100
G2X31.4058Y-16.2180Z1.5100I-12.3857J-5.8914
G2X31.7775Y-17.4684Z1.5100I-10.0891J-3.6799
G1 X31.8317 Y-17.7222 Z1.5100
G1 X31.8779 Y-17.9758 Z1.5100
G1 X31.9151 Y-18.2249 Z1.5100
G2X31.9625Y-19.3390Z1.5100I-5.8528J-0.8071
G2X31.8307Y-20.1536Z1.5100I-3.9277J0.2173
G2X31.6056Y-20.7631Z1.5100I-3.8661J1.0816
G1 X31.5203 Y-20.9375 Z1.5100
G2X31.2613Y-21.3738Z1.5100I-3.8008J1.9614
G1 X31.1757 Y-21.4923 Z1.5100
G1 X31.1277 Y-21.5526 Z1.5100
G1 X31.0727 Y-21.6168 Z1.5100
G1 X30.9636 Y-21.7333 Z1.5100
G1 X30.8404 Y-21.8515 Z1.5100
G1 X30.7073 Y-21.9680 Z1.5100
G1 X30.5636 Y-22.0833 Z1.5100
G1 X30.4103 Y-22.1968 Z1.5100
G2X29.8998Y-22.5180Z1.5100I-3.1232J4.3971
G1 X29.7155 Y-22.6156 Z1.5100
G1 X29.5296 Y-22.7048 Z1.5100
G2X28.5155Y-23.0348Z1.5100I-1.9546J4.2839
G1 X28.3002 Y-23.0752 Z1.5100
G1 X28.0783 Y-23.1085 Z1.5100
G1 X27.8486 Y-23.1354 Z1.5100
G2X27.0998Y-23.1841Z1.5100I-1.0811J10.8428
G2X26.2332Y-23.1973Z1.5100I-0.7957J23.8093
G2X23.8387Y-23.1927Z1.5100I-0.7176J249.1959
G2X23.0310Y-23.1633Z1.5100I0.1517J15.2900
G1 X22.7852 Y-23.1425 Z1.5100
G1 X22.5486 Y-23.1147 Z1.5100
G2X21.0526Y-22.7357Z1.5100I0.9485J6.8849
G2X20.2136Y-22.3163Z1.5100I1.5790J4.2075
G2X18.7730Y-20.6752Z1.5100I2.1353J3.3273
G2X18.4590Y-19.5774Z1.5100I3.3444J1.5506
G2X18.4240Y-18.9923Z1.5100I4.5787J0.5672
G2X18.4459Y-18.4929Z1.5100I5.6725J0.0018
G3X18.2158Y-18.2247Z1.5100I-0.2493J0.0189
G0 Z2.0100
G0 X18.2158 Y-18.2247 
G0 Z2.0100
G0 X18.6532 Y-20.3839 
G1 X18.6532 Y-20.3839 Z1.5100 F75.
G1 X18.6338 Y-20.3305 Z1.5000 F50.
G1 X18.5947 Y-20.2109 Z1.4778
G1 X18.5596 Y-20.0890 Z1.4554
G1 X18.5283 Y-19.9647 Z1.4328
G1 X18.5011 Y-19.8381 Z1.4100
G1 X18.4780 Y-19.7092 Z1.3869
G1 X18.4590 Y-19.5774 Z1.3634
G1 X18.4432 Y-19.4329 Z1.3378
G1 X18.4322 Y-19.2865 Z1.3119
G1 X18.4259 Y-19.1386 Z1.2858
G1 X18.4240 Y-18.9923 Z1.2600
G2X18.4702Y-18.2415Z1.2600I6.5819J-0.0280 F150.
G2X18.6742Y-17.1070Z1.2600I9.8803J-1.1910
G2X18.9795Y-16.0196Z1.2600I13.8317J-3.2971
G2X19.5405Y-14.5257Z1.2600I16.3239J-5.2782
G1 X19.6478 Y-14.2768 Z1.2600
G3X20.0627Y-13.3130Z1.2600I-40.2445J17.8974
G1 X20.1631 Y-13.0592 Z1.2600
G3X20.3146Y-12.5610Z1.2600I-3.1022J1.2149
G3X20.3550Y-12.1997Z1.2600I-1.9538J0.4019
G3X20.3341Y-11.7984Z1.2600I-2.7636J0.0572
G3X20.2232Y-11.2165Z1.2600I-4.7248J-0.5990
G3X20.0414Y-10.5850Z1.2600I-10.2097J-2.5975
G1 X19.9333 Y-10.2516 Z1.2600
G2X19.6500Y-9.3779Z1.2600I45.5318J15.2468
G2X19.4253Y-8.4549Z1.2600I6.5722J2.0887
G1 X19.3871 Y-8.2089 Z1.2600
G2X19.3064Y-7.0924Z1.2600I8.5406J1.1783
G2X19.3979Y-6.0558Z1.2600I5.4627J0.0400
G2X19.5986Y-5.3755Z1.2600I3.3534J-0.6196
G1 X19.6641 Y-5.2314 Z1.2600
G1 X19.7415 Y-5.0792 Z1.2600
G2X19.9732Y-4.7225Z1.2600I1.8011J-0.9164
G2X20.3272Y-4.4088Z1.2600I1.1432J-0.9333
G2X20.5709Y-4.2897Z1.2600I0.6649J-1.0521
G1 X20.6618 Y-4.2621 Z1.2600
G1 X20.7567 Y-4.2422 Z1.2600
G1 X20.8548 Y-4.2310 Z1.2600
G2X21.0676Y-4.2367Z1.2600I0.0744J-1.1945
G1 X21.1681 Y-4.2533 Z1.2600
G1 X21.2684 Y-4.2793 Z1.2600
G1 X21.3653 Y-4.3141 Z1.2600
G2X21.4922Y-4.3767Z1.2600I-0.5044J-1.1817
G1 X21.5689 Y-4.4250 Z1.2600
G2X21.7127Y-4.5476Z1.2600I-0.7258J-0.9968
G2X21.9397Y-4.9366Z1.2600I-0.6818J-0.6586
G1 X21.9669 Y-5.0443 Z1.2600
G1 X21.9864 Y-5.1645 Z1.2600
G1 X21.9974 Y-5.2783 Z1.2600
G1 X22.0072 Y-5.4707 Z1.2600
G3X22.0343Y-5.9505Z1.2600I8.0308J0.2129
G3X22.1142Y-6.3822Z1.2600I2.3220J0.2064
G3X22.4750Y-6.9948Z1.2600I1.4251J0.4267
G3X23.2361Y-7.3700Z1.2600I0.9129J0.8923
G1 X23.3210 Y-7.3776 Z1.2600
G1 X23.4154 Y-7.3801 Z1.2600
G3X23.5773Y-7.3372Z1.2600I-0.0085J0.3587
G1 X23.5990 Y-7.3215 Z1.2600
G3X23.7186Y-7.1976Z1.2600I-0.5140J0.6160
G3X23.7569Y-7.0947Z1.2600I-0.3107J0.1741
G2X24.3570Y-6.6049Z1.2600I0.6001J-0.1227
G1 X26.1428 Y-6.6049 Z1.2600
G2X26.7552Y-7.2085Z1.2600I0.0000J-0.6125
G1 X26.7572 Y-8.9400 Z1.2600
G1 X26.7728 Y-8.9503 Z1.2600
G1 X26.7960 Y-8.9640 Z1.2600
G1 X26.8697 Y-9.0019 Z1.2600
G1 X26.9591 Y-9.0411 Z1.2600
G3X27.2422Y-9.1430Z1.2600I1.4300J3.5274
G3X27.5332Y-9.1763Z1.2600I0.2399J0.8097
G3X27.9146Y-9.1045Z1.2600I-0.0636J1.3873
G3X28.3853Y-8.7526Z1.2600I-0.3149J0.9118
G3X28.5654Y-8.4143Z1.2600I-1.1903J0.8508
G3X28.6315Y-8.2137Z1.2600I-2.0627J0.7915
G1 X28.6703 Y-8.0657 Z1.2600
G1 X28.7395 Y-7.7613 Z1.2600
G2X28.8210Y-7.4549Z1.2600I3.0112J-0.6375
G2X28.9907Y-7.1437Z1.2600I1.0266J-0.3576
G2X29.1803Y-6.9590Z1.2600I0.7845J-0.6158
G2X29.5737Y-6.7858Z1.2600I0.5784J-0.7803
G2X29.9175Y-6.7785Z1.2600I0.1930J-0.9996
G2X30.2492Y-6.8834Z1.2600I-0.1656J-1.1002
G2X30.5461Y-7.0901Z1.2600I-0.5642J-1.1272
G2X30.7885Y-7.3837Z1.2600I-1.0154J-1.0851
G2X30.9668Y-7.7525Z1.2600I-1.5753J-0.9892
G2X31.0981Y-8.2785Z1.2600I-2.6729J-0.9465
G2X31.1385Y-9.2303Z1.2600I-4.4222J-0.6645
G2X30.8675Y-10.5923Z1.2600I-5.0185J0.2903
G1 X30.7854 Y-10.8190 Z1.2600
G1 X30.6983 Y-11.0392 Z1.2600
G1 X30.4411 Y-11.6501 Z1.2600
G3X30.2635Y-12.1147Z1.2600I6.5863J-2.7839
G3X30.1569Y-12.5312Z1.2600I2.6035J-0.8879
G3X30.1541Y-13.0753Z1.2600I1.7645J-0.2812
G3X30.2746Y-13.5802Z1.2600I2.9234J0.4305
G1 X30.3038 Y-13.6671 Z1.2600
G1 X30.3716 Y-13.8507 Z1.2600
G3X30.6209Y-14.4268Z1.2600I8.7803J3.4589
G1 X30.9165 Y-15.0542 Z1.2600
G2X31.4058Y-16.2180Z1.2600I-12.3857J-5.8914
G2X31.7775Y-17.4684Z1.2600I-10.0891J-3.6799
G1 X31.8317 Y-17.7222 Z1.2600
G1 X31.8779 Y-17.9758 Z1.2600
G1 X31.9151 Y-18.2249 Z1.2600
G2X31.9625Y-19.3390Z1.2600I-5.8528J-0.8071
G2X31.8307Y-20.1536Z1.2600I-3.9277J0.2173
G2X31.6056Y-20.7631Z1.2600I-3.8661J1.0816
G1 X31.5203 Y-20.9375 Z1.2600
G2X31.2613Y-21.3738Z1.2600I-3.8008J1.9614
G1 X31.1757 Y-21.4923 Z1.2600
G1 X31.1277 Y-21.5526 Z1.2600
G1 X31.0727 Y-21.6168 Z1.2600
G1 X30.9636 Y-21.7333 Z1.2600
G1 X30.8404 Y-21.8515 Z1.2600
G1 X30.7073 Y-21.9680 Z1.2600
G1 X30.5636 Y-22.0833 Z1.2600
G1 X30.4103 Y-22.1968 Z1.2600
G2X29.8998Y-22.5180Z1.2600I-3.1232J4.3971
G1 X29.7155 Y-22.6156 Z1.2600
G1 X29.5296 Y-22.7048 Z1.2600
G2X28.5155Y-23.0348Z1.2600I-1.9546J4.2839
G1 X28.3002 Y-23.0752 Z1.2600
G1 X28.0783 Y-23.1085 Z1.2600
G1 X27.8486 Y-23.1354 Z1.2600
G2X27.0998Y-23.1841Z1.2600I-1.0811J10.8428
G2X26.2332Y-23.1973Z1.2600I-0.7957J23.8093
G2X23.8387Y-23.1927Z1.2600I-0.7176J249.1959
G2X23.0310Y-23.1633Z1.2600I0.1517J15.2900
G1 X22.7852 Y-23.1425 Z1.2600
G1 X22.5486 Y-23.1147 Z1.2600
G2X21.0526Y-22.7357Z1.2600I0.9485J6.8849
G2X20.2136Y-22.3163Z1.2600I1.5790J4.2075
G2X18.7730Y-20.6752Z1.2600I2.1353J3.3273
G2X18.4590Y-19.5774Z1.2600I3.3444J1.5506
G2X18.4240Y-18.9923Z1.2600I4.5787J0.5672
G2X18.4459Y-18.4929Z1.2600I5.6725J0.0018
G3X18.2158Y-18.2247Z1.2600I-0.2493J0.0189
G0 Z4.0000
G0 X18.2158 Y-18.2247 
M5
G53 Z
( MOP:  FrontRoundover-PT5-01-front )
( FILE: G:\Shared drives\AlloyProjectFiles\Customer CAD files\Alloy-Standard-Builds-CAM\s-in\EdgeTreatment\FrontRoundover-PT5-01-front.nc)
G90
(  BEGIN TOOL LIST )
(  TOOL 11 - Downcut PT750 ROUGH - DESC: 0.7500 DIA, 2 FLUTE,  CARBIDE MAT )
(  ENDOF TOOL LIST )
( FrontRoundover-PT5-01-front)
T11
S14000
M3
G0 Z4.0000
G0 X34.1532 Y-20.3839 
G1 X34.1532 Y-20.3839 Z1.7600 F75.
G1 X34.1338 Y-20.3305 Z1.7500 F50.
G1 X34.0947 Y-20.2109 Z1.7278
G1 X34.0596 Y-20.0890 Z1.7054
G1 X34.0283 Y-19.9647 Z1.6828
G1 X34.0011 Y-19.8381 Z1.6600
G1 X33.9780 Y-19.7092 Z1.6369
G1 X33.9590 Y-19.5774 Z1.6134
G1 X33.9432 Y-19.4329 Z1.5878
G1 X33.9322 Y-19.2865 Z1.5619
G1 X33.9259 Y-19.1386 Z1.5358
G1 X33.9240 Y-18.9923 Z1.5100
G17
G2X33.9702Y-18.2415Z1.5100I6.5819J-0.0280 F150.
G2X34.1742Y-17.1070Z1.5100I9.8803J-1.1910
G2X34.4795Y-16.0196Z1.5100I13.8317J-3.2971
G2X35.0405Y-14.5257Z1.5100I16.3239J-5.2782
G1 X35.1478 Y-14.2768 Z1.5100
G3X35.5627Y-13.3130Z1.5100I-40.2445J17.8974
G1 X35.6631 Y-13.0592 Z1.5100
G3X35.8146Y-12.5610Z1.5100I-3.1022J1.2149
G3X35.8550Y-12.1997Z1.5100I-1.9538J0.4019
G3X35.8341Y-11.7984Z1.5100I-2.7636J0.0572
G3X35.7232Y-11.2165Z1.5100I-4.7248J-0.5990
G3X35.5414Y-10.5850Z1.5100I-10.2097J-2.5975
G1 X35.4333 Y-10.2516 Z1.5100
G2X35.1500Y-9.3779Z1.5100I45.5318J15.2468
G2X34.9253Y-8.4549Z1.5100I6.5722J2.0887
G1 X34.8871 Y-8.2089 Z1.5100
G2X34.8064Y-7.0924Z1.5100I8.5406J1.1783
G2X34.8979Y-6.0558Z1.5100I5.4627J0.0400
G2X35.0986Y-5.3755Z1.5100I3.3534J-0.6196
G1 X35.1641 Y-5.2314 Z1.5100
G1 X35.2415 Y-5.0792 Z1.5100
G2X35.4732Y-4.7225Z1.5100I1.8011J-0.9164
G2X35.8272Y-4.4088Z1.5100I1.1432J-0.9333
G2X36.0709Y-4.2897Z1.5100I0.6649J-1.0521
G1 X36.1618 Y-4.2621 Z1.5100
G1 X36.2567 Y-4.2422 Z1.5100
G1 X36.3548 Y-4.2310 Z1.5100
G2X36.5676Y-4.2367Z1.5100I0.0744J-1.1945
G1 X36.6681 Y-4.2533 Z1.5100
G1 X36.7684 Y-4.2793 Z1.5100
G1 X36.8653 Y-4.3141 Z1.5100
G2X36.9922Y-4.3767Z1.5100I-0.5044J-1.1817
G1 X37.0689 Y-4.4250 Z1.5100
G2X37.2127Y-4.5476Z1.5100I-0.7258J-0.9968
G2X37.4397Y-4.9366Z1.5100I-0.6818J-0.6586
G1 X37.4669 Y-5.0443 Z1.5100
G1 X37.4864 Y-5.1645 Z1.5100
G1 X37.4974 Y-5.2783 Z1.5100
G1 X37.5072 Y-5.4707 Z1.5100
G3X37.5343Y-5.9505Z1.5100I8.0308J0.2129
G3X37.6142Y-6.3822Z1.5100I2.3220J0.2064
G3X37.9750Y-6.9948Z1.5100I1.4251J0.4267
G3X38.7361Y-7.3700Z1.5100I0.9129J0.8923
G1 X38.8210 Y-7.3776 Z1.5100
G1 X38.9154 Y-7.3801 Z1.5100
G3X39.0773Y-7.3372Z1.5100I-0.0085J0.3587
G1 X39.0990 Y-7.3215 Z1.5100
G3X39.2186Y-7.1976Z1.5100I-0.5140J0.6160
G3X39.2569Y-7.0947Z1.5100I-0.3107J0.1741
G2X39.8570Y-6.6049Z1.5100I0.6001J-0.1227
G1 X41.6428 Y-6.6049 Z1.5100
G2X42.2552Y-7.2085Z1.5100I0.0000J-0.6125
G1 X42.2572 Y-8.9400 Z1.5100
G1 X42.2728 Y-8.9503 Z1.5100
G1 X42.2960 Y-8.9640 Z1.5100
G1 X42.3697 Y-9.0019 Z1.5100
G1 X42.4591 Y-9.0411 Z1.5100
G3X42.7422Y-9.1430Z1.5100I1.4300J3.5274
G3X43.0332Y-9.1763Z1.5100I0.2399J0.8097
G3X43.4146Y-9.1045Z1.5100I-0.0636J1.3873
G3X43.8853Y-8.7526Z1.5100I-0.3149J0.9118
G3X44.0654Y-8.4143Z1.5100I-1.1903J0.8508
G3X44.1315Y-8.2137Z1.5100I-2.0627J0.7915
G1 X44.1703 Y-8.0657 Z1.5100
G1 X44.2395 Y-7.7613 Z1.5100
G2X44.3210Y-7.4549Z1.5100I3.0112J-0.6375
G2X44.4907Y-7.1437Z1.5100I1.0266J-0.3576
G2X44.6803Y-6.9590Z1.5100I0.7845J-0.6158
G2X45.0737Y-6.7858Z1.5100I0.5784J-0.7803
G2X45.4175Y-6.7785Z1.5100I0.1930J-0.9996
G2X45.7492Y-6.8834Z1.5100I-0.1656J-1.1002
G2X46.0461Y-7.0901Z1.5100I-0.5642J-1.1272
G2X46.2885Y-7.3837Z1.5100I-1.0154J-1.0851
G2X46.4668Y-7.7525Z1.5100I-1.5753J-0.9892
G2X46.5981Y-8.2785Z1.5100I-2.6729J-0.9465
G2X46.6385Y-9.2303Z1.5100I-4.4222J-0.6645
G2X46.3675Y-10.5923Z1.5100I-5.0185J0.2903
G1 X46.2854 Y-10.8190 Z1.5100
G1 X46.1983 Y-11.0392 Z1.5100
G1 X45.9411 Y-11.6501 Z1.5100
G3X45.7635Y-12.1147Z1.5100I6.5863J-2.7839
G3X45.6569Y-12.5312Z1.5100I2.6035J-0.8879
G3X45.6541Y-13.0753Z1.5100I1.7645J-0.2812
G3X45.7746Y-13.5802Z1.5100I2.9234J0.4305
G1 X45.8038 Y-13.6671 Z1.5100
G1 X45.8716 Y-13.8507 Z1.5100
G3X46.1209Y-14.4268Z1.5100I8.7803J3.4589
G1 X46.4165 Y-15.0542 Z1.5100
G2X46.9058Y-16.2180Z1.5100I-12.3857J-5.8914
G2X47.2775Y-17.4684Z1.5100I-10.0891J-3.6799
G1 X47.3317 Y-17.7222 Z1.5100
G1 X47.3779 Y-17.9758 Z1.5100
G1 X47.4151 Y-18.2249 Z1.5100
G2X47.4625Y-19.3390Z1.5100I-5.8528J-0.8071
G2X47.3307Y-20.1536Z1.5100I-3.9277J0.2173
G2X47.1056Y-20.7631Z1.5100I-3.8661J1.0816
G1 X47.0203 Y-20.9375 Z1.5100
G2X46.7613Y-21.3738Z1.5100I-3.8008J1.9614
G1 X46.6757 Y-21.4923 Z1.5100
G1 X46.6277 Y-21.5526 Z1.5100
G1 X46.5727 Y-21.6168 Z1.5100
G1 X46.4636 Y-21.7333 Z1.5100
G1 X46.3404 Y-21.8515 Z1.5100
G1 X46.2073 Y-21.9680 Z1.5100
G1 X46.0636 Y-22.0833 Z1.5100
G1 X45.9103 Y-22.1968 Z1.5100
G2X45.3998Y-22.5180Z1.5100I-3.1232J4.3971
G1 X45.2155 Y-22.6156 Z1.5100
G1 X45.0296 Y-22.7048 Z1.5100
G2X44.0155Y-23.0348Z1.5100I-1.9546J4.2839
G1 X43.8002 Y-23.0752 Z1.5100
G1 X43.5783 Y-23.1085 Z1.5100
G1 X43.3486 Y-23.1354 Z1.5100
G2X42.5998Y-23.1841Z1.5100I-1.0811J10.8428
G2X41.7332Y-23.1973Z1.5100I-0.7957J23.8093
G2X39.3387Y-23.1927Z1.5100I-0.7176J249.1959
G2X38.5310Y-23.1633Z1.5100I0.1517J15.2900
G1 X38.2852 Y-23.1425 Z1.5100
G1 X38.0486 Y-23.1147 Z1.5100
G2X36.5526Y-22.7357Z1.5100I0.9485J6.8849
G2X35.7136Y-22.3163Z1.5100I1.5790J4.2075
G2X34.2730Y-20.6752Z1.5100I2.1353J3.3273
G2X33.9590Y-19.5774Z1.5100I3.3444J1.5506
G2X33.9240Y-18.9923Z1.5100I4.5787J0.5672
G2X33.9459Y-18.4929Z1.5100I5.6725J0.0018
G3X33.7158Y-18.2247Z1.5100I-0.2493J0.0189
G0 Z2.0100
G0 X33.7158 Y-18.2247 
G0 Z2.0100
G0 X34.1532 Y-20.3839 
G1 X34.1532 Y-20.3839 Z1.5100 F75.
G1 X34.1338 Y-20.3305 Z1.5000 F50.
G1 X34.0947 Y-20.2109 Z1.4778
G1 X34.0596 Y-20.0890 Z1.4554
G1 X34.0283 Y-19.9647 Z1.4328
G1 X34.0011 Y-19.8381 Z1.4100
G1 X33.9780 Y-19.7092 Z1.3869
G1 X33.9590 Y-19.5774 Z1.3634
G1 X33.9432 Y-19.4329 Z1.3378
G1 X33.9322 Y-19.2865 Z1.3119
G1 X33.9259 Y-19.1386 Z1.2858
G1 X33.9240 Y-18.9923 Z1.2600
G2X33.9702Y-18.2415Z1.2600I6.5819J-0.0280 F150.
G2X34.1742Y-17.1070Z1.2600I9.8803J-1.1910
G2X34.4795Y-16.0196Z1.2600I13.8317J-3.2971
G2X35.0405Y-14.5257Z1.2600I16.3239J-5.2782
G1 X35.1478 Y-14.2768 Z1.2600
G3X35.5627Y-13.3130Z1.2600I-40.2445J17.8974
G1 X35.6631 Y-13.0592 Z1.2600
G3X35.8146Y-12.5610Z1.2600I-3.1022J1.2149
G3X35.8550Y-12.1997Z1.2600I-1.9538J0.4019
G3X35.8341Y-11.7984Z1.2600I-2.7636J0.0572
G3X35.7232Y-11.2165Z1.2600I-4.7248J-0.5990
G3X35.5414Y-10.5850Z1.2600I-10.2097J-2.5975
G1 X35.4333 Y-10.2516 Z1.2600
G2X35.1500Y-9.3779Z1.2600I45.5318J15.2468
G2X34.9253Y-8.4549Z1.2600I6.5722J2.0887
G1 X34.8871 Y-8.2089 Z1.2600
G2X34.8064Y-7.0924Z1.2600I8.5406J1.1783
G2X34.8979Y-6.0558Z1.2600I5.4627J0.0400
G2X35.0986Y-5.3755Z1.2600I3.3534J-0.6196
G1 X35.1641 Y-5.2314 Z1.2600
G1 X35.2415 Y-5.0792 Z1.2600
G2X35.4732Y-4.7225Z1.2600I1.8011J-0.9164
G2X35.8272Y-4.4088Z1.2600I1.1432J-0.9333
G2X36.0709Y-4.2897Z1.2600I0.6649J-1.0521
G1 X36.1618 Y-4.2621 Z1.2600
G1 X36.2567 Y-4.2422 Z1.2600
G1 X36.3548 Y-4.2310 Z1.2600
G2X36.5676Y-4.2367Z1.2600I0.0744J-1.1945
G1 X36.6681 Y-4.2533 Z1.2600
G1 X36.7684 Y-4.2793 Z1.2600
G1 X36.8653 Y-4.3141 Z1.2600
G2X36.9922Y-4.3767Z1.2600I-0.5044J-1.1817
G1 X37.0689 Y-4.4250 Z1.2600
G2X37.2127Y-4.5476Z1.2600I-0.7258J-0.9968
G2X37.4397Y-4.9366Z1.2600I-0.6818J-0.6586
G1 X37.4669 Y-5.0443 Z1.2600
G1 X37.4864 Y-5.1645 Z1.2600
G1 X37.4974 Y-5.2783 Z1.2600
G1 X37.5072 Y-5.4707 Z1.2600
G3X37.5343Y-5.9505Z1.2600I8.0308J0.2129
G3X37.6142Y-6.3822Z1.2600I2.3220J0.2064
G3X37.9750Y-6.9948Z1.2600I1.4251J0.4267
G3X38.7361Y-7.3700Z1.2600I0.9129J0.8923
G1 X38.8210 Y-7.3776 Z1.2600
G1 X38.9154 Y-7.3801 Z1.2600
G3X39.0773Y-7.3372Z1.2600I-0.0085J0.3587
G1 X39.0990 Y-7.3215 Z1.2600
G3X39.2186Y-7.1976Z1.2600I-0.5140J0.6160
G3X39.2569Y-7.0947Z1.2600I-0.3107J0.1741
G2X39.8570Y-6.6049Z1.2600I0.6001J-0.1227
G1 X41.6428 Y-6.6049 Z1.2600
G2X42.2552Y-7.2085Z1.2600I0.0000J-0.6125
G1 X42.2572 Y-8.9400 Z1.2600
G1 X42.2728 Y-8.9503 Z1.2600
G1 X42.2960 Y-8.9640 Z1.2600
G1 X42.3697 Y-9.0019 Z1.2600
G1 X42.4591 Y-9.0411 Z1.2600
G3X42.7422Y-9.1430Z1.2600I1.4300J3.5274
G3X43.0332Y-9.1763Z1.2600I0.2399J0.8097
G3X43.4146Y-9.1045Z1.2600I-0.0636J1.3873
G3X43.8853Y-8.7526Z1.2600I-0.3149J0.9118
G3X44.0654Y-8.4143Z1.2600I-1.1903J0.8508
G3X44.1315Y-8.2137Z1.2600I-2.0627J0.7915
G1 X44.1703 Y-8.0657 Z1.2600
G1 X44.2395 Y-7.7613 Z1.2600
G2X44.3210Y-7.4549Z1.2600I3.0112J-0.6375
G2X44.4907Y-7.1437Z1.2600I1.0266J-0.3576
G2X44.6803Y-6.9590Z1.2600I0.7845J-0.6158
G2X45.0737Y-6.7858Z1.2600I0.5784J-0.7803
G2X45.4175Y-6.7785Z1.2600I0.1930J-0.9996
G2X45.7492Y-6.8834Z1.2600I-0.1656J-1.1002
G2X46.0461Y-7.0901Z1.2600I-0.5642J-1.1272
G2X46.2885Y-7.3837Z1.2600I-1.0154J-1.0851
G2X46.4668Y-7.7525Z1.2600I-1.5753J-0.9892
G2X46.5981Y-8.2785Z1.2600I-2.6729J-0.9465
G2X46.6385Y-9.2303Z1.2600I-4.4222J-0.6645
G2X46.3675Y-10.5923Z1.2600I-5.0185J0.2903
G1 X46.2854 Y-10.8190 Z1.2600
G1 X46.1983 Y-11.0392 Z1.2600
G1 X45.9411 Y-11.6501 Z1.2600
G3X45.7635Y-12.1147Z1.2600I6.5863J-2.7839
G3X45.6569Y-12.5312Z1.2600I2.6035J-0.8879
G3X45.6541Y-13.0753Z1.2600I1.7645J-0.2812
G3X45.7746Y-13.5802Z1.2600I2.9234J0.4305
G1 X45.8038 Y-13.6671 Z1.2600
G1 X45.8716 Y-13.8507 Z1.2600
G3X46.1209Y-14.4268Z1.2600I8.7803J3.4589
G1 X46.4165 Y-15.0542 Z1.2600
G2X46.9058Y-16.2180Z1.2600I-12.3857J-5.8914
G2X47.2775Y-17.4684Z1.2600I-10.0891J-3.6799
G1 X47.3317 Y-17.7222 Z1.2600
G1 X47.3779 Y-17.9758 Z1.2600
G1 X47.4151 Y-18.2249 Z1.2600
G2X47.4625Y-19.3390Z1.2600I-5.8528J-0.8071
G2X47.3307Y-20.1536Z1.2600I-3.9277J0.2173
G2X47.1056Y-20.7631Z1.2600I-3.8661J1.0816
G1 X47.0203 Y-20.9375 Z1.2600
G2X46.7613Y-21.3738Z1.2600I-3.8008J1.9614
G1 X46.6757 Y-21.4923 Z1.2600
G1 X46.6277 Y-21.5526 Z1.2600
G1 X46.5727 Y-21.6168 Z1.2600
G1 X46.4636 Y-21.7333 Z1.2600
G1 X46.3404 Y-21.8515 Z1.2600
G1 X46.2073 Y-21.9680 Z1.2600
G1 X46.0636 Y-22.0833 Z1.2600
G1 X45.9103 Y-22.1968 Z1.2600
G2X45.3998Y-22.5180Z1.2600I-3.1232J4.3971
G1 X45.2155 Y-22.6156 Z1.2600
G1 X45.0296 Y-22.7048 Z1.2600
G2X44.0155Y-23.0348Z1.2600I-1.9546J4.2839
G1 X43.8002 Y-23.0752 Z1.2600
G1 X43.5783 Y-23.1085 Z1.2600
G1 X43.3486 Y-23.1354 Z1.2600
G2X42.5998Y-23.1841Z1.2600I-1.0811J10.8428
G2X41.7332Y-23.1973Z1.2600I-0.7957J23.8093
G2X39.3387Y-23.1927Z1.2600I-0.7176J249.1959
G2X38.5310Y-23.1633Z1.2600I0.1517J15.2900
G1 X38.2852 Y-23.1425 Z1.2600
G1 X38.0486 Y-23.1147 Z1.2600
G2X36.5526Y-22.7357Z1.2600I0.9485J6.8849
G2X35.7136Y-22.3163Z1.2600I1.5790J4.2075
G2X34.2730Y-20.6752Z1.2600I2.1353J3.3273
G2X33.9590Y-19.5774Z1.2600I3.3444J1.5506
G2X33.9240Y-18.9923Z1.2600I4.5787J0.5672
G2X33.9459Y-18.4929Z1.2600I5.6725J0.0018
G3X33.7158Y-18.2247Z1.2600I-0.2493J0.0189
G0 Z4.0000
G0 X33.7158 Y-18.2247 
M5
G53 Z
( END FILE FrontRoundover-PT5-01-front.nc )
