( BEGIN FILE Hum-PUP-Bridge-front-03.ncTNUM: -1 )
( Lefty:False Nunits:3 )
( cline: 9.733 delta:15.5 )
( start_unit: 1 num_units: 3)
( MOP:  Hum-PUP-Bridge-front-03 )
( FILE: G:\Shared drives\AlloyProjectFiles\Customer CAD files\Alloy-Standard-Builds-CAM\s-in\PUPs\Hum-PUP-Bridge-front-03.nc)
G90
(  BEGIN TOOL LIST )
(  TOOL 5 - Downcut PT375 - DESC: 0.3750 DIA, 2 FLUTE,  CARBIDE MAT )
(  ENDOF TOOL LIST )
( Hum-PUP-Bridge-front-03)
( Max Depth 1.75)
T05
S12000
M3
G0 Z4.0000
G0 X11.1175 Y-15.2630 
G1 X11.1175 Y-15.2630 Z1.0100 F75.
G1 X11.1175 Y-15.6249 Z0.9462 F25.
G1 X11.2331 Y-15.6249 Z0.9258
G1 X11.2331 Y-15.2125 Z0.8531
G1 X11.1175 Y-15.2125 Z0.8327
G1 X11.1175 Y-15.6249 Z0.7600
G1 X11.2331 Y-15.6249 Z0.7600 F40.
G1 X11.2331 Y-15.2125 Z0.7600
G1 X11.1175 Y-15.2125 Z0.7600
G1 X11.1175 Y-15.6249 Z0.7600
G0 Z0.7600
G0 X11.1175 Y-15.2630 
G1 X11.1175 Y-15.6249 Z0.6962 F25.
G1 X11.2331 Y-15.6249 Z0.6758
G1 X11.2331 Y-15.2125 Z0.6031
G1 X11.1175 Y-15.2125 Z0.5827
G1 X11.1175 Y-15.6249 Z0.5100
G1 X11.2331 Y-15.6249 Z0.5100 F40.
G1 X11.2331 Y-15.2125 Z0.5100
G1 X11.1175 Y-15.2125 Z0.5100
G1 X11.1175 Y-15.6249 Z0.5100
G0 Z1.2600
G0 X11.1175 Y-15.6249 
G0 Z1.2600
G0 X8.2334 Y-15.2630 
G1 X8.2334 Y-15.2630 Z1.0100 F75.
G1 X8.2334 Y-15.6249 Z0.9462 F25.
G1 X8.3489 Y-15.6249 Z0.9258
G1 X8.3489 Y-15.2125 Z0.8531
G1 X8.2334 Y-15.2125 Z0.8327
G1 X8.2334 Y-15.6249 Z0.7600
G1 X8.3489 Y-15.6249 Z0.7600 F40.
G1 X8.3489 Y-15.2125 Z0.7600
G1 X8.2334 Y-15.2125 Z0.7600
G1 X8.2334 Y-15.6249 Z0.7600
G0 Z0.7600
G0 X8.2334 Y-15.2630 
G1 X8.2334 Y-15.6249 Z0.6962 F25.
G1 X8.3489 Y-15.6249 Z0.6758
G1 X8.3489 Y-15.2125 Z0.6031
G1 X8.2334 Y-15.2125 Z0.5827
G1 X8.2334 Y-15.6249 Z0.5100
G1 X8.3489 Y-15.6249 Z0.5100 F40.
G1 X8.3489 Y-15.2125 Z0.5100
G1 X8.2334 Y-15.2125 Z0.5100
G1 X8.2334 Y-15.6249 Z0.5100
G0 Z4.0000
G0 X8.2334 Y-15.6249 
M5
G53 Z
( MOP:  Hum-PUP-Bridge-front-03 )
( FILE: G:\Shared drives\AlloyProjectFiles\Customer CAD files\Alloy-Standard-Builds-CAM\s-in\PUPs\Hum-PUP-Bridge-front-03.nc)
G90
(  BEGIN TOOL LIST )
(  TOOL 5 - Downcut PT375 - DESC: 0.3750 DIA, 2 FLUTE,  CARBIDE MAT )
(  ENDOF TOOL LIST )
( Hum-PUP-Bridge-front-03)
( Max Depth 1.75)
T05
S12000
M3
G0 Z4.0000
G0 X26.6175 Y-15.2630 
G1 X26.6175 Y-15.2630 Z1.0100 F75.
G1 X26.6175 Y-15.6249 Z0.9462 F25.
G1 X26.7331 Y-15.6249 Z0.9258
G1 X26.7331 Y-15.2125 Z0.8531
G1 X26.6175 Y-15.2125 Z0.8327
G1 X26.6175 Y-15.6249 Z0.7600
G1 X26.7331 Y-15.6249 Z0.7600 F40.
G1 X26.7331 Y-15.2125 Z0.7600
G1 X26.6175 Y-15.2125 Z0.7600
G1 X26.6175 Y-15.6249 Z0.7600
G0 Z0.7600
G0 X26.6175 Y-15.2630 
G1 X26.6175 Y-15.6249 Z0.6962 F25.
G1 X26.7331 Y-15.6249 Z0.6758
G1 X26.7331 Y-15.2125 Z0.6031
G1 X26.6175 Y-15.2125 Z0.5827
G1 X26.6175 Y-15.6249 Z0.5100
G1 X26.7331 Y-15.6249 Z0.5100 F40.
G1 X26.7331 Y-15.2125 Z0.5100
G1 X26.6175 Y-15.2125 Z0.5100
G1 X26.6175 Y-15.6249 Z0.5100
G0 Z1.2600
G0 X26.6175 Y-15.6249 
G0 Z1.2600
G0 X23.7334 Y-15.2630 
G1 X23.7334 Y-15.2630 Z1.0100 F75.
G1 X23.7334 Y-15.6249 Z0.9462 F25.
G1 X23.8489 Y-15.6249 Z0.9258
G1 X23.8489 Y-15.2125 Z0.8531
G1 X23.7334 Y-15.2125 Z0.8327
G1 X23.7334 Y-15.6249 Z0.7600
G1 X23.8489 Y-15.6249 Z0.7600 F40.
G1 X23.8489 Y-15.2125 Z0.7600
G1 X23.7334 Y-15.2125 Z0.7600
G1 X23.7334 Y-15.6249 Z0.7600
G0 Z0.7600
G0 X23.7334 Y-15.2630 
G1 X23.7334 Y-15.6249 Z0.6962 F25.
G1 X23.8489 Y-15.6249 Z0.6758
G1 X23.8489 Y-15.2125 Z0.6031
G1 X23.7334 Y-15.2125 Z0.5827
G1 X23.7334 Y-15.6249 Z0.5100
G1 X23.8489 Y-15.6249 Z0.5100 F40.
G1 X23.8489 Y-15.2125 Z0.5100
G1 X23.7334 Y-15.2125 Z0.5100
G1 X23.7334 Y-15.6249 Z0.5100
G0 Z4.0000
G0 X23.7334 Y-15.6249 
M5
G53 Z
( MOP:  Hum-PUP-Bridge-front-03 )
( FILE: G:\Shared drives\AlloyProjectFiles\Customer CAD files\Alloy-Standard-Builds-CAM\s-in\PUPs\Hum-PUP-Bridge-front-03.nc)
G90
(  BEGIN TOOL LIST )
(  TOOL 5 - Downcut PT375 - DESC: 0.3750 DIA, 2 FLUTE,  CARBIDE MAT )
(  ENDOF TOOL LIST )
( Hum-PUP-Bridge-front-03)
( Max Depth 1.75)
T05
S12000
M3
G0 Z4.0000
G0 X42.1175 Y-15.2630 
G1 X42.1175 Y-15.2630 Z1.0100 F75.
G1 X42.1175 Y-15.6249 Z0.9462 F25.
G1 X42.2331 Y-15.6249 Z0.9258
G1 X42.2331 Y-15.2125 Z0.8531
G1 X42.1175 Y-15.2125 Z0.8327
G1 X42.1175 Y-15.6249 Z0.7600
G1 X42.2331 Y-15.6249 Z0.7600 F40.
G1 X42.2331 Y-15.2125 Z0.7600
G1 X42.1175 Y-15.2125 Z0.7600
G1 X42.1175 Y-15.6249 Z0.7600
G0 Z0.7600
G0 X42.1175 Y-15.2630 
G1 X42.1175 Y-15.6249 Z0.6962 F25.
G1 X42.2331 Y-15.6249 Z0.6758
G1 X42.2331 Y-15.2125 Z0.6031
G1 X42.1175 Y-15.2125 Z0.5827
G1 X42.1175 Y-15.6249 Z0.5100
G1 X42.2331 Y-15.6249 Z0.5100 F40.
G1 X42.2331 Y-15.2125 Z0.5100
G1 X42.1175 Y-15.2125 Z0.5100
G1 X42.1175 Y-15.6249 Z0.5100
G0 Z1.2600
G0 X42.1175 Y-15.6249 
G0 Z1.2600
G0 X39.2334 Y-15.2630 
G1 X39.2334 Y-15.2630 Z1.0100 F75.
G1 X39.2334 Y-15.6249 Z0.9462 F25.
G1 X39.3489 Y-15.6249 Z0.9258
G1 X39.3489 Y-15.2125 Z0.8531
G1 X39.2334 Y-15.2125 Z0.8327
G1 X39.2334 Y-15.6249 Z0.7600
G1 X39.3489 Y-15.6249 Z0.7600 F40.
G1 X39.3489 Y-15.2125 Z0.7600
G1 X39.2334 Y-15.2125 Z0.7600
G1 X39.2334 Y-15.6249 Z0.7600
G0 Z0.7600
G0 X39.2334 Y-15.2630 
G1 X39.2334 Y-15.6249 Z0.6962 F25.
G1 X39.3489 Y-15.6249 Z0.6758
G1 X39.3489 Y-15.2125 Z0.6031
G1 X39.2334 Y-15.2125 Z0.5827
G1 X39.2334 Y-15.6249 Z0.5100
G1 X39.3489 Y-15.6249 Z0.5100 F40.
G1 X39.3489 Y-15.2125 Z0.5100
G1 X39.2334 Y-15.2125 Z0.5100
G1 X39.2334 Y-15.6249 Z0.5100
G0 Z4.0000
G0 X39.2334 Y-15.6249 
M5
G53 Z
( END FILE Hum-PUP-Bridge-front-03.nc )
