( BEGIN FILE Hum-PUP-Neck-front-02.ncTNUM: -1 )
( Lefty:False Nunits:3 )
( cline: 9.733 delta:15.5 )
( start_unit: 1 num_units: 3)
( MOP:  Hum-PUP-Neck-front-02 )
( FILE: G:\Shared drives\AlloyProjectFiles\Customer CAD files\Alloy-Standard-Builds-CAM\s-in\PUPs\Hum-PUP-Neck-front-02.nc)
G90
(  BEGIN TOOL LIST )
(  TOOL 6 - Downcut PT250 - DESC: 0.2500 DIA, 2 FLUTE,  CARBIDE MAT )
(  ENDOF TOOL LIST )
( Hum-PUP-Neck-front-02)
( Max Depth 1.75)
T06
S12000
M3
G0 Z4.0000
G0 X9.9834 Y-10.8689 
G1 X9.9834 Y-10.8689 Z1.0100 F75.
G17
G3X9.7334Y-10.6189Z1.0100I-0.2500J0.0000 F25.
G1 X8.4214 Y-10.6189 Z1.0100 F75.
G3X8.4014Y-10.6372Z1.0100I0.0000J-0.0202
G1 X8.4014 Y-10.9076 Z1.0100
G2X8.2964Y-11.0126Z1.0100I-0.1050J0.0000
G1 X8.2334 Y-11.0126 Z1.0100
G3X8.1751Y-11.0368Z1.0100I0.0000J-0.0825
G3X8.1509Y-11.0951Z1.0100I0.0583J-0.0583
G1 X8.1509 Y-11.5075 Z1.0100
G3X8.1751Y-11.5659Z1.0100I0.0825J0.0000
G3X8.2334Y-11.5900Z1.0100I0.0583J0.0584
G1 X8.2964 Y-11.5900 Z1.0100
G2X8.4014Y-11.6950Z1.0100I0.0000J-0.1050
G1 X8.4014 Y-11.9637 Z1.0100
G3X8.4072Y-11.9779Z1.0100I0.0200J0.0000
G3X8.4214Y-11.9837Z1.0100I0.0142J0.0142
G1 X11.0454 Y-11.9837 Z1.0100
G3X11.0654Y-11.9655Z1.0100I-0.0001J0.0201
G1 X11.0654 Y-11.6950 Z1.0100
G2X11.1704Y-11.5900Z1.0100I0.1050J0.0000
G1 X11.2331 Y-11.5900 Z1.0100
G3X11.2914Y-11.5659Z1.0100I0.0000J0.0825
G3X11.3156Y-11.5075Z1.0100I-0.0583J0.0584
G1 X11.3156 Y-11.0951 Z1.0100
G3X11.2390Y-11.0126Z1.0100I-0.0829J-0.0002
G1 X11.1704 Y-11.0126 Z1.0100
G2X11.0654Y-10.9076Z1.0100I0.0000J0.1050
G1 X11.0654 Y-10.6389 Z1.0100
G3X11.0471Y-10.6189Z1.0100I-0.0202J-0.0001
G1 X9.7334 Y-10.6189 Z1.0100
G1 X9.2334 Y-10.6189 Z1.0100
G3X8.9834Y-10.8689Z1.0100I0.0000J-0.2500
G0 Z4.0000
G0 X8.9834 Y-10.8689 
M5
G53 Z
( MOP:  Hum-PUP-Neck-front-02 )
( FILE: G:\Shared drives\AlloyProjectFiles\Customer CAD files\Alloy-Standard-Builds-CAM\s-in\PUPs\Hum-PUP-Neck-front-02.nc)
G90
(  BEGIN TOOL LIST )
(  TOOL 6 - Downcut PT250 - DESC: 0.2500 DIA, 2 FLUTE,  CARBIDE MAT )
(  ENDOF TOOL LIST )
( Hum-PUP-Neck-front-02)
( Max Depth 1.75)
T06
S12000
M3
G0 Z4.0000
G0 X25.4834 Y-10.8689 
G1 X25.4834 Y-10.8689 Z1.0100 F75.
G17
G3X25.2334Y-10.6189Z1.0100I-0.2500J0.0000 F25.
G1 X23.9214 Y-10.6189 Z1.0100 F75.
G3X23.9014Y-10.6372Z1.0100I0.0000J-0.0202
G1 X23.9014 Y-10.9076 Z1.0100
G2X23.7964Y-11.0126Z1.0100I-0.1050J0.0000
G1 X23.7334 Y-11.0126 Z1.0100
G3X23.6751Y-11.0368Z1.0100I0.0000J-0.0825
G3X23.6509Y-11.0951Z1.0100I0.0583J-0.0583
G1 X23.6509 Y-11.5075 Z1.0100
G3X23.6751Y-11.5659Z1.0100I0.0825J0.0000
G3X23.7334Y-11.5900Z1.0100I0.0583J0.0584
G1 X23.7964 Y-11.5900 Z1.0100
G2X23.9014Y-11.6950Z1.0100I0.0000J-0.1050
G1 X23.9014 Y-11.9637 Z1.0100
G3X23.9072Y-11.9779Z1.0100I0.0200J0.0000
G3X23.9214Y-11.9837Z1.0100I0.0142J0.0142
G1 X26.5454 Y-11.9837 Z1.0100
G3X26.5654Y-11.9655Z1.0100I-0.0001J0.0201
G1 X26.5654 Y-11.6950 Z1.0100
G2X26.6704Y-11.5900Z1.0100I0.1050J0.0000
G1 X26.7331 Y-11.5900 Z1.0100
G3X26.7914Y-11.5659Z1.0100I0.0000J0.0825
G3X26.8156Y-11.5075Z1.0100I-0.0583J0.0584
G1 X26.8156 Y-11.0951 Z1.0100
G3X26.7390Y-11.0126Z1.0100I-0.0829J-0.0002
G1 X26.6704 Y-11.0126 Z1.0100
G2X26.5654Y-10.9076Z1.0100I0.0000J0.1050
G1 X26.5654 Y-10.6389 Z1.0100
G3X26.5471Y-10.6189Z1.0100I-0.0202J-0.0001
G1 X25.2334 Y-10.6189 Z1.0100
G1 X24.7334 Y-10.6189 Z1.0100
G3X24.4834Y-10.8689Z1.0100I0.0000J-0.2500
G0 Z4.0000
G0 X24.4834 Y-10.8689 
M5
G53 Z
( MOP:  Hum-PUP-Neck-front-02 )
( FILE: G:\Shared drives\AlloyProjectFiles\Customer CAD files\Alloy-Standard-Builds-CAM\s-in\PUPs\Hum-PUP-Neck-front-02.nc)
G90
(  BEGIN TOOL LIST )
(  TOOL 6 - Downcut PT250 - DESC: 0.2500 DIA, 2 FLUTE,  CARBIDE MAT )
(  ENDOF TOOL LIST )
( Hum-PUP-Neck-front-02)
( Max Depth 1.75)
T06
S12000
M3
G0 Z4.0000
G0 X40.9834 Y-10.8689 
G1 X40.9834 Y-10.8689 Z1.0100 F75.
G17
G3X40.7334Y-10.6189Z1.0100I-0.2500J0.0000 F25.
G1 X39.4214 Y-10.6189 Z1.0100 F75.
G3X39.4014Y-10.6372Z1.0100I0.0000J-0.0202
G1 X39.4014 Y-10.9076 Z1.0100
G2X39.2964Y-11.0126Z1.0100I-0.1050J0.0000
G1 X39.2334 Y-11.0126 Z1.0100
G3X39.1751Y-11.0368Z1.0100I0.0000J-0.0825
G3X39.1509Y-11.0951Z1.0100I0.0583J-0.0583
G1 X39.1509 Y-11.5075 Z1.0100
G3X39.1751Y-11.5659Z1.0100I0.0825J0.0000
G3X39.2334Y-11.5900Z1.0100I0.0583J0.0584
G1 X39.2964 Y-11.5900 Z1.0100
G2X39.4014Y-11.6950Z1.0100I0.0000J-0.1050
G1 X39.4014 Y-11.9637 Z1.0100
G3X39.4072Y-11.9779Z1.0100I0.0200J0.0000
G3X39.4214Y-11.9837Z1.0100I0.0142J0.0142
G1 X42.0454 Y-11.9837 Z1.0100
G3X42.0654Y-11.9655Z1.0100I-0.0001J0.0201
G1 X42.0654 Y-11.6950 Z1.0100
G2X42.1704Y-11.5900Z1.0100I0.1050J0.0000
G1 X42.2331 Y-11.5900 Z1.0100
G3X42.2914Y-11.5659Z1.0100I0.0000J0.0825
G3X42.3156Y-11.5075Z1.0100I-0.0583J0.0584
G1 X42.3156 Y-11.0951 Z1.0100
G3X42.2390Y-11.0126Z1.0100I-0.0829J-0.0002
G1 X42.1704 Y-11.0126 Z1.0100
G2X42.0654Y-10.9076Z1.0100I0.0000J0.1050
G1 X42.0654 Y-10.6389 Z1.0100
G3X42.0471Y-10.6189Z1.0100I-0.0202J-0.0001
G1 X40.7334 Y-10.6189 Z1.0100
G1 X40.2334 Y-10.6189 Z1.0100
G3X39.9834Y-10.8689Z1.0100I0.0000J-0.2500
G0 Z4.0000
G0 X39.9834 Y-10.8689 
M5
G53 Z
( END FILE Hum-PUP-Neck-front-02.nc )
