( BEGIN FILE Hum-PUP-Middle-front-02.ncTNUM: -1 )
( Lefty:False Nunits:3 )
( cline: 9.733 delta:15.5 )
( start_unit: 1 num_units: 3)
( MOP:  Hum-PUP-Middle-front-02 )
( FILE: G:\Shared drives\AlloyProjectFiles\Customer CAD files\Alloy-Standard-Builds-CAM\s-in\PUPs\Hum-PUP-Middle-front-02.nc)
G90
(  BEGIN TOOL LIST )
(  TOOL 6 - Downcut PT250 - DESC: 0.2500 DIA, 2 FLUTE,  CARBIDE MAT )
(  ENDOF TOOL LIST )
( Hum-PUP-Middle-front-02)
( Max Depth 1.75)
T06
S12000
M3
G0 Z4.0000
G0 X9.9834 Y-12.9276 
G1 X9.9834 Y-12.9276 Z1.0100 F75.
G17
G3X9.7334Y-12.6776Z1.0100I-0.2500J0.0000 F25.
G1 X8.4214 Y-12.6776 Z1.0100 F40.
G3X8.4072Y-12.6835Z1.0100I0.0000J-0.0200
G3X8.4014Y-12.6976Z1.0100I0.0142J-0.0141
G1 X8.4014 Y-12.9663 Z1.0100
G2X8.2964Y-13.0713Z1.0100I-0.1050J0.0000
G1 X8.2334 Y-13.0713 Z1.0100
G3X8.1751Y-13.0955Z1.0100I0.0000J-0.0825
G3X8.1509Y-13.1538Z1.0100I0.0583J-0.0583
G1 X8.1509 Y-13.5662 Z1.0100
G3X8.1751Y-13.6246Z1.0100I0.0825J0.0000
G3X8.2334Y-13.6487Z1.0100I0.0583J0.0584
G1 X8.2964 Y-13.6487 Z1.0100
G2X8.4014Y-13.7537Z1.0100I0.0000J-0.1050
G1 X8.4014 Y-14.0224 Z1.0100
G3X8.4072Y-14.0366Z1.0100I0.0200J0.0000
G3X8.4214Y-14.0424Z1.0100I0.0142J0.0142
G1 X11.0454 Y-14.0424 Z1.0100
G3X11.0654Y-14.0224Z1.0100I0.0000J0.0200
G1 X11.0654 Y-13.7537 Z1.0100
G2X11.1704Y-13.6487Z1.0100I0.1050J0.0000
G1 X11.2331 Y-13.6487 Z1.0100
G3X11.3156Y-13.5721Z1.0100I-0.0002J0.0829
G1 X11.3156 Y-13.1538 Z1.0100
G3X11.2331Y-13.0713Z1.0100I-0.0825J0.0000
G1 X11.1704 Y-13.0713 Z1.0100
G2X11.0654Y-12.9663Z1.0100I0.0000J0.1050
G1 X11.0654 Y-12.6976 Z1.0100
G3X11.0471Y-12.6776Z1.0100I-0.0202J-0.0001
G1 X9.7334 Y-12.6776 Z1.0100
G1 X9.2334 Y-12.6776 Z1.0100
G3X8.9834Y-12.9276Z1.0100I0.0000J-0.2500
G0 Z4.0000
G0 X8.9834 Y-12.9276 
M5
G53 Z
( MOP:  Hum-PUP-Middle-front-02 )
( FILE: G:\Shared drives\AlloyProjectFiles\Customer CAD files\Alloy-Standard-Builds-CAM\s-in\PUPs\Hum-PUP-Middle-front-02.nc)
G90
(  BEGIN TOOL LIST )
(  TOOL 6 - Downcut PT250 - DESC: 0.2500 DIA, 2 FLUTE,  CARBIDE MAT )
(  ENDOF TOOL LIST )
( Hum-PUP-Middle-front-02)
( Max Depth 1.75)
T06
S12000
M3
G0 Z4.0000
G0 X25.4834 Y-12.9276 
G1 X25.4834 Y-12.9276 Z1.0100 F75.
G17
G3X25.2334Y-12.6776Z1.0100I-0.2500J0.0000 F25.
G1 X23.9214 Y-12.6776 Z1.0100 F40.
G3X23.9072Y-12.6835Z1.0100I0.0000J-0.0200
G3X23.9014Y-12.6976Z1.0100I0.0142J-0.0141
G1 X23.9014 Y-12.9663 Z1.0100
G2X23.7964Y-13.0713Z1.0100I-0.1050J0.0000
G1 X23.7334 Y-13.0713 Z1.0100
G3X23.6751Y-13.0955Z1.0100I0.0000J-0.0825
G3X23.6509Y-13.1538Z1.0100I0.0583J-0.0583
G1 X23.6509 Y-13.5662 Z1.0100
G3X23.6751Y-13.6246Z1.0100I0.0825J0.0000
G3X23.7334Y-13.6487Z1.0100I0.0583J0.0584
G1 X23.7964 Y-13.6487 Z1.0100
G2X23.9014Y-13.7537Z1.0100I0.0000J-0.1050
G1 X23.9014 Y-14.0224 Z1.0100
G3X23.9072Y-14.0366Z1.0100I0.0200J0.0000
G3X23.9214Y-14.0424Z1.0100I0.0142J0.0142
G1 X26.5454 Y-14.0424 Z1.0100
G3X26.5654Y-14.0224Z1.0100I0.0000J0.0200
G1 X26.5654 Y-13.7537 Z1.0100
G2X26.6704Y-13.6487Z1.0100I0.1050J0.0000
G1 X26.7331 Y-13.6487 Z1.0100
G3X26.8156Y-13.5721Z1.0100I-0.0002J0.0829
G1 X26.8156 Y-13.1538 Z1.0100
G3X26.7331Y-13.0713Z1.0100I-0.0825J0.0000
G1 X26.6704 Y-13.0713 Z1.0100
G2X26.5654Y-12.9663Z1.0100I0.0000J0.1050
G1 X26.5654 Y-12.6976 Z1.0100
G3X26.5471Y-12.6776Z1.0100I-0.0202J-0.0001
G1 X25.2334 Y-12.6776 Z1.0100
G1 X24.7334 Y-12.6776 Z1.0100
G3X24.4834Y-12.9276Z1.0100I0.0000J-0.2500
G0 Z4.0000
G0 X24.4834 Y-12.9276 
M5
G53 Z
( MOP:  Hum-PUP-Middle-front-02 )
( FILE: G:\Shared drives\AlloyProjectFiles\Customer CAD files\Alloy-Standard-Builds-CAM\s-in\PUPs\Hum-PUP-Middle-front-02.nc)
G90
(  BEGIN TOOL LIST )
(  TOOL 6 - Downcut PT250 - DESC: 0.2500 DIA, 2 FLUTE,  CARBIDE MAT )
(  ENDOF TOOL LIST )
( Hum-PUP-Middle-front-02)
( Max Depth 1.75)
T06
S12000
M3
G0 Z4.0000
G0 X40.9834 Y-12.9276 
G1 X40.9834 Y-12.9276 Z1.0100 F75.
G17
G3X40.7334Y-12.6776Z1.0100I-0.2500J0.0000 F25.
G1 X39.4214 Y-12.6776 Z1.0100 F40.
G3X39.4072Y-12.6835Z1.0100I0.0000J-0.0200
G3X39.4014Y-12.6976Z1.0100I0.0142J-0.0141
G1 X39.4014 Y-12.9663 Z1.0100
G2X39.2964Y-13.0713Z1.0100I-0.1050J0.0000
G1 X39.2334 Y-13.0713 Z1.0100
G3X39.1751Y-13.0955Z1.0100I0.0000J-0.0825
G3X39.1509Y-13.1538Z1.0100I0.0583J-0.0583
G1 X39.1509 Y-13.5662 Z1.0100
G3X39.1751Y-13.6246Z1.0100I0.0825J0.0000
G3X39.2334Y-13.6487Z1.0100I0.0583J0.0584
G1 X39.2964 Y-13.6487 Z1.0100
G2X39.4014Y-13.7537Z1.0100I0.0000J-0.1050
G1 X39.4014 Y-14.0224 Z1.0100
G3X39.4072Y-14.0366Z1.0100I0.0200J0.0000
G3X39.4214Y-14.0424Z1.0100I0.0142J0.0142
G1 X42.0454 Y-14.0424 Z1.0100
G3X42.0654Y-14.0224Z1.0100I0.0000J0.0200
G1 X42.0654 Y-13.7537 Z1.0100
G2X42.1704Y-13.6487Z1.0100I0.1050J0.0000
G1 X42.2331 Y-13.6487 Z1.0100
G3X42.3156Y-13.5721Z1.0100I-0.0002J0.0829
G1 X42.3156 Y-13.1538 Z1.0100
G3X42.2331Y-13.0713Z1.0100I-0.0825J0.0000
G1 X42.1704 Y-13.0713 Z1.0100
G2X42.0654Y-12.9663Z1.0100I0.0000J0.1050
G1 X42.0654 Y-12.6976 Z1.0100
G3X42.0471Y-12.6776Z1.0100I-0.0202J-0.0001
G1 X40.7334 Y-12.6776 Z1.0100
G1 X40.2334 Y-12.6776 Z1.0100
G3X39.9834Y-12.9276Z1.0100I0.0000J-0.2500
G0 Z4.0000
G0 X39.9834 Y-12.9276 
M5
G53 Z
( END FILE Hum-PUP-Middle-front-02.nc )
