( BEGIN FILE P90-PUP-Middle-front-01.ncTNUM: -1 )
( Lefty:False Nunits:3 )
( cline: 9.733 delta:15.5 )
( start_unit: 1 num_units: 3)
( MOP:  P90-PUP-Middle-front-01 )
( FILE: G:\Shared drives\AlloyProjectFiles\Customer CAD files\Alloy-Standard-Builds-CAM\s-in\PUPs\P90-PUP-Middle-front-01.nc)
G90
(  BEGIN TOOL LIST )
(  TOOL 11 - Downcut PT750 ROUGH - DESC: 0.7500 DIA, 2 FLUTE,  CARBIDE MAT )
(  ENDOF TOOL LIST )
( P90-PUP-Middle-front-01)
T11
S14000
M3
G0 Z4.0000
G0 X8.7023 Y-13.3227 
G1 X8.7023 Y-13.3227 Z1.7850 F75.
G1 X8.7023 Y-13.3227 Z1.7600 F50.
G1 X10.7734 Y-13.3227 Z1.3948
G1 X10.7734 Y-13.2671 Z1.3850
G1 X10.7734 Y-13.2114 Z1.3850 F150.
G1 X8.6934 Y-13.2114 Z1.3850
G1 X8.6934 Y-13.3227 Z1.3850
G1 X10.7734 Y-13.3227 Z1.3850
G1 X10.7734 Y-13.2671 Z1.3850
G1 X11.0209 Y-13.2671 Z1.3850
G1 X11.0209 Y-12.9639 Z1.3850
G1 X8.4459 Y-12.9639 Z1.3850
G1 X8.4459 Y-13.5702 Z1.3850
G1 X11.0209 Y-13.5702 Z1.3850
G1 X11.0209 Y-13.2671 Z1.3850
G1 X10.9767 Y-13.2671 Z1.4292
G1 X10.9767 Y-13.2671 Z1.4542
G0 Z1.7042
G0 X10.9767 Y-13.2671 
G0 Z1.7042
G0 X8.7023 Y-13.3227 
G1 X8.7023 Y-13.3227 Z1.4100 F75.
G1 X8.7023 Y-13.3227 Z1.3850 F50.
G1 X10.7734 Y-13.3227 Z1.0198
G1 X10.7734 Y-13.2671 Z1.0100
G1 X10.7734 Y-13.2114 Z1.0100 F150.
G1 X8.6934 Y-13.2114 Z1.0100
G1 X8.6934 Y-13.3227 Z1.0100
G1 X10.7734 Y-13.3227 Z1.0100
G1 X10.7734 Y-13.2671 Z1.0100
G1 X11.0209 Y-13.2671 Z1.0100
G1 X11.0209 Y-12.9639 Z1.0100
G1 X8.4459 Y-12.9639 Z1.0100
G1 X8.4459 Y-13.5702 Z1.0100
G1 X11.0209 Y-13.5702 Z1.0100
G1 X11.0209 Y-13.2671 Z1.0100
G1 X10.9767 Y-13.2671 Z1.0542
G1 X10.9767 Y-13.2671 Z1.0792
G0 Z4.0000
G0 X10.9767 Y-13.2671 
M5
G53 Z
( MOP:  P90-PUP-Middle-front-01 )
( FILE: G:\Shared drives\AlloyProjectFiles\Customer CAD files\Alloy-Standard-Builds-CAM\s-in\PUPs\P90-PUP-Middle-front-01.nc)
G90
(  BEGIN TOOL LIST )
(  TOOL 11 - Downcut PT750 ROUGH - DESC: 0.7500 DIA, 2 FLUTE,  CARBIDE MAT )
(  ENDOF TOOL LIST )
( P90-PUP-Middle-front-01)
T11
S14000
M3
G0 Z4.0000
G0 X24.2023 Y-13.3227 
G1 X24.2023 Y-13.3227 Z1.7850 F75.
G1 X24.2023 Y-13.3227 Z1.7600 F50.
G1 X26.2734 Y-13.3227 Z1.3948
G1 X26.2734 Y-13.2671 Z1.3850
G1 X26.2734 Y-13.2114 Z1.3850 F150.
G1 X24.1934 Y-13.2114 Z1.3850
G1 X24.1934 Y-13.3227 Z1.3850
G1 X26.2734 Y-13.3227 Z1.3850
G1 X26.2734 Y-13.2671 Z1.3850
G1 X26.5209 Y-13.2671 Z1.3850
G1 X26.5209 Y-12.9639 Z1.3850
G1 X23.9459 Y-12.9639 Z1.3850
G1 X23.9459 Y-13.5702 Z1.3850
G1 X26.5209 Y-13.5702 Z1.3850
G1 X26.5209 Y-13.2671 Z1.3850
G1 X26.4767 Y-13.2671 Z1.4292
G1 X26.4767 Y-13.2671 Z1.4542
G0 Z1.7042
G0 X26.4767 Y-13.2671 
G0 Z1.7042
G0 X24.2023 Y-13.3227 
G1 X24.2023 Y-13.3227 Z1.4100 F75.
G1 X24.2023 Y-13.3227 Z1.3850 F50.
G1 X26.2734 Y-13.3227 Z1.0198
G1 X26.2734 Y-13.2671 Z1.0100
G1 X26.2734 Y-13.2114 Z1.0100 F150.
G1 X24.1934 Y-13.2114 Z1.0100
G1 X24.1934 Y-13.3227 Z1.0100
G1 X26.2734 Y-13.3227 Z1.0100
G1 X26.2734 Y-13.2671 Z1.0100
G1 X26.5209 Y-13.2671 Z1.0100
G1 X26.5209 Y-12.9639 Z1.0100
G1 X23.9459 Y-12.9639 Z1.0100
G1 X23.9459 Y-13.5702 Z1.0100
G1 X26.5209 Y-13.5702 Z1.0100
G1 X26.5209 Y-13.2671 Z1.0100
G1 X26.4767 Y-13.2671 Z1.0542
G1 X26.4767 Y-13.2671 Z1.0792
G0 Z4.0000
G0 X26.4767 Y-13.2671 
M5
G53 Z
( MOP:  P90-PUP-Middle-front-01 )
( FILE: G:\Shared drives\AlloyProjectFiles\Customer CAD files\Alloy-Standard-Builds-CAM\s-in\PUPs\P90-PUP-Middle-front-01.nc)
G90
(  BEGIN TOOL LIST )
(  TOOL 11 - Downcut PT750 ROUGH - DESC: 0.7500 DIA, 2 FLUTE,  CARBIDE MAT )
(  ENDOF TOOL LIST )
( P90-PUP-Middle-front-01)
T11
S14000
M3
G0 Z4.0000
G0 X39.7023 Y-13.3227 
G1 X39.7023 Y-13.3227 Z1.7850 F75.
G1 X39.7023 Y-13.3227 Z1.7600 F50.
G1 X41.7734 Y-13.3227 Z1.3948
G1 X41.7734 Y-13.2671 Z1.3850
G1 X41.7734 Y-13.2114 Z1.3850 F150.
G1 X39.6934 Y-13.2114 Z1.3850
G1 X39.6934 Y-13.3227 Z1.3850
G1 X41.7734 Y-13.3227 Z1.3850
G1 X41.7734 Y-13.2671 Z1.3850
G1 X42.0209 Y-13.2671 Z1.3850
G1 X42.0209 Y-12.9639 Z1.3850
G1 X39.4459 Y-12.9639 Z1.3850
G1 X39.4459 Y-13.5702 Z1.3850
G1 X42.0209 Y-13.5702 Z1.3850
G1 X42.0209 Y-13.2671 Z1.3850
G1 X41.9767 Y-13.2671 Z1.4292
G1 X41.9767 Y-13.2671 Z1.4542
G0 Z1.7042
G0 X41.9767 Y-13.2671 
G0 Z1.7042
G0 X39.7023 Y-13.3227 
G1 X39.7023 Y-13.3227 Z1.4100 F75.
G1 X39.7023 Y-13.3227 Z1.3850 F50.
G1 X41.7734 Y-13.3227 Z1.0198
G1 X41.7734 Y-13.2671 Z1.0100
G1 X41.7734 Y-13.2114 Z1.0100 F150.
G1 X39.6934 Y-13.2114 Z1.0100
G1 X39.6934 Y-13.3227 Z1.0100
G1 X41.7734 Y-13.3227 Z1.0100
G1 X41.7734 Y-13.2671 Z1.0100
G1 X42.0209 Y-13.2671 Z1.0100
G1 X42.0209 Y-12.9639 Z1.0100
G1 X39.4459 Y-12.9639 Z1.0100
G1 X39.4459 Y-13.5702 Z1.0100
G1 X42.0209 Y-13.5702 Z1.0100
G1 X42.0209 Y-13.2671 Z1.0100
G1 X41.9767 Y-13.2671 Z1.0542
G1 X41.9767 Y-13.2671 Z1.0792
G0 Z4.0000
G0 X41.9767 Y-13.2671 
M5
G53 Z
( END FILE P90-PUP-Middle-front-01.nc )
