( BEGIN FILE Rear-control-back-05.ncTNUM: -1 )
( Lefty:False Nunits:3 )
( cline: 9.733 delta:15.5 )
( start_unit: 1 num_units: 3)
( MOP:  Rear-control-back-05 )
( FILE: G:\Shared drives\AlloyProjectFiles\Customer CAD files\Alloy-Standard-Builds-CAM\s-in\Control\Rear-control-back-05.nc)
G90
(  BEGIN TOOL LIST )
(  TOOL 19 - Downcut 1pt5mm PT0590 - DESC: 0.0590 DIA, 2 FLUTE,  CARBIDE MAT )
(  ENDOF TOOL LIST )
( Rear-control-back-05)
T19
S12000
M3
G0 Z4.0000
G0 X6.5009 Y-21.2340 
G0 Z1.8500
G81 X6.5009 Y-21.2340 Z1.2500 R1.8500 F15.0
G80
G0 Z2.0000
G0 X7.3076 Y-18.1905 
G0 Z1.8500
G81 X7.3076 Y-18.1905 Z1.2500 R1.8500 F15.0
G80
G0 Z2.0000
G0 X4.7142 Y-16.7059 
G0 Z1.8500
G81 X4.7142 Y-16.7059 Z1.2500 R1.8500 F15.0
G80
G0 Z2.0000
G0 X7.1434 Y-14.1636 
G0 Z1.8500
G81 X7.1434 Y-14.1636 Z1.2500 R1.8500 F15.0
G80
G0 Z4.0000
G0 X7.1434 Y-14.1636 
M5
G53 Z
( MOP:  Rear-control-back-05 )
( FILE: G:\Shared drives\AlloyProjectFiles\Customer CAD files\Alloy-Standard-Builds-CAM\s-in\Control\Rear-control-back-05.nc)
G90
(  BEGIN TOOL LIST )
(  TOOL 19 - Downcut 1pt5mm PT0590 - DESC: 0.0590 DIA, 2 FLUTE,  CARBIDE MAT )
(  ENDOF TOOL LIST )
( Rear-control-back-05)
T19
S12000
M3
G0 Z4.0000
G0 X22.0009 Y-21.2340 
G0 Z1.8500
G81 X22.0009 Y-21.2340 Z1.2500 R1.8500 F15.0
G80
G0 Z2.0000
G0 X22.8076 Y-18.1905 
G0 Z1.8500
G81 X22.8076 Y-18.1905 Z1.2500 R1.8500 F15.0
G80
G0 Z2.0000
G0 X20.2142 Y-16.7059 
G0 Z1.8500
G81 X20.2142 Y-16.7059 Z1.2500 R1.8500 F15.0
G80
G0 Z2.0000
G0 X22.6434 Y-14.1636 
G0 Z1.8500
G81 X22.6434 Y-14.1636 Z1.2500 R1.8500 F15.0
G80
G0 Z4.0000
G0 X22.6434 Y-14.1636 
M5
G53 Z
( MOP:  Rear-control-back-05 )
( FILE: G:\Shared drives\AlloyProjectFiles\Customer CAD files\Alloy-Standard-Builds-CAM\s-in\Control\Rear-control-back-05.nc)
G90
(  BEGIN TOOL LIST )
(  TOOL 19 - Downcut 1pt5mm PT0590 - DESC: 0.0590 DIA, 2 FLUTE,  CARBIDE MAT )
(  ENDOF TOOL LIST )
( Rear-control-back-05)
T19
S12000
M3
G0 Z4.0000
G0 X37.5009 Y-21.2340 
G0 Z1.8500
G81 X37.5009 Y-21.2340 Z1.2500 R1.8500 F15.0
G80
G0 Z2.0000
G0 X38.3076 Y-18.1905 
G0 Z1.8500
G81 X38.3076 Y-18.1905 Z1.2500 R1.8500 F15.0
G80
G0 Z2.0000
G0 X35.7142 Y-16.7059 
G0 Z1.8500
G81 X35.7142 Y-16.7059 Z1.2500 R1.8500 F15.0
G80
G0 Z2.0000
G0 X38.1434 Y-14.1636 
G0 Z1.8500
G81 X38.1434 Y-14.1636 Z1.2500 R1.8500 F15.0
G80
G0 Z4.0000
G0 X38.1434 Y-14.1636 
M5
G53 Z
( END FILE Rear-control-back-05.nc )
