( BEGIN FILE Rear-control-back-03.ncTNUM: -1 )
( Lefty:False Nunits:3 )
( cline: 9.733 delta:15.5 )
( start_unit: 1 num_units: 3)
( MOP:  Rear-control-back-03 )
( FILE: G:\Shared drives\AlloyProjectFiles\Customer CAD files\Alloy-Standard-Builds-CAM\s-in\Control\Rear-control-back-03.nc)
G90
(  BEGIN TOOL LIST )
(  TOOL 5 - Downcut PT375 - DESC: 0.3750 DIA, 2 FLUTE,  CARBIDE MAT )
(  ENDOF TOOL LIST )
( Rear-control-back-03)
( Max Depth 1.75)
T05
S12000
M3
G0 Z4.0000
G0 X6.7035 Y-16.4162 
G1 X6.7035 Y-16.4162 Z0.2000 F75.
G1 X6.9535 Y-16.4162 Z0.2000 F25.
G17
G3X7.2035Y-16.1662Z0.2000I0.0000J0.2500 F40.
G1 X7.2035 Y-14.8606 Z0.2000
G1 X6.8313 Y-14.4731 Z0.2000
G1 X6.5265 Y-14.1578 Z0.2000
G3X6.4695Y-14.1350Z0.2000I-0.0544J-0.0532
G3X6.4140Y-14.1619Z0.2000I0.0026J-0.0760
G1 X5.2449 Y-15.5463 Z0.2000
G3X5.1879Y-15.6469Z0.2000I0.2388J-0.2016
G1 X5.0316 Y-16.1048 Z0.2000
G2X5.1526Y-16.9115Z0.2000I-0.6817J-0.5147
G2X4.5602Y-17.4475Z0.2000I-0.8031J0.2922
G3X4.4611Y-18.6561Z0.2000I4.0603J-0.9411
G3X5.2212Y-20.4841Z0.2000I3.1054J0.2192
G3X5.5091Y-20.7585Z0.2000I1.6706J1.4646
G1 X7.1452 Y-20.7585 Z0.2000
G3X7.2037Y-20.4830Z0.2000I-0.6137J0.2744
G1 X7.2036 Y-18.9721 Z0.2000
G1 X7.1780 Y-18.9500 Z0.2000
G1 X7.1422 Y-18.9163 Z0.2000
G2X6.8538Y-18.1342Z0.2000I0.6989J0.7019
G2X7.2035Y-17.4538Z0.2000I0.9921J-0.0799
G1 X7.2035 Y-16.1662 Z0.2000
G3X6.9535Y-15.9162Z0.2000I-0.2500J0.0000
G1 X6.7035 Y-15.9162 Z0.2000 F75.
G0 Z4.0000
G0 X6.7035 Y-15.9162 
M5
G53 Z
( MOP:  Rear-control-back-03 )
( FILE: G:\Shared drives\AlloyProjectFiles\Customer CAD files\Alloy-Standard-Builds-CAM\s-in\Control\Rear-control-back-03.nc)
G90
(  BEGIN TOOL LIST )
(  TOOL 5 - Downcut PT375 - DESC: 0.3750 DIA, 2 FLUTE,  CARBIDE MAT )
(  ENDOF TOOL LIST )
( Rear-control-back-03)
( Max Depth 1.75)
T05
S12000
M3
G0 Z4.0000
G0 X22.2035 Y-16.4162 
G1 X22.2035 Y-16.4162 Z0.2000 F75.
G1 X22.4535 Y-16.4162 Z0.2000 F25.
G17
G3X22.7035Y-16.1662Z0.2000I0.0000J0.2500 F40.
G1 X22.7035 Y-14.8606 Z0.2000
G1 X22.3313 Y-14.4731 Z0.2000
G1 X22.0265 Y-14.1578 Z0.2000
G3X21.9695Y-14.1350Z0.2000I-0.0544J-0.0532
G3X21.9140Y-14.1619Z0.2000I0.0026J-0.0760
G1 X20.7449 Y-15.5463 Z0.2000
G3X20.6879Y-15.6469Z0.2000I0.2388J-0.2016
G1 X20.5316 Y-16.1048 Z0.2000
G2X20.6526Y-16.9115Z0.2000I-0.6817J-0.5147
G2X20.0602Y-17.4475Z0.2000I-0.8031J0.2922
G3X19.9611Y-18.6561Z0.2000I4.0603J-0.9411
G3X20.7212Y-20.4841Z0.2000I3.1054J0.2192
G3X21.0091Y-20.7585Z0.2000I1.6706J1.4646
G1 X22.6452 Y-20.7585 Z0.2000
G3X22.7037Y-20.4830Z0.2000I-0.6137J0.2744
G1 X22.7036 Y-18.9721 Z0.2000
G1 X22.6780 Y-18.9500 Z0.2000
G1 X22.6422 Y-18.9163 Z0.2000
G2X22.3538Y-18.1342Z0.2000I0.6989J0.7019
G2X22.7035Y-17.4538Z0.2000I0.9921J-0.0799
G1 X22.7035 Y-16.1662 Z0.2000
G3X22.4535Y-15.9162Z0.2000I-0.2500J0.0000
G1 X22.2035 Y-15.9162 Z0.2000 F75.
G0 Z4.0000
G0 X22.2035 Y-15.9162 
M5
G53 Z
( MOP:  Rear-control-back-03 )
( FILE: G:\Shared drives\AlloyProjectFiles\Customer CAD files\Alloy-Standard-Builds-CAM\s-in\Control\Rear-control-back-03.nc)
G90
(  BEGIN TOOL LIST )
(  TOOL 5 - Downcut PT375 - DESC: 0.3750 DIA, 2 FLUTE,  CARBIDE MAT )
(  ENDOF TOOL LIST )
( Rear-control-back-03)
( Max Depth 1.75)
T05
S12000
M3
G0 Z4.0000
G0 X37.7035 Y-16.4162 
G1 X37.7035 Y-16.4162 Z0.2000 F75.
G1 X37.9535 Y-16.4162 Z0.2000 F25.
G17
G3X38.2035Y-16.1662Z0.2000I0.0000J0.2500 F40.
G1 X38.2035 Y-14.8606 Z0.2000
G1 X37.8313 Y-14.4731 Z0.2000
G1 X37.5265 Y-14.1578 Z0.2000
G3X37.4695Y-14.1350Z0.2000I-0.0544J-0.0532
G3X37.4140Y-14.1619Z0.2000I0.0026J-0.0760
G1 X36.2449 Y-15.5463 Z0.2000
G3X36.1879Y-15.6469Z0.2000I0.2388J-0.2016
G1 X36.0316 Y-16.1048 Z0.2000
G2X36.1526Y-16.9115Z0.2000I-0.6817J-0.5147
G2X35.5602Y-17.4475Z0.2000I-0.8031J0.2922
G3X35.4611Y-18.6561Z0.2000I4.0603J-0.9411
G3X36.2212Y-20.4841Z0.2000I3.1054J0.2192
G3X36.5091Y-20.7585Z0.2000I1.6706J1.4646
G1 X38.1452 Y-20.7585 Z0.2000
G3X38.2037Y-20.4830Z0.2000I-0.6137J0.2744
G1 X38.2036 Y-18.9721 Z0.2000
G1 X38.1780 Y-18.9500 Z0.2000
G1 X38.1422 Y-18.9163 Z0.2000
G2X37.8538Y-18.1342Z0.2000I0.6989J0.7019
G2X38.2035Y-17.4538Z0.2000I0.9921J-0.0799
G1 X38.2035 Y-16.1662 Z0.2000
G3X37.9535Y-15.9162Z0.2000I-0.2500J0.0000
G1 X37.7035 Y-15.9162 Z0.2000 F75.
G0 Z4.0000
G0 X37.7035 Y-15.9162 
M5
G53 Z
( END FILE Rear-control-back-03.nc )
