( BEGIN FILE S-Neck-Pocket-03-front-end.ncTNUM: -1 )
( Lefty:False Nunits:3 )
( cline: 9.733 delta:15.5 )
( start_unit: 1 num_units: 3)
( MOP:  S-Neck-Pocket-03-front-end )
( FILE: G:\Shared drives\AlloyProjectFiles\Customer CAD files\Alloy-Standard-Builds-CAM\s-in\Neck\S-Neck-Pocket-03-front-end.nc)
G90
(  BEGIN TOOL LIST )
(  TOOL 5 - Downcut PT375 - DESC: 0.3750 DIA, 2 FLUTE,  CARBIDE MAT )
(  ENDOF TOOL LIST )
( S-Neck-Pocket-03-front-end)
( Max Depth 1.75)
T05
S12000
M3
G0 Z4.0000
G0 X9.5985 Y-6.4654 
G1 X9.5985 Y-6.4654 Z1.1350 F75.
G17
G2X9.8485Y-6.2154Z1.1350I0.2500J0.0000 F25.
G1 X11.3866 Y-6.2154 Z1.1350 F40.
G1 X11.3866 Y-8.5896 Z1.1350
G1 X10.8221 Y-8.5896 Z1.1350
G3X10.6366Y-8.7778Z1.1350I0.0000J-0.1855
G1 X10.6498 Y-9.6943 Z1.1350
G2X10.5902Y-9.7679Z1.1350I-0.0703J-0.0040
G2X8.8680Y-9.7665Z1.1350I-0.8575J4.6808
G2X8.8161Y-9.7045Z1.1350I0.0126J0.0632
G1 X8.8475 Y-7.2759 Z1.1350
G3X8.6620Y-7.0880Z1.1350I-0.1855J0.0024
G1 X8.3105 Y-7.0880 Z1.1350
G1 X8.3105 Y-6.2154 Z1.1350
G1 X9.8485 Y-6.2154 Z1.1350
G1 X10.0985 Y-6.2154 Z1.1350
G2X10.3485Y-6.4654Z1.1350I0.0000J-0.2500
G0 Z4.0000
G0 X10.3485 Y-6.4654 
M5
G53 Z
( MOP:  S-Neck-Pocket-03-front-end )
( FILE: G:\Shared drives\AlloyProjectFiles\Customer CAD files\Alloy-Standard-Builds-CAM\s-in\Neck\S-Neck-Pocket-03-front-end.nc)
G90
(  BEGIN TOOL LIST )
(  TOOL 5 - Downcut PT375 - DESC: 0.3750 DIA, 2 FLUTE,  CARBIDE MAT )
(  ENDOF TOOL LIST )
( S-Neck-Pocket-03-front-end)
( Max Depth 1.75)
T05
S12000
M3
G0 Z4.0000
G0 X25.0985 Y-6.4654 
G1 X25.0985 Y-6.4654 Z1.1350 F75.
G17
G2X25.3485Y-6.2154Z1.1350I0.2500J0.0000 F25.
G1 X26.8866 Y-6.2154 Z1.1350 F40.
G1 X26.8866 Y-8.5896 Z1.1350
G1 X26.3221 Y-8.5896 Z1.1350
G3X26.1366Y-8.7778Z1.1350I0.0000J-0.1855
G1 X26.1498 Y-9.6943 Z1.1350
G2X26.0902Y-9.7679Z1.1350I-0.0703J-0.0040
G2X24.3680Y-9.7665Z1.1350I-0.8575J4.6808
G2X24.3161Y-9.7045Z1.1350I0.0126J0.0632
G1 X24.3475 Y-7.2759 Z1.1350
G3X24.1620Y-7.0880Z1.1350I-0.1855J0.0024
G1 X23.8105 Y-7.0880 Z1.1350
G1 X23.8105 Y-6.2154 Z1.1350
G1 X25.3485 Y-6.2154 Z1.1350
G1 X25.5985 Y-6.2154 Z1.1350
G2X25.8485Y-6.4654Z1.1350I0.0000J-0.2500
G0 Z4.0000
G0 X25.8485 Y-6.4654 
M5
G53 Z
( MOP:  S-Neck-Pocket-03-front-end )
( FILE: G:\Shared drives\AlloyProjectFiles\Customer CAD files\Alloy-Standard-Builds-CAM\s-in\Neck\S-Neck-Pocket-03-front-end.nc)
G90
(  BEGIN TOOL LIST )
(  TOOL 5 - Downcut PT375 - DESC: 0.3750 DIA, 2 FLUTE,  CARBIDE MAT )
(  ENDOF TOOL LIST )
( S-Neck-Pocket-03-front-end)
( Max Depth 1.75)
T05
S12000
M3
G0 Z4.0000
G0 X40.5985 Y-6.4654 
G1 X40.5985 Y-6.4654 Z1.1350 F75.
G17
G2X40.8485Y-6.2154Z1.1350I0.2500J0.0000 F25.
G1 X42.3866 Y-6.2154 Z1.1350 F40.
G1 X42.3866 Y-8.5896 Z1.1350
G1 X41.8221 Y-8.5896 Z1.1350
G3X41.6366Y-8.7778Z1.1350I0.0000J-0.1855
G1 X41.6498 Y-9.6943 Z1.1350
G2X41.5902Y-9.7679Z1.1350I-0.0703J-0.0040
G2X39.8680Y-9.7665Z1.1350I-0.8575J4.6808
G2X39.8161Y-9.7045Z1.1350I0.0126J0.0632
G1 X39.8475 Y-7.2759 Z1.1350
G3X39.6620Y-7.0880Z1.1350I-0.1855J0.0024
G1 X39.3105 Y-7.0880 Z1.1350
G1 X39.3105 Y-6.2154 Z1.1350
G1 X40.8485 Y-6.2154 Z1.1350
G1 X41.0985 Y-6.2154 Z1.1350
G2X41.3485Y-6.4654Z1.1350I0.0000J-0.2500
G0 Z4.0000
G0 X41.3485 Y-6.4654 
M5
G53 Z
( END FILE S-Neck-Pocket-03-front-end.nc )
