( BEGIN FILE T24S-PUP-Neck-front-01.ncTNUM: -1 )
( Lefty:False Nunits:3 )
( cline: 9.733 delta:15.5 )
( start_unit: 1 num_units: 3)
( MOP:  S-PUP-Neck-front-01 )
( FILE: G:\Shared drives\AlloyProjectFiles\Customer CAD files\Alloy-Standard-Builds-CAM\s-in\True24 Specific\S-PUP-Neck-front-01.nc)
G90
(  BEGIN TOOL LIST )
(  TOOL 4 - Downcut PT500 - DESC: 0.5000 DIA, 2 FLUTE,  CARBIDE MAT )
(  ENDOF TOOL LIST )
( S-PUP-Neck-front-01)
T04
S12000
M3
G0 Z4.0000
G0 X9.5641 Y-11.1641 
G1 X9.5641 Y-11.1641 Z1.7875 F75.
G1 X9.9378 Y-11.1641 Z1.7216 F50.
G1 X10.6288 Y-10.9789 Z1.5955
G1 X9.7330 Y-10.9789 Z1.4375
G1 X8.8371 Y-10.9789 Z1.4375 F100.
G1 X9.5282 Y-11.1641 Z1.4375
G1 X9.9378 Y-11.1641 Z1.4375
G1 X10.6288 Y-10.9789 Z1.4375
G1 X9.7330 Y-10.9789 Z1.4375
G1 X9.7330 Y-10.8139 Z1.4375
G1 X8.3890 Y-10.8139 Z1.4375
G17
G3X8.3616Y-11.0223Z1.4375I0.0000J-0.1060
G1 X9.5065 Y-11.3291 Z1.4375
G1 X9.9595 Y-11.3291 Z1.4375
G1 X11.1044 Y-11.0223 Z1.4375
G3X11.0770Y-10.8139Z1.4375I-0.0274J0.1024
G1 X9.7330 Y-10.8139 Z1.4375
G0 Z1.9975
G0 X9.7330 Y-10.8139 
G0 Z1.9975
G0 X9.5641 Y-11.1641 
G1 X9.5641 Y-11.1641 Z1.4750 F75.
G1 X9.9378 Y-11.1641 Z1.4091 F50.
G1 X10.6288 Y-10.9789 Z1.2830
G1 X9.7330 Y-10.9789 Z1.1250
G1 X8.8371 Y-10.9789 Z1.1250 F100.
G1 X9.5282 Y-11.1641 Z1.1250
G1 X9.9378 Y-11.1641 Z1.1250
G1 X10.6288 Y-10.9789 Z1.1250
G1 X9.7330 Y-10.9789 Z1.1250
G1 X9.7330 Y-10.8139 Z1.1250
G1 X8.3890 Y-10.8139 Z1.1250
G3X8.3616Y-11.0223Z1.1250I0.0000J-0.1060
G1 X9.5065 Y-11.3291 Z1.1250
G1 X9.9595 Y-11.3291 Z1.1250
G1 X11.1044 Y-11.0223 Z1.1250
G3X11.0770Y-10.8139Z1.1250I-0.0274J0.1024
G1 X9.7330 Y-10.8139 Z1.1250
G0 Z4.0000
G0 X9.7330 Y-10.8139 
( S-PUP-Neck-front-02)
G0 Z4.0000
G0 X9.9830 Y-10.9939 
G1 X9.9830 Y-10.9939 Z1.1250 F75.
G3X9.7330Y-10.7439Z1.1250I-0.2500J0.0000 F40.
G1 X8.3890 Y-10.7439 Z1.1250
G3X8.3434Y-11.0899Z1.1250I0.0000J-0.1760
G1 X9.4973 Y-11.3991 Z1.1250
G1 X9.9687 Y-11.3991 Z1.1250
G1 X11.1225 Y-11.0899 Z1.1250
G3X11.0770Y-10.7439Z1.1250I-0.0455J0.1700
G1 X9.7330 Y-10.7439 Z1.1250
G1 X9.2330 Y-10.7439 Z1.1250
G3X8.9830Y-10.9939Z1.1250I0.0000J-0.2500
G0 Z4.0000
G0 X8.9830 Y-10.9939 
M5
G53 Z
( MOP:  S-PUP-Neck-front-01 )
( FILE: G:\Shared drives\AlloyProjectFiles\Customer CAD files\Alloy-Standard-Builds-CAM\s-in\True24 Specific\S-PUP-Neck-front-01.nc)
G90
(  BEGIN TOOL LIST )
(  TOOL 4 - Downcut PT500 - DESC: 0.5000 DIA, 2 FLUTE,  CARBIDE MAT )
(  ENDOF TOOL LIST )
( S-PUP-Neck-front-01)
T04
S12000
M3
G0 Z4.0000
G0 X25.0641 Y-11.1641 
G1 X25.0641 Y-11.1641 Z1.7875 F75.
G1 X25.4378 Y-11.1641 Z1.7216 F50.
G1 X26.1288 Y-10.9789 Z1.5955
G1 X25.2330 Y-10.9789 Z1.4375
G1 X24.3371 Y-10.9789 Z1.4375 F100.
G1 X25.0282 Y-11.1641 Z1.4375
G1 X25.4378 Y-11.1641 Z1.4375
G1 X26.1288 Y-10.9789 Z1.4375
G1 X25.2330 Y-10.9789 Z1.4375
G1 X25.2330 Y-10.8139 Z1.4375
G1 X23.8890 Y-10.8139 Z1.4375
G17
G3X23.8616Y-11.0223Z1.4375I0.0000J-0.1060
G1 X25.0065 Y-11.3291 Z1.4375
G1 X25.4595 Y-11.3291 Z1.4375
G1 X26.6044 Y-11.0223 Z1.4375
G3X26.5770Y-10.8139Z1.4375I-0.0274J0.1024
G1 X25.2330 Y-10.8139 Z1.4375
G0 Z1.9975
G0 X25.2330 Y-10.8139 
G0 Z1.9975
G0 X25.0641 Y-11.1641 
G1 X25.0641 Y-11.1641 Z1.4750 F75.
G1 X25.4378 Y-11.1641 Z1.4091 F50.
G1 X26.1288 Y-10.9789 Z1.2830
G1 X25.2330 Y-10.9789 Z1.1250
G1 X24.3371 Y-10.9789 Z1.1250 F100.
G1 X25.0282 Y-11.1641 Z1.1250
G1 X25.4378 Y-11.1641 Z1.1250
G1 X26.1288 Y-10.9789 Z1.1250
G1 X25.2330 Y-10.9789 Z1.1250
G1 X25.2330 Y-10.8139 Z1.1250
G1 X23.8890 Y-10.8139 Z1.1250
G3X23.8616Y-11.0223Z1.1250I0.0000J-0.1060
G1 X25.0065 Y-11.3291 Z1.1250
G1 X25.4595 Y-11.3291 Z1.1250
G1 X26.6044 Y-11.0223 Z1.1250
G3X26.5770Y-10.8139Z1.1250I-0.0274J0.1024
G1 X25.2330 Y-10.8139 Z1.1250
G0 Z4.0000
G0 X25.2330 Y-10.8139 
( S-PUP-Neck-front-02)
G0 Z4.0000
G0 X25.4830 Y-10.9939 
G1 X25.4830 Y-10.9939 Z1.1250 F75.
G3X25.2330Y-10.7439Z1.1250I-0.2500J0.0000 F40.
G1 X23.8890 Y-10.7439 Z1.1250
G3X23.8434Y-11.0899Z1.1250I0.0000J-0.1760
G1 X24.9973 Y-11.3991 Z1.1250
G1 X25.4687 Y-11.3991 Z1.1250
G1 X26.6225 Y-11.0899 Z1.1250
G3X26.5770Y-10.7439Z1.1250I-0.0455J0.1700
G1 X25.2330 Y-10.7439 Z1.1250
G1 X24.7330 Y-10.7439 Z1.1250
G3X24.4830Y-10.9939Z1.1250I0.0000J-0.2500
G0 Z4.0000
G0 X24.4830 Y-10.9939 
M5
G53 Z
( MOP:  S-PUP-Neck-front-01 )
( FILE: G:\Shared drives\AlloyProjectFiles\Customer CAD files\Alloy-Standard-Builds-CAM\s-in\True24 Specific\S-PUP-Neck-front-01.nc)
G90
(  BEGIN TOOL LIST )
(  TOOL 4 - Downcut PT500 - DESC: 0.5000 DIA, 2 FLUTE,  CARBIDE MAT )
(  ENDOF TOOL LIST )
( S-PUP-Neck-front-01)
T04
S12000
M3
G0 Z4.0000
G0 X40.5641 Y-11.1641 
G1 X40.5641 Y-11.1641 Z1.7875 F75.
G1 X40.9378 Y-11.1641 Z1.7216 F50.
G1 X41.6288 Y-10.9789 Z1.5955
G1 X40.7330 Y-10.9789 Z1.4375
G1 X39.8371 Y-10.9789 Z1.4375 F100.
G1 X40.5282 Y-11.1641 Z1.4375
G1 X40.9378 Y-11.1641 Z1.4375
G1 X41.6288 Y-10.9789 Z1.4375
G1 X40.7330 Y-10.9789 Z1.4375
G1 X40.7330 Y-10.8139 Z1.4375
G1 X39.3890 Y-10.8139 Z1.4375
G17
G3X39.3616Y-11.0223Z1.4375I0.0000J-0.1060
G1 X40.5065 Y-11.3291 Z1.4375
G1 X40.9595 Y-11.3291 Z1.4375
G1 X42.1044 Y-11.0223 Z1.4375
G3X42.0770Y-10.8139Z1.4375I-0.0274J0.1024
G1 X40.7330 Y-10.8139 Z1.4375
G0 Z1.9975
G0 X40.7330 Y-10.8139 
G0 Z1.9975
G0 X40.5641 Y-11.1641 
G1 X40.5641 Y-11.1641 Z1.4750 F75.
G1 X40.9378 Y-11.1641 Z1.4091 F50.
G1 X41.6288 Y-10.9789 Z1.2830
G1 X40.7330 Y-10.9789 Z1.1250
G1 X39.8371 Y-10.9789 Z1.1250 F100.
G1 X40.5282 Y-11.1641 Z1.1250
G1 X40.9378 Y-11.1641 Z1.1250
G1 X41.6288 Y-10.9789 Z1.1250
G1 X40.7330 Y-10.9789 Z1.1250
G1 X40.7330 Y-10.8139 Z1.1250
G1 X39.3890 Y-10.8139 Z1.1250
G3X39.3616Y-11.0223Z1.1250I0.0000J-0.1060
G1 X40.5065 Y-11.3291 Z1.1250
G1 X40.9595 Y-11.3291 Z1.1250
G1 X42.1044 Y-11.0223 Z1.1250
G3X42.0770Y-10.8139Z1.1250I-0.0274J0.1024
G1 X40.7330 Y-10.8139 Z1.1250
G0 Z4.0000
G0 X40.7330 Y-10.8139 
( S-PUP-Neck-front-02)
G0 Z4.0000
G0 X40.9830 Y-10.9939 
G1 X40.9830 Y-10.9939 Z1.1250 F75.
G3X40.7330Y-10.7439Z1.1250I-0.2500J0.0000 F40.
G1 X39.3890 Y-10.7439 Z1.1250
G3X39.3434Y-11.0899Z1.1250I0.0000J-0.1760
G1 X40.4973 Y-11.3991 Z1.1250
G1 X40.9687 Y-11.3991 Z1.1250
G1 X42.1225 Y-11.0899 Z1.1250
G3X42.0770Y-10.7439Z1.1250I-0.0455J0.1700
G1 X40.7330 Y-10.7439 Z1.1250
G1 X40.2330 Y-10.7439 Z1.1250
G3X39.9830Y-10.9939Z1.1250I0.0000J-0.2500
G0 Z4.0000
G0 X39.9830 Y-10.9939 
M5
G53 Z
( END FILE T24S-PUP-Neck-front-01.nc )
