( BEGIN FILE T24S-PUP-Bridge-front-01.ncTNUM: -1 )
( Lefty:False Nunits:3 )
( cline: 9.733 delta:15.5 )
( start_unit: 1 num_units: 3)
( MOP:  S-PUP-Bridge-front-01 )
( FILE: G:\Shared drives\AlloyProjectFiles\Customer CAD files\Alloy-Standard-Builds-CAM\s-in\True24 Specific\S-PUP-Bridge-front-01.nc)
G90
(  BEGIN TOOL LIST )
(  TOOL 4 - Downcut PT500 - DESC: 0.5000 DIA, 2 FLUTE,  CARBIDE MAT )
(  ENDOF TOOL LIST )
( S-PUP-Bridge-front-01)
T04
S12000
M3
G0 Z4.0000
G0 X10.1656 Y-14.5003 
G1 X10.1656 Y-14.5003 Z1.7375 F75.
G1 X8.8424 Y-14.2670 Z1.5006
G1 X9.1666 Y-14.4182 Z1.4375
G1 X9.4908 Y-14.5694 Z1.4375 F100.
G1 X9.8941 Y-14.6404 Z1.4375
G1 X10.6069 Y-14.5780 Z1.4375
G1 X8.8424 Y-14.2670 Z1.4375
G1 X9.1666 Y-14.4182 Z1.4375
G1 X9.0969 Y-14.5677 Z1.4375
G1 X9.4408 Y-14.7281 Z1.4375
G1 X9.8869 Y-14.8067 Z1.4375
G1 X11.0677 Y-14.7033 Z1.4375
G17
G3X11.0769Y-14.4933Z1.4375I-0.0092J0.1056
G1 X8.4297 Y-14.0268 Z1.4375
G3X8.3665Y-14.2272Z1.4375I-0.0184J-0.1043
G1 X9.0969 Y-14.5677 Z1.4375
G0 Z1.9975
G0 X9.0969 Y-14.5677 
G0 Z1.9975
G0 X10.2354 Y-14.5126 
G1 X10.2354 Y-14.5126 Z1.4375 F75.
G1 X8.8424 Y-14.2670 Z1.1881
G1 X9.1666 Y-14.4182 Z1.1250
G1 X9.4908 Y-14.5694 Z1.1250 F100.
G1 X9.8941 Y-14.6404 Z1.1250
G1 X10.6069 Y-14.5780 Z1.1250
G1 X8.8424 Y-14.2670 Z1.1250
G1 X9.1666 Y-14.4182 Z1.1250
G1 X9.0969 Y-14.5677 Z1.1250
G1 X9.4408 Y-14.7281 Z1.1250
G1 X9.8869 Y-14.8067 Z1.1250
G1 X11.0677 Y-14.7033 Z1.1250
G3X11.0769Y-14.4933Z1.1250I-0.0092J0.1056
G1 X8.4297 Y-14.0268 Z1.1250
G3X8.3665Y-14.2272Z1.1250I-0.0184J-0.1043
G1 X9.0969 Y-14.5677 Z1.1250
G0 Z4.0000
G0 X9.0969 Y-14.5677 
( S-PUP-Bridge-front-02)
G0 Z4.0000
G0 X9.9682 Y-14.4807 
G1 X9.9682 Y-14.4807 Z1.1250 F75.
G3X9.7654Y-14.1911Z1.1250I-0.2462J0.0434 F40.
G1 X8.4418 Y-13.9578 Z1.1250
G3X8.3369Y-14.2907Z1.1250I-0.0305J-0.1733
G1 X9.4195 Y-14.7954 Z1.1250
G1 X9.8838 Y-14.8772 Z1.1250
G1 X11.0738 Y-14.7730 Z1.1250
G3X11.0890Y-14.4244Z1.1250I-0.0153J0.1753
G1 X9.7654 Y-14.1911 Z1.1250
G1 X9.5192 Y-14.1477 Z1.1250
G3X9.2296Y-14.3505Z1.1250I-0.0434J-0.2462
G0 Z4.0000
G0 X9.2296 Y-14.3505 
M5
G53 Z
( MOP:  S-PUP-Bridge-front-01 )
( FILE: G:\Shared drives\AlloyProjectFiles\Customer CAD files\Alloy-Standard-Builds-CAM\s-in\True24 Specific\S-PUP-Bridge-front-01.nc)
G90
(  BEGIN TOOL LIST )
(  TOOL 4 - Downcut PT500 - DESC: 0.5000 DIA, 2 FLUTE,  CARBIDE MAT )
(  ENDOF TOOL LIST )
( S-PUP-Bridge-front-01)
T04
S12000
M3
G0 Z4.0000
G0 X25.6656 Y-14.5003 
G1 X25.6656 Y-14.5003 Z1.7375 F75.
G1 X24.3424 Y-14.2670 Z1.5006
G1 X24.6666 Y-14.4182 Z1.4375
G1 X24.9908 Y-14.5694 Z1.4375 F100.
G1 X25.3941 Y-14.6404 Z1.4375
G1 X26.1069 Y-14.5780 Z1.4375
G1 X24.3424 Y-14.2670 Z1.4375
G1 X24.6666 Y-14.4182 Z1.4375
G1 X24.5969 Y-14.5677 Z1.4375
G1 X24.9408 Y-14.7281 Z1.4375
G1 X25.3869 Y-14.8067 Z1.4375
G1 X26.5677 Y-14.7033 Z1.4375
G17
G3X26.5769Y-14.4933Z1.4375I-0.0092J0.1056
G1 X23.9297 Y-14.0268 Z1.4375
G3X23.8665Y-14.2272Z1.4375I-0.0184J-0.1043
G1 X24.5969 Y-14.5677 Z1.4375
G0 Z1.9975
G0 X24.5969 Y-14.5677 
G0 Z1.9975
G0 X25.7354 Y-14.5126 
G1 X25.7354 Y-14.5126 Z1.4375 F75.
G1 X24.3424 Y-14.2670 Z1.1881
G1 X24.6666 Y-14.4182 Z1.1250
G1 X24.9908 Y-14.5694 Z1.1250 F100.
G1 X25.3941 Y-14.6404 Z1.1250
G1 X26.1069 Y-14.5780 Z1.1250
G1 X24.3424 Y-14.2670 Z1.1250
G1 X24.6666 Y-14.4182 Z1.1250
G1 X24.5969 Y-14.5677 Z1.1250
G1 X24.9408 Y-14.7281 Z1.1250
G1 X25.3869 Y-14.8067 Z1.1250
G1 X26.5677 Y-14.7033 Z1.1250
G3X26.5769Y-14.4933Z1.1250I-0.0092J0.1056
G1 X23.9297 Y-14.0268 Z1.1250
G3X23.8665Y-14.2272Z1.1250I-0.0184J-0.1043
G1 X24.5969 Y-14.5677 Z1.1250
G0 Z4.0000
G0 X24.5969 Y-14.5677 
( S-PUP-Bridge-front-02)
G0 Z4.0000
G0 X25.4682 Y-14.4807 
G1 X25.4682 Y-14.4807 Z1.1250 F75.
G3X25.2654Y-14.1911Z1.1250I-0.2462J0.0434 F40.
G1 X23.9418 Y-13.9578 Z1.1250
G3X23.8369Y-14.2907Z1.1250I-0.0305J-0.1733
G1 X24.9195 Y-14.7954 Z1.1250
G1 X25.3838 Y-14.8772 Z1.1250
G1 X26.5738 Y-14.7730 Z1.1250
G3X26.5890Y-14.4244Z1.1250I-0.0153J0.1753
G1 X25.2654 Y-14.1911 Z1.1250
G1 X25.0192 Y-14.1477 Z1.1250
G3X24.7296Y-14.3505Z1.1250I-0.0434J-0.2462
G0 Z4.0000
G0 X24.7296 Y-14.3505 
M5
G53 Z
( MOP:  S-PUP-Bridge-front-01 )
( FILE: G:\Shared drives\AlloyProjectFiles\Customer CAD files\Alloy-Standard-Builds-CAM\s-in\True24 Specific\S-PUP-Bridge-front-01.nc)
G90
(  BEGIN TOOL LIST )
(  TOOL 4 - Downcut PT500 - DESC: 0.5000 DIA, 2 FLUTE,  CARBIDE MAT )
(  ENDOF TOOL LIST )
( S-PUP-Bridge-front-01)
T04
S12000
M3
G0 Z4.0000
G0 X41.1656 Y-14.5003 
G1 X41.1656 Y-14.5003 Z1.7375 F75.
G1 X39.8424 Y-14.2670 Z1.5006
G1 X40.1666 Y-14.4182 Z1.4375
G1 X40.4908 Y-14.5694 Z1.4375 F100.
G1 X40.8941 Y-14.6404 Z1.4375
G1 X41.6069 Y-14.5780 Z1.4375
G1 X39.8424 Y-14.2670 Z1.4375
G1 X40.1666 Y-14.4182 Z1.4375
G1 X40.0969 Y-14.5677 Z1.4375
G1 X40.4408 Y-14.7281 Z1.4375
G1 X40.8869 Y-14.8067 Z1.4375
G1 X42.0677 Y-14.7033 Z1.4375
G17
G3X42.0769Y-14.4933Z1.4375I-0.0092J0.1056
G1 X39.4297 Y-14.0268 Z1.4375
G3X39.3665Y-14.2272Z1.4375I-0.0184J-0.1043
G1 X40.0969 Y-14.5677 Z1.4375
G0 Z1.9975
G0 X40.0969 Y-14.5677 
G0 Z1.9975
G0 X41.2354 Y-14.5126 
G1 X41.2354 Y-14.5126 Z1.4375 F75.
G1 X39.8424 Y-14.2670 Z1.1881
G1 X40.1666 Y-14.4182 Z1.1250
G1 X40.4908 Y-14.5694 Z1.1250 F100.
G1 X40.8941 Y-14.6404 Z1.1250
G1 X41.6069 Y-14.5780 Z1.1250
G1 X39.8424 Y-14.2670 Z1.1250
G1 X40.1666 Y-14.4182 Z1.1250
G1 X40.0969 Y-14.5677 Z1.1250
G1 X40.4408 Y-14.7281 Z1.1250
G1 X40.8869 Y-14.8067 Z1.1250
G1 X42.0677 Y-14.7033 Z1.1250
G3X42.0769Y-14.4933Z1.1250I-0.0092J0.1056
G1 X39.4297 Y-14.0268 Z1.1250
G3X39.3665Y-14.2272Z1.1250I-0.0184J-0.1043
G1 X40.0969 Y-14.5677 Z1.1250
G0 Z4.0000
G0 X40.0969 Y-14.5677 
( S-PUP-Bridge-front-02)
G0 Z4.0000
G0 X40.9682 Y-14.4807 
G1 X40.9682 Y-14.4807 Z1.1250 F75.
G3X40.7654Y-14.1911Z1.1250I-0.2462J0.0434 F40.
G1 X39.4418 Y-13.9578 Z1.1250
G3X39.3369Y-14.2907Z1.1250I-0.0305J-0.1733
G1 X40.4195 Y-14.7954 Z1.1250
G1 X40.8838 Y-14.8772 Z1.1250
G1 X42.0738 Y-14.7730 Z1.1250
G3X42.0890Y-14.4244Z1.1250I-0.0153J0.1753
G1 X40.7654 Y-14.1911 Z1.1250
G1 X40.5192 Y-14.1477 Z1.1250
G3X40.2296Y-14.3505Z1.1250I-0.0434J-0.2462
G0 Z4.0000
G0 X40.2296 Y-14.3505 
M5
G53 Z
( END FILE T24S-PUP-Bridge-front-01.nc )
