( BEGIN FILE top-jack-pocket-front-01.ncTNUM: -1 )
( Lefty:False Nunits:3 )
( cline: 9.733 delta:15.5 )
( start_unit: 1 num_units: 3)
( MOP:  top-jack-pocket-front-01 )
( FILE: G:\Shared drives\AlloyProjectFiles\Customer CAD files\Alloy-Standard-Builds-CAM\s-in\Control\top-jack-pocket-front-01.nc)
G90
(  BEGIN TOOL LIST )
(  TOOL 4 - Downcut PT500 - DESC: 0.5000 DIA, 2 FLUTE,  CARBIDE MAT )
(  ENDOF TOOL LIST )
( top-jack-pocket-front-01)
T04
S12000
M3
G0 Z4.0000
G0 X13.5501 Y-19.5341 
G1 X13.5501 Y-19.5341 Z1.8000 F75.
G1 X13.5618 Y-19.5409 Z1.7976 F50.
G1 X13.5458 Y-19.5250 Z1.7936
G1 X13.5297 Y-19.5093 Z1.7897
G1 X13.5135 Y-19.4937 Z1.7857
G1 X13.4971 Y-19.4783 Z1.7817
G1 X13.4806 Y-19.4630 Z1.7778
G1 X13.4640 Y-19.4478 Z1.7738
G1 X13.4472 Y-19.4328 Z1.7698
G1 X13.4303 Y-19.4180 Z1.7659
G1 X13.4133 Y-19.4033 Z1.7619
G1 X13.3961 Y-19.3887 Z1.7579
G1 X13.3788 Y-19.3743 Z1.7540
G1 X13.3614 Y-19.3601 Z1.7500
G1 X13.3438 Y-19.3460 Z1.7460
G1 X13.3262 Y-19.3321 Z1.7421
G1 X13.3084 Y-19.3183 Z1.7381
G1 X13.2904 Y-19.3047 Z1.7341
G1 X13.2724 Y-19.2912 Z1.7302
G1 X13.2543 Y-19.2779 Z1.7262
G1 X13.2360 Y-19.2648 Z1.7222
G1 X13.2176 Y-19.2518 Z1.7182
G1 X13.1991 Y-19.2390 Z1.7143
G1 X13.1805 Y-19.2263 Z1.7103
G1 X13.1618 Y-19.2138 Z1.7063
G1 X13.1429 Y-19.2015 Z1.7024
G1 X13.1240 Y-19.1894 Z1.6984
G1 X13.1050 Y-19.1774 Z1.6944
G1 X13.0858 Y-19.1655 Z1.6905
G1 X13.0666 Y-19.1539 Z1.6865
G1 X13.0472 Y-19.1424 Z1.6825
G1 X13.0277 Y-19.1311 Z1.6786
G1 X13.0462 Y-19.1494 Z1.6740
G1 X13.0648 Y-19.1675 Z1.6694
G1 X13.0836 Y-19.1855 Z1.6648
G1 X13.1026 Y-19.2032 Z1.6602
G1 X13.1218 Y-19.2207 Z1.6557
G1 X13.1411 Y-19.2381 Z1.6511
G1 X13.1607 Y-19.2552 Z1.6465
G1 X13.1804 Y-19.2722 Z1.6419
G1 X13.2002 Y-19.2889 Z1.6373
G1 X13.2203 Y-19.3055 Z1.6327
G1 X13.2405 Y-19.3218 Z1.6282
G1 X13.2609 Y-19.3379 Z1.6236
G1 X13.2814 Y-19.3539 Z1.6190
G1 X13.3021 Y-19.3696 Z1.6144
G1 X13.3230 Y-19.3851 Z1.6098
G1 X13.3383 Y-19.3963 Z1.6065
G1 X13.3538 Y-19.4074 Z1.6031
G1 X13.3693 Y-19.4184 Z1.5998
G1 X13.3849 Y-19.4292 Z1.5964
G1 X13.4006 Y-19.4400 Z1.5931
G1 X13.4164 Y-19.4506 Z1.5897
G1 X13.4322 Y-19.4611 Z1.5864
G1 X13.4482 Y-19.4715 Z1.5830
G1 X13.4642 Y-19.4818 Z1.5796
G1 X13.4803 Y-19.4919 Z1.5763
G1 X13.4964 Y-19.5020 Z1.5729
G1 X13.5127 Y-19.5119 Z1.5696
G1 X13.5290 Y-19.5217 Z1.5662
G1 X13.5454 Y-19.5314 Z1.5629
G1 X13.5618 Y-19.5409 Z1.5595
G1 X13.5458 Y-19.5250 Z1.5556
G1 X13.5297 Y-19.5093 Z1.5516
G1 X13.5135 Y-19.4937 Z1.5476
G1 X13.4971 Y-19.4783 Z1.5436
G1 X13.4806 Y-19.4630 Z1.5397
G1 X13.4640 Y-19.4478 Z1.5357
G1 X13.4472 Y-19.4328 Z1.5317
G1 X13.4303 Y-19.4180 Z1.5278
G1 X13.4133 Y-19.4033 Z1.5238
G1 X13.3961 Y-19.3887 Z1.5198
G1 X13.3788 Y-19.3743 Z1.5159
G1 X13.3614 Y-19.3601 Z1.5119
G1 X13.3438 Y-19.3460 Z1.5079
G1 X13.3262 Y-19.3321 Z1.5040
G1 X13.3084 Y-19.3183 Z1.5000
G17
G3X13.0277Y-19.1311Z1.5000I-1.5524J-2.0231 F100.
G3X13.3230Y-19.3851Z1.5000I1.8058J1.8005
G3X13.5618Y-19.5409Z1.5000I1.5105J2.0545
G3X13.3084Y-19.3183Z1.5000I-1.8058J-1.8005
G1 X13.3064 Y-19.3208 Z1.5000
G1 X13.2230 Y-19.2508 Z1.5000
G1 X13.1368 Y-19.1842 Z1.5000
G1 X13.0933 Y-19.1518 Z1.5000
G1 X13.0732 Y-19.1345 Z1.5000
G1 X13.0480 Y-19.1215 Z1.5000
G1 X13.0180 Y-19.1192 Z1.5000
G1 X13.0065 Y-19.1243 Z1.5000
G1 X13.0005 Y-19.1344 Z1.5000
G1 X13.0030 Y-19.1637 Z1.5000
G1 X13.0164 Y-19.1901 Z1.5000
G1 X13.0902 Y-19.2688 Z1.5000
G1 X13.1676 Y-19.3452 Z1.5000
G1 X13.2483 Y-19.4184 Z1.5000
G1 X13.3327 Y-19.4872 Z1.5000
G1 X13.4194 Y-19.5530 Z1.5000
G1 X13.5090 Y-19.6150 Z1.5000
G1 X13.5337 Y-19.6264 Z1.5000
G1 X13.5604 Y-19.6328 Z1.5000
G1 X13.5880 Y-19.6324 Z1.5000
G1 X13.6140 Y-19.6240 Z1.5000
G1 X13.6364 Y-19.6080 Z1.5000
G3X13.6274Y-19.4341Z1.5000I-0.0922J0.0824
G1 X13.5541 Y-19.3536 Z1.5000
G1 X13.3966 Y-19.2033 Z1.5000
G1 X13.3997 Y-19.1993 Z1.5000
G3X12.7609Y-18.8353Z1.5000I-1.6437J-2.1421
G3X12.6730Y-18.9499Z1.5000I-0.0279J-0.0696
G3X13.2341Y-19.5059Z1.5000I2.1605J1.6193
G3X14.0477Y-19.9138Z1.5000I1.5994J2.1753
G3X13.3997Y-19.1993Z1.5000I-2.2917J-1.4276
G0 Z1.9975
G0 X13.3997 Y-19.1993 
G0 Z1.9975
G0 X13.5501 Y-19.5341 
G1 X13.5501 Y-19.5341 Z1.5500 F75.
G1 X13.5618 Y-19.5409 Z1.5476 F50.
G1 X13.5458 Y-19.5250 Z1.5436
G1 X13.5297 Y-19.5093 Z1.5397
G1 X13.5135 Y-19.4937 Z1.5357
G1 X13.4971 Y-19.4783 Z1.5317
G1 X13.4806 Y-19.4630 Z1.5278
G1 X13.4640 Y-19.4478 Z1.5238
G1 X13.4472 Y-19.4328 Z1.5198
G1 X13.4303 Y-19.4180 Z1.5159
G1 X13.4133 Y-19.4033 Z1.5119
G1 X13.3961 Y-19.3887 Z1.5079
G1 X13.3788 Y-19.3743 Z1.5040
G1 X13.3614 Y-19.3601 Z1.5000
G1 X13.3438 Y-19.3460 Z1.4960
G1 X13.3262 Y-19.3321 Z1.4921
G1 X13.3084 Y-19.3183 Z1.4881
G1 X13.2904 Y-19.3047 Z1.4841
G1 X13.2724 Y-19.2912 Z1.4802
G1 X13.2543 Y-19.2779 Z1.4762
G1 X13.2360 Y-19.2648 Z1.4722
G1 X13.2176 Y-19.2518 Z1.4682
G1 X13.1991 Y-19.2390 Z1.4643
G1 X13.1805 Y-19.2263 Z1.4603
G1 X13.1618 Y-19.2138 Z1.4563
G1 X13.1429 Y-19.2015 Z1.4524
G1 X13.1240 Y-19.1894 Z1.4484
G1 X13.1050 Y-19.1774 Z1.4444
G1 X13.0858 Y-19.1655 Z1.4405
G1 X13.0666 Y-19.1539 Z1.4365
G1 X13.0472 Y-19.1424 Z1.4325
G1 X13.0277 Y-19.1311 Z1.4286
G1 X13.0462 Y-19.1494 Z1.4240
G1 X13.0648 Y-19.1675 Z1.4194
G1 X13.0836 Y-19.1855 Z1.4148
G1 X13.1026 Y-19.2032 Z1.4102
G1 X13.1218 Y-19.2207 Z1.4057
G1 X13.1411 Y-19.2381 Z1.4011
G1 X13.1607 Y-19.2552 Z1.3965
G1 X13.1804 Y-19.2722 Z1.3919
G1 X13.2002 Y-19.2889 Z1.3873
G1 X13.2203 Y-19.3055 Z1.3827
G1 X13.2405 Y-19.3218 Z1.3782
G1 X13.2609 Y-19.3379 Z1.3736
G1 X13.2814 Y-19.3539 Z1.3690
G1 X13.3021 Y-19.3696 Z1.3644
G1 X13.3230 Y-19.3851 Z1.3598
G1 X13.3383 Y-19.3963 Z1.3565
G1 X13.3538 Y-19.4074 Z1.3531
G1 X13.3693 Y-19.4184 Z1.3498
G1 X13.3849 Y-19.4292 Z1.3464
G1 X13.4006 Y-19.4400 Z1.3431
G1 X13.4164 Y-19.4506 Z1.3397
G1 X13.4322 Y-19.4611 Z1.3364
G1 X13.4482 Y-19.4715 Z1.3330
G1 X13.4642 Y-19.4818 Z1.3296
G1 X13.4803 Y-19.4919 Z1.3263
G1 X13.4964 Y-19.5020 Z1.3229
G1 X13.5127 Y-19.5119 Z1.3196
G1 X13.5290 Y-19.5217 Z1.3162
G1 X13.5454 Y-19.5314 Z1.3129
G1 X13.5618 Y-19.5409 Z1.3095
G1 X13.5458 Y-19.5250 Z1.3056
G1 X13.5297 Y-19.5093 Z1.3016
G1 X13.5135 Y-19.4937 Z1.2976
G1 X13.4971 Y-19.4783 Z1.2936
G1 X13.4806 Y-19.4630 Z1.2897
G1 X13.4640 Y-19.4478 Z1.2857
G1 X13.4472 Y-19.4328 Z1.2817
G1 X13.4303 Y-19.4180 Z1.2778
G1 X13.4133 Y-19.4033 Z1.2738
G1 X13.3961 Y-19.3887 Z1.2698
G1 X13.3788 Y-19.3743 Z1.2659
G1 X13.3614 Y-19.3601 Z1.2619
G1 X13.3438 Y-19.3460 Z1.2579
G1 X13.3262 Y-19.3321 Z1.2540
G1 X13.3084 Y-19.3183 Z1.2500
G3X13.0277Y-19.1311Z1.2500I-1.5524J-2.0231 F100.
G3X13.3230Y-19.3851Z1.2500I1.8058J1.8005
G3X13.5618Y-19.5409Z1.2500I1.5105J2.0545
G3X13.3084Y-19.3183Z1.2500I-1.8058J-1.8005
G1 X13.3064 Y-19.3208 Z1.2500
G1 X13.2230 Y-19.2508 Z1.2500
G1 X13.1368 Y-19.1842 Z1.2500
G1 X13.0933 Y-19.1518 Z1.2500
G1 X13.0732 Y-19.1345 Z1.2500
G1 X13.0480 Y-19.1215 Z1.2500
G1 X13.0180 Y-19.1192 Z1.2500
G1 X13.0065 Y-19.1243 Z1.2500
G1 X13.0005 Y-19.1344 Z1.2500
G1 X13.0030 Y-19.1637 Z1.2500
G1 X13.0164 Y-19.1901 Z1.2500
G1 X13.0902 Y-19.2688 Z1.2500
G1 X13.1676 Y-19.3452 Z1.2500
G1 X13.2483 Y-19.4184 Z1.2500
G1 X13.3327 Y-19.4872 Z1.2500
G1 X13.4194 Y-19.5530 Z1.2500
G1 X13.5090 Y-19.6150 Z1.2500
G1 X13.5337 Y-19.6264 Z1.2500
G1 X13.5604 Y-19.6328 Z1.2500
G1 X13.5880 Y-19.6324 Z1.2500
G3X13.6274Y-19.4341Z1.2500I-0.0313J0.1092
G1 X13.5541 Y-19.3536 Z1.2500
G1 X13.3966 Y-19.2033 Z1.2500
G1 X13.3997 Y-19.1993 Z1.2500
G3X12.7609Y-18.8353Z1.2500I-1.6437J-2.1421
G3X12.6730Y-18.9499Z1.2500I-0.0279J-0.0696
G3X13.2341Y-19.5059Z1.2500I2.1605J1.6193
G3X14.0477Y-19.9138Z1.2500I1.5994J2.1753
G3X13.3997Y-19.1993Z1.2500I-2.2917J-1.4276
G0 Z1.9975
G0 X13.3997 Y-19.1993 
G0 Z1.9975
G0 X13.5501 Y-19.5341 
G1 X13.5501 Y-19.5341 Z1.3000 F75.
G1 X13.5618 Y-19.5409 Z1.2976 F50.
G1 X13.5458 Y-19.5250 Z1.2936
G1 X13.5297 Y-19.5093 Z1.2897
G1 X13.5135 Y-19.4937 Z1.2857
G1 X13.4971 Y-19.4783 Z1.2817
G1 X13.4806 Y-19.4630 Z1.2778
G1 X13.4640 Y-19.4478 Z1.2738
G1 X13.4472 Y-19.4328 Z1.2698
G1 X13.4303 Y-19.4180 Z1.2659
G1 X13.4133 Y-19.4033 Z1.2619
G1 X13.3961 Y-19.3887 Z1.2579
G1 X13.3788 Y-19.3743 Z1.2540
G1 X13.3614 Y-19.3601 Z1.2500
G1 X13.3438 Y-19.3460 Z1.2460
G1 X13.3262 Y-19.3321 Z1.2421
G1 X13.3084 Y-19.3183 Z1.2381
G1 X13.2904 Y-19.3047 Z1.2341
G1 X13.2724 Y-19.2912 Z1.2302
G1 X13.2543 Y-19.2779 Z1.2262
G1 X13.2360 Y-19.2648 Z1.2222
G1 X13.2176 Y-19.2518 Z1.2182
G1 X13.1991 Y-19.2390 Z1.2143
G1 X13.1805 Y-19.2263 Z1.2103
G1 X13.1618 Y-19.2138 Z1.2063
G1 X13.1429 Y-19.2015 Z1.2024
G1 X13.1240 Y-19.1894 Z1.1984
G1 X13.1050 Y-19.1774 Z1.1944
G1 X13.0858 Y-19.1655 Z1.1905
G1 X13.0666 Y-19.1539 Z1.1865
G1 X13.0472 Y-19.1424 Z1.1825
G1 X13.0277 Y-19.1311 Z1.1786
G1 X13.0462 Y-19.1494 Z1.1740
G1 X13.0648 Y-19.1675 Z1.1694
G1 X13.0836 Y-19.1855 Z1.1648
G1 X13.1026 Y-19.2032 Z1.1602
G1 X13.1218 Y-19.2207 Z1.1557
G1 X13.1411 Y-19.2381 Z1.1511
G1 X13.1607 Y-19.2552 Z1.1465
G1 X13.1804 Y-19.2722 Z1.1419
G1 X13.2002 Y-19.2889 Z1.1373
G1 X13.2203 Y-19.3055 Z1.1327
G1 X13.2405 Y-19.3218 Z1.1282
G1 X13.2609 Y-19.3379 Z1.1236
G1 X13.2814 Y-19.3539 Z1.1190
G1 X13.3021 Y-19.3696 Z1.1144
G1 X13.3230 Y-19.3851 Z1.1098
G1 X13.3383 Y-19.3963 Z1.1065
G1 X13.3538 Y-19.4074 Z1.1031
G1 X13.3693 Y-19.4184 Z1.0998
G1 X13.3849 Y-19.4292 Z1.0964
G1 X13.4006 Y-19.4400 Z1.0931
G1 X13.4164 Y-19.4506 Z1.0897
G1 X13.4322 Y-19.4611 Z1.0864
G1 X13.4482 Y-19.4715 Z1.0830
G1 X13.4642 Y-19.4818 Z1.0796
G1 X13.4803 Y-19.4919 Z1.0763
G1 X13.4964 Y-19.5020 Z1.0729
G1 X13.5127 Y-19.5119 Z1.0696
G1 X13.5290 Y-19.5217 Z1.0662
G1 X13.5454 Y-19.5314 Z1.0629
G1 X13.5618 Y-19.5409 Z1.0595
G1 X13.5458 Y-19.5250 Z1.0556
G1 X13.5297 Y-19.5093 Z1.0516
G1 X13.5135 Y-19.4937 Z1.0476
G1 X13.4971 Y-19.4783 Z1.0436
G1 X13.4806 Y-19.4630 Z1.0397
G1 X13.4640 Y-19.4478 Z1.0357
G1 X13.4472 Y-19.4328 Z1.0317
G1 X13.4303 Y-19.4180 Z1.0278
G1 X13.4133 Y-19.4033 Z1.0238
G1 X13.3961 Y-19.3887 Z1.0198
G1 X13.3788 Y-19.3743 Z1.0159
G1 X13.3614 Y-19.3601 Z1.0119
G1 X13.3438 Y-19.3460 Z1.0079
G1 X13.3262 Y-19.3321 Z1.0040
G1 X13.3084 Y-19.3183 Z1.0000
G3X13.0277Y-19.1311Z1.0000I-1.5524J-2.0231 F100.
G3X13.3230Y-19.3851Z1.0000I1.8058J1.8005
G3X13.5618Y-19.5409Z1.0000I1.5105J2.0545
G3X13.3084Y-19.3183Z1.0000I-1.8058J-1.8005
G1 X13.3064 Y-19.3208 Z1.0000
G1 X13.2230 Y-19.2508 Z1.0000
G2X13.0732Y-19.1345Z1.0000I10.9186J14.2181
G3X13.0164Y-19.1901Z1.0000I-0.0370J-0.0189
G1 X13.0902 Y-19.2688 Z1.0000
G1 X13.1676 Y-19.3452 Z1.0000
G1 X13.2483 Y-19.4184 Z1.0000
G1 X13.3327 Y-19.4872 Z1.0000
G1 X13.4194 Y-19.5530 Z1.0000
G1 X13.5090 Y-19.6150 Z1.0000
G1 X13.5337 Y-19.6264 Z1.0000
G3X13.6274Y-19.4341Z1.0000I0.0319J0.1034
G1 X13.5541 Y-19.3536 Z1.0000
G1 X13.3966 Y-19.2033 Z1.0000
G1 X13.3997 Y-19.1993 Z1.0000
G3X12.7609Y-18.8353Z1.0000I-1.6437J-2.1421
G3X12.6730Y-18.9499Z1.0000I-0.0279J-0.0696
G3X13.2341Y-19.5059Z1.0000I2.1605J1.6193
G3X14.0477Y-19.9138Z1.0000I1.5994J2.1753
G3X13.3997Y-19.1993Z1.0000I-2.2917J-1.4276
G0 Z1.9975
G0 X13.3997 Y-19.1993 
G0 Z1.9975
G0 X13.1602 Y-19.2549 
G1 X13.1602 Y-19.2549 Z1.0500 F75.
G1 X13.1607 Y-19.2552 Z1.0499 F50.
G1 X13.1804 Y-19.2722 Z1.0453
G1 X13.2002 Y-19.2889 Z1.0407
G1 X13.2203 Y-19.3055 Z1.0362
G1 X13.2405 Y-19.3218 Z1.0316
G1 X13.2609 Y-19.3379 Z1.0270
G1 X13.2814 Y-19.3539 Z1.0224
G1 X13.3021 Y-19.3696 Z1.0178
G1 X13.3230 Y-19.3851 Z1.0132
G1 X13.3306 Y-19.3907 Z1.0116
G1 X13.3383 Y-19.3963 Z1.0099
G1 X13.3460 Y-19.4019 Z1.0082
G1 X13.3538 Y-19.4074 Z1.0065
G1 X13.3615 Y-19.4129 Z1.0049
G1 X13.3693 Y-19.4184 Z1.0032
G1 X13.3771 Y-19.4238 Z1.0015
G1 X13.3849 Y-19.4292 Z0.9998
G1 X13.3928 Y-19.4346 Z0.9981
G1 X13.4006 Y-19.4400 Z0.9965
G1 X13.4085 Y-19.4453 Z0.9948
G1 X13.4164 Y-19.4506 Z0.9931
G1 X13.4243 Y-19.4559 Z0.9914
G1 X13.4322 Y-19.4611 Z0.9898
G1 X13.4402 Y-19.4663 Z0.9881
G1 X13.4482 Y-19.4715 Z0.9864
G1 X13.4562 Y-19.4767 Z0.9847
G1 X13.4642 Y-19.4818 Z0.9831
G1 X13.4722 Y-19.4869 Z0.9814
G1 X13.4803 Y-19.4919 Z0.9797
G1 X13.4883 Y-19.4970 Z0.9780
G1 X13.4964 Y-19.5020 Z0.9763
G1 X13.5045 Y-19.5069 Z0.9747
G1 X13.5127 Y-19.5119 Z0.9730
G1 X13.5208 Y-19.5168 Z0.9713
G1 X13.5290 Y-19.5217 Z0.9696
G1 X13.5372 Y-19.5265 Z0.9680
G1 X13.5454 Y-19.5314 Z0.9663
G1 X13.5536 Y-19.5361 Z0.9646
G1 X13.5618 Y-19.5409 Z0.9629
G1 X13.5297 Y-19.5093 Z0.9550
G1 X13.4971 Y-19.4783 Z0.9471
G1 X13.4640 Y-19.4478 Z0.9391
G1 X13.4303 Y-19.4180 Z0.9312
G1 X13.3961 Y-19.3887 Z0.9233
G1 X13.3614 Y-19.3601 Z0.9153
G1 X13.3262 Y-19.3321 Z0.9074
G1 X13.2904 Y-19.3047 Z0.8994
G1 X13.2543 Y-19.2779 Z0.8915
G1 X13.2176 Y-19.2518 Z0.8836
G1 X13.1805 Y-19.2263 Z0.8756
G1 X13.1429 Y-19.2015 Z0.8677
G1 X13.1050 Y-19.1774 Z0.8598
G1 X13.0666 Y-19.1539 Z0.8518
G1 X13.0277 Y-19.1311 Z0.8439
G1 X13.0462 Y-19.1494 Z0.8393
G1 X13.0648 Y-19.1675 Z0.8347
G1 X13.0836 Y-19.1855 Z0.8301
G1 X13.1026 Y-19.2032 Z0.8256
G1 X13.1218 Y-19.2207 Z0.8210
G1 X13.1411 Y-19.2381 Z0.8164
G1 X13.1607 Y-19.2552 Z0.8118
G1 X13.1804 Y-19.2722 Z0.8072
G1 X13.2002 Y-19.2889 Z0.8026
G1 X13.2203 Y-19.3055 Z0.7981
G1 X13.2405 Y-19.3218 Z0.7935
G1 X13.2609 Y-19.3379 Z0.7889
G1 X13.2814 Y-19.3539 Z0.7843
G1 X13.3021 Y-19.3696 Z0.7797
G1 X13.3230 Y-19.3851 Z0.7752
G1 X13.3306 Y-19.3907 Z0.7735
G1 X13.3383 Y-19.3963 Z0.7718
G1 X13.3460 Y-19.4019 Z0.7701
G1 X13.3538 Y-19.4074 Z0.7684
G1 X13.3615 Y-19.4129 Z0.7668
G1 X13.3693 Y-19.4184 Z0.7651
G1 X13.3771 Y-19.4238 Z0.7634
G1 X13.3849 Y-19.4292 Z0.7617
G1 X13.3928 Y-19.4346 Z0.7601
G1 X13.4006 Y-19.4400 Z0.7584
G1 X13.4085 Y-19.4453 Z0.7567
G1 X13.4164 Y-19.4506 Z0.7550
G1 X13.4243 Y-19.4559 Z0.7534
G1 X13.4322 Y-19.4611 Z0.7517
G1 X13.4402 Y-19.4663 Z0.7500
G3X13.5618Y-19.5409Z0.7500I1.3933J2.1357 F100.
G3X13.0277Y-19.1311Z0.7500I-1.8058J-1.8005
G3X13.3230Y-19.3851Z0.7500I1.8058J1.8005
G3X13.4402Y-19.4663Z0.7500I1.5105J2.0545
G1 X13.4419 Y-19.4637 Z0.7500
G1 X13.4536 Y-19.4573 Z0.7500
G1 X13.4645 Y-19.4584 Z0.7500
G1 X13.4852 Y-19.4766 Z0.7500
G1 X13.5263 Y-19.5312 Z0.7500
G1 X13.5376 Y-19.5394 Z0.7500
G1 X13.5495 Y-19.5420 Z0.7500
G1 X13.5619 Y-19.5383 Z0.7500
G1 X13.5722 Y-19.5298 Z0.7500
G1 X13.5777 Y-19.5187 Z0.7500
G1 X13.5759 Y-19.5069 Z0.7500
G1 X13.5569 Y-19.4842 Z0.7500
G3X13.0374Y-19.0551Z0.7500I-1.2954J-1.0393
G3X12.9487Y-19.1937Z0.7500I-0.0175J-0.0865
G3X13.3582Y-19.5920Z0.7500I1.6503J1.2876
G3X14.0477Y-19.9138Z0.7500I1.4753J2.2614
G3X12.7609Y-18.8353Z0.7500I-2.2917J-1.4276
G3X12.6730Y-18.9499Z0.7500I-0.0279J-0.0696
G3X13.2341Y-19.5059Z0.7500I2.1605J1.6193
G3X13.3582Y-19.5920Z0.7500I1.5994J2.1753
G0 Z1.9975
G0 X13.3582 Y-19.5920 
G0 Z1.9975
G0 X13.1602 Y-19.2549 
G1 X13.1602 Y-19.2549 Z0.8000 F75.
G1 X13.1607 Y-19.2552 Z0.7999 F50.
G1 X13.1804 Y-19.2722 Z0.7953
G1 X13.2002 Y-19.2889 Z0.7907
G1 X13.2203 Y-19.3055 Z0.7862
G1 X13.2405 Y-19.3218 Z0.7816
G1 X13.2609 Y-19.3379 Z0.7770
G1 X13.2814 Y-19.3539 Z0.7724
G1 X13.3021 Y-19.3696 Z0.7678
G1 X13.3230 Y-19.3851 Z0.7632
G1 X13.3306 Y-19.3907 Z0.7616
G1 X13.3383 Y-19.3963 Z0.7599
G1 X13.3460 Y-19.4019 Z0.7582
G1 X13.3538 Y-19.4074 Z0.7565
G1 X13.3615 Y-19.4129 Z0.7549
G1 X13.3693 Y-19.4184 Z0.7532
G1 X13.3771 Y-19.4238 Z0.7515
G1 X13.3849 Y-19.4292 Z0.7498
G1 X13.3928 Y-19.4346 Z0.7481
G1 X13.4006 Y-19.4400 Z0.7465
G1 X13.4085 Y-19.4453 Z0.7448
G1 X13.4164 Y-19.4506 Z0.7431
G1 X13.4243 Y-19.4559 Z0.7414
G1 X13.4322 Y-19.4611 Z0.7398
G1 X13.4402 Y-19.4663 Z0.7381
G1 X13.4482 Y-19.4715 Z0.7364
G1 X13.4562 Y-19.4767 Z0.7347
G1 X13.4642 Y-19.4818 Z0.7331
G1 X13.4722 Y-19.4869 Z0.7314
G1 X13.4803 Y-19.4919 Z0.7297
G1 X13.4883 Y-19.4970 Z0.7280
G1 X13.4964 Y-19.5020 Z0.7263
G1 X13.5045 Y-19.5069 Z0.7247
G1 X13.5127 Y-19.5119 Z0.7230
G1 X13.5208 Y-19.5168 Z0.7213
G1 X13.5290 Y-19.5217 Z0.7196
G1 X13.5372 Y-19.5265 Z0.7180
G1 X13.5454 Y-19.5314 Z0.7163
G1 X13.5536 Y-19.5361 Z0.7146
G1 X13.5618 Y-19.5409 Z0.7129
G1 X13.5297 Y-19.5093 Z0.7050
G1 X13.4971 Y-19.4783 Z0.6971
G1 X13.4640 Y-19.4478 Z0.6891
G1 X13.4303 Y-19.4180 Z0.6812
G1 X13.3961 Y-19.3887 Z0.6733
G1 X13.3614 Y-19.3601 Z0.6653
G1 X13.3262 Y-19.3321 Z0.6574
G1 X13.2904 Y-19.3047 Z0.6494
G1 X13.2543 Y-19.2779 Z0.6415
G1 X13.2176 Y-19.2518 Z0.6336
G1 X13.1805 Y-19.2263 Z0.6256
G1 X13.1429 Y-19.2015 Z0.6177
G1 X13.1050 Y-19.1774 Z0.6098
G1 X13.0666 Y-19.1539 Z0.6018
G1 X13.0277 Y-19.1311 Z0.5939
G1 X13.0462 Y-19.1494 Z0.5893
G1 X13.0648 Y-19.1675 Z0.5847
G1 X13.0836 Y-19.1855 Z0.5801
G1 X13.1026 Y-19.2032 Z0.5756
G1 X13.1218 Y-19.2207 Z0.5710
G1 X13.1411 Y-19.2381 Z0.5664
G1 X13.1607 Y-19.2552 Z0.5618
G1 X13.1804 Y-19.2722 Z0.5572
G1 X13.2002 Y-19.2889 Z0.5526
G1 X13.2203 Y-19.3055 Z0.5481
G1 X13.2405 Y-19.3218 Z0.5435
G1 X13.2609 Y-19.3379 Z0.5389
G1 X13.2814 Y-19.3539 Z0.5343
G1 X13.3021 Y-19.3696 Z0.5297
G1 X13.3230 Y-19.3851 Z0.5252
G1 X13.3306 Y-19.3907 Z0.5235
G1 X13.3383 Y-19.3963 Z0.5218
G1 X13.3460 Y-19.4019 Z0.5201
G1 X13.3538 Y-19.4074 Z0.5184
G1 X13.3615 Y-19.4129 Z0.5168
G1 X13.3693 Y-19.4184 Z0.5151
G1 X13.3771 Y-19.4238 Z0.5134
G1 X13.3849 Y-19.4292 Z0.5117
G1 X13.3928 Y-19.4346 Z0.5101
G1 X13.4006 Y-19.4400 Z0.5084
G1 X13.4085 Y-19.4453 Z0.5067
G1 X13.4164 Y-19.4506 Z0.5050
G1 X13.4243 Y-19.4559 Z0.5034
G1 X13.4322 Y-19.4611 Z0.5017
G1 X13.4402 Y-19.4663 Z0.5000
G3X13.5618Y-19.5409Z0.5000I1.3933J2.1357 F100.
G3X13.0277Y-19.1311Z0.5000I-1.8058J-1.8005
G3X13.3230Y-19.3851Z0.5000I1.8058J1.8005
G3X13.4402Y-19.4663Z0.5000I1.5105J2.0545
G1 X13.4419 Y-19.4637 Z0.5000
G1 X13.4536 Y-19.4573 Z0.5000
G1 X13.4645 Y-19.4584 Z0.5000
G1 X13.4852 Y-19.4766 Z0.5000
G1 X13.5263 Y-19.5312 Z0.5000
G1 X13.5376 Y-19.5394 Z0.5000
G1 X13.5495 Y-19.5420 Z0.5000
G1 X13.5619 Y-19.5383 Z0.5000
G1 X13.5722 Y-19.5298 Z0.5000
G1 X13.5777 Y-19.5187 Z0.5000
G1 X13.5759 Y-19.5069 Z0.5000
G1 X13.5569 Y-19.4842 Z0.5000
G1 X13.4104 Y-19.3344 Z0.5000
G3X13.0374Y-19.0551Z0.5000I-1.0289J-0.9857
G3X12.9487Y-19.1937Z0.5000I-0.0175J-0.0865
G1 X12.9783 Y-19.2366 Z0.5000
G1 X13.0490 Y-19.3129 Z0.5000
G3X13.3582Y-19.5920Z0.5000I2.7880J2.7788
G3X14.0477Y-19.9138Z0.5000I1.4753J2.2614
G3X12.7609Y-18.8353Z0.5000I-2.2917J-1.4276
G3X12.6730Y-18.9499Z0.5000I-0.0279J-0.0696
G3X13.2341Y-19.5059Z0.5000I2.1605J1.6193
G3X13.3582Y-19.5920Z0.5000I1.5994J2.1753
G0 Z1.9975
G0 X13.3582 Y-19.5920 
G0 Z1.9975
G0 X13.1602 Y-19.2549 
G1 X13.1602 Y-19.2549 Z0.5500 F75.
G1 X13.1607 Y-19.2552 Z0.5499 F50.
G1 X13.1804 Y-19.2722 Z0.5453
G1 X13.2002 Y-19.2889 Z0.5407
G1 X13.2203 Y-19.3055 Z0.5362
G1 X13.2405 Y-19.3218 Z0.5316
G1 X13.2609 Y-19.3379 Z0.5270
G1 X13.2814 Y-19.3539 Z0.5224
G1 X13.3021 Y-19.3696 Z0.5178
G1 X13.3230 Y-19.3851 Z0.5132
G1 X13.3306 Y-19.3907 Z0.5116
G1 X13.3383 Y-19.3963 Z0.5099
G1 X13.3460 Y-19.4019 Z0.5082
G1 X13.3538 Y-19.4074 Z0.5065
G1 X13.3615 Y-19.4129 Z0.5049
G1 X13.3693 Y-19.4184 Z0.5032
G1 X13.3771 Y-19.4238 Z0.5015
G1 X13.3849 Y-19.4292 Z0.4998
G1 X13.3928 Y-19.4346 Z0.4981
G1 X13.4006 Y-19.4400 Z0.4965
G1 X13.4085 Y-19.4453 Z0.4948
G1 X13.4164 Y-19.4506 Z0.4931
G1 X13.4243 Y-19.4559 Z0.4914
G1 X13.4322 Y-19.4611 Z0.4898
G1 X13.4402 Y-19.4663 Z0.4881
G1 X13.4482 Y-19.4715 Z0.4864
G1 X13.4562 Y-19.4767 Z0.4847
G1 X13.4642 Y-19.4818 Z0.4831
G1 X13.4722 Y-19.4869 Z0.4814
G1 X13.4803 Y-19.4919 Z0.4797
G1 X13.4883 Y-19.4970 Z0.4780
G1 X13.4964 Y-19.5020 Z0.4763
G1 X13.5045 Y-19.5069 Z0.4747
G1 X13.5127 Y-19.5119 Z0.4730
G1 X13.5208 Y-19.5168 Z0.4713
G1 X13.5290 Y-19.5217 Z0.4696
G1 X13.5372 Y-19.5265 Z0.4680
G1 X13.5454 Y-19.5314 Z0.4663
G1 X13.5536 Y-19.5361 Z0.4646
G1 X13.5618 Y-19.5409 Z0.4629
G1 X13.5297 Y-19.5093 Z0.4550
G1 X13.4971 Y-19.4783 Z0.4471
G1 X13.4640 Y-19.4478 Z0.4391
G1 X13.4303 Y-19.4180 Z0.4312
G1 X13.3961 Y-19.3887 Z0.4233
G1 X13.3614 Y-19.3601 Z0.4153
G1 X13.3262 Y-19.3321 Z0.4074
G1 X13.2904 Y-19.3047 Z0.3994
G1 X13.2543 Y-19.2779 Z0.3915
G1 X13.2176 Y-19.2518 Z0.3836
G1 X13.1805 Y-19.2263 Z0.3756
G1 X13.1429 Y-19.2015 Z0.3677
G1 X13.1050 Y-19.1774 Z0.3598
G1 X13.0666 Y-19.1539 Z0.3518
G1 X13.0277 Y-19.1311 Z0.3439
G1 X13.0462 Y-19.1494 Z0.3393
G1 X13.0648 Y-19.1675 Z0.3347
G1 X13.0836 Y-19.1855 Z0.3301
G1 X13.1026 Y-19.2032 Z0.3256
G1 X13.1218 Y-19.2207 Z0.3210
G1 X13.1411 Y-19.2381 Z0.3164
G1 X13.1607 Y-19.2552 Z0.3118
G1 X13.1804 Y-19.2722 Z0.3072
G1 X13.2002 Y-19.2889 Z0.3026
G1 X13.2203 Y-19.3055 Z0.2981
G1 X13.2405 Y-19.3218 Z0.2935
G1 X13.2609 Y-19.3379 Z0.2889
G1 X13.2814 Y-19.3539 Z0.2843
G1 X13.3021 Y-19.3696 Z0.2797
G1 X13.3230 Y-19.3851 Z0.2752
G1 X13.3306 Y-19.3907 Z0.2735
G1 X13.3383 Y-19.3963 Z0.2718
G1 X13.3460 Y-19.4019 Z0.2701
G1 X13.3538 Y-19.4074 Z0.2684
G1 X13.3615 Y-19.4129 Z0.2668
G1 X13.3693 Y-19.4184 Z0.2651
G1 X13.3771 Y-19.4238 Z0.2634
G1 X13.3849 Y-19.4292 Z0.2617
G1 X13.3928 Y-19.4346 Z0.2601
G1 X13.4006 Y-19.4400 Z0.2584
G1 X13.4085 Y-19.4453 Z0.2567
G1 X13.4164 Y-19.4506 Z0.2550
G1 X13.4243 Y-19.4559 Z0.2534
G1 X13.4322 Y-19.4611 Z0.2517
G1 X13.4402 Y-19.4663 Z0.2500
G3X13.5618Y-19.5409Z0.2500I1.3933J2.1357 F100.
G3X13.0277Y-19.1311Z0.2500I-1.8058J-1.8005
G3X13.3230Y-19.3851Z0.2500I1.8058J1.8005
G3X13.4402Y-19.4663Z0.2500I1.5105J2.0545
G1 X13.4419 Y-19.4637 Z0.2500
G1 X13.4536 Y-19.4573 Z0.2500
G1 X13.4645 Y-19.4584 Z0.2500
G1 X13.4852 Y-19.4766 Z0.2500
G1 X13.5263 Y-19.5312 Z0.2500
G1 X13.5376 Y-19.5394 Z0.2500
G1 X13.5495 Y-19.5420 Z0.2500
G1 X13.5619 Y-19.5383 Z0.2500
G1 X13.5722 Y-19.5298 Z0.2500
G1 X13.5777 Y-19.5187 Z0.2500
G1 X13.5759 Y-19.5069 Z0.2500
G1 X13.5569 Y-19.4842 Z0.2500
G3X13.0374Y-19.0551Z0.2500I-1.2954J-1.0393
G1 X13.0113 Y-19.0536 Z0.2500
G3X12.9783Y-19.2366Z0.2500I0.0183J-0.0978
G3X13.3582Y-19.5920Z0.2500I2.5892J2.3874
G3X14.0477Y-19.9138Z0.2500I1.4753J2.2614
G3X12.7609Y-18.8353Z0.2500I-2.2917J-1.4276
G3X12.6730Y-18.9499Z0.2500I-0.0279J-0.0696
G3X13.2341Y-19.5059Z0.2500I2.1605J1.6193
G3X13.3582Y-19.5920Z0.2500I1.5994J2.1753
G0 Z4.0000
G0 X13.3582 Y-19.5920 
M5
G53 Z
( MOP:  top-jack-pocket-front-01 )
( FILE: G:\Shared drives\AlloyProjectFiles\Customer CAD files\Alloy-Standard-Builds-CAM\s-in\Control\top-jack-pocket-front-01.nc)
G90
(  BEGIN TOOL LIST )
(  TOOL 4 - Downcut PT500 - DESC: 0.5000 DIA, 2 FLUTE,  CARBIDE MAT )
(  ENDOF TOOL LIST )
( top-jack-pocket-front-01)
T04
S12000
M3
G0 Z4.0000
G0 X29.0501 Y-19.5341 
G1 X29.0501 Y-19.5341 Z1.8000 F75.
G1 X29.0618 Y-19.5409 Z1.7976 F50.
G1 X29.0458 Y-19.5250 Z1.7936
G1 X29.0297 Y-19.5093 Z1.7897
G1 X29.0135 Y-19.4937 Z1.7857
G1 X28.9971 Y-19.4783 Z1.7817
G1 X28.9806 Y-19.4630 Z1.7778
G1 X28.9640 Y-19.4478 Z1.7738
G1 X28.9472 Y-19.4328 Z1.7698
G1 X28.9303 Y-19.4180 Z1.7659
G1 X28.9133 Y-19.4033 Z1.7619
G1 X28.8961 Y-19.3887 Z1.7579
G1 X28.8788 Y-19.3743 Z1.7540
G1 X28.8614 Y-19.3601 Z1.7500
G1 X28.8438 Y-19.3460 Z1.7460
G1 X28.8262 Y-19.3321 Z1.7421
G1 X28.8084 Y-19.3183 Z1.7381
G1 X28.7904 Y-19.3047 Z1.7341
G1 X28.7724 Y-19.2912 Z1.7302
G1 X28.7543 Y-19.2779 Z1.7262
G1 X28.7360 Y-19.2648 Z1.7222
G1 X28.7176 Y-19.2518 Z1.7182
G1 X28.6991 Y-19.2390 Z1.7143
G1 X28.6805 Y-19.2263 Z1.7103
G1 X28.6618 Y-19.2138 Z1.7063
G1 X28.6429 Y-19.2015 Z1.7024
G1 X28.6240 Y-19.1894 Z1.6984
G1 X28.6050 Y-19.1774 Z1.6944
G1 X28.5858 Y-19.1655 Z1.6905
G1 X28.5666 Y-19.1539 Z1.6865
G1 X28.5472 Y-19.1424 Z1.6825
G1 X28.5277 Y-19.1311 Z1.6786
G1 X28.5462 Y-19.1494 Z1.6740
G1 X28.5648 Y-19.1675 Z1.6694
G1 X28.5836 Y-19.1855 Z1.6648
G1 X28.6026 Y-19.2032 Z1.6602
G1 X28.6218 Y-19.2207 Z1.6557
G1 X28.6411 Y-19.2381 Z1.6511
G1 X28.6607 Y-19.2552 Z1.6465
G1 X28.6804 Y-19.2722 Z1.6419
G1 X28.7002 Y-19.2889 Z1.6373
G1 X28.7203 Y-19.3055 Z1.6327
G1 X28.7405 Y-19.3218 Z1.6282
G1 X28.7609 Y-19.3379 Z1.6236
G1 X28.7814 Y-19.3539 Z1.6190
G1 X28.8021 Y-19.3696 Z1.6144
G1 X28.8230 Y-19.3851 Z1.6098
G1 X28.8383 Y-19.3963 Z1.6065
G1 X28.8538 Y-19.4074 Z1.6031
G1 X28.8693 Y-19.4184 Z1.5998
G1 X28.8849 Y-19.4292 Z1.5964
G1 X28.9006 Y-19.4400 Z1.5931
G1 X28.9164 Y-19.4506 Z1.5897
G1 X28.9322 Y-19.4611 Z1.5864
G1 X28.9482 Y-19.4715 Z1.5830
G1 X28.9642 Y-19.4818 Z1.5796
G1 X28.9803 Y-19.4919 Z1.5763
G1 X28.9964 Y-19.5020 Z1.5729
G1 X29.0127 Y-19.5119 Z1.5696
G1 X29.0290 Y-19.5217 Z1.5662
G1 X29.0454 Y-19.5314 Z1.5629
G1 X29.0618 Y-19.5409 Z1.5595
G1 X29.0458 Y-19.5250 Z1.5556
G1 X29.0297 Y-19.5093 Z1.5516
G1 X29.0135 Y-19.4937 Z1.5476
G1 X28.9971 Y-19.4783 Z1.5436
G1 X28.9806 Y-19.4630 Z1.5397
G1 X28.9640 Y-19.4478 Z1.5357
G1 X28.9472 Y-19.4328 Z1.5317
G1 X28.9303 Y-19.4180 Z1.5278
G1 X28.9133 Y-19.4033 Z1.5238
G1 X28.8961 Y-19.3887 Z1.5198
G1 X28.8788 Y-19.3743 Z1.5159
G1 X28.8614 Y-19.3601 Z1.5119
G1 X28.8438 Y-19.3460 Z1.5079
G1 X28.8262 Y-19.3321 Z1.5040
G1 X28.8084 Y-19.3183 Z1.5000
G17
G3X28.5277Y-19.1311Z1.5000I-1.5524J-2.0231 F100.
G3X28.8230Y-19.3851Z1.5000I1.8058J1.8005
G3X29.0618Y-19.5409Z1.5000I1.5105J2.0545
G3X28.8084Y-19.3183Z1.5000I-1.8058J-1.8005
G1 X28.8064 Y-19.3208 Z1.5000
G1 X28.7230 Y-19.2508 Z1.5000
G1 X28.6368 Y-19.1842 Z1.5000
G1 X28.5933 Y-19.1518 Z1.5000
G1 X28.5732 Y-19.1345 Z1.5000
G1 X28.5480 Y-19.1215 Z1.5000
G1 X28.5180 Y-19.1192 Z1.5000
G1 X28.5065 Y-19.1243 Z1.5000
G1 X28.5005 Y-19.1344 Z1.5000
G1 X28.5030 Y-19.1637 Z1.5000
G1 X28.5164 Y-19.1901 Z1.5000
G1 X28.5902 Y-19.2688 Z1.5000
G1 X28.6676 Y-19.3452 Z1.5000
G1 X28.7483 Y-19.4184 Z1.5000
G1 X28.8327 Y-19.4872 Z1.5000
G1 X28.9194 Y-19.5530 Z1.5000
G1 X29.0090 Y-19.6150 Z1.5000
G1 X29.0337 Y-19.6264 Z1.5000
G1 X29.0604 Y-19.6328 Z1.5000
G1 X29.0880 Y-19.6324 Z1.5000
G1 X29.1140 Y-19.6240 Z1.5000
G1 X29.1364 Y-19.6080 Z1.5000
G3X29.1274Y-19.4341Z1.5000I-0.0922J0.0824
G1 X29.0541 Y-19.3536 Z1.5000
G1 X28.8966 Y-19.2033 Z1.5000
G1 X28.8997 Y-19.1993 Z1.5000
G3X28.2609Y-18.8353Z1.5000I-1.6437J-2.1421
G3X28.1730Y-18.9499Z1.5000I-0.0279J-0.0696
G3X28.7341Y-19.5059Z1.5000I2.1605J1.6193
G3X29.5477Y-19.9138Z1.5000I1.5994J2.1753
G3X28.8997Y-19.1993Z1.5000I-2.2917J-1.4276
G0 Z1.9975
G0 X28.8997 Y-19.1993 
G0 Z1.9975
G0 X29.0501 Y-19.5341 
G1 X29.0501 Y-19.5341 Z1.5500 F75.
G1 X29.0618 Y-19.5409 Z1.5476 F50.
G1 X29.0458 Y-19.5250 Z1.5436
G1 X29.0297 Y-19.5093 Z1.5397
G1 X29.0135 Y-19.4937 Z1.5357
G1 X28.9971 Y-19.4783 Z1.5317
G1 X28.9806 Y-19.4630 Z1.5278
G1 X28.9640 Y-19.4478 Z1.5238
G1 X28.9472 Y-19.4328 Z1.5198
G1 X28.9303 Y-19.4180 Z1.5159
G1 X28.9133 Y-19.4033 Z1.5119
G1 X28.8961 Y-19.3887 Z1.5079
G1 X28.8788 Y-19.3743 Z1.5040
G1 X28.8614 Y-19.3601 Z1.5000
G1 X28.8438 Y-19.3460 Z1.4960
G1 X28.8262 Y-19.3321 Z1.4921
G1 X28.8084 Y-19.3183 Z1.4881
G1 X28.7904 Y-19.3047 Z1.4841
G1 X28.7724 Y-19.2912 Z1.4802
G1 X28.7543 Y-19.2779 Z1.4762
G1 X28.7360 Y-19.2648 Z1.4722
G1 X28.7176 Y-19.2518 Z1.4682
G1 X28.6991 Y-19.2390 Z1.4643
G1 X28.6805 Y-19.2263 Z1.4603
G1 X28.6618 Y-19.2138 Z1.4563
G1 X28.6429 Y-19.2015 Z1.4524
G1 X28.6240 Y-19.1894 Z1.4484
G1 X28.6050 Y-19.1774 Z1.4444
G1 X28.5858 Y-19.1655 Z1.4405
G1 X28.5666 Y-19.1539 Z1.4365
G1 X28.5472 Y-19.1424 Z1.4325
G1 X28.5277 Y-19.1311 Z1.4286
G1 X28.5462 Y-19.1494 Z1.4240
G1 X28.5648 Y-19.1675 Z1.4194
G1 X28.5836 Y-19.1855 Z1.4148
G1 X28.6026 Y-19.2032 Z1.4102
G1 X28.6218 Y-19.2207 Z1.4057
G1 X28.6411 Y-19.2381 Z1.4011
G1 X28.6607 Y-19.2552 Z1.3965
G1 X28.6804 Y-19.2722 Z1.3919
G1 X28.7002 Y-19.2889 Z1.3873
G1 X28.7203 Y-19.3055 Z1.3827
G1 X28.7405 Y-19.3218 Z1.3782
G1 X28.7609 Y-19.3379 Z1.3736
G1 X28.7814 Y-19.3539 Z1.3690
G1 X28.8021 Y-19.3696 Z1.3644
G1 X28.8230 Y-19.3851 Z1.3598
G1 X28.8383 Y-19.3963 Z1.3565
G1 X28.8538 Y-19.4074 Z1.3531
G1 X28.8693 Y-19.4184 Z1.3498
G1 X28.8849 Y-19.4292 Z1.3464
G1 X28.9006 Y-19.4400 Z1.3431
G1 X28.9164 Y-19.4506 Z1.3397
G1 X28.9322 Y-19.4611 Z1.3364
G1 X28.9482 Y-19.4715 Z1.3330
G1 X28.9642 Y-19.4818 Z1.3296
G1 X28.9803 Y-19.4919 Z1.3263
G1 X28.9964 Y-19.5020 Z1.3229
G1 X29.0127 Y-19.5119 Z1.3196
G1 X29.0290 Y-19.5217 Z1.3162
G1 X29.0454 Y-19.5314 Z1.3129
G1 X29.0618 Y-19.5409 Z1.3095
G1 X29.0458 Y-19.5250 Z1.3056
G1 X29.0297 Y-19.5093 Z1.3016
G1 X29.0135 Y-19.4937 Z1.2976
G1 X28.9971 Y-19.4783 Z1.2936
G1 X28.9806 Y-19.4630 Z1.2897
G1 X28.9640 Y-19.4478 Z1.2857
G1 X28.9472 Y-19.4328 Z1.2817
G1 X28.9303 Y-19.4180 Z1.2778
G1 X28.9133 Y-19.4033 Z1.2738
G1 X28.8961 Y-19.3887 Z1.2698
G1 X28.8788 Y-19.3743 Z1.2659
G1 X28.8614 Y-19.3601 Z1.2619
G1 X28.8438 Y-19.3460 Z1.2579
G1 X28.8262 Y-19.3321 Z1.2540
G1 X28.8084 Y-19.3183 Z1.2500
G3X28.5277Y-19.1311Z1.2500I-1.5524J-2.0231 F100.
G3X28.8230Y-19.3851Z1.2500I1.8058J1.8005
G3X29.0618Y-19.5409Z1.2500I1.5105J2.0545
G3X28.8084Y-19.3183Z1.2500I-1.8058J-1.8005
G1 X28.8064 Y-19.3208 Z1.2500
G1 X28.7230 Y-19.2508 Z1.2500
G1 X28.6368 Y-19.1842 Z1.2500
G1 X28.5933 Y-19.1518 Z1.2500
G1 X28.5732 Y-19.1345 Z1.2500
G1 X28.5480 Y-19.1215 Z1.2500
G1 X28.5180 Y-19.1192 Z1.2500
G1 X28.5065 Y-19.1243 Z1.2500
G1 X28.5005 Y-19.1344 Z1.2500
G1 X28.5030 Y-19.1637 Z1.2500
G1 X28.5164 Y-19.1901 Z1.2500
G1 X28.5902 Y-19.2688 Z1.2500
G1 X28.6676 Y-19.3452 Z1.2500
G1 X28.7483 Y-19.4184 Z1.2500
G1 X28.8327 Y-19.4872 Z1.2500
G1 X28.9194 Y-19.5530 Z1.2500
G1 X29.0090 Y-19.6150 Z1.2500
G1 X29.0337 Y-19.6264 Z1.2500
G1 X29.0604 Y-19.6328 Z1.2500
G1 X29.0880 Y-19.6324 Z1.2500
G3X29.1274Y-19.4341Z1.2500I-0.0313J0.1092
G1 X29.0541 Y-19.3536 Z1.2500
G1 X28.8966 Y-19.2033 Z1.2500
G1 X28.8997 Y-19.1993 Z1.2500
G3X28.2609Y-18.8353Z1.2500I-1.6437J-2.1421
G3X28.1730Y-18.9499Z1.2500I-0.0279J-0.0696
G3X28.7341Y-19.5059Z1.2500I2.1605J1.6193
G3X29.5477Y-19.9138Z1.2500I1.5994J2.1753
G3X28.8997Y-19.1993Z1.2500I-2.2917J-1.4276
G0 Z1.9975
G0 X28.8997 Y-19.1993 
G0 Z1.9975
G0 X29.0501 Y-19.5341 
G1 X29.0501 Y-19.5341 Z1.3000 F75.
G1 X29.0618 Y-19.5409 Z1.2976 F50.
G1 X29.0458 Y-19.5250 Z1.2936
G1 X29.0297 Y-19.5093 Z1.2897
G1 X29.0135 Y-19.4937 Z1.2857
G1 X28.9971 Y-19.4783 Z1.2817
G1 X28.9806 Y-19.4630 Z1.2778
G1 X28.9640 Y-19.4478 Z1.2738
G1 X28.9472 Y-19.4328 Z1.2698
G1 X28.9303 Y-19.4180 Z1.2659
G1 X28.9133 Y-19.4033 Z1.2619
G1 X28.8961 Y-19.3887 Z1.2579
G1 X28.8788 Y-19.3743 Z1.2540
G1 X28.8614 Y-19.3601 Z1.2500
G1 X28.8438 Y-19.3460 Z1.2460
G1 X28.8262 Y-19.3321 Z1.2421
G1 X28.8084 Y-19.3183 Z1.2381
G1 X28.7904 Y-19.3047 Z1.2341
G1 X28.7724 Y-19.2912 Z1.2302
G1 X28.7543 Y-19.2779 Z1.2262
G1 X28.7360 Y-19.2648 Z1.2222
G1 X28.7176 Y-19.2518 Z1.2182
G1 X28.6991 Y-19.2390 Z1.2143
G1 X28.6805 Y-19.2263 Z1.2103
G1 X28.6618 Y-19.2138 Z1.2063
G1 X28.6429 Y-19.2015 Z1.2024
G1 X28.6240 Y-19.1894 Z1.1984
G1 X28.6050 Y-19.1774 Z1.1944
G1 X28.5858 Y-19.1655 Z1.1905
G1 X28.5666 Y-19.1539 Z1.1865
G1 X28.5472 Y-19.1424 Z1.1825
G1 X28.5277 Y-19.1311 Z1.1786
G1 X28.5462 Y-19.1494 Z1.1740
G1 X28.5648 Y-19.1675 Z1.1694
G1 X28.5836 Y-19.1855 Z1.1648
G1 X28.6026 Y-19.2032 Z1.1602
G1 X28.6218 Y-19.2207 Z1.1557
G1 X28.6411 Y-19.2381 Z1.1511
G1 X28.6607 Y-19.2552 Z1.1465
G1 X28.6804 Y-19.2722 Z1.1419
G1 X28.7002 Y-19.2889 Z1.1373
G1 X28.7203 Y-19.3055 Z1.1327
G1 X28.7405 Y-19.3218 Z1.1282
G1 X28.7609 Y-19.3379 Z1.1236
G1 X28.7814 Y-19.3539 Z1.1190
G1 X28.8021 Y-19.3696 Z1.1144
G1 X28.8230 Y-19.3851 Z1.1098
G1 X28.8383 Y-19.3963 Z1.1065
G1 X28.8538 Y-19.4074 Z1.1031
G1 X28.8693 Y-19.4184 Z1.0998
G1 X28.8849 Y-19.4292 Z1.0964
G1 X28.9006 Y-19.4400 Z1.0931
G1 X28.9164 Y-19.4506 Z1.0897
G1 X28.9322 Y-19.4611 Z1.0864
G1 X28.9482 Y-19.4715 Z1.0830
G1 X28.9642 Y-19.4818 Z1.0796
G1 X28.9803 Y-19.4919 Z1.0763
G1 X28.9964 Y-19.5020 Z1.0729
G1 X29.0127 Y-19.5119 Z1.0696
G1 X29.0290 Y-19.5217 Z1.0662
G1 X29.0454 Y-19.5314 Z1.0629
G1 X29.0618 Y-19.5409 Z1.0595
G1 X29.0458 Y-19.5250 Z1.0556
G1 X29.0297 Y-19.5093 Z1.0516
G1 X29.0135 Y-19.4937 Z1.0476
G1 X28.9971 Y-19.4783 Z1.0436
G1 X28.9806 Y-19.4630 Z1.0397
G1 X28.9640 Y-19.4478 Z1.0357
G1 X28.9472 Y-19.4328 Z1.0317
G1 X28.9303 Y-19.4180 Z1.0278
G1 X28.9133 Y-19.4033 Z1.0238
G1 X28.8961 Y-19.3887 Z1.0198
G1 X28.8788 Y-19.3743 Z1.0159
G1 X28.8614 Y-19.3601 Z1.0119
G1 X28.8438 Y-19.3460 Z1.0079
G1 X28.8262 Y-19.3321 Z1.0040
G1 X28.8084 Y-19.3183 Z1.0000
G3X28.5277Y-19.1311Z1.0000I-1.5524J-2.0231 F100.
G3X28.8230Y-19.3851Z1.0000I1.8058J1.8005
G3X29.0618Y-19.5409Z1.0000I1.5105J2.0545
G3X28.8084Y-19.3183Z1.0000I-1.8058J-1.8005
G1 X28.8064 Y-19.3208 Z1.0000
G1 X28.7230 Y-19.2508 Z1.0000
G2X28.5732Y-19.1345Z1.0000I10.9186J14.2181
G3X28.5164Y-19.1901Z1.0000I-0.0370J-0.0189
G1 X28.5902 Y-19.2688 Z1.0000
G1 X28.6676 Y-19.3452 Z1.0000
G1 X28.7483 Y-19.4184 Z1.0000
G1 X28.8327 Y-19.4872 Z1.0000
G1 X28.9194 Y-19.5530 Z1.0000
G1 X29.0090 Y-19.6150 Z1.0000
G1 X29.0337 Y-19.6264 Z1.0000
G3X29.1274Y-19.4341Z1.0000I0.0319J0.1034
G1 X29.0541 Y-19.3536 Z1.0000
G1 X28.8966 Y-19.2033 Z1.0000
G1 X28.8997 Y-19.1993 Z1.0000
G3X28.2609Y-18.8353Z1.0000I-1.6437J-2.1421
G3X28.1730Y-18.9499Z1.0000I-0.0279J-0.0696
G3X28.7341Y-19.5059Z1.0000I2.1605J1.6193
G3X29.5477Y-19.9138Z1.0000I1.5994J2.1753
G3X28.8997Y-19.1993Z1.0000I-2.2917J-1.4276
G0 Z1.9975
G0 X28.8997 Y-19.1993 
G0 Z1.9975
G0 X28.6602 Y-19.2549 
G1 X28.6602 Y-19.2549 Z1.0500 F75.
G1 X28.6607 Y-19.2552 Z1.0499 F50.
G1 X28.6804 Y-19.2722 Z1.0453
G1 X28.7002 Y-19.2889 Z1.0407
G1 X28.7203 Y-19.3055 Z1.0362
G1 X28.7405 Y-19.3218 Z1.0316
G1 X28.7609 Y-19.3379 Z1.0270
G1 X28.7814 Y-19.3539 Z1.0224
G1 X28.8021 Y-19.3696 Z1.0178
G1 X28.8230 Y-19.3851 Z1.0132
G1 X28.8306 Y-19.3907 Z1.0116
G1 X28.8383 Y-19.3963 Z1.0099
G1 X28.8460 Y-19.4019 Z1.0082
G1 X28.8538 Y-19.4074 Z1.0065
G1 X28.8615 Y-19.4129 Z1.0049
G1 X28.8693 Y-19.4184 Z1.0032
G1 X28.8771 Y-19.4238 Z1.0015
G1 X28.8849 Y-19.4292 Z0.9998
G1 X28.8928 Y-19.4346 Z0.9981
G1 X28.9006 Y-19.4400 Z0.9965
G1 X28.9085 Y-19.4453 Z0.9948
G1 X28.9164 Y-19.4506 Z0.9931
G1 X28.9243 Y-19.4559 Z0.9914
G1 X28.9322 Y-19.4611 Z0.9898
G1 X28.9402 Y-19.4663 Z0.9881
G1 X28.9482 Y-19.4715 Z0.9864
G1 X28.9562 Y-19.4767 Z0.9847
G1 X28.9642 Y-19.4818 Z0.9831
G1 X28.9722 Y-19.4869 Z0.9814
G1 X28.9803 Y-19.4919 Z0.9797
G1 X28.9883 Y-19.4970 Z0.9780
G1 X28.9964 Y-19.5020 Z0.9763
G1 X29.0045 Y-19.5069 Z0.9747
G1 X29.0127 Y-19.5119 Z0.9730
G1 X29.0208 Y-19.5168 Z0.9713
G1 X29.0290 Y-19.5217 Z0.9696
G1 X29.0372 Y-19.5265 Z0.9680
G1 X29.0454 Y-19.5314 Z0.9663
G1 X29.0536 Y-19.5361 Z0.9646
G1 X29.0618 Y-19.5409 Z0.9629
G1 X29.0297 Y-19.5093 Z0.9550
G1 X28.9971 Y-19.4783 Z0.9471
G1 X28.9640 Y-19.4478 Z0.9391
G1 X28.9303 Y-19.4180 Z0.9312
G1 X28.8961 Y-19.3887 Z0.9233
G1 X28.8614 Y-19.3601 Z0.9153
G1 X28.8262 Y-19.3321 Z0.9074
G1 X28.7904 Y-19.3047 Z0.8994
G1 X28.7543 Y-19.2779 Z0.8915
G1 X28.7176 Y-19.2518 Z0.8836
G1 X28.6805 Y-19.2263 Z0.8756
G1 X28.6429 Y-19.2015 Z0.8677
G1 X28.6050 Y-19.1774 Z0.8598
G1 X28.5666 Y-19.1539 Z0.8518
G1 X28.5277 Y-19.1311 Z0.8439
G1 X28.5462 Y-19.1494 Z0.8393
G1 X28.5648 Y-19.1675 Z0.8347
G1 X28.5836 Y-19.1855 Z0.8301
G1 X28.6026 Y-19.2032 Z0.8256
G1 X28.6218 Y-19.2207 Z0.8210
G1 X28.6411 Y-19.2381 Z0.8164
G1 X28.6607 Y-19.2552 Z0.8118
G1 X28.6804 Y-19.2722 Z0.8072
G1 X28.7002 Y-19.2889 Z0.8026
G1 X28.7203 Y-19.3055 Z0.7981
G1 X28.7405 Y-19.3218 Z0.7935
G1 X28.7609 Y-19.3379 Z0.7889
G1 X28.7814 Y-19.3539 Z0.7843
G1 X28.8021 Y-19.3696 Z0.7797
G1 X28.8230 Y-19.3851 Z0.7752
G1 X28.8306 Y-19.3907 Z0.7735
G1 X28.8383 Y-19.3963 Z0.7718
G1 X28.8460 Y-19.4019 Z0.7701
G1 X28.8538 Y-19.4074 Z0.7684
G1 X28.8615 Y-19.4129 Z0.7668
G1 X28.8693 Y-19.4184 Z0.7651
G1 X28.8771 Y-19.4238 Z0.7634
G1 X28.8849 Y-19.4292 Z0.7617
G1 X28.8928 Y-19.4346 Z0.7601
G1 X28.9006 Y-19.4400 Z0.7584
G1 X28.9085 Y-19.4453 Z0.7567
G1 X28.9164 Y-19.4506 Z0.7550
G1 X28.9243 Y-19.4559 Z0.7534
G1 X28.9322 Y-19.4611 Z0.7517
G1 X28.9402 Y-19.4663 Z0.7500
G3X29.0618Y-19.5409Z0.7500I1.3933J2.1357 F100.
G3X28.5277Y-19.1311Z0.7500I-1.8058J-1.8005
G3X28.8230Y-19.3851Z0.7500I1.8058J1.8005
G3X28.9402Y-19.4663Z0.7500I1.5105J2.0545
G1 X28.9419 Y-19.4637 Z0.7500
G1 X28.9536 Y-19.4573 Z0.7500
G1 X28.9645 Y-19.4584 Z0.7500
G1 X28.9852 Y-19.4766 Z0.7500
G1 X29.0263 Y-19.5312 Z0.7500
G1 X29.0376 Y-19.5394 Z0.7500
G1 X29.0495 Y-19.5420 Z0.7500
G1 X29.0619 Y-19.5383 Z0.7500
G1 X29.0722 Y-19.5298 Z0.7500
G1 X29.0777 Y-19.5187 Z0.7500
G1 X29.0759 Y-19.5069 Z0.7500
G1 X29.0569 Y-19.4842 Z0.7500
G3X28.5374Y-19.0551Z0.7500I-1.2954J-1.0393
G3X28.4487Y-19.1937Z0.7500I-0.0175J-0.0865
G3X28.8582Y-19.5920Z0.7500I1.6503J1.2876
G3X29.5477Y-19.9138Z0.7500I1.4753J2.2614
G3X28.2609Y-18.8353Z0.7500I-2.2917J-1.4276
G3X28.1730Y-18.9499Z0.7500I-0.0279J-0.0696
G3X28.7341Y-19.5059Z0.7500I2.1605J1.6193
G3X28.8582Y-19.5920Z0.7500I1.5994J2.1753
G0 Z1.9975
G0 X28.8582 Y-19.5920 
G0 Z1.9975
G0 X28.6602 Y-19.2549 
G1 X28.6602 Y-19.2549 Z0.8000 F75.
G1 X28.6607 Y-19.2552 Z0.7999 F50.
G1 X28.6804 Y-19.2722 Z0.7953
G1 X28.7002 Y-19.2889 Z0.7907
G1 X28.7203 Y-19.3055 Z0.7862
G1 X28.7405 Y-19.3218 Z0.7816
G1 X28.7609 Y-19.3379 Z0.7770
G1 X28.7814 Y-19.3539 Z0.7724
G1 X28.8021 Y-19.3696 Z0.7678
G1 X28.8230 Y-19.3851 Z0.7632
G1 X28.8306 Y-19.3907 Z0.7616
G1 X28.8383 Y-19.3963 Z0.7599
G1 X28.8460 Y-19.4019 Z0.7582
G1 X28.8538 Y-19.4074 Z0.7565
G1 X28.8615 Y-19.4129 Z0.7549
G1 X28.8693 Y-19.4184 Z0.7532
G1 X28.8771 Y-19.4238 Z0.7515
G1 X28.8849 Y-19.4292 Z0.7498
G1 X28.8928 Y-19.4346 Z0.7481
G1 X28.9006 Y-19.4400 Z0.7465
G1 X28.9085 Y-19.4453 Z0.7448
G1 X28.9164 Y-19.4506 Z0.7431
G1 X28.9243 Y-19.4559 Z0.7414
G1 X28.9322 Y-19.4611 Z0.7398
G1 X28.9402 Y-19.4663 Z0.7381
G1 X28.9482 Y-19.4715 Z0.7364
G1 X28.9562 Y-19.4767 Z0.7347
G1 X28.9642 Y-19.4818 Z0.7331
G1 X28.9722 Y-19.4869 Z0.7314
G1 X28.9803 Y-19.4919 Z0.7297
G1 X28.9883 Y-19.4970 Z0.7280
G1 X28.9964 Y-19.5020 Z0.7263
G1 X29.0045 Y-19.5069 Z0.7247
G1 X29.0127 Y-19.5119 Z0.7230
G1 X29.0208 Y-19.5168 Z0.7213
G1 X29.0290 Y-19.5217 Z0.7196
G1 X29.0372 Y-19.5265 Z0.7180
G1 X29.0454 Y-19.5314 Z0.7163
G1 X29.0536 Y-19.5361 Z0.7146
G1 X29.0618 Y-19.5409 Z0.7129
G1 X29.0297 Y-19.5093 Z0.7050
G1 X28.9971 Y-19.4783 Z0.6971
G1 X28.9640 Y-19.4478 Z0.6891
G1 X28.9303 Y-19.4180 Z0.6812
G1 X28.8961 Y-19.3887 Z0.6733
G1 X28.8614 Y-19.3601 Z0.6653
G1 X28.8262 Y-19.3321 Z0.6574
G1 X28.7904 Y-19.3047 Z0.6494
G1 X28.7543 Y-19.2779 Z0.6415
G1 X28.7176 Y-19.2518 Z0.6336
G1 X28.6805 Y-19.2263 Z0.6256
G1 X28.6429 Y-19.2015 Z0.6177
G1 X28.6050 Y-19.1774 Z0.6098
G1 X28.5666 Y-19.1539 Z0.6018
G1 X28.5277 Y-19.1311 Z0.5939
G1 X28.5462 Y-19.1494 Z0.5893
G1 X28.5648 Y-19.1675 Z0.5847
G1 X28.5836 Y-19.1855 Z0.5801
G1 X28.6026 Y-19.2032 Z0.5756
G1 X28.6218 Y-19.2207 Z0.5710
G1 X28.6411 Y-19.2381 Z0.5664
G1 X28.6607 Y-19.2552 Z0.5618
G1 X28.6804 Y-19.2722 Z0.5572
G1 X28.7002 Y-19.2889 Z0.5526
G1 X28.7203 Y-19.3055 Z0.5481
G1 X28.7405 Y-19.3218 Z0.5435
G1 X28.7609 Y-19.3379 Z0.5389
G1 X28.7814 Y-19.3539 Z0.5343
G1 X28.8021 Y-19.3696 Z0.5297
G1 X28.8230 Y-19.3851 Z0.5252
G1 X28.8306 Y-19.3907 Z0.5235
G1 X28.8383 Y-19.3963 Z0.5218
G1 X28.8460 Y-19.4019 Z0.5201
G1 X28.8538 Y-19.4074 Z0.5184
G1 X28.8615 Y-19.4129 Z0.5168
G1 X28.8693 Y-19.4184 Z0.5151
G1 X28.8771 Y-19.4238 Z0.5134
G1 X28.8849 Y-19.4292 Z0.5117
G1 X28.8928 Y-19.4346 Z0.5101
G1 X28.9006 Y-19.4400 Z0.5084
G1 X28.9085 Y-19.4453 Z0.5067
G1 X28.9164 Y-19.4506 Z0.5050
G1 X28.9243 Y-19.4559 Z0.5034
G1 X28.9322 Y-19.4611 Z0.5017
G1 X28.9402 Y-19.4663 Z0.5000
G3X29.0618Y-19.5409Z0.5000I1.3933J2.1357 F100.
G3X28.5277Y-19.1311Z0.5000I-1.8058J-1.8005
G3X28.8230Y-19.3851Z0.5000I1.8058J1.8005
G3X28.9402Y-19.4663Z0.5000I1.5105J2.0545
G1 X28.9419 Y-19.4637 Z0.5000
G1 X28.9536 Y-19.4573 Z0.5000
G1 X28.9645 Y-19.4584 Z0.5000
G1 X28.9852 Y-19.4766 Z0.5000
G1 X29.0263 Y-19.5312 Z0.5000
G1 X29.0376 Y-19.5394 Z0.5000
G1 X29.0495 Y-19.5420 Z0.5000
G1 X29.0619 Y-19.5383 Z0.5000
G1 X29.0722 Y-19.5298 Z0.5000
G1 X29.0777 Y-19.5187 Z0.5000
G1 X29.0759 Y-19.5069 Z0.5000
G1 X29.0569 Y-19.4842 Z0.5000
G1 X28.9104 Y-19.3344 Z0.5000
G3X28.5374Y-19.0551Z0.5000I-1.0289J-0.9857
G3X28.4487Y-19.1937Z0.5000I-0.0175J-0.0865
G1 X28.4783 Y-19.2366 Z0.5000
G1 X28.5490 Y-19.3129 Z0.5000
G3X28.8582Y-19.5920Z0.5000I2.7880J2.7788
G3X29.5477Y-19.9138Z0.5000I1.4753J2.2614
G3X28.2609Y-18.8353Z0.5000I-2.2917J-1.4276
G3X28.1730Y-18.9499Z0.5000I-0.0279J-0.0696
G3X28.7341Y-19.5059Z0.5000I2.1605J1.6193
G3X28.8582Y-19.5920Z0.5000I1.5994J2.1753
G0 Z1.9975
G0 X28.8582 Y-19.5920 
G0 Z1.9975
G0 X28.6602 Y-19.2549 
G1 X28.6602 Y-19.2549 Z0.5500 F75.
G1 X28.6607 Y-19.2552 Z0.5499 F50.
G1 X28.6804 Y-19.2722 Z0.5453
G1 X28.7002 Y-19.2889 Z0.5407
G1 X28.7203 Y-19.3055 Z0.5362
G1 X28.7405 Y-19.3218 Z0.5316
G1 X28.7609 Y-19.3379 Z0.5270
G1 X28.7814 Y-19.3539 Z0.5224
G1 X28.8021 Y-19.3696 Z0.5178
G1 X28.8230 Y-19.3851 Z0.5132
G1 X28.8306 Y-19.3907 Z0.5116
G1 X28.8383 Y-19.3963 Z0.5099
G1 X28.8460 Y-19.4019 Z0.5082
G1 X28.8538 Y-19.4074 Z0.5065
G1 X28.8615 Y-19.4129 Z0.5049
G1 X28.8693 Y-19.4184 Z0.5032
G1 X28.8771 Y-19.4238 Z0.5015
G1 X28.8849 Y-19.4292 Z0.4998
G1 X28.8928 Y-19.4346 Z0.4981
G1 X28.9006 Y-19.4400 Z0.4965
G1 X28.9085 Y-19.4453 Z0.4948
G1 X28.9164 Y-19.4506 Z0.4931
G1 X28.9243 Y-19.4559 Z0.4914
G1 X28.9322 Y-19.4611 Z0.4898
G1 X28.9402 Y-19.4663 Z0.4881
G1 X28.9482 Y-19.4715 Z0.4864
G1 X28.9562 Y-19.4767 Z0.4847
G1 X28.9642 Y-19.4818 Z0.4831
G1 X28.9722 Y-19.4869 Z0.4814
G1 X28.9803 Y-19.4919 Z0.4797
G1 X28.9883 Y-19.4970 Z0.4780
G1 X28.9964 Y-19.5020 Z0.4763
G1 X29.0045 Y-19.5069 Z0.4747
G1 X29.0127 Y-19.5119 Z0.4730
G1 X29.0208 Y-19.5168 Z0.4713
G1 X29.0290 Y-19.5217 Z0.4696
G1 X29.0372 Y-19.5265 Z0.4680
G1 X29.0454 Y-19.5314 Z0.4663
G1 X29.0536 Y-19.5361 Z0.4646
G1 X29.0618 Y-19.5409 Z0.4629
G1 X29.0297 Y-19.5093 Z0.4550
G1 X28.9971 Y-19.4783 Z0.4471
G1 X28.9640 Y-19.4478 Z0.4391
G1 X28.9303 Y-19.4180 Z0.4312
G1 X28.8961 Y-19.3887 Z0.4233
G1 X28.8614 Y-19.3601 Z0.4153
G1 X28.8262 Y-19.3321 Z0.4074
G1 X28.7904 Y-19.3047 Z0.3994
G1 X28.7543 Y-19.2779 Z0.3915
G1 X28.7176 Y-19.2518 Z0.3836
G1 X28.6805 Y-19.2263 Z0.3756
G1 X28.6429 Y-19.2015 Z0.3677
G1 X28.6050 Y-19.1774 Z0.3598
G1 X28.5666 Y-19.1539 Z0.3518
G1 X28.5277 Y-19.1311 Z0.3439
G1 X28.5462 Y-19.1494 Z0.3393
G1 X28.5648 Y-19.1675 Z0.3347
G1 X28.5836 Y-19.1855 Z0.3301
G1 X28.6026 Y-19.2032 Z0.3256
G1 X28.6218 Y-19.2207 Z0.3210
G1 X28.6411 Y-19.2381 Z0.3164
G1 X28.6607 Y-19.2552 Z0.3118
G1 X28.6804 Y-19.2722 Z0.3072
G1 X28.7002 Y-19.2889 Z0.3026
G1 X28.7203 Y-19.3055 Z0.2981
G1 X28.7405 Y-19.3218 Z0.2935
G1 X28.7609 Y-19.3379 Z0.2889
G1 X28.7814 Y-19.3539 Z0.2843
G1 X28.8021 Y-19.3696 Z0.2797
G1 X28.8230 Y-19.3851 Z0.2752
G1 X28.8306 Y-19.3907 Z0.2735
G1 X28.8383 Y-19.3963 Z0.2718
G1 X28.8460 Y-19.4019 Z0.2701
G1 X28.8538 Y-19.4074 Z0.2684
G1 X28.8615 Y-19.4129 Z0.2668
G1 X28.8693 Y-19.4184 Z0.2651
G1 X28.8771 Y-19.4238 Z0.2634
G1 X28.8849 Y-19.4292 Z0.2617
G1 X28.8928 Y-19.4346 Z0.2601
G1 X28.9006 Y-19.4400 Z0.2584
G1 X28.9085 Y-19.4453 Z0.2567
G1 X28.9164 Y-19.4506 Z0.2550
G1 X28.9243 Y-19.4559 Z0.2534
G1 X28.9322 Y-19.4611 Z0.2517
G1 X28.9402 Y-19.4663 Z0.2500
G3X29.0618Y-19.5409Z0.2500I1.3933J2.1357 F100.
G3X28.5277Y-19.1311Z0.2500I-1.8058J-1.8005
G3X28.8230Y-19.3851Z0.2500I1.8058J1.8005
G3X28.9402Y-19.4663Z0.2500I1.5105J2.0545
G1 X28.9419 Y-19.4637 Z0.2500
G1 X28.9536 Y-19.4573 Z0.2500
G1 X28.9645 Y-19.4584 Z0.2500
G1 X28.9852 Y-19.4766 Z0.2500
G1 X29.0263 Y-19.5312 Z0.2500
G1 X29.0376 Y-19.5394 Z0.2500
G1 X29.0495 Y-19.5420 Z0.2500
G1 X29.0619 Y-19.5383 Z0.2500
G1 X29.0722 Y-19.5298 Z0.2500
G1 X29.0777 Y-19.5187 Z0.2500
G1 X29.0759 Y-19.5069 Z0.2500
G1 X29.0569 Y-19.4842 Z0.2500
G3X28.5374Y-19.0551Z0.2500I-1.2954J-1.0393
G1 X28.5113 Y-19.0536 Z0.2500
G3X28.4783Y-19.2366Z0.2500I0.0183J-0.0978
G3X28.8582Y-19.5920Z0.2500I2.5892J2.3874
G3X29.5477Y-19.9138Z0.2500I1.4753J2.2614
G3X28.2609Y-18.8353Z0.2500I-2.2917J-1.4276
G3X28.1730Y-18.9499Z0.2500I-0.0279J-0.0696
G3X28.7341Y-19.5059Z0.2500I2.1605J1.6193
G3X28.8582Y-19.5920Z0.2500I1.5994J2.1753
G0 Z4.0000
G0 X28.8582 Y-19.5920 
M5
G53 Z
( MOP:  top-jack-pocket-front-01 )
( FILE: G:\Shared drives\AlloyProjectFiles\Customer CAD files\Alloy-Standard-Builds-CAM\s-in\Control\top-jack-pocket-front-01.nc)
G90
(  BEGIN TOOL LIST )
(  TOOL 4 - Downcut PT500 - DESC: 0.5000 DIA, 2 FLUTE,  CARBIDE MAT )
(  ENDOF TOOL LIST )
( top-jack-pocket-front-01)
T04
S12000
M3
G0 Z4.0000
G0 X44.5501 Y-19.5341 
G1 X44.5501 Y-19.5341 Z1.8000 F75.
G1 X44.5618 Y-19.5409 Z1.7976 F50.
G1 X44.5458 Y-19.5250 Z1.7936
G1 X44.5297 Y-19.5093 Z1.7897
G1 X44.5135 Y-19.4937 Z1.7857
G1 X44.4971 Y-19.4783 Z1.7817
G1 X44.4806 Y-19.4630 Z1.7778
G1 X44.4640 Y-19.4478 Z1.7738
G1 X44.4472 Y-19.4328 Z1.7698
G1 X44.4303 Y-19.4180 Z1.7659
G1 X44.4133 Y-19.4033 Z1.7619
G1 X44.3961 Y-19.3887 Z1.7579
G1 X44.3788 Y-19.3743 Z1.7540
G1 X44.3614 Y-19.3601 Z1.7500
G1 X44.3438 Y-19.3460 Z1.7460
G1 X44.3262 Y-19.3321 Z1.7421
G1 X44.3084 Y-19.3183 Z1.7381
G1 X44.2904 Y-19.3047 Z1.7341
G1 X44.2724 Y-19.2912 Z1.7302
G1 X44.2543 Y-19.2779 Z1.7262
G1 X44.2360 Y-19.2648 Z1.7222
G1 X44.2176 Y-19.2518 Z1.7182
G1 X44.1991 Y-19.2390 Z1.7143
G1 X44.1805 Y-19.2263 Z1.7103
G1 X44.1618 Y-19.2138 Z1.7063
G1 X44.1429 Y-19.2015 Z1.7024
G1 X44.1240 Y-19.1894 Z1.6984
G1 X44.1050 Y-19.1774 Z1.6944
G1 X44.0858 Y-19.1655 Z1.6905
G1 X44.0666 Y-19.1539 Z1.6865
G1 X44.0472 Y-19.1424 Z1.6825
G1 X44.0277 Y-19.1311 Z1.6786
G1 X44.0462 Y-19.1494 Z1.6740
G1 X44.0648 Y-19.1675 Z1.6694
G1 X44.0836 Y-19.1855 Z1.6648
G1 X44.1026 Y-19.2032 Z1.6602
G1 X44.1218 Y-19.2207 Z1.6557
G1 X44.1411 Y-19.2381 Z1.6511
G1 X44.1607 Y-19.2552 Z1.6465
G1 X44.1804 Y-19.2722 Z1.6419
G1 X44.2002 Y-19.2889 Z1.6373
G1 X44.2203 Y-19.3055 Z1.6327
G1 X44.2405 Y-19.3218 Z1.6282
G1 X44.2609 Y-19.3379 Z1.6236
G1 X44.2814 Y-19.3539 Z1.6190
G1 X44.3021 Y-19.3696 Z1.6144
G1 X44.3230 Y-19.3851 Z1.6098
G1 X44.3383 Y-19.3963 Z1.6065
G1 X44.3538 Y-19.4074 Z1.6031
G1 X44.3693 Y-19.4184 Z1.5998
G1 X44.3849 Y-19.4292 Z1.5964
G1 X44.4006 Y-19.4400 Z1.5931
G1 X44.4164 Y-19.4506 Z1.5897
G1 X44.4322 Y-19.4611 Z1.5864
G1 X44.4482 Y-19.4715 Z1.5830
G1 X44.4642 Y-19.4818 Z1.5796
G1 X44.4803 Y-19.4919 Z1.5763
G1 X44.4964 Y-19.5020 Z1.5729
G1 X44.5127 Y-19.5119 Z1.5696
G1 X44.5290 Y-19.5217 Z1.5662
G1 X44.5454 Y-19.5314 Z1.5629
G1 X44.5618 Y-19.5409 Z1.5595
G1 X44.5458 Y-19.5250 Z1.5556
G1 X44.5297 Y-19.5093 Z1.5516
G1 X44.5135 Y-19.4937 Z1.5476
G1 X44.4971 Y-19.4783 Z1.5436
G1 X44.4806 Y-19.4630 Z1.5397
G1 X44.4640 Y-19.4478 Z1.5357
G1 X44.4472 Y-19.4328 Z1.5317
G1 X44.4303 Y-19.4180 Z1.5278
G1 X44.4133 Y-19.4033 Z1.5238
G1 X44.3961 Y-19.3887 Z1.5198
G1 X44.3788 Y-19.3743 Z1.5159
G1 X44.3614 Y-19.3601 Z1.5119
G1 X44.3438 Y-19.3460 Z1.5079
G1 X44.3262 Y-19.3321 Z1.5040
G1 X44.3084 Y-19.3183 Z1.5000
G17
G3X44.0277Y-19.1311Z1.5000I-1.5524J-2.0231 F100.
G3X44.3230Y-19.3851Z1.5000I1.8058J1.8005
G3X44.5618Y-19.5409Z1.5000I1.5105J2.0545
G3X44.3084Y-19.3183Z1.5000I-1.8058J-1.8005
G1 X44.3064 Y-19.3208 Z1.5000
G1 X44.2230 Y-19.2508 Z1.5000
G1 X44.1368 Y-19.1842 Z1.5000
G1 X44.0933 Y-19.1518 Z1.5000
G1 X44.0732 Y-19.1345 Z1.5000
G1 X44.0480 Y-19.1215 Z1.5000
G1 X44.0180 Y-19.1192 Z1.5000
G1 X44.0065 Y-19.1243 Z1.5000
G1 X44.0005 Y-19.1344 Z1.5000
G1 X44.0030 Y-19.1637 Z1.5000
G1 X44.0164 Y-19.1901 Z1.5000
G1 X44.0902 Y-19.2688 Z1.5000
G1 X44.1676 Y-19.3452 Z1.5000
G1 X44.2483 Y-19.4184 Z1.5000
G1 X44.3327 Y-19.4872 Z1.5000
G1 X44.4194 Y-19.5530 Z1.5000
G1 X44.5090 Y-19.6150 Z1.5000
G1 X44.5337 Y-19.6264 Z1.5000
G1 X44.5604 Y-19.6328 Z1.5000
G1 X44.5880 Y-19.6324 Z1.5000
G1 X44.6140 Y-19.6240 Z1.5000
G1 X44.6364 Y-19.6080 Z1.5000
G3X44.6274Y-19.4341Z1.5000I-0.0922J0.0824
G1 X44.5541 Y-19.3536 Z1.5000
G1 X44.3966 Y-19.2033 Z1.5000
G1 X44.3997 Y-19.1993 Z1.5000
G3X43.7609Y-18.8353Z1.5000I-1.6437J-2.1421
G3X43.6730Y-18.9499Z1.5000I-0.0279J-0.0696
G3X44.2341Y-19.5059Z1.5000I2.1605J1.6193
G3X45.0477Y-19.9138Z1.5000I1.5994J2.1753
G3X44.3997Y-19.1993Z1.5000I-2.2917J-1.4276
G0 Z1.9975
G0 X44.3997 Y-19.1993 
G0 Z1.9975
G0 X44.5501 Y-19.5341 
G1 X44.5501 Y-19.5341 Z1.5500 F75.
G1 X44.5618 Y-19.5409 Z1.5476 F50.
G1 X44.5458 Y-19.5250 Z1.5436
G1 X44.5297 Y-19.5093 Z1.5397
G1 X44.5135 Y-19.4937 Z1.5357
G1 X44.4971 Y-19.4783 Z1.5317
G1 X44.4806 Y-19.4630 Z1.5278
G1 X44.4640 Y-19.4478 Z1.5238
G1 X44.4472 Y-19.4328 Z1.5198
G1 X44.4303 Y-19.4180 Z1.5159
G1 X44.4133 Y-19.4033 Z1.5119
G1 X44.3961 Y-19.3887 Z1.5079
G1 X44.3788 Y-19.3743 Z1.5040
G1 X44.3614 Y-19.3601 Z1.5000
G1 X44.3438 Y-19.3460 Z1.4960
G1 X44.3262 Y-19.3321 Z1.4921
G1 X44.3084 Y-19.3183 Z1.4881
G1 X44.2904 Y-19.3047 Z1.4841
G1 X44.2724 Y-19.2912 Z1.4802
G1 X44.2543 Y-19.2779 Z1.4762
G1 X44.2360 Y-19.2648 Z1.4722
G1 X44.2176 Y-19.2518 Z1.4682
G1 X44.1991 Y-19.2390 Z1.4643
G1 X44.1805 Y-19.2263 Z1.4603
G1 X44.1618 Y-19.2138 Z1.4563
G1 X44.1429 Y-19.2015 Z1.4524
G1 X44.1240 Y-19.1894 Z1.4484
G1 X44.1050 Y-19.1774 Z1.4444
G1 X44.0858 Y-19.1655 Z1.4405
G1 X44.0666 Y-19.1539 Z1.4365
G1 X44.0472 Y-19.1424 Z1.4325
G1 X44.0277 Y-19.1311 Z1.4286
G1 X44.0462 Y-19.1494 Z1.4240
G1 X44.0648 Y-19.1675 Z1.4194
G1 X44.0836 Y-19.1855 Z1.4148
G1 X44.1026 Y-19.2032 Z1.4102
G1 X44.1218 Y-19.2207 Z1.4057
G1 X44.1411 Y-19.2381 Z1.4011
G1 X44.1607 Y-19.2552 Z1.3965
G1 X44.1804 Y-19.2722 Z1.3919
G1 X44.2002 Y-19.2889 Z1.3873
G1 X44.2203 Y-19.3055 Z1.3827
G1 X44.2405 Y-19.3218 Z1.3782
G1 X44.2609 Y-19.3379 Z1.3736
G1 X44.2814 Y-19.3539 Z1.3690
G1 X44.3021 Y-19.3696 Z1.3644
G1 X44.3230 Y-19.3851 Z1.3598
G1 X44.3383 Y-19.3963 Z1.3565
G1 X44.3538 Y-19.4074 Z1.3531
G1 X44.3693 Y-19.4184 Z1.3498
G1 X44.3849 Y-19.4292 Z1.3464
G1 X44.4006 Y-19.4400 Z1.3431
G1 X44.4164 Y-19.4506 Z1.3397
G1 X44.4322 Y-19.4611 Z1.3364
G1 X44.4482 Y-19.4715 Z1.3330
G1 X44.4642 Y-19.4818 Z1.3296
G1 X44.4803 Y-19.4919 Z1.3263
G1 X44.4964 Y-19.5020 Z1.3229
G1 X44.5127 Y-19.5119 Z1.3196
G1 X44.5290 Y-19.5217 Z1.3162
G1 X44.5454 Y-19.5314 Z1.3129
G1 X44.5618 Y-19.5409 Z1.3095
G1 X44.5458 Y-19.5250 Z1.3056
G1 X44.5297 Y-19.5093 Z1.3016
G1 X44.5135 Y-19.4937 Z1.2976
G1 X44.4971 Y-19.4783 Z1.2936
G1 X44.4806 Y-19.4630 Z1.2897
G1 X44.4640 Y-19.4478 Z1.2857
G1 X44.4472 Y-19.4328 Z1.2817
G1 X44.4303 Y-19.4180 Z1.2778
G1 X44.4133 Y-19.4033 Z1.2738
G1 X44.3961 Y-19.3887 Z1.2698
G1 X44.3788 Y-19.3743 Z1.2659
G1 X44.3614 Y-19.3601 Z1.2619
G1 X44.3438 Y-19.3460 Z1.2579
G1 X44.3262 Y-19.3321 Z1.2540
G1 X44.3084 Y-19.3183 Z1.2500
G3X44.0277Y-19.1311Z1.2500I-1.5524J-2.0231 F100.
G3X44.3230Y-19.3851Z1.2500I1.8058J1.8005
G3X44.5618Y-19.5409Z1.2500I1.5105J2.0545
G3X44.3084Y-19.3183Z1.2500I-1.8058J-1.8005
G1 X44.3064 Y-19.3208 Z1.2500
G1 X44.2230 Y-19.2508 Z1.2500
G1 X44.1368 Y-19.1842 Z1.2500
G1 X44.0933 Y-19.1518 Z1.2500
G1 X44.0732 Y-19.1345 Z1.2500
G1 X44.0480 Y-19.1215 Z1.2500
G1 X44.0180 Y-19.1192 Z1.2500
G1 X44.0065 Y-19.1243 Z1.2500
G1 X44.0005 Y-19.1344 Z1.2500
G1 X44.0030 Y-19.1637 Z1.2500
G1 X44.0164 Y-19.1901 Z1.2500
G1 X44.0902 Y-19.2688 Z1.2500
G1 X44.1676 Y-19.3452 Z1.2500
G1 X44.2483 Y-19.4184 Z1.2500
G1 X44.3327 Y-19.4872 Z1.2500
G1 X44.4194 Y-19.5530 Z1.2500
G1 X44.5090 Y-19.6150 Z1.2500
G1 X44.5337 Y-19.6264 Z1.2500
G1 X44.5604 Y-19.6328 Z1.2500
G1 X44.5880 Y-19.6324 Z1.2500
G3X44.6274Y-19.4341Z1.2500I-0.0313J0.1092
G1 X44.5541 Y-19.3536 Z1.2500
G1 X44.3966 Y-19.2033 Z1.2500
G1 X44.3997 Y-19.1993 Z1.2500
G3X43.7609Y-18.8353Z1.2500I-1.6437J-2.1421
G3X43.6730Y-18.9499Z1.2500I-0.0279J-0.0696
G3X44.2341Y-19.5059Z1.2500I2.1605J1.6193
G3X45.0477Y-19.9138Z1.2500I1.5994J2.1753
G3X44.3997Y-19.1993Z1.2500I-2.2917J-1.4276
G0 Z1.9975
G0 X44.3997 Y-19.1993 
G0 Z1.9975
G0 X44.5501 Y-19.5341 
G1 X44.5501 Y-19.5341 Z1.3000 F75.
G1 X44.5618 Y-19.5409 Z1.2976 F50.
G1 X44.5458 Y-19.5250 Z1.2936
G1 X44.5297 Y-19.5093 Z1.2897
G1 X44.5135 Y-19.4937 Z1.2857
G1 X44.4971 Y-19.4783 Z1.2817
G1 X44.4806 Y-19.4630 Z1.2778
G1 X44.4640 Y-19.4478 Z1.2738
G1 X44.4472 Y-19.4328 Z1.2698
G1 X44.4303 Y-19.4180 Z1.2659
G1 X44.4133 Y-19.4033 Z1.2619
G1 X44.3961 Y-19.3887 Z1.2579
G1 X44.3788 Y-19.3743 Z1.2540
G1 X44.3614 Y-19.3601 Z1.2500
G1 X44.3438 Y-19.3460 Z1.2460
G1 X44.3262 Y-19.3321 Z1.2421
G1 X44.3084 Y-19.3183 Z1.2381
G1 X44.2904 Y-19.3047 Z1.2341
G1 X44.2724 Y-19.2912 Z1.2302
G1 X44.2543 Y-19.2779 Z1.2262
G1 X44.2360 Y-19.2648 Z1.2222
G1 X44.2176 Y-19.2518 Z1.2182
G1 X44.1991 Y-19.2390 Z1.2143
G1 X44.1805 Y-19.2263 Z1.2103
G1 X44.1618 Y-19.2138 Z1.2063
G1 X44.1429 Y-19.2015 Z1.2024
G1 X44.1240 Y-19.1894 Z1.1984
G1 X44.1050 Y-19.1774 Z1.1944
G1 X44.0858 Y-19.1655 Z1.1905
G1 X44.0666 Y-19.1539 Z1.1865
G1 X44.0472 Y-19.1424 Z1.1825
G1 X44.0277 Y-19.1311 Z1.1786
G1 X44.0462 Y-19.1494 Z1.1740
G1 X44.0648 Y-19.1675 Z1.1694
G1 X44.0836 Y-19.1855 Z1.1648
G1 X44.1026 Y-19.2032 Z1.1602
G1 X44.1218 Y-19.2207 Z1.1557
G1 X44.1411 Y-19.2381 Z1.1511
G1 X44.1607 Y-19.2552 Z1.1465
G1 X44.1804 Y-19.2722 Z1.1419
G1 X44.2002 Y-19.2889 Z1.1373
G1 X44.2203 Y-19.3055 Z1.1327
G1 X44.2405 Y-19.3218 Z1.1282
G1 X44.2609 Y-19.3379 Z1.1236
G1 X44.2814 Y-19.3539 Z1.1190
G1 X44.3021 Y-19.3696 Z1.1144
G1 X44.3230 Y-19.3851 Z1.1098
G1 X44.3383 Y-19.3963 Z1.1065
G1 X44.3538 Y-19.4074 Z1.1031
G1 X44.3693 Y-19.4184 Z1.0998
G1 X44.3849 Y-19.4292 Z1.0964
G1 X44.4006 Y-19.4400 Z1.0931
G1 X44.4164 Y-19.4506 Z1.0897
G1 X44.4322 Y-19.4611 Z1.0864
G1 X44.4482 Y-19.4715 Z1.0830
G1 X44.4642 Y-19.4818 Z1.0796
G1 X44.4803 Y-19.4919 Z1.0763
G1 X44.4964 Y-19.5020 Z1.0729
G1 X44.5127 Y-19.5119 Z1.0696
G1 X44.5290 Y-19.5217 Z1.0662
G1 X44.5454 Y-19.5314 Z1.0629
G1 X44.5618 Y-19.5409 Z1.0595
G1 X44.5458 Y-19.5250 Z1.0556
G1 X44.5297 Y-19.5093 Z1.0516
G1 X44.5135 Y-19.4937 Z1.0476
G1 X44.4971 Y-19.4783 Z1.0436
G1 X44.4806 Y-19.4630 Z1.0397
G1 X44.4640 Y-19.4478 Z1.0357
G1 X44.4472 Y-19.4328 Z1.0317
G1 X44.4303 Y-19.4180 Z1.0278
G1 X44.4133 Y-19.4033 Z1.0238
G1 X44.3961 Y-19.3887 Z1.0198
G1 X44.3788 Y-19.3743 Z1.0159
G1 X44.3614 Y-19.3601 Z1.0119
G1 X44.3438 Y-19.3460 Z1.0079
G1 X44.3262 Y-19.3321 Z1.0040
G1 X44.3084 Y-19.3183 Z1.0000
G3X44.0277Y-19.1311Z1.0000I-1.5524J-2.0231 F100.
G3X44.3230Y-19.3851Z1.0000I1.8058J1.8005
G3X44.5618Y-19.5409Z1.0000I1.5105J2.0545
G3X44.3084Y-19.3183Z1.0000I-1.8058J-1.8005
G1 X44.3064 Y-19.3208 Z1.0000
G1 X44.2230 Y-19.2508 Z1.0000
G2X44.0732Y-19.1345Z1.0000I10.9186J14.2181
G3X44.0164Y-19.1901Z1.0000I-0.0370J-0.0189
G1 X44.0902 Y-19.2688 Z1.0000
G1 X44.1676 Y-19.3452 Z1.0000
G1 X44.2483 Y-19.4184 Z1.0000
G1 X44.3327 Y-19.4872 Z1.0000
G1 X44.4194 Y-19.5530 Z1.0000
G1 X44.5090 Y-19.6150 Z1.0000
G1 X44.5337 Y-19.6264 Z1.0000
G3X44.6274Y-19.4341Z1.0000I0.0319J0.1034
G1 X44.5541 Y-19.3536 Z1.0000
G1 X44.3966 Y-19.2033 Z1.0000
G1 X44.3997 Y-19.1993 Z1.0000
G3X43.7609Y-18.8353Z1.0000I-1.6437J-2.1421
G3X43.6730Y-18.9499Z1.0000I-0.0279J-0.0696
G3X44.2341Y-19.5059Z1.0000I2.1605J1.6193
G3X45.0477Y-19.9138Z1.0000I1.5994J2.1753
G3X44.3997Y-19.1993Z1.0000I-2.2917J-1.4276
G0 Z1.9975
G0 X44.3997 Y-19.1993 
G0 Z1.9975
G0 X44.1602 Y-19.2549 
G1 X44.1602 Y-19.2549 Z1.0500 F75.
G1 X44.1607 Y-19.2552 Z1.0499 F50.
G1 X44.1804 Y-19.2722 Z1.0453
G1 X44.2002 Y-19.2889 Z1.0407
G1 X44.2203 Y-19.3055 Z1.0362
G1 X44.2405 Y-19.3218 Z1.0316
G1 X44.2609 Y-19.3379 Z1.0270
G1 X44.2814 Y-19.3539 Z1.0224
G1 X44.3021 Y-19.3696 Z1.0178
G1 X44.3230 Y-19.3851 Z1.0132
G1 X44.3306 Y-19.3907 Z1.0116
G1 X44.3383 Y-19.3963 Z1.0099
G1 X44.3460 Y-19.4019 Z1.0082
G1 X44.3538 Y-19.4074 Z1.0065
G1 X44.3615 Y-19.4129 Z1.0049
G1 X44.3693 Y-19.4184 Z1.0032
G1 X44.3771 Y-19.4238 Z1.0015
G1 X44.3849 Y-19.4292 Z0.9998
G1 X44.3928 Y-19.4346 Z0.9981
G1 X44.4006 Y-19.4400 Z0.9965
G1 X44.4085 Y-19.4453 Z0.9948
G1 X44.4164 Y-19.4506 Z0.9931
G1 X44.4243 Y-19.4559 Z0.9914
G1 X44.4322 Y-19.4611 Z0.9898
G1 X44.4402 Y-19.4663 Z0.9881
G1 X44.4482 Y-19.4715 Z0.9864
G1 X44.4562 Y-19.4767 Z0.9847
G1 X44.4642 Y-19.4818 Z0.9831
G1 X44.4722 Y-19.4869 Z0.9814
G1 X44.4803 Y-19.4919 Z0.9797
G1 X44.4883 Y-19.4970 Z0.9780
G1 X44.4964 Y-19.5020 Z0.9763
G1 X44.5045 Y-19.5069 Z0.9747
G1 X44.5127 Y-19.5119 Z0.9730
G1 X44.5208 Y-19.5168 Z0.9713
G1 X44.5290 Y-19.5217 Z0.9696
G1 X44.5372 Y-19.5265 Z0.9680
G1 X44.5454 Y-19.5314 Z0.9663
G1 X44.5536 Y-19.5361 Z0.9646
G1 X44.5618 Y-19.5409 Z0.9629
G1 X44.5297 Y-19.5093 Z0.9550
G1 X44.4971 Y-19.4783 Z0.9471
G1 X44.4640 Y-19.4478 Z0.9391
G1 X44.4303 Y-19.4180 Z0.9312
G1 X44.3961 Y-19.3887 Z0.9233
G1 X44.3614 Y-19.3601 Z0.9153
G1 X44.3262 Y-19.3321 Z0.9074
G1 X44.2904 Y-19.3047 Z0.8994
G1 X44.2543 Y-19.2779 Z0.8915
G1 X44.2176 Y-19.2518 Z0.8836
G1 X44.1805 Y-19.2263 Z0.8756
G1 X44.1429 Y-19.2015 Z0.8677
G1 X44.1050 Y-19.1774 Z0.8598
G1 X44.0666 Y-19.1539 Z0.8518
G1 X44.0277 Y-19.1311 Z0.8439
G1 X44.0462 Y-19.1494 Z0.8393
G1 X44.0648 Y-19.1675 Z0.8347
G1 X44.0836 Y-19.1855 Z0.8301
G1 X44.1026 Y-19.2032 Z0.8256
G1 X44.1218 Y-19.2207 Z0.8210
G1 X44.1411 Y-19.2381 Z0.8164
G1 X44.1607 Y-19.2552 Z0.8118
G1 X44.1804 Y-19.2722 Z0.8072
G1 X44.2002 Y-19.2889 Z0.8026
G1 X44.2203 Y-19.3055 Z0.7981
G1 X44.2405 Y-19.3218 Z0.7935
G1 X44.2609 Y-19.3379 Z0.7889
G1 X44.2814 Y-19.3539 Z0.7843
G1 X44.3021 Y-19.3696 Z0.7797
G1 X44.3230 Y-19.3851 Z0.7752
G1 X44.3306 Y-19.3907 Z0.7735
G1 X44.3383 Y-19.3963 Z0.7718
G1 X44.3460 Y-19.4019 Z0.7701
G1 X44.3538 Y-19.4074 Z0.7684
G1 X44.3615 Y-19.4129 Z0.7668
G1 X44.3693 Y-19.4184 Z0.7651
G1 X44.3771 Y-19.4238 Z0.7634
G1 X44.3849 Y-19.4292 Z0.7617
G1 X44.3928 Y-19.4346 Z0.7601
G1 X44.4006 Y-19.4400 Z0.7584
G1 X44.4085 Y-19.4453 Z0.7567
G1 X44.4164 Y-19.4506 Z0.7550
G1 X44.4243 Y-19.4559 Z0.7534
G1 X44.4322 Y-19.4611 Z0.7517
G1 X44.4402 Y-19.4663 Z0.7500
G3X44.5618Y-19.5409Z0.7500I1.3933J2.1357 F100.
G3X44.0277Y-19.1311Z0.7500I-1.8058J-1.8005
G3X44.3230Y-19.3851Z0.7500I1.8058J1.8005
G3X44.4402Y-19.4663Z0.7500I1.5105J2.0545
G1 X44.4419 Y-19.4637 Z0.7500
G1 X44.4536 Y-19.4573 Z0.7500
G1 X44.4645 Y-19.4584 Z0.7500
G1 X44.4852 Y-19.4766 Z0.7500
G1 X44.5263 Y-19.5312 Z0.7500
G1 X44.5376 Y-19.5394 Z0.7500
G1 X44.5495 Y-19.5420 Z0.7500
G1 X44.5619 Y-19.5383 Z0.7500
G1 X44.5722 Y-19.5298 Z0.7500
G1 X44.5777 Y-19.5187 Z0.7500
G1 X44.5759 Y-19.5069 Z0.7500
G1 X44.5569 Y-19.4842 Z0.7500
G3X44.0374Y-19.0551Z0.7500I-1.2954J-1.0393
G3X43.9487Y-19.1937Z0.7500I-0.0175J-0.0865
G3X44.3582Y-19.5920Z0.7500I1.6503J1.2876
G3X45.0477Y-19.9138Z0.7500I1.4753J2.2614
G3X43.7609Y-18.8353Z0.7500I-2.2917J-1.4276
G3X43.6730Y-18.9499Z0.7500I-0.0279J-0.0696
G3X44.2341Y-19.5059Z0.7500I2.1605J1.6193
G3X44.3582Y-19.5920Z0.7500I1.5994J2.1753
G0 Z1.9975
G0 X44.3582 Y-19.5920 
G0 Z1.9975
G0 X44.1602 Y-19.2549 
G1 X44.1602 Y-19.2549 Z0.8000 F75.
G1 X44.1607 Y-19.2552 Z0.7999 F50.
G1 X44.1804 Y-19.2722 Z0.7953
G1 X44.2002 Y-19.2889 Z0.7907
G1 X44.2203 Y-19.3055 Z0.7862
G1 X44.2405 Y-19.3218 Z0.7816
G1 X44.2609 Y-19.3379 Z0.7770
G1 X44.2814 Y-19.3539 Z0.7724
G1 X44.3021 Y-19.3696 Z0.7678
G1 X44.3230 Y-19.3851 Z0.7632
G1 X44.3306 Y-19.3907 Z0.7616
G1 X44.3383 Y-19.3963 Z0.7599
G1 X44.3460 Y-19.4019 Z0.7582
G1 X44.3538 Y-19.4074 Z0.7565
G1 X44.3615 Y-19.4129 Z0.7549
G1 X44.3693 Y-19.4184 Z0.7532
G1 X44.3771 Y-19.4238 Z0.7515
G1 X44.3849 Y-19.4292 Z0.7498
G1 X44.3928 Y-19.4346 Z0.7481
G1 X44.4006 Y-19.4400 Z0.7465
G1 X44.4085 Y-19.4453 Z0.7448
G1 X44.4164 Y-19.4506 Z0.7431
G1 X44.4243 Y-19.4559 Z0.7414
G1 X44.4322 Y-19.4611 Z0.7398
G1 X44.4402 Y-19.4663 Z0.7381
G1 X44.4482 Y-19.4715 Z0.7364
G1 X44.4562 Y-19.4767 Z0.7347
G1 X44.4642 Y-19.4818 Z0.7331
G1 X44.4722 Y-19.4869 Z0.7314
G1 X44.4803 Y-19.4919 Z0.7297
G1 X44.4883 Y-19.4970 Z0.7280
G1 X44.4964 Y-19.5020 Z0.7263
G1 X44.5045 Y-19.5069 Z0.7247
G1 X44.5127 Y-19.5119 Z0.7230
G1 X44.5208 Y-19.5168 Z0.7213
G1 X44.5290 Y-19.5217 Z0.7196
G1 X44.5372 Y-19.5265 Z0.7180
G1 X44.5454 Y-19.5314 Z0.7163
G1 X44.5536 Y-19.5361 Z0.7146
G1 X44.5618 Y-19.5409 Z0.7129
G1 X44.5297 Y-19.5093 Z0.7050
G1 X44.4971 Y-19.4783 Z0.6971
G1 X44.4640 Y-19.4478 Z0.6891
G1 X44.4303 Y-19.4180 Z0.6812
G1 X44.3961 Y-19.3887 Z0.6733
G1 X44.3614 Y-19.3601 Z0.6653
G1 X44.3262 Y-19.3321 Z0.6574
G1 X44.2904 Y-19.3047 Z0.6494
G1 X44.2543 Y-19.2779 Z0.6415
G1 X44.2176 Y-19.2518 Z0.6336
G1 X44.1805 Y-19.2263 Z0.6256
G1 X44.1429 Y-19.2015 Z0.6177
G1 X44.1050 Y-19.1774 Z0.6098
G1 X44.0666 Y-19.1539 Z0.6018
G1 X44.0277 Y-19.1311 Z0.5939
G1 X44.0462 Y-19.1494 Z0.5893
G1 X44.0648 Y-19.1675 Z0.5847
G1 X44.0836 Y-19.1855 Z0.5801
G1 X44.1026 Y-19.2032 Z0.5756
G1 X44.1218 Y-19.2207 Z0.5710
G1 X44.1411 Y-19.2381 Z0.5664
G1 X44.1607 Y-19.2552 Z0.5618
G1 X44.1804 Y-19.2722 Z0.5572
G1 X44.2002 Y-19.2889 Z0.5526
G1 X44.2203 Y-19.3055 Z0.5481
G1 X44.2405 Y-19.3218 Z0.5435
G1 X44.2609 Y-19.3379 Z0.5389
G1 X44.2814 Y-19.3539 Z0.5343
G1 X44.3021 Y-19.3696 Z0.5297
G1 X44.3230 Y-19.3851 Z0.5252
G1 X44.3306 Y-19.3907 Z0.5235
G1 X44.3383 Y-19.3963 Z0.5218
G1 X44.3460 Y-19.4019 Z0.5201
G1 X44.3538 Y-19.4074 Z0.5184
G1 X44.3615 Y-19.4129 Z0.5168
G1 X44.3693 Y-19.4184 Z0.5151
G1 X44.3771 Y-19.4238 Z0.5134
G1 X44.3849 Y-19.4292 Z0.5117
G1 X44.3928 Y-19.4346 Z0.5101
G1 X44.4006 Y-19.4400 Z0.5084
G1 X44.4085 Y-19.4453 Z0.5067
G1 X44.4164 Y-19.4506 Z0.5050
G1 X44.4243 Y-19.4559 Z0.5034
G1 X44.4322 Y-19.4611 Z0.5017
G1 X44.4402 Y-19.4663 Z0.5000
G3X44.5618Y-19.5409Z0.5000I1.3933J2.1357 F100.
G3X44.0277Y-19.1311Z0.5000I-1.8058J-1.8005
G3X44.3230Y-19.3851Z0.5000I1.8058J1.8005
G3X44.4402Y-19.4663Z0.5000I1.5105J2.0545
G1 X44.4419 Y-19.4637 Z0.5000
G1 X44.4536 Y-19.4573 Z0.5000
G1 X44.4645 Y-19.4584 Z0.5000
G1 X44.4852 Y-19.4766 Z0.5000
G1 X44.5263 Y-19.5312 Z0.5000
G1 X44.5376 Y-19.5394 Z0.5000
G1 X44.5495 Y-19.5420 Z0.5000
G1 X44.5619 Y-19.5383 Z0.5000
G1 X44.5722 Y-19.5298 Z0.5000
G1 X44.5777 Y-19.5187 Z0.5000
G1 X44.5759 Y-19.5069 Z0.5000
G1 X44.5569 Y-19.4842 Z0.5000
G1 X44.4104 Y-19.3344 Z0.5000
G3X44.0374Y-19.0551Z0.5000I-1.0289J-0.9857
G3X43.9487Y-19.1937Z0.5000I-0.0175J-0.0865
G1 X43.9783 Y-19.2366 Z0.5000
G1 X44.0490 Y-19.3129 Z0.5000
G3X44.3582Y-19.5920Z0.5000I2.7880J2.7788
G3X45.0477Y-19.9138Z0.5000I1.4753J2.2614
G3X43.7609Y-18.8353Z0.5000I-2.2917J-1.4276
G3X43.6730Y-18.9499Z0.5000I-0.0279J-0.0696
G3X44.2341Y-19.5059Z0.5000I2.1605J1.6193
G3X44.3582Y-19.5920Z0.5000I1.5994J2.1753
G0 Z1.9975
G0 X44.3582 Y-19.5920 
G0 Z1.9975
G0 X44.1602 Y-19.2549 
G1 X44.1602 Y-19.2549 Z0.5500 F75.
G1 X44.1607 Y-19.2552 Z0.5499 F50.
G1 X44.1804 Y-19.2722 Z0.5453
G1 X44.2002 Y-19.2889 Z0.5407
G1 X44.2203 Y-19.3055 Z0.5362
G1 X44.2405 Y-19.3218 Z0.5316
G1 X44.2609 Y-19.3379 Z0.5270
G1 X44.2814 Y-19.3539 Z0.5224
G1 X44.3021 Y-19.3696 Z0.5178
G1 X44.3230 Y-19.3851 Z0.5132
G1 X44.3306 Y-19.3907 Z0.5116
G1 X44.3383 Y-19.3963 Z0.5099
G1 X44.3460 Y-19.4019 Z0.5082
G1 X44.3538 Y-19.4074 Z0.5065
G1 X44.3615 Y-19.4129 Z0.5049
G1 X44.3693 Y-19.4184 Z0.5032
G1 X44.3771 Y-19.4238 Z0.5015
G1 X44.3849 Y-19.4292 Z0.4998
G1 X44.3928 Y-19.4346 Z0.4981
G1 X44.4006 Y-19.4400 Z0.4965
G1 X44.4085 Y-19.4453 Z0.4948
G1 X44.4164 Y-19.4506 Z0.4931
G1 X44.4243 Y-19.4559 Z0.4914
G1 X44.4322 Y-19.4611 Z0.4898
G1 X44.4402 Y-19.4663 Z0.4881
G1 X44.4482 Y-19.4715 Z0.4864
G1 X44.4562 Y-19.4767 Z0.4847
G1 X44.4642 Y-19.4818 Z0.4831
G1 X44.4722 Y-19.4869 Z0.4814
G1 X44.4803 Y-19.4919 Z0.4797
G1 X44.4883 Y-19.4970 Z0.4780
G1 X44.4964 Y-19.5020 Z0.4763
G1 X44.5045 Y-19.5069 Z0.4747
G1 X44.5127 Y-19.5119 Z0.4730
G1 X44.5208 Y-19.5168 Z0.4713
G1 X44.5290 Y-19.5217 Z0.4696
G1 X44.5372 Y-19.5265 Z0.4680
G1 X44.5454 Y-19.5314 Z0.4663
G1 X44.5536 Y-19.5361 Z0.4646
G1 X44.5618 Y-19.5409 Z0.4629
G1 X44.5297 Y-19.5093 Z0.4550
G1 X44.4971 Y-19.4783 Z0.4471
G1 X44.4640 Y-19.4478 Z0.4391
G1 X44.4303 Y-19.4180 Z0.4312
G1 X44.3961 Y-19.3887 Z0.4233
G1 X44.3614 Y-19.3601 Z0.4153
G1 X44.3262 Y-19.3321 Z0.4074
G1 X44.2904 Y-19.3047 Z0.3994
G1 X44.2543 Y-19.2779 Z0.3915
G1 X44.2176 Y-19.2518 Z0.3836
G1 X44.1805 Y-19.2263 Z0.3756
G1 X44.1429 Y-19.2015 Z0.3677
G1 X44.1050 Y-19.1774 Z0.3598
G1 X44.0666 Y-19.1539 Z0.3518
G1 X44.0277 Y-19.1311 Z0.3439
G1 X44.0462 Y-19.1494 Z0.3393
G1 X44.0648 Y-19.1675 Z0.3347
G1 X44.0836 Y-19.1855 Z0.3301
G1 X44.1026 Y-19.2032 Z0.3256
G1 X44.1218 Y-19.2207 Z0.3210
G1 X44.1411 Y-19.2381 Z0.3164
G1 X44.1607 Y-19.2552 Z0.3118
G1 X44.1804 Y-19.2722 Z0.3072
G1 X44.2002 Y-19.2889 Z0.3026
G1 X44.2203 Y-19.3055 Z0.2981
G1 X44.2405 Y-19.3218 Z0.2935
G1 X44.2609 Y-19.3379 Z0.2889
G1 X44.2814 Y-19.3539 Z0.2843
G1 X44.3021 Y-19.3696 Z0.2797
G1 X44.3230 Y-19.3851 Z0.2752
G1 X44.3306 Y-19.3907 Z0.2735
G1 X44.3383 Y-19.3963 Z0.2718
G1 X44.3460 Y-19.4019 Z0.2701
G1 X44.3538 Y-19.4074 Z0.2684
G1 X44.3615 Y-19.4129 Z0.2668
G1 X44.3693 Y-19.4184 Z0.2651
G1 X44.3771 Y-19.4238 Z0.2634
G1 X44.3849 Y-19.4292 Z0.2617
G1 X44.3928 Y-19.4346 Z0.2601
G1 X44.4006 Y-19.4400 Z0.2584
G1 X44.4085 Y-19.4453 Z0.2567
G1 X44.4164 Y-19.4506 Z0.2550
G1 X44.4243 Y-19.4559 Z0.2534
G1 X44.4322 Y-19.4611 Z0.2517
G1 X44.4402 Y-19.4663 Z0.2500
G3X44.5618Y-19.5409Z0.2500I1.3933J2.1357 F100.
G3X44.0277Y-19.1311Z0.2500I-1.8058J-1.8005
G3X44.3230Y-19.3851Z0.2500I1.8058J1.8005
G3X44.4402Y-19.4663Z0.2500I1.5105J2.0545
G1 X44.4419 Y-19.4637 Z0.2500
G1 X44.4536 Y-19.4573 Z0.2500
G1 X44.4645 Y-19.4584 Z0.2500
G1 X44.4852 Y-19.4766 Z0.2500
G1 X44.5263 Y-19.5312 Z0.2500
G1 X44.5376 Y-19.5394 Z0.2500
G1 X44.5495 Y-19.5420 Z0.2500
G1 X44.5619 Y-19.5383 Z0.2500
G1 X44.5722 Y-19.5298 Z0.2500
G1 X44.5777 Y-19.5187 Z0.2500
G1 X44.5759 Y-19.5069 Z0.2500
G1 X44.5569 Y-19.4842 Z0.2500
G3X44.0374Y-19.0551Z0.2500I-1.2954J-1.0393
G1 X44.0113 Y-19.0536 Z0.2500
G3X43.9783Y-19.2366Z0.2500I0.0183J-0.0978
G3X44.3582Y-19.5920Z0.2500I2.5892J2.3874
G3X45.0477Y-19.9138Z0.2500I1.4753J2.2614
G3X43.7609Y-18.8353Z0.2500I-2.2917J-1.4276
G3X43.6730Y-18.9499Z0.2500I-0.0279J-0.0696
G3X44.2341Y-19.5059Z0.2500I2.1605J1.6193
G3X44.3582Y-19.5920Z0.2500I1.5994J2.1753
G0 Z4.0000
G0 X44.3582 Y-19.5920 
M5
G53 Z
( END FILE top-jack-pocket-front-01.nc )
