( BEGIN FILE vint-trem-back-03.ncTNUM: -1 )
( Lefty:False Nunits:3 )
( cline: 9.733 delta:15.5 )
( start_unit: 1 num_units: 3)
( MOP:  vint-trem-back-03 )
( FILE: G:\Shared drives\AlloyProjectFiles\Customer CAD files\Alloy-Standard-Builds-CAM\s-in\Bridges\vint-trem-back-03.nc)
G90
(  BEGIN TOOL LIST )
(  TOOL 4 - Downcut PT500 - DESC: 0.5000 DIA, 2 FLUTE,  CARBIDE MAT )
(  ENDOF TOOL LIST )
( vint-trem-back-03)
T04
S12000
M3
G0 Z4.0000
G0 X10.3430 Y-15.7629 
G1 X10.3430 Y-15.7629 Z1.1350 F75.
G17
G3X10.5930Y-15.5129Z1.1350I0.0000J0.2500 F20.
G1 X10.5930 Y-13.6829 Z1.1350 F40.
G1 X8.8730 Y-13.6829 Z1.1350
G1 X8.8730 Y-17.3429 Z1.1350
G2X8.6230Y-17.5929Z1.1350I-0.2500J0.0000
G1 X8.2330 Y-17.5929 Z1.1350
G1 X8.2330 Y-18.0929 Z1.1350
G1 X10.8580 Y-18.0929 Z1.1350
G1 X10.8580 Y-17.5929 Z1.1350
G2X10.5930Y-17.3429Z1.1350I-0.0142J0.2503
G1 X10.5930 Y-15.5129 Z1.1350
G3X10.3430Y-15.2629Z1.1350I-0.2500J0.0000
G0 Z4.0000
G0 X10.3430 Y-15.2629 
M5
G53 Z
( MOP:  vint-trem-back-03 )
( FILE: G:\Shared drives\AlloyProjectFiles\Customer CAD files\Alloy-Standard-Builds-CAM\s-in\Bridges\vint-trem-back-03.nc)
G90
(  BEGIN TOOL LIST )
(  TOOL 4 - Downcut PT500 - DESC: 0.5000 DIA, 2 FLUTE,  CARBIDE MAT )
(  ENDOF TOOL LIST )
( vint-trem-back-03)
T04
S12000
M3
G0 Z4.0000
G0 X25.8430 Y-15.7629 
G1 X25.8430 Y-15.7629 Z1.1350 F75.
G17
G3X26.0930Y-15.5129Z1.1350I0.0000J0.2500 F20.
G1 X26.0930 Y-13.6829 Z1.1350 F40.
G1 X24.3730 Y-13.6829 Z1.1350
G1 X24.3730 Y-17.3429 Z1.1350
G2X24.1230Y-17.5929Z1.1350I-0.2500J0.0000
G1 X23.7330 Y-17.5929 Z1.1350
G1 X23.7330 Y-18.0929 Z1.1350
G1 X26.3580 Y-18.0929 Z1.1350
G1 X26.3580 Y-17.5929 Z1.1350
G2X26.0930Y-17.3429Z1.1350I-0.0142J0.2503
G1 X26.0930 Y-15.5129 Z1.1350
G3X25.8430Y-15.2629Z1.1350I-0.2500J0.0000
G0 Z4.0000
G0 X25.8430 Y-15.2629 
M5
G53 Z
( MOP:  vint-trem-back-03 )
( FILE: G:\Shared drives\AlloyProjectFiles\Customer CAD files\Alloy-Standard-Builds-CAM\s-in\Bridges\vint-trem-back-03.nc)
G90
(  BEGIN TOOL LIST )
(  TOOL 4 - Downcut PT500 - DESC: 0.5000 DIA, 2 FLUTE,  CARBIDE MAT )
(  ENDOF TOOL LIST )
( vint-trem-back-03)
T04
S12000
M3
G0 Z4.0000
G0 X41.3430 Y-15.7629 
G1 X41.3430 Y-15.7629 Z1.1350 F75.
G17
G3X41.5930Y-15.5129Z1.1350I0.0000J0.2500 F20.
G1 X41.5930 Y-13.6829 Z1.1350 F40.
G1 X39.8730 Y-13.6829 Z1.1350
G1 X39.8730 Y-17.3429 Z1.1350
G2X39.6230Y-17.5929Z1.1350I-0.2500J0.0000
G1 X39.2330 Y-17.5929 Z1.1350
G1 X39.2330 Y-18.0929 Z1.1350
G1 X41.8580 Y-18.0929 Z1.1350
G1 X41.8580 Y-17.5929 Z1.1350
G2X41.5930Y-17.3429Z1.1350I-0.0142J0.2503
G1 X41.5930 Y-15.5129 Z1.1350
G3X41.3430Y-15.2629Z1.1350I-0.2500J0.0000
G0 Z4.0000
G0 X41.3430 Y-15.2629 
M5
G53 Z
( END FILE vint-trem-back-03.nc )
