( BEGIN FILE vint-trem-back-02.ncTNUM: -1 )
( Lefty:False Nunits:3 )
( cline: 9.733 delta:15.5 )
( start_unit: 1 num_units: 3)
( MOP:  vint-trem-back-02 )
( FILE: G:\Shared drives\AlloyProjectFiles\Customer CAD files\Alloy-Standard-Builds-CAM\s-in\Bridges\vint-trem-back-02.nc)
G90
(  BEGIN TOOL LIST )
(  TOOL 11 - Downcut PT750 ROUGH - DESC: 0.7500 DIA, 2 FLUTE,  CARBIDE MAT )
(  ENDOF TOOL LIST )
( vint-trem-back-02)
T11
S14000
M3
G0 Z4.0000
G0 X10.3679 Y-17.7429 
G1 X10.3679 Y-17.7429 Z1.8000 F75.
G1 X8.6230 Y-17.7429 Z1.4923 F50.
G1 X8.3830 Y-17.7429 Z1.4500
G1 X8.3830 Y-17.9429 Z1.4500 F150.
G1 X10.7080 Y-17.9429 Z1.4500
G1 X10.7080 Y-17.7429 Z1.4500
G1 X8.6230 Y-17.7429 Z1.4500
G1 X8.3830 Y-17.7429 Z1.4500
G0 Z1.7400
G0 X8.3830 Y-17.7429 
G0 Z1.7400
G0 X10.3679 Y-17.7429 
G1 X10.3679 Y-17.7429 Z1.4900 F75.
G1 X8.6230 Y-17.7429 Z1.1823 F50.
G1 X8.3830 Y-17.7429 Z1.1400
G1 X8.3830 Y-17.9429 Z1.1400 F150.
G1 X10.7080 Y-17.9429 Z1.1400
G1 X10.7080 Y-17.7429 Z1.1400
G1 X8.6230 Y-17.7429 Z1.1400
G1 X8.3830 Y-17.7429 Z1.1400
G0 Z1.4300
G0 X8.3830 Y-17.7429 
G0 Z1.4300
G0 X10.3679 Y-17.7429 
G1 X10.3679 Y-17.7429 Z1.1800 F75.
G1 X8.6230 Y-17.7429 Z0.8723 F50.
G1 X8.3830 Y-17.7429 Z0.8300
G1 X8.3830 Y-17.9429 Z0.8300 F150.
G1 X10.7080 Y-17.9429 Z0.8300
G1 X10.7080 Y-17.7429 Z0.8300
G1 X8.6230 Y-17.7429 Z0.8300
G1 X8.3830 Y-17.7429 Z0.8300
G0 Z1.1200
G0 X8.3830 Y-17.7429 
G0 Z1.1200
G0 X10.3679 Y-17.7429 
G1 X10.3679 Y-17.7429 Z0.8700 F75.
G1 X8.6230 Y-17.7429 Z0.5623 F50.
G1 X8.3830 Y-17.7429 Z0.5200
G1 X8.3830 Y-17.9429 Z0.5200 F150.
G1 X10.7080 Y-17.9429 Z0.5200
G1 X10.7080 Y-17.7429 Z0.5200
G1 X8.6230 Y-17.7429 Z0.5200
G1 X8.3830 Y-17.7429 Z0.5200
G0 Z0.8100
G0 X8.3830 Y-17.7429 
G0 Z0.8100
G0 X10.3679 Y-17.7429 
G1 X10.3679 Y-17.7429 Z0.5600 F75.
G1 X8.6230 Y-17.7429 Z0.2523 F50.
G1 X8.3830 Y-17.7429 Z0.2100
G1 X8.3830 Y-17.9429 Z0.2100 F150.
G1 X10.7080 Y-17.9429 Z0.2100
G1 X10.7080 Y-17.7429 Z0.2100
G1 X8.6230 Y-17.7429 Z0.2100
G1 X8.3830 Y-17.7429 Z0.2100
G0 Z4.0000
G0 X8.3830 Y-17.7429 
M5
G53 Z
( MOP:  vint-trem-back-02 )
( FILE: G:\Shared drives\AlloyProjectFiles\Customer CAD files\Alloy-Standard-Builds-CAM\s-in\Bridges\vint-trem-back-02.nc)
G90
(  BEGIN TOOL LIST )
(  TOOL 11 - Downcut PT750 ROUGH - DESC: 0.7500 DIA, 2 FLUTE,  CARBIDE MAT )
(  ENDOF TOOL LIST )
( vint-trem-back-02)
T11
S14000
M3
G0 Z4.0000
G0 X25.8679 Y-17.7429 
G1 X25.8679 Y-17.7429 Z1.8000 F75.
G1 X24.1230 Y-17.7429 Z1.4923 F50.
G1 X23.8830 Y-17.7429 Z1.4500
G1 X23.8830 Y-17.9429 Z1.4500 F150.
G1 X26.2080 Y-17.9429 Z1.4500
G1 X26.2080 Y-17.7429 Z1.4500
G1 X24.1230 Y-17.7429 Z1.4500
G1 X23.8830 Y-17.7429 Z1.4500
G0 Z1.7400
G0 X23.8830 Y-17.7429 
G0 Z1.7400
G0 X25.8679 Y-17.7429 
G1 X25.8679 Y-17.7429 Z1.4900 F75.
G1 X24.1230 Y-17.7429 Z1.1823 F50.
G1 X23.8830 Y-17.7429 Z1.1400
G1 X23.8830 Y-17.9429 Z1.1400 F150.
G1 X26.2080 Y-17.9429 Z1.1400
G1 X26.2080 Y-17.7429 Z1.1400
G1 X24.1230 Y-17.7429 Z1.1400
G1 X23.8830 Y-17.7429 Z1.1400
G0 Z1.4300
G0 X23.8830 Y-17.7429 
G0 Z1.4300
G0 X25.8679 Y-17.7429 
G1 X25.8679 Y-17.7429 Z1.1800 F75.
G1 X24.1230 Y-17.7429 Z0.8723 F50.
G1 X23.8830 Y-17.7429 Z0.8300
G1 X23.8830 Y-17.9429 Z0.8300 F150.
G1 X26.2080 Y-17.9429 Z0.8300
G1 X26.2080 Y-17.7429 Z0.8300
G1 X24.1230 Y-17.7429 Z0.8300
G1 X23.8830 Y-17.7429 Z0.8300
G0 Z1.1200
G0 X23.8830 Y-17.7429 
G0 Z1.1200
G0 X25.8679 Y-17.7429 
G1 X25.8679 Y-17.7429 Z0.8700 F75.
G1 X24.1230 Y-17.7429 Z0.5623 F50.
G1 X23.8830 Y-17.7429 Z0.5200
G1 X23.8830 Y-17.9429 Z0.5200 F150.
G1 X26.2080 Y-17.9429 Z0.5200
G1 X26.2080 Y-17.7429 Z0.5200
G1 X24.1230 Y-17.7429 Z0.5200
G1 X23.8830 Y-17.7429 Z0.5200
G0 Z0.8100
G0 X23.8830 Y-17.7429 
G0 Z0.8100
G0 X25.8679 Y-17.7429 
G1 X25.8679 Y-17.7429 Z0.5600 F75.
G1 X24.1230 Y-17.7429 Z0.2523 F50.
G1 X23.8830 Y-17.7429 Z0.2100
G1 X23.8830 Y-17.9429 Z0.2100 F150.
G1 X26.2080 Y-17.9429 Z0.2100
G1 X26.2080 Y-17.7429 Z0.2100
G1 X24.1230 Y-17.7429 Z0.2100
G1 X23.8830 Y-17.7429 Z0.2100
G0 Z4.0000
G0 X23.8830 Y-17.7429 
M5
G53 Z
( MOP:  vint-trem-back-02 )
( FILE: G:\Shared drives\AlloyProjectFiles\Customer CAD files\Alloy-Standard-Builds-CAM\s-in\Bridges\vint-trem-back-02.nc)
G90
(  BEGIN TOOL LIST )
(  TOOL 11 - Downcut PT750 ROUGH - DESC: 0.7500 DIA, 2 FLUTE,  CARBIDE MAT )
(  ENDOF TOOL LIST )
( vint-trem-back-02)
T11
S14000
M3
G0 Z4.0000
G0 X41.3679 Y-17.7429 
G1 X41.3679 Y-17.7429 Z1.8000 F75.
G1 X39.6230 Y-17.7429 Z1.4923 F50.
G1 X39.3830 Y-17.7429 Z1.4500
G1 X39.3830 Y-17.9429 Z1.4500 F150.
G1 X41.7080 Y-17.9429 Z1.4500
G1 X41.7080 Y-17.7429 Z1.4500
G1 X39.6230 Y-17.7429 Z1.4500
G1 X39.3830 Y-17.7429 Z1.4500
G0 Z1.7400
G0 X39.3830 Y-17.7429 
G0 Z1.7400
G0 X41.3679 Y-17.7429 
G1 X41.3679 Y-17.7429 Z1.4900 F75.
G1 X39.6230 Y-17.7429 Z1.1823 F50.
G1 X39.3830 Y-17.7429 Z1.1400
G1 X39.3830 Y-17.9429 Z1.1400 F150.
G1 X41.7080 Y-17.9429 Z1.1400
G1 X41.7080 Y-17.7429 Z1.1400
G1 X39.6230 Y-17.7429 Z1.1400
G1 X39.3830 Y-17.7429 Z1.1400
G0 Z1.4300
G0 X39.3830 Y-17.7429 
G0 Z1.4300
G0 X41.3679 Y-17.7429 
G1 X41.3679 Y-17.7429 Z1.1800 F75.
G1 X39.6230 Y-17.7429 Z0.8723 F50.
G1 X39.3830 Y-17.7429 Z0.8300
G1 X39.3830 Y-17.9429 Z0.8300 F150.
G1 X41.7080 Y-17.9429 Z0.8300
G1 X41.7080 Y-17.7429 Z0.8300
G1 X39.6230 Y-17.7429 Z0.8300
G1 X39.3830 Y-17.7429 Z0.8300
G0 Z1.1200
G0 X39.3830 Y-17.7429 
G0 Z1.1200
G0 X41.3679 Y-17.7429 
G1 X41.3679 Y-17.7429 Z0.8700 F75.
G1 X39.6230 Y-17.7429 Z0.5623 F50.
G1 X39.3830 Y-17.7429 Z0.5200
G1 X39.3830 Y-17.9429 Z0.5200 F150.
G1 X41.7080 Y-17.9429 Z0.5200
G1 X41.7080 Y-17.7429 Z0.5200
G1 X39.6230 Y-17.7429 Z0.5200
G1 X39.3830 Y-17.7429 Z0.5200
G0 Z0.8100
G0 X39.3830 Y-17.7429 
G0 Z0.8100
G0 X41.3679 Y-17.7429 
G1 X41.3679 Y-17.7429 Z0.5600 F75.
G1 X39.6230 Y-17.7429 Z0.2523 F50.
G1 X39.3830 Y-17.7429 Z0.2100
G1 X39.3830 Y-17.9429 Z0.2100 F150.
G1 X41.7080 Y-17.9429 Z0.2100
G1 X41.7080 Y-17.7429 Z0.2100
G1 X39.6230 Y-17.7429 Z0.2100
G1 X39.3830 Y-17.7429 Z0.2100
G0 Z4.0000
G0 X39.3830 Y-17.7429 
M5
G53 Z
( END FILE vint-trem-back-02.nc )
