( MOP:  AS-Trem-Posts-front-07 )
( FILE: G:\Shared drives\AlloyProjectFiles\Customer CAD files\Alloy-Standard-Builds-CAM\s-in\Bridges\AS-Trem-Posts-front-07.nc)
G90
(  BEGIN TOOL LIST )
(  TOOL 6 - Downcut PT250 - DESC: 0.2500 DIA, 2 FLUTE,  CARBIDE MAT )
(  ENDOF TOOL LIST )
( AS-Trem-Posts-front-07)
( Max Depth 1.75)
T06
S12000
M3
G0 Z4.0000
G0 X10.9132 Y-16.8346 
G1 X10.9132 Y-16.8346 Z1.8100 F75.
G1 X10.9132 Y-16.8346 Z1.7850 F25.
G1 X10.9131 Y-16.8327 Z1.7840
G1 X10.9117 Y-16.8247 Z1.7795
G1 X10.9095 Y-16.8170 Z1.7750
G1 X10.9064 Y-16.8096 Z1.7706
G1 X10.9025 Y-16.8025 Z1.7661
G1 X10.8979 Y-16.7960 Z1.7616
G1 X10.8925 Y-16.7900 Z1.7572
G1 X10.8865 Y-16.7846 Z1.7527
G1 X10.8799 Y-16.7799 Z1.7483
G1 X10.8729 Y-16.7760 Z1.7438
G1 X10.8655 Y-16.7730 Z1.7393
G1 X10.8577 Y-16.7707 Z1.7349
G1 X10.8498 Y-16.7694 Z1.7304
G1 X10.8417 Y-16.7689 Z1.7260
G1 X10.8337 Y-16.7694 Z1.7215
G1 X10.8258 Y-16.7707 Z1.7170
G1 X10.8180 Y-16.7730 Z1.7126
G1 X10.8106 Y-16.7760 Z1.7081
G1 X10.8036 Y-16.7799 Z1.7036
G1 X10.7970 Y-16.7846 Z1.6992
G1 X10.7910 Y-16.7900 Z1.6947
G1 X10.7856 Y-16.7960 Z1.6903
G1 X10.7810 Y-16.8025 Z1.6858
G1 X10.7771 Y-16.8096 Z1.6813
G1 X10.7740 Y-16.8170 Z1.6769
G1 X10.7718 Y-16.8247 Z1.6724
G1 X10.7704 Y-16.8327 Z1.6679
G1 X10.7700 Y-16.8407 Z1.6635
G1 X10.7704 Y-16.8488 Z1.6590
G1 X10.7718 Y-16.8567 Z1.6546
G1 X10.7740 Y-16.8644 Z1.6501
G1 X10.7771 Y-16.8719 Z1.6456
G1 X10.7810 Y-16.8789 Z1.6412
G1 X10.7856 Y-16.8855 Z1.6367
G1 X10.7910 Y-16.8915 Z1.6323
G1 X10.7970 Y-16.8968 Z1.6278
G1 X10.8036 Y-16.9015 Z1.6233
G1 X10.8106 Y-16.9054 Z1.6189
G1 X10.8180 Y-16.9085 Z1.6144
G1 X10.8258 Y-16.9107 Z1.6099
G1 X10.8337 Y-16.9120 Z1.6055
G1 X10.8417 Y-16.9125 Z1.6010
G1 X10.8498 Y-16.9120 Z1.5966
G1 X10.8577 Y-16.9107 Z1.5921
G1 X10.8655 Y-16.9085 Z1.5876
G1 X10.8729 Y-16.9054 Z1.5832
G1 X10.8799 Y-16.9015 Z1.5787
G1 X10.8865 Y-16.8968 Z1.5742
G1 X10.8925 Y-16.8915 Z1.5698
G1 X10.8979 Y-16.8855 Z1.5653
G1 X10.9025 Y-16.8789 Z1.5609
G1 X10.9064 Y-16.8719 Z1.5564
G1 X10.9095 Y-16.8644 Z1.5519
G1 X10.9117 Y-16.8567 Z1.5475
G1 X10.9131 Y-16.8488 Z1.5430
G1 X10.9135 Y-16.8407 Z1.5385
G17
G3X10.7700Y-16.8407Z1.5385I-0.0718J0.0000
G3X10.9135Y-16.8407Z1.5385I0.0717J0.0000
G1 X10.8959 Y-16.7937 Z1.5385
G1 X10.8925 Y-16.7900 Z1.5357
G1 X10.8865 Y-16.7846 Z1.5313
G1 X10.8799 Y-16.7799 Z1.5268
G1 X10.8729 Y-16.7760 Z1.5223
G1 X10.8655 Y-16.7730 Z1.5179
G1 X10.8577 Y-16.7707 Z1.5134
G1 X10.8498 Y-16.7694 Z1.5090
G1 X10.8417 Y-16.7689 Z1.5045
G1 X10.8337 Y-16.7694 Z1.5000
G1 X10.8258 Y-16.7707 Z1.4956
G1 X10.8180 Y-16.7730 Z1.4911
G1 X10.8106 Y-16.7760 Z1.4867
G1 X10.8036 Y-16.7799 Z1.4822
G1 X10.7970 Y-16.7846 Z1.4777
G1 X10.7910 Y-16.7900 Z1.4733
G1 X10.7856 Y-16.7960 Z1.4688
G1 X10.7810 Y-16.8025 Z1.4643
G1 X10.7771 Y-16.8096 Z1.4599
G1 X10.7740 Y-16.8170 Z1.4554
G1 X10.7718 Y-16.8247 Z1.4510
G1 X10.7704 Y-16.8327 Z1.4465
G1 X10.7700 Y-16.8407 Z1.4420
G1 X10.7704 Y-16.8488 Z1.4376
G1 X10.7718 Y-16.8567 Z1.4331
G1 X10.7740 Y-16.8644 Z1.4286
G1 X10.7771 Y-16.8719 Z1.4242
G1 X10.7810 Y-16.8789 Z1.4197
G1 X10.7856 Y-16.8855 Z1.4153
G1 X10.7910 Y-16.8915 Z1.4108
G1 X10.7970 Y-16.8968 Z1.4063
G1 X10.8036 Y-16.9015 Z1.4019
G1 X10.8106 Y-16.9054 Z1.3974
G1 X10.8180 Y-16.9085 Z1.3930
G1 X10.8258 Y-16.9107 Z1.3885
G1 X10.8337 Y-16.9120 Z1.3840
G1 X10.8417 Y-16.9125 Z1.3796
G1 X10.8498 Y-16.9120 Z1.3751
G1 X10.8577 Y-16.9107 Z1.3706
G1 X10.8655 Y-16.9085 Z1.3662
G1 X10.8729 Y-16.9054 Z1.3617
G1 X10.8799 Y-16.9015 Z1.3573
G1 X10.8865 Y-16.8968 Z1.3528
G1 X10.8925 Y-16.8915 Z1.3483
G1 X10.8979 Y-16.8855 Z1.3439
G1 X10.9025 Y-16.8789 Z1.3394
G1 X10.9064 Y-16.8719 Z1.3349
G1 X10.9095 Y-16.8644 Z1.3305
G1 X10.9117 Y-16.8567 Z1.3260
G1 X10.9131 Y-16.8488 Z1.3216
G1 X10.9135 Y-16.8407 Z1.3171
G3X10.7700Y-16.8407Z1.3171I-0.0718J0.0000
G3X10.9135Y-16.8407Z1.3171I0.0717J0.0000
G1 X10.8959 Y-16.7937 Z1.3171
G1 X10.8925 Y-16.7900 Z1.3143
G1 X10.8865 Y-16.7846 Z1.3098
G1 X10.8799 Y-16.7799 Z1.3054
G1 X10.8729 Y-16.7760 Z1.3009
G1 X10.8655 Y-16.7730 Z1.2964
G1 X10.8577 Y-16.7707 Z1.2920
G1 X10.8498 Y-16.7694 Z1.2875
G1 X10.8417 Y-16.7689 Z1.2831
G1 X10.8337 Y-16.7694 Z1.2786
G1 X10.8258 Y-16.7707 Z1.2741
G1 X10.8180 Y-16.7730 Z1.2697
G1 X10.8106 Y-16.7760 Z1.2652
G1 X10.8036 Y-16.7799 Z1.2607
G1 X10.7970 Y-16.7846 Z1.2563
G1 X10.7910 Y-16.7900 Z1.2518
G1 X10.7856 Y-16.7960 Z1.2474
G1 X10.7810 Y-16.8025 Z1.2429
G1 X10.7771 Y-16.8096 Z1.2384
G1 X10.7740 Y-16.8170 Z1.2340
G1 X10.7718 Y-16.8247 Z1.2295
G1 X10.7704 Y-16.8327 Z1.2250
G1 X10.7700 Y-16.8407 Z1.2206
G1 X10.7704 Y-16.8488 Z1.2161
G1 X10.7718 Y-16.8567 Z1.2117
G1 X10.7740 Y-16.8644 Z1.2072
G1 X10.7771 Y-16.8719 Z1.2027
G1 X10.7810 Y-16.8789 Z1.1983
G1 X10.7856 Y-16.8855 Z1.1938
G1 X10.7910 Y-16.8915 Z1.1894
G1 X10.7970 Y-16.8968 Z1.1849
G1 X10.8036 Y-16.9015 Z1.1804
G1 X10.8106 Y-16.9054 Z1.1760
G1 X10.8180 Y-16.9085 Z1.1715
G1 X10.8258 Y-16.9107 Z1.1670
G1 X10.8337 Y-16.9120 Z1.1626
G1 X10.8417 Y-16.9125 Z1.1581
G1 X10.8498 Y-16.9120 Z1.1537
G1 X10.8577 Y-16.9107 Z1.1492
G1 X10.8655 Y-16.9085 Z1.1447
G1 X10.8729 Y-16.9054 Z1.1403
G1 X10.8799 Y-16.9015 Z1.1358
G1 X10.8865 Y-16.8968 Z1.1313
G1 X10.8925 Y-16.8915 Z1.1269
G1 X10.8979 Y-16.8855 Z1.1224
G1 X10.9025 Y-16.8789 Z1.1180
G1 X10.9064 Y-16.8719 Z1.1135
G1 X10.9095 Y-16.8644 Z1.1090
G1 X10.9117 Y-16.8567 Z1.1046
G1 X10.9131 Y-16.8488 Z1.1001
G1 X10.9135 Y-16.8407 Z1.0956
G3X10.7700Y-16.8407Z1.0956I-0.0718J0.0000
G3X10.9135Y-16.8407Z1.0956I0.0717J0.0000
G1 X10.8959 Y-16.7937 Z1.0956
G1 X10.8925 Y-16.7900 Z1.0928
G1 X10.8865 Y-16.7846 Z1.0884
G1 X10.8799 Y-16.7799 Z1.0839
G1 X10.8729 Y-16.7760 Z1.0794
G1 X10.8655 Y-16.7730 Z1.0750
G1 X10.8577 Y-16.7707 Z1.0705
G1 X10.8498 Y-16.7694 Z1.0661
G1 X10.8417 Y-16.7689 Z1.0616
G1 X10.8337 Y-16.7694 Z1.0571
G1 X10.8258 Y-16.7707 Z1.0527
G1 X10.8180 Y-16.7730 Z1.0482
G1 X10.8106 Y-16.7760 Z1.0438
G1 X10.8036 Y-16.7799 Z1.0393
G1 X10.7970 Y-16.7846 Z1.0348
G1 X10.7910 Y-16.7900 Z1.0304
G1 X10.7856 Y-16.7960 Z1.0259
G1 X10.7810 Y-16.8025 Z1.0214
G1 X10.7771 Y-16.8096 Z1.0170
G1 X10.7740 Y-16.8170 Z1.0125
G1 X10.7718 Y-16.8247 Z1.0081
G1 X10.7704 Y-16.8327 Z1.0036
G1 X10.7700 Y-16.8407 Z0.9991
G1 X10.7704 Y-16.8488 Z0.9947
G1 X10.7718 Y-16.8567 Z0.9902
G1 X10.7740 Y-16.8644 Z0.9857
G1 X10.7771 Y-16.8719 Z0.9813
G1 X10.7810 Y-16.8789 Z0.9768
G1 X10.7856 Y-16.8855 Z0.9724
G1 X10.7910 Y-16.8915 Z0.9679
G1 X10.7970 Y-16.8968 Z0.9634
G1 X10.8036 Y-16.9015 Z0.9590
G1 X10.8106 Y-16.9054 Z0.9545
G1 X10.8180 Y-16.9085 Z0.9501
G1 X10.8258 Y-16.9107 Z0.9456
G1 X10.8337 Y-16.9120 Z0.9411
G1 X10.8417 Y-16.9125 Z0.9367
G1 X10.8498 Y-16.9120 Z0.9322
G1 X10.8577 Y-16.9107 Z0.9277
G1 X10.8655 Y-16.9085 Z0.9233
G1 X10.8729 Y-16.9054 Z0.9188
G1 X10.8799 Y-16.9015 Z0.9144
G1 X10.8865 Y-16.8968 Z0.9099
G1 X10.8925 Y-16.8915 Z0.9054
G1 X10.8979 Y-16.8855 Z0.9010
G1 X10.9025 Y-16.8789 Z0.8965
G1 X10.9064 Y-16.8719 Z0.8920
G1 X10.9095 Y-16.8644 Z0.8876
G1 X10.9117 Y-16.8567 Z0.8831
G1 X10.9131 Y-16.8488 Z0.8787
G1 X10.9135 Y-16.8407 Z0.8742
G3X10.7700Y-16.8407Z0.8742I-0.0718J0.0000
G3X10.9135Y-16.8407Z0.8742I0.0717J0.0000
G1 X10.8417 Y-16.8407 Z0.8742
G0 Z2.0600
G0 X10.8417 Y-16.8407 
G0 Z2.0600
G0 X8.6944 Y-16.8346 
G1 X8.6944 Y-16.8346 Z1.8100 F75.
G1 X8.6944 Y-16.8346 Z1.7850 F25.
G1 X8.6943 Y-16.8327 Z1.7840
G1 X8.6930 Y-16.8247 Z1.7795
G1 X8.6907 Y-16.8170 Z1.7750
G1 X8.6877 Y-16.8096 Z1.7706
G1 X8.6838 Y-16.8025 Z1.7661
G1 X8.6791 Y-16.7960 Z1.7616
G1 X8.6738 Y-16.7900 Z1.7572
G1 X8.6677 Y-16.7846 Z1.7527
G1 X8.6612 Y-16.7799 Z1.7483
G1 X8.6541 Y-16.7760 Z1.7438
G1 X8.6467 Y-16.7730 Z1.7393
G1 X8.6390 Y-16.7707 Z1.7349
G1 X8.6310 Y-16.7694 Z1.7304
G1 X8.6230 Y-16.7689 Z1.7260
G1 X8.6150 Y-16.7694 Z1.7215
G1 X8.6070 Y-16.7707 Z1.7170
G1 X8.5993 Y-16.7730 Z1.7126
G1 X8.5919 Y-16.7760 Z1.7081
G1 X8.5848 Y-16.7799 Z1.7036
G1 X8.5782 Y-16.7846 Z1.6992
G1 X8.5722 Y-16.7900 Z1.6947
G1 X8.5669 Y-16.7960 Z1.6903
G1 X8.5622 Y-16.8025 Z1.6858
G1 X8.5583 Y-16.8096 Z1.6813
G1 X8.5553 Y-16.8170 Z1.6769
G1 X8.5530 Y-16.8247 Z1.6724
G1 X8.5517 Y-16.8327 Z1.6679
G1 X8.5512 Y-16.8407 Z1.6635
G1 X8.5517 Y-16.8488 Z1.6590
G1 X8.5530 Y-16.8567 Z1.6546
G1 X8.5553 Y-16.8644 Z1.6501
G1 X8.5583 Y-16.8719 Z1.6456
G1 X8.5622 Y-16.8789 Z1.6412
G1 X8.5669 Y-16.8855 Z1.6367
G1 X8.5722 Y-16.8915 Z1.6323
G1 X8.5782 Y-16.8968 Z1.6278
G1 X8.5848 Y-16.9015 Z1.6233
G1 X8.5919 Y-16.9054 Z1.6189
G1 X8.5993 Y-16.9085 Z1.6144
G1 X8.6070 Y-16.9107 Z1.6099
G1 X8.6150 Y-16.9120 Z1.6055
G1 X8.6230 Y-16.9125 Z1.6010
G1 X8.6310 Y-16.9120 Z1.5966
G1 X8.6390 Y-16.9107 Z1.5921
G1 X8.6467 Y-16.9085 Z1.5876
G1 X8.6541 Y-16.9054 Z1.5832
G1 X8.6612 Y-16.9015 Z1.5787
G1 X8.6677 Y-16.8968 Z1.5742
G1 X8.6738 Y-16.8915 Z1.5698
G1 X8.6791 Y-16.8855 Z1.5653
G1 X8.6838 Y-16.8789 Z1.5609
G1 X8.6877 Y-16.8719 Z1.5564
G1 X8.6907 Y-16.8644 Z1.5519
G1 X8.6930 Y-16.8567 Z1.5475
G1 X8.6943 Y-16.8488 Z1.5430
G1 X8.6948 Y-16.8407 Z1.5385
G3X8.5512Y-16.8407Z1.5385I-0.0718J0.0000
G3X8.6948Y-16.8407Z1.5385I0.0718J0.0000
G1 X8.6771 Y-16.7937 Z1.5385
G1 X8.6738 Y-16.7900 Z1.5357
G1 X8.6677 Y-16.7846 Z1.5313
G1 X8.6612 Y-16.7799 Z1.5268
G1 X8.6541 Y-16.7760 Z1.5223
G1 X8.6467 Y-16.7730 Z1.5179
G1 X8.6390 Y-16.7707 Z1.5134
G1 X8.6310 Y-16.7694 Z1.5090
G1 X8.6230 Y-16.7689 Z1.5045
G1 X8.6150 Y-16.7694 Z1.5000
G1 X8.6070 Y-16.7707 Z1.4956
G1 X8.5993 Y-16.7730 Z1.4911
G1 X8.5919 Y-16.7760 Z1.4867
G1 X8.5848 Y-16.7799 Z1.4822
G1 X8.5782 Y-16.7846 Z1.4777
G1 X8.5722 Y-16.7900 Z1.4733
G1 X8.5669 Y-16.7960 Z1.4688
G1 X8.5622 Y-16.8025 Z1.4643
G1 X8.5583 Y-16.8096 Z1.4599
G1 X8.5553 Y-16.8170 Z1.4554
G1 X8.5530 Y-16.8247 Z1.4510
G1 X8.5517 Y-16.8327 Z1.4465
G1 X8.5512 Y-16.8407 Z1.4420
G1 X8.5517 Y-16.8488 Z1.4376
G1 X8.5530 Y-16.8567 Z1.4331
G1 X8.5553 Y-16.8644 Z1.4286
G1 X8.5583 Y-16.8719 Z1.4242
G1 X8.5622 Y-16.8789 Z1.4197
G1 X8.5669 Y-16.8855 Z1.4153
G1 X8.5722 Y-16.8915 Z1.4108
G1 X8.5782 Y-16.8968 Z1.4063
G1 X8.5848 Y-16.9015 Z1.4019
G1 X8.5919 Y-16.9054 Z1.3974
G1 X8.5993 Y-16.9085 Z1.3930
G1 X8.6070 Y-16.9107 Z1.3885
G1 X8.6150 Y-16.9120 Z1.3840
G1 X8.6230 Y-16.9125 Z1.3796
G1 X8.6310 Y-16.9120 Z1.3751
G1 X8.6390 Y-16.9107 Z1.3706
G1 X8.6467 Y-16.9085 Z1.3662
G1 X8.6541 Y-16.9054 Z1.3617
G1 X8.6612 Y-16.9015 Z1.3573
G1 X8.6677 Y-16.8968 Z1.3528
G1 X8.6738 Y-16.8915 Z1.3483
G1 X8.6791 Y-16.8855 Z1.3439
G1 X8.6838 Y-16.8789 Z1.3394
G1 X8.6877 Y-16.8719 Z1.3349
G1 X8.6907 Y-16.8644 Z1.3305
G1 X8.6930 Y-16.8567 Z1.3260
G1 X8.6943 Y-16.8488 Z1.3216
G1 X8.6948 Y-16.8407 Z1.3171
G3X8.5512Y-16.8407Z1.3171I-0.0718J0.0000
G3X8.6948Y-16.8407Z1.3171I0.0718J0.0000
G1 X8.6771 Y-16.7937 Z1.3171
G1 X8.6738 Y-16.7900 Z1.3143
G1 X8.6677 Y-16.7846 Z1.3098
G1 X8.6612 Y-16.7799 Z1.3054
G1 X8.6541 Y-16.7760 Z1.3009
G1 X8.6467 Y-16.7730 Z1.2964
G1 X8.6390 Y-16.7707 Z1.2920
G1 X8.6310 Y-16.7694 Z1.2875
G1 X8.6230 Y-16.7689 Z1.2831
G1 X8.6150 Y-16.7694 Z1.2786
G1 X8.6070 Y-16.7707 Z1.2741
G1 X8.5993 Y-16.7730 Z1.2697
G1 X8.5919 Y-16.7760 Z1.2652
G1 X8.5848 Y-16.7799 Z1.2607
G1 X8.5782 Y-16.7846 Z1.2563
G1 X8.5722 Y-16.7900 Z1.2518
G1 X8.5669 Y-16.7960 Z1.2474
G1 X8.5622 Y-16.8025 Z1.2429
G1 X8.5583 Y-16.8096 Z1.2384
G1 X8.5553 Y-16.8170 Z1.2340
G1 X8.5530 Y-16.8247 Z1.2295
G1 X8.5517 Y-16.8327 Z1.2250
G1 X8.5512 Y-16.8407 Z1.2206
G1 X8.5517 Y-16.8488 Z1.2161
G1 X8.5530 Y-16.8567 Z1.2117
G1 X8.5553 Y-16.8644 Z1.2072
G1 X8.5583 Y-16.8719 Z1.2027
G1 X8.5622 Y-16.8789 Z1.1983
G1 X8.5669 Y-16.8855 Z1.1938
G1 X8.5722 Y-16.8915 Z1.1894
G1 X8.5782 Y-16.8968 Z1.1849
G1 X8.5848 Y-16.9015 Z1.1804
G1 X8.5919 Y-16.9054 Z1.1760
G1 X8.5993 Y-16.9085 Z1.1715
G1 X8.6070 Y-16.9107 Z1.1670
G1 X8.6150 Y-16.9120 Z1.1626
G1 X8.6230 Y-16.9125 Z1.1581
G1 X8.6310 Y-16.9120 Z1.1537
G1 X8.6390 Y-16.9107 Z1.1492
G1 X8.6467 Y-16.9085 Z1.1447
G1 X8.6541 Y-16.9054 Z1.1403
G1 X8.6612 Y-16.9015 Z1.1358
G1 X8.6677 Y-16.8968 Z1.1313
G1 X8.6738 Y-16.8915 Z1.1269
G1 X8.6791 Y-16.8855 Z1.1224
G1 X8.6838 Y-16.8789 Z1.1180
G1 X8.6877 Y-16.8719 Z1.1135
G1 X8.6907 Y-16.8644 Z1.1090
G1 X8.6930 Y-16.8567 Z1.1046
G1 X8.6943 Y-16.8488 Z1.1001
G1 X8.6948 Y-16.8407 Z1.0956
G3X8.5512Y-16.8407Z1.0956I-0.0718J0.0000
G3X8.6948Y-16.8407Z1.0956I0.0718J0.0000
G1 X8.6771 Y-16.7937 Z1.0956
G1 X8.6738 Y-16.7900 Z1.0928
G1 X8.6677 Y-16.7846 Z1.0884
G1 X8.6612 Y-16.7799 Z1.0839
G1 X8.6541 Y-16.7760 Z1.0794
G1 X8.6467 Y-16.7730 Z1.0750
G1 X8.6390 Y-16.7707 Z1.0705
G1 X8.6310 Y-16.7694 Z1.0661
G1 X8.6230 Y-16.7689 Z1.0616
G1 X8.6150 Y-16.7694 Z1.0571
G1 X8.6070 Y-16.7707 Z1.0527
G1 X8.5993 Y-16.7730 Z1.0482
G1 X8.5919 Y-16.7760 Z1.0438
G1 X8.5848 Y-16.7799 Z1.0393
G1 X8.5782 Y-16.7846 Z1.0348
G1 X8.5722 Y-16.7900 Z1.0304
G1 X8.5669 Y-16.7960 Z1.0259
G1 X8.5622 Y-16.8025 Z1.0214
G1 X8.5583 Y-16.8096 Z1.0170
G1 X8.5553 Y-16.8170 Z1.0125
G1 X8.5530 Y-16.8247 Z1.0081
G1 X8.5517 Y-16.8327 Z1.0036
G1 X8.5512 Y-16.8407 Z0.9991
G1 X8.5517 Y-16.8488 Z0.9947
G1 X8.5530 Y-16.8567 Z0.9902
G1 X8.5553 Y-16.8644 Z0.9857
G1 X8.5583 Y-16.8719 Z0.9813
G1 X8.5622 Y-16.8789 Z0.9768
G1 X8.5669 Y-16.8855 Z0.9724
G1 X8.5722 Y-16.8915 Z0.9679
G1 X8.5782 Y-16.8968 Z0.9634
G1 X8.5848 Y-16.9015 Z0.9590
G1 X8.5919 Y-16.9054 Z0.9545
G1 X8.5993 Y-16.9085 Z0.9501
G1 X8.6070 Y-16.9107 Z0.9456
G1 X8.6150 Y-16.9120 Z0.9411
G1 X8.6230 Y-16.9125 Z0.9367
G1 X8.6310 Y-16.9120 Z0.9322
G1 X8.6390 Y-16.9107 Z0.9277
G1 X8.6467 Y-16.9085 Z0.9233
G1 X8.6541 Y-16.9054 Z0.9188
G1 X8.6612 Y-16.9015 Z0.9144
G1 X8.6677 Y-16.8968 Z0.9099
G1 X8.6738 Y-16.8915 Z0.9054
G1 X8.6791 Y-16.8855 Z0.9010
G1 X8.6838 Y-16.8789 Z0.8965
G1 X8.6877 Y-16.8719 Z0.8920
G1 X8.6907 Y-16.8644 Z0.8876
G1 X8.6930 Y-16.8567 Z0.8831
G1 X8.6943 Y-16.8488 Z0.8787
G1 X8.6948 Y-16.8407 Z0.8742
G3X8.5512Y-16.8407Z0.8742I-0.0718J0.0000
G3X8.6948Y-16.8407Z0.8742I0.0718J0.0000
G1 X8.6230 Y-16.8407 Z0.8742
G0 Z4.0000
G0 X8.6230 Y-16.8407 
M5
G53 Z
X2Y0
