( MOP:  vint-T-8mm-ferrules-back-04 )
( FILE: G:\Shared drives\AlloyProjectFiles\Customer CAD files\Alloy-Standard-Builds-CAM\s-in\Bridges\vint-T-8mm-ferrules-back-04.nc)
G90
(  BEGIN TOOL LIST )
(  TOOL 10 - Drill PT3150 8mm - DESC: 0.3150 DIA, 2 FLUTE,  CARBIDE MAT )
(  ENDOF TOOL LIST )
( vint-T-8mm-ferrules-back-04)
T10
S6000
M3
G0 Z4.0000
G0 X10.7956 Y-17.7199 
G0 Z1.8600
G83 X10.7956 Y-17.7199 Z1.2950 R1.8600 Q0.16 F40.0
G80
G0 Z2.0100
G0 X10.3706 Y-17.7200 
G0 Z1.8600
G83 X10.3706 Y-17.7200 Z1.2950 R1.8600 Q0.16 F40.0
G80
G0 Z2.0100
G0 X9.9456 Y-17.7200 
G0 Z1.8600
G83 X9.9456 Y-17.7200 Z1.2950 R1.8600 Q0.16 F40.0
G80
G0 Z2.0100
G0 X9.5206 Y-17.7200 
G0 Z1.8600
G83 X9.5206 Y-17.7200 Z1.2950 R1.8600 Q0.16 F40.0
G80
G0 Z2.0100
G0 X9.0956 Y-17.7200 
G0 Z1.8600
G83 X9.0956 Y-17.7200 Z1.2950 R1.8600 Q0.16 F40.0
G80
G0 Z2.0100
G0 X8.6706 Y-17.7201 
G0 Z1.8600
G83 X8.6706 Y-17.7201 Z1.2950 R1.8600 Q0.16 F40.0
G80
G0 Z4.0000
G0 X8.6706 Y-17.7201 
M5
G53 Z
X2Y0
