( MOP:  vint-trem-back-04 )
( FILE: G:\Shared drives\AlloyProjectFiles\Customer CAD files\Alloy-Standard-Builds-CAM\s-in\Bridges\vint-trem-back-04.nc)
G90
(  BEGIN TOOL LIST )
(  TOOL 4 - Downcut PT500 - DESC: 0.5000 DIA, 2 FLUTE,  CARBIDE MAT )
(  ENDOF TOOL LIST )
( vint-trem-back-04)
T04
S12000
M3
G0 Z4.0000
G0 X9.8955 Y-17.7429 
G1 X9.8955 Y-17.7429 Z0.9850 F75.
G17
G2X9.5455Y-18.0929Z0.9850I-0.3500J0.0000 F20.
G1 X8.2330 Y-18.0929 Z0.9850 F40.
G1 X8.2330 Y-17.5929 Z0.9850
G1 X10.8580 Y-17.5929 Z0.9850
G1 X10.8580 Y-18.0929 Z0.9850
G1 X9.5455 Y-18.0929 Z0.9850
G1 X9.2955 Y-18.0929 Z0.9850
G2X8.9455Y-17.7429Z0.9850I0.0000J0.3500
G0 Z1.2350
G0 X8.9455 Y-17.7429 
G0 Z1.2350
G0 X9.8955 Y-17.7429 
G1 X9.8955 Y-17.7429 Z0.2100 F75.
G2X9.5455Y-18.0929Z0.2100I-0.3500J0.0000 F20.
G1 X8.2330 Y-18.0929 Z0.2100 F40.
G1 X8.2330 Y-17.5929 Z0.2100
G1 X10.8580 Y-17.5929 Z0.2100
G1 X10.8580 Y-18.0929 Z0.2100
G1 X9.5455 Y-18.0929 Z0.2100
G1 X9.2955 Y-18.0929 Z0.2100
G2X8.9455Y-17.7429Z0.2100I0.0000J0.3500
G0 Z4.0000
G0 X8.9455 Y-17.7429 
M5
G53 Z
X2Y0
