( MOP:  vint-trem-back-01 )
( FILE: G:\Shared drives\AlloyProjectFiles\Customer CAD files\Alloy-Standard-Builds-CAM\s-in\Bridges\vint-trem-back-01.nc)
G90
(  BEGIN TOOL LIST )
(  TOOL 11 - Downcut PT750 ROUGH - DESC: 0.7500 DIA, 2 FLUTE,  CARBIDE MAT )
(  ENDOF TOOL LIST )
( vint-trem-back-01)
T11
S14000
M3
G0 Z4.0000
G0 X9.8630 Y-14.4452 
G1 X9.8630 Y-14.4452 Z1.7225 F75.
G1 X9.8630 Y-14.4452 Z1.6975 F50.
G1 X9.8630 Y-14.4129 Z1.6918
G1 X9.6030 Y-14.4129 Z1.6460
G1 X9.6030 Y-15.5385 Z1.4475
G1 X9.6030 Y-16.6641 Z1.4475 F150.
G1 X9.8630 Y-16.6641 Z1.4475
G1 X9.8630 Y-14.4129 Z1.4475
G1 X9.6030 Y-14.4129 Z1.4475
G1 X9.6030 Y-15.5385 Z1.4475
G1 X9.3255 Y-15.5385 Z1.4475
G1 X9.3255 Y-14.1354 Z1.4475
G1 X10.1405 Y-14.1354 Z1.4475
G1 X10.1405 Y-16.9416 Z1.4475
G1 X9.3255 Y-16.9416 Z1.4475
G1 X9.3255 Y-15.5385 Z1.4475
G1 X9.0480 Y-15.5385 Z1.4475
G1 X9.0480 Y-17.2191 Z1.4475
G1 X10.4180 Y-17.2191 Z1.4475
G1 X10.4180 Y-13.8579 Z1.4475
G1 X9.0480 Y-13.8579 Z1.4475
G1 X9.0480 Y-15.5385 Z1.4475
G0 Z1.7225
G0 X9.0480 Y-15.5385 
G0 Z1.7225
G0 X9.8630 Y-14.7996 
G1 X9.8630 Y-14.7996 Z1.4725 F75.
G1 X9.8630 Y-14.7996 Z1.4475 F50.
G1 X9.8630 Y-14.4129 Z1.3793
G1 X9.6030 Y-14.4129 Z1.3335
G1 X9.6030 Y-15.5385 Z1.1350
G1 X9.6030 Y-16.6641 Z1.1350 F150.
G1 X9.8630 Y-16.6641 Z1.1350
G1 X9.8630 Y-14.4129 Z1.1350
G1 X9.6030 Y-14.4129 Z1.1350
G1 X9.6030 Y-15.5385 Z1.1350
G1 X9.3255 Y-15.5385 Z1.1350
G1 X9.3255 Y-14.1354 Z1.1350
G1 X10.1405 Y-14.1354 Z1.1350
G1 X10.1405 Y-16.9416 Z1.1350
G1 X9.3255 Y-16.9416 Z1.1350
G1 X9.3255 Y-15.5385 Z1.1350
G1 X9.0480 Y-15.5385 Z1.1350
G1 X9.0480 Y-17.2191 Z1.1350
G1 X10.4180 Y-17.2191 Z1.1350
G1 X10.4180 Y-13.8579 Z1.1350
G1 X9.0480 Y-13.8579 Z1.1350
G1 X9.0480 Y-15.5385 Z1.1350
G0 Z4.0000
G0 X9.0480 Y-15.5385 
M5
G53 Z
X2Y0
