( MOP:  B02-Songhurst )
( FILE: G:\Shared drives\AlloyProjectFiles\Customer CAD files\Alloy-Standard-Builds-CAM\Fingerboards-in\Options\B02-Songhurst.nc)
G90
(  BEGIN TOOL LIST )
(  TOOL 7 - Downcut PT125 - DESC: 0.1250 DIA, 2 FLUTE,  CARBIDE MAT )
(  ENDOF TOOL LIST )
( B02-Songhurst)
T07
S11000
M3
G0 Z4.0000
G0 X46.3521 Y-23.6608 
G1 X46.3521 Y-23.6608 Z0.2813 F75.
G1 X46.6356 Y-23.6559 Z0.2313 F25.
G1 X28.5879 Y-23.9706 Z0.2313 F100.
G0 Z0.5313
G0 X28.5879 Y-23.9706 
G0 Z0.5313
G0 X28.8714 Y-23.9656 
G1 X28.8714 Y-23.9656 Z0.2125 F75.
G1 X28.5879 Y-23.9706 Z0.1625 F25.
G1 X46.6356 Y-23.6559 Z0.1625 F100.
G0 Z0.4625
G0 X46.6356 Y-23.6559 
G0 Z0.4625
G0 X46.3521 Y-23.6608 
G1 X46.3521 Y-23.6608 Z0.1438 F75.
G1 X46.6356 Y-23.6559 Z0.0938 F25.
G1 X28.5879 Y-23.9706 Z0.0938 F100.
G0 Z0.3938
G0 X28.5879 Y-23.9706 
G0 Z0.3938
G0 X28.8714 Y-23.9656 
G1 X28.8714 Y-23.9656 Z0.0750 F75.
G1 X28.5879 Y-23.9706 Z0.0250 F25.
G1 X46.6356 Y-23.6559 Z0.0250 F100.
G0 Z0.5813
G0 X46.6356 Y-23.6559 
G0 Z0.5813
G0 X28.8714 Y-21.6332 
G1 X28.8714 Y-21.6332 Z0.2813 F75.
G1 X28.5879 Y-21.6283 Z0.2313 F25.
G1 X46.6356 Y-21.9430 Z0.2313 F100.
G0 Z0.5313
G0 X46.6356 Y-21.9430 
G0 Z0.5313
G0 X46.3521 Y-21.9380 
G1 X46.3521 Y-21.9380 Z0.2125 F75.
G1 X46.6356 Y-21.9430 Z0.1625 F25.
G1 X28.5879 Y-21.6283 Z0.1625 F100.
G0 Z0.4625
G0 X28.5879 Y-21.6283 
G0 Z0.4625
G0 X28.8714 Y-21.6332 
G1 X28.8714 Y-21.6332 Z0.1438 F75.
G1 X28.5879 Y-21.6283 Z0.0938 F25.
G1 X46.6356 Y-21.9430 Z0.0938 F100.
G0 Z0.3938
G0 X46.6356 Y-21.9430 
G0 Z0.3938
G0 X46.3521 Y-21.9380 
G1 X46.3521 Y-21.9380 Z0.0750 F75.
G1 X46.6356 Y-21.9430 Z0.0250 F25.
G1 X28.5879 Y-21.6283 Z0.0250 F100.
G0 Z4.0000
G0 X28.5879 Y-21.6283 
M5
G53 Z
X2Y0
