( MOP:  B03-Songhurst )
( FILE: G:\Shared drives\AlloyProjectFiles\Customer CAD files\Alloy-Standard-Builds-CAM\Fingerboards-in\Options\B03-Songhurst.nc)
G90
(  BEGIN TOOL LIST )
(  TOOL 1 - Surface 2PT500 - DESC: 2.5000 DIA, 2 FLUTE,  CARBIDE MAT )
(  ENDOF TOOL LIST )
( B03-Songhurst)
T01
S12000
M3
G0 Z4.0000
G0 X25.0000 Y-25.0482 
G1 X25.0000 Y-25.0482 Z0.2700 F75.
G1 X26.0000 Y-25.0482 Z0.2700 F50.
G1 X48.0000 Y-25.0482 Z0.2700 F110.
G1 X48.1113 Y-25.0356 Z0.2700
G1 X48.2169 Y-24.9987 Z0.2700
G1 X48.3117 Y-24.9391 Z0.2700
G1 X48.3909 Y-24.8599 Z0.2700
G1 X48.4505 Y-24.7651 Z0.2700
G1 X48.4875 Y-24.6594 Z0.2700
G1 X48.5000 Y-24.5482 Z0.2700
G1 X48.5000 Y-24.2982 Z0.2700
G1 X25.5000 Y-24.2982 Z0.2700
G1 X25.5000 Y-23.5482 Z0.2700
G1 X48.5000 Y-23.5482 Z0.2700
G1 X48.5000 Y-22.7982 Z0.2700
G1 X25.5000 Y-22.7982 Z0.2700
G1 X25.5000 Y-22.0482 Z0.2700
G1 X48.5000 Y-22.0482 Z0.2700
G1 X48.5000 Y-21.2982 Z0.2700
G1 X25.5000 Y-21.2982 Z0.2700
G1 X25.5000 Y-21.0482 Z0.2700
G1 X25.5125 Y-20.9369 Z0.2700
G1 X25.5495 Y-20.8312 Z0.2700
G1 X25.6091 Y-20.7364 Z0.2700
G1 X25.6883 Y-20.6573 Z0.2700
G1 X25.7831 Y-20.5977 Z0.2700
G1 X25.8887 Y-20.5607 Z0.2700
G1 X26.0000 Y-20.5482 Z0.2700
G1 X48.0000 Y-20.5482 Z0.2700
G0 Z4.0000
G0 X48.0000 Y-20.5482 
M5
G53 Z
X2Y0
