( MOP:  MTone-HS-EndShaping )
( FILE: G:\Shared drives\AlloyProjectFiles\Customer CAD files\Alloy-Standard-Builds-CAM\Fingerboards-in\Options\MTone-HS-EndShaping.nc)
G90
(  BEGIN TOOL LIST )
(  TOOL 9 - Ball PT250 - DESC: 0.2500 DIA, 2 FLUTE,  CARBIDE MAT )
(  ENDOF TOOL LIST )
( MTone-HS-EndShaping)
T09
S12000
M3
G0 Z2.0000
G0 X47.0577 Y-24.0977 
G1 X47.0577 Y-24.0977 Z0.1371 F75.
G1 X47.0444 Y-24.0977 Z0.0872 F25.
G1 X47.0079 Y-24.0977 Z0.0506
G1 X46.9581 Y-24.0977 Z0.0371
G1 X46.9081 Y-24.0977 Z0.0503
G1 X46.8940 Y-24.0977 Z0.0583 F75.
G1 X46.8657 Y-24.0977 Z0.0733
G1 X46.8515 Y-24.0977 Z0.0805
G1 X46.8115 Y-24.0977 Z0.1173
G1 X46.7967 Y-24.0977 Z0.1697
G0 Z0.3305
G0 X46.7967 Y-24.0977 
G0 Z0.3305
G0 X47.0629 Y-24.0732 
G1 X47.0629 Y-24.0732 Z0.1351 F75.
G1 X47.0488 Y-24.0732 Z0.0839 F25.
G1 X47.0105 Y-24.0732 Z0.0471
G1 X46.9587 Y-24.0732 Z0.0352
G1 X46.9081 Y-24.0732 Z0.0514
G1 X46.8856 Y-24.0732 Z0.0662 F75.
G1 X46.8630 Y-24.0732 Z0.0804
G1 X46.8405 Y-24.0732 Z0.0937
G1 X46.8179 Y-24.0732 Z0.1066
G1 X46.7810 Y-24.0732 Z0.1433
G1 X46.7675 Y-24.0732 Z0.1935
G0 Z0.3566
G0 X46.7675 Y-24.0732 
G0 Z0.3566
G0 X47.0637 Y-24.0487 
G1 X47.0637 Y-24.0487 Z0.1346 F75.
G1 X47.0495 Y-24.0487 Z0.0832 F25.
G1 X47.0108 Y-24.0487 Z0.0464
G1 X46.9588 Y-24.0487 Z0.0347
G1 X46.9081 Y-24.0487 Z0.0514
G1 X46.8920 Y-24.0487 Z0.0622 F75.
G1 X46.8438 Y-24.0487 Z0.0962
G1 X46.8116 Y-24.0487 Z0.1177
G1 X46.7874 Y-24.0487 Z0.1333
G1 X46.7794 Y-24.0487 Z0.1388
G1 X46.7476 Y-24.0487 Z0.1746
G1 X46.7361 Y-24.0487 Z0.2212
G0 Z0.3888
G0 X46.7361 Y-24.0487 
G0 Z0.3888
G0 X47.0643 Y-24.0242 
G1 X47.0643 Y-24.0242 Z0.1342 F75.
G1 X47.0500 Y-24.0242 Z0.0826 F25.
G1 X47.0111 Y-24.0242 Z0.0458
G1 X46.9588 Y-24.0242 Z0.0343
G1 X46.9081 Y-24.0242 Z0.0514
G1 X46.8869 Y-24.0242 Z0.0658 F75.
G1 X46.8658 Y-24.0242 Z0.0808
G1 X46.8313 Y-24.0242 Z0.1064
G1 X46.8234 Y-24.0242 Z0.1127
G1 X46.8022 Y-24.0242 Z0.1286
G1 X46.7810 Y-24.0242 Z0.1449
G1 X46.7598 Y-24.0242 Z0.1608
G1 X46.7386 Y-24.0242 Z0.1759
G1 X46.7078 Y-24.0242 Z0.2115
G1 X46.6968 Y-24.0242 Z0.2573
G0 Z0.4259
G0 X46.6968 Y-24.0242 
G0 Z0.4259
G0 X47.0647 Y-23.9998 
G1 X47.0647 Y-23.9998 Z0.1339 F75.
G1 X47.0503 Y-23.9998 Z0.0822 F25.
G1 X47.0113 Y-23.9998 Z0.0454
G1 X46.9589 Y-23.9998 Z0.0341
G1 X46.9081 Y-23.9998 Z0.0514
G1 X46.8809 Y-23.9998 Z0.0701 F75.
G1 X46.8537 Y-23.9998 Z0.0896
G1 X46.8265 Y-23.9998 Z0.1103
G1 X46.7992 Y-23.9998 Z0.1322
G1 X46.7720 Y-23.9998 Z0.1554
G1 X46.7448 Y-23.9998 Z0.1775
G1 X46.7312 Y-23.9998 Z0.1880
G1 X46.7244 Y-23.9998 Z0.1925
G1 X46.7176 Y-23.9998 Z0.1966
G1 X46.7040 Y-23.9998 Z0.2033
G1 X46.6903 Y-23.9998 Z0.2084
G1 X46.6640 Y-23.9998 Z0.2231
G1 X46.6432 Y-23.9998 Z0.2450
G1 X46.6299 Y-23.9998 Z0.2722
G1 X46.6254 Y-23.9998 Z0.3020
G0 Z0.4584
G0 X46.6254 Y-23.9998 
G0 Z0.4584
G0 X47.0639 Y-23.9753 
G1 X47.0639 Y-23.9753 Z0.1344 F75.
G1 X47.0497 Y-23.9753 Z0.0829 F25.
G1 X47.0109 Y-23.9753 Z0.0461
G1 X46.9588 Y-23.9753 Z0.0345
G1 X46.9081 Y-23.9753 Z0.0514
G1 X46.8921 Y-23.9753 Z0.0622 F75.
G1 X46.8602 Y-23.9753 Z0.0849
G1 X46.8282 Y-23.9753 Z0.1089
G1 X46.8042 Y-23.9753 Z0.1280
G1 X46.7402 Y-23.9753 Z0.1831
G1 X46.7322 Y-23.9753 Z0.1893
G1 X46.7242 Y-23.9753 Z0.1946
G1 X46.7162 Y-23.9753 Z0.1993
G1 X46.7082 Y-23.9753 Z0.2034
G1 X46.7002 Y-23.9753 Z0.2069
G1 X46.6843 Y-23.9753 Z0.2123
G1 X46.6683 Y-23.9753 Z0.2158
G1 X46.6523 Y-23.9753 Z0.2176
G1 X46.6175 Y-23.9753 Z0.2281
G1 X46.5888 Y-23.9753 Z0.2503
G1 X46.5699 Y-23.9753 Z0.2813
G1 X46.5633 Y-23.9753 Z0.3170
G0 Z0.4676
G0 X46.5633 Y-23.9753 
G0 Z0.4676
G0 X47.0641 Y-23.9508 
G1 X47.0641 Y-23.9508 Z0.1343 F75.
G1 X47.0498 Y-23.9508 Z0.0828 F25.
G1 X47.0110 Y-23.9508 Z0.0460
G1 X46.9588 Y-23.9508 Z0.0344
G1 X46.9081 Y-23.9508 Z0.0514
G1 X46.8915 Y-23.9508 Z0.0626 F75.
G1 X46.8584 Y-23.9508 Z0.0862
G1 X46.8418 Y-23.9508 Z0.0986
G1 X46.8086 Y-23.9508 Z0.1244
G1 X46.7754 Y-23.9508 Z0.1527
G1 X46.7422 Y-23.9508 Z0.1815
G1 X46.7339 Y-23.9508 Z0.1884
G1 X46.7256 Y-23.9508 Z0.1944
G1 X46.7174 Y-23.9508 Z0.1996
G1 X46.7091 Y-23.9508 Z0.2041
G1 X46.7008 Y-23.9508 Z0.2079
G1 X46.6925 Y-23.9508 Z0.2112
G1 X46.6842 Y-23.9508 Z0.2139
G1 X46.6759 Y-23.9508 Z0.2161
G1 X46.6593 Y-23.9508 Z0.2191
G1 X46.6427 Y-23.9508 Z0.2201
G1 X46.6065 Y-23.9508 Z0.2295
G1 X46.5763 Y-23.9508 Z0.2516
G1 X46.5563 Y-23.9508 Z0.2832
G1 X46.5493 Y-23.9508 Z0.3199
G0 Z0.4701
G0 X46.5493 Y-23.9508 
G0 Z0.4701
G0 X47.0650 Y-23.9263 
G1 X47.0650 Y-23.9263 Z0.1336 F75.
G1 X47.0506 Y-23.9263 Z0.0819 F25.
G1 X47.0115 Y-23.9263 Z0.0450
G1 X46.9589 Y-23.9263 Z0.0338
G1 X46.9081 Y-23.9263 Z0.0514
G1 X46.8747 Y-23.9263 Z0.0746 F75.
G1 X46.8579 Y-23.9263 Z0.0866
G1 X46.8412 Y-23.9263 Z0.0990
G1 X46.8245 Y-23.9263 Z0.1119
G1 X46.8077 Y-23.9263 Z0.1251
G1 X46.7743 Y-23.9263 Z0.1537
G1 X46.7408 Y-23.9263 Z0.1829
G1 X46.7324 Y-23.9263 Z0.1900
G1 X46.7241 Y-23.9263 Z0.1961
G1 X46.7157 Y-23.9263 Z0.2014
G1 X46.7073 Y-23.9263 Z0.2060
G1 X46.6990 Y-23.9263 Z0.2099
G1 X46.6906 Y-23.9263 Z0.2132
G1 X46.6822 Y-23.9263 Z0.2160
G1 X46.6739 Y-23.9263 Z0.2183
G1 X46.6571 Y-23.9263 Z0.2213
G1 X46.6404 Y-23.9263 Z0.2224
G1 X46.6042 Y-23.9263 Z0.2319
G1 X46.5741 Y-23.9263 Z0.2539
G1 X46.5541 Y-23.9263 Z0.2855
G1 X46.5471 Y-23.9263 Z0.3222
G0 Z0.4724
G0 X46.5471 Y-23.9263 
G0 Z0.4724
G0 X47.0651 Y-23.9019 
G1 X47.0651 Y-23.9019 Z0.1336 F75.
G1 X47.0507 Y-23.9019 Z0.0818 F25.
G1 X47.0115 Y-23.9019 Z0.0450
G1 X46.9589 Y-23.9019 Z0.0338
G1 X46.9081 Y-23.9019 Z0.0514
G1 X46.8744 Y-23.9019 Z0.0748 F75.
G1 X46.8406 Y-23.9019 Z0.0994
G1 X46.8238 Y-23.9019 Z0.1124
G1 X46.8069 Y-23.9019 Z0.1259
G1 X46.7731 Y-23.9019 Z0.1547
G1 X46.7309 Y-23.9019 Z0.1915
G1 X46.7225 Y-23.9019 Z0.1977
G1 X46.7141 Y-23.9019 Z0.2032
G1 X46.7056 Y-23.9019 Z0.2079
G1 X46.6972 Y-23.9019 Z0.2119
G1 X46.6887 Y-23.9019 Z0.2153
G1 X46.6803 Y-23.9019 Z0.2181
G1 X46.6719 Y-23.9019 Z0.2204
G1 X46.6550 Y-23.9019 Z0.2235
G1 X46.6381 Y-23.9019 Z0.2247
G1 X46.6020 Y-23.9019 Z0.2342
G1 X46.5719 Y-23.9019 Z0.2562
G1 X46.5520 Y-23.9019 Z0.2878
G1 X46.5450 Y-23.9019 Z0.3245
G0 Z0.4747
G0 X46.5450 Y-23.9019 
G0 Z0.4747
G0 X47.0652 Y-23.8774 
G1 X47.0652 Y-23.8774 Z0.1335 F75.
G1 X47.0507 Y-23.8774 Z0.0817 F25.
G1 X47.0115 Y-23.8774 Z0.0449
G1 X46.9589 Y-23.8774 Z0.0337
G1 X46.9081 Y-23.8774 Z0.0514
G1 X46.8741 Y-23.8774 Z0.0750 F75.
G1 X46.8401 Y-23.8774 Z0.0999
G1 X46.8230 Y-23.8774 Z0.1130
G1 X46.8060 Y-23.8774 Z0.1267
G1 X46.7720 Y-23.8774 Z0.1556
G1 X46.7550 Y-23.8774 Z0.1703
G1 X46.7337 Y-23.8774 Z0.1894
G1 X46.7294 Y-23.8774 Z0.1930
G1 X46.7209 Y-23.8774 Z0.1994
G1 X46.7124 Y-23.8774 Z0.2049
G1 X46.7039 Y-23.8774 Z0.2097
G1 X46.6954 Y-23.8774 Z0.2139
G1 X46.6869 Y-23.8774 Z0.2173
G1 X46.6784 Y-23.8774 Z0.2202
G1 X46.6699 Y-23.8774 Z0.2226
G1 X46.6613 Y-23.8774 Z0.2244
G1 X46.6528 Y-23.8774 Z0.2258
G1 X46.6358 Y-23.8774 Z0.2270
G1 X46.5998 Y-23.8774 Z0.2365
G1 X46.5697 Y-23.8774 Z0.2585
G1 X46.5498 Y-23.8774 Z0.2901
G1 X46.5429 Y-23.8774 Z0.3267
G0 Z0.4770
G0 X46.5429 Y-23.8774 
G0 Z0.4770
G0 X47.0653 Y-23.8529 
G1 X47.0653 Y-23.8529 Z0.1334 F75.
G1 X47.0508 Y-23.8529 Z0.0816 F25.
G1 X47.0116 Y-23.8529 Z0.0448
G1 X46.9589 Y-23.8529 Z0.0336
G1 X46.9081 Y-23.8529 Z0.0514
G1 X46.8738 Y-23.8529 Z0.0753 F75.
G1 X46.8395 Y-23.8529 Z0.1003
G1 X46.8223 Y-23.8529 Z0.1136
G1 X46.8052 Y-23.8529 Z0.1274
G1 X46.7880 Y-23.8529 Z0.1418
G1 X46.7537 Y-23.8529 Z0.1714
G1 X46.7322 Y-23.8529 Z0.1908
G1 X46.7279 Y-23.8529 Z0.1945
G1 X46.7193 Y-23.8529 Z0.2010
G1 X46.7108 Y-23.8529 Z0.2067
G1 X46.7022 Y-23.8529 Z0.2116
G1 X46.6936 Y-23.8529 Z0.2158
G1 X46.6850 Y-23.8529 Z0.2194
G1 X46.6764 Y-23.8529 Z0.2224
G1 X46.6678 Y-23.8529 Z0.2248
G1 X46.6593 Y-23.8529 Z0.2266
G1 X46.6507 Y-23.8529 Z0.2280
G1 X46.6335 Y-23.8529 Z0.2292
G1 X46.5975 Y-23.8529 Z0.2387
G1 X46.5674 Y-23.8529 Z0.2608
G1 X46.5475 Y-23.8529 Z0.2923
G1 X46.5406 Y-23.8529 Z0.3289
G0 Z0.4792
G0 X46.5406 Y-23.8529 
G0 Z0.4792
G0 X47.0656 Y-23.8284 
G1 X47.0656 Y-23.8284 Z0.1332 F75.
G1 X47.0513 Y-23.8284 Z0.0816 F25.
G1 X47.0123 Y-23.8284 Z0.0448
G1 X46.9600 Y-23.8284 Z0.0334
G1 X46.9093 Y-23.8284 Z0.0506
G1 X46.8919 Y-23.8284 Z0.0625 F75.
G1 X46.8745 Y-23.8284 Z0.0748
G1 X46.8398 Y-23.8284 Z0.1001
G1 X46.8224 Y-23.8284 Z0.1135
G1 X46.8050 Y-23.8284 Z0.1276
G1 X46.7876 Y-23.8284 Z0.1421
G1 X46.7529 Y-23.8284 Z0.1721
G1 X46.7268 Y-23.8284 Z0.1956
G1 X46.7181 Y-23.8284 Z0.2024
G1 X46.7094 Y-23.8284 Z0.2082
G1 X46.7007 Y-23.8284 Z0.2133
G1 X46.6920 Y-23.8284 Z0.2176
G1 X46.6834 Y-23.8284 Z0.2212
G1 X46.6747 Y-23.8284 Z0.2242
G1 X46.6660 Y-23.8284 Z0.2267
G1 X46.6573 Y-23.8284 Z0.2286
G1 X46.6486 Y-23.8284 Z0.2300
G1 X46.6399 Y-23.8284 Z0.2308
G1 X46.6312 Y-23.8284 Z0.2312
G1 X46.5942 Y-23.8284 Z0.2399
G1 X46.5632 Y-23.8284 Z0.2619
G1 X46.5426 Y-23.8284 Z0.2938
G1 X46.5354 Y-23.8284 Z0.3311
G0 Z0.4812
G0 X46.5354 Y-23.8284 
G0 Z0.4812
G0 X47.0677 Y-23.8040 
G1 X47.0677 Y-23.8040 Z0.1318 F75.
G1 X47.0534 Y-23.8040 Z0.0802 F25.
G1 X47.0145 Y-23.8040 Z0.0434
G1 X46.9623 Y-23.8040 Z0.0320
G1 X46.9116 Y-23.8040 Z0.0491
G1 X46.8939 Y-23.8040 Z0.0611 F75.
G1 X46.8762 Y-23.8040 Z0.0737
G1 X46.8409 Y-23.8040 Z0.0993
G1 X46.8232 Y-23.8040 Z0.1128
G1 X46.8056 Y-23.8040 Z0.1272
G1 X46.7702 Y-23.8040 Z0.1570
G1 X46.7526 Y-23.8040 Z0.1723
G1 X46.7261 Y-23.8040 Z0.1964
G1 X46.7173 Y-23.8040 Z0.2035
G1 X46.7084 Y-23.8040 Z0.2095
G1 X46.6996 Y-23.8040 Z0.2147
G1 X46.6908 Y-23.8040 Z0.2192
G1 X46.6819 Y-23.8040 Z0.2229
G1 X46.6731 Y-23.8040 Z0.2261
G1 X46.6643 Y-23.8040 Z0.2286
G1 X46.6554 Y-23.8040 Z0.2305
G1 X46.6466 Y-23.8040 Z0.2319
G1 X46.6378 Y-23.8040 Z0.2328
G1 X46.6289 Y-23.8040 Z0.2332
G1 X46.5919 Y-23.8040 Z0.2419
G1 X46.5609 Y-23.8040 Z0.2638
G1 X46.5402 Y-23.8040 Z0.2958
G1 X46.5330 Y-23.8040 Z0.3331
G0 Z0.4832
G0 X46.5330 Y-23.8040 
G0 Z0.4832
G0 X47.0694 Y-23.7795 
G1 X47.0694 Y-23.7795 Z0.1310 F75.
G1 X47.0552 Y-23.7795 Z0.0796 F25.
G1 X47.0166 Y-23.7795 Z0.0428
G1 X46.9645 Y-23.7795 Z0.0311
G1 X46.9139 Y-23.7795 Z0.0478
G1 X46.9026 Y-23.7795 Z0.0553 F75.
G1 X46.8600 Y-23.7795 Z0.0854
G1 X46.8421 Y-23.7795 Z0.0984
G1 X46.8241 Y-23.7795 Z0.1121
G1 X46.8061 Y-23.7795 Z0.1268
G1 X46.7702 Y-23.7795 Z0.1570
G1 X46.7523 Y-23.7795 Z0.1725
G1 X46.7254 Y-23.7795 Z0.1972
G1 X46.7164 Y-23.7795 Z0.2045
G1 X46.7074 Y-23.7795 Z0.2108
G1 X46.6984 Y-23.7795 Z0.2162
G1 X46.6895 Y-23.7795 Z0.2208
G1 X46.6805 Y-23.7795 Z0.2247
G1 X46.6715 Y-23.7795 Z0.2279
G1 X46.6625 Y-23.7795 Z0.2305
G1 X46.6536 Y-23.7795 Z0.2325
G1 X46.6446 Y-23.7795 Z0.2339
G1 X46.6356 Y-23.7795 Z0.2348
G1 X46.6266 Y-23.7795 Z0.2352
G1 X46.5896 Y-23.7795 Z0.2439
G1 X46.5585 Y-23.7795 Z0.2658
G1 X46.5379 Y-23.7795 Z0.2978
G1 X46.5306 Y-23.7795 Z0.3351
G0 Z0.4852
G0 X46.5306 Y-23.7795 
G0 Z0.4852
G0 X47.0723 Y-23.7550 
G1 X47.0723 Y-23.7550 Z0.1305 F75.
G1 X47.0580 Y-23.7550 Z0.0789 F25.
G1 X47.0191 Y-23.7550 Z0.0421
G1 X46.9669 Y-23.7550 Z0.0307
G1 X46.9162 Y-23.7550 Z0.0478
G1 X46.8592 Y-23.7550 Z0.0865 F75.
G1 X46.8158 Y-23.7550 Z0.1194
G1 X46.7976 Y-23.7550 Z0.1340
G1 X46.7702 Y-23.7550 Z0.1570
G1 X46.7520 Y-23.7550 Z0.1727
G1 X46.7247 Y-23.7550 Z0.1979
G1 X46.7155 Y-23.7550 Z0.2056
G1 X46.7064 Y-23.7550 Z0.2121
G1 X46.6973 Y-23.7550 Z0.2177
G1 X46.6882 Y-23.7550 Z0.2224
G1 X46.6791 Y-23.7550 Z0.2264
G1 X46.6699 Y-23.7550 Z0.2297
G1 X46.6608 Y-23.7550 Z0.2324
G1 X46.6517 Y-23.7550 Z0.2344
G1 X46.6426 Y-23.7550 Z0.2359
G1 X46.6335 Y-23.7550 Z0.2368
G1 X46.6243 Y-23.7550 Z0.2372
G1 X46.5873 Y-23.7550 Z0.2459
G1 X46.5562 Y-23.7550 Z0.2678
G1 X46.5355 Y-23.7550 Z0.2997
G1 X46.5283 Y-23.7550 Z0.3371
G0 Z0.4872
G0 X46.5283 Y-23.7550 
G0 Z0.4872
G0 X47.0746 Y-23.7305 
G1 X47.0746 Y-23.7305 Z0.1306 F75.
G1 X47.0604 Y-23.7305 Z0.0792 F25.
G1 X47.0218 Y-23.7305 Z0.0425
G1 X46.9698 Y-23.7305 Z0.0307
G1 X46.9191 Y-23.7305 Z0.0474
G1 X46.8774 Y-23.7305 Z0.0752 F75.
G1 X46.8263 Y-23.7305 Z0.1126
G1 X46.8101 Y-23.7305 Z0.1250
G1 X46.7892 Y-23.7305 Z0.1420
G1 X46.7613 Y-23.7305 Z0.1652
G1 X46.7427 Y-23.7305 Z0.1812
G1 X46.7242 Y-23.7305 Z0.1984
G1 X46.7149 Y-23.7305 Z0.2064
G1 X46.7056 Y-23.7305 Z0.2132
G1 X46.6963 Y-23.7305 Z0.2190
G1 X46.6870 Y-23.7305 Z0.2239
G1 X46.6778 Y-23.7305 Z0.2281
G1 X46.6685 Y-23.7305 Z0.2315
G1 X46.6592 Y-23.7305 Z0.2342
G1 X46.6499 Y-23.7305 Z0.2364
G1 X46.6406 Y-23.7305 Z0.2379
G1 X46.6313 Y-23.7305 Z0.2388
G1 X46.6220 Y-23.7305 Z0.2392
G1 X46.5850 Y-23.7305 Z0.2479
G1 X46.5538 Y-23.7305 Z0.2698
G1 X46.5332 Y-23.7305 Z0.3017
G1 X46.5259 Y-23.7305 Z0.3391
G0 Z0.4892
G0 X46.5259 Y-23.7305 
G0 Z0.4892
G0 X47.0765 Y-23.7061 
G1 X47.0765 Y-23.7061 Z0.1308 F75.
G1 X47.0626 Y-23.7061 Z0.0799 F25.
G1 X47.0248 Y-23.7061 Z0.0432
G1 X46.9736 Y-23.7061 Z0.0308
G1 X46.9232 Y-23.7061 Z0.0462
G1 X46.9044 Y-23.7061 Z0.0581 F75.
G1 X46.8950 Y-23.7061 Z0.0644
G1 X46.8036 Y-23.7061 Z0.1312
G1 X46.7462 Y-23.7061 Z0.1788
G1 X46.7169 Y-23.7061 Z0.2051
G1 X46.7075 Y-23.7061 Z0.2124
G1 X46.6982 Y-23.7061 Z0.2187
G1 X46.6888 Y-23.7061 Z0.2240
G1 X46.6794 Y-23.7061 Z0.2285
G1 X46.6700 Y-23.7061 Z0.2322
G1 X46.6607 Y-23.7061 Z0.2352
G1 X46.6513 Y-23.7061 Z0.2376
G1 X46.6419 Y-23.7061 Z0.2393
G1 X46.6325 Y-23.7061 Z0.2405
G1 X46.6232 Y-23.7061 Z0.2410
G1 X46.6105 Y-23.7061 Z0.2411
G1 X46.5724 Y-23.7061 Z0.2489
G1 X46.5402 Y-23.7061 Z0.2706
G1 X46.5186 Y-23.7061 Z0.3030
G1 X46.5111 Y-23.7061 Z0.3411
G0 Z0.4911
G0 X46.5111 Y-23.7061 
G0 Z0.4911
G0 X47.0800 Y-23.6816 
G1 X47.0800 Y-23.6816 Z0.1306 F75.
G1 X47.0662 Y-23.6816 Z0.0799 F25.
G1 X47.0286 Y-23.6816 Z0.0432
G1 X46.9775 Y-23.6816 Z0.0306
G1 X46.9272 Y-23.6816 Z0.0457
G1 X46.9108 Y-23.6816 Z0.0559 F75.
G1 X46.8803 Y-23.6816 Z0.0765
G1 X46.8100 Y-23.6816 Z0.1279
G1 X46.7959 Y-23.6816 Z0.1387
G1 X46.7772 Y-23.6816 Z0.1539
G1 X46.7397 Y-23.6816 Z0.1851
G1 X46.7256 Y-23.6816 Z0.1972
G1 X46.7209 Y-23.6816 Z0.2016
G1 X46.7116 Y-23.6816 Z0.2097
G1 X46.7022 Y-23.6816 Z0.2166
G1 X46.6928 Y-23.6816 Z0.2225
G1 X46.6834 Y-23.6816 Z0.2275
G1 X46.6741 Y-23.6816 Z0.2317
G1 X46.6647 Y-23.6816 Z0.2352
G1 X46.6553 Y-23.6816 Z0.2379
G1 X46.6459 Y-23.6816 Z0.2401
G1 X46.6366 Y-23.6816 Z0.2416
G1 X46.6272 Y-23.6816 Z0.2425
G1 X46.6168 Y-23.6816 Z0.2428
G1 X46.5855 Y-23.6816 Z0.2429
G1 X46.5473 Y-23.6816 Z0.2506
G1 X46.5149 Y-23.6816 Z0.2723
G1 X46.4933 Y-23.6816 Z0.3047
G1 X46.4858 Y-23.6816 Z0.3429
G0 Z0.4930
G0 X46.4858 Y-23.6816 
G0 Z0.4930
G0 X47.0834 Y-23.6571 
G1 X47.0834 Y-23.6571 Z0.1308 F75.
G1 X47.0697 Y-23.6571 Z0.0803 F25.
G1 X47.0323 Y-23.6571 Z0.0436
G1 X46.9815 Y-23.6571 Z0.0308
G1 X46.9312 Y-23.6571 Z0.0455
G1 X46.9183 Y-23.6571 Z0.0534 F75.
G1 X46.8538 Y-23.6571 Z0.0969
G1 X46.8281 Y-23.6571 Z0.1158
G1 X46.7906 Y-23.6571 Z0.1445
G1 X46.7531 Y-23.6571 Z0.1747
G1 X46.7226 Y-23.6571 Z0.2001
G1 X46.7156 Y-23.6571 Z0.2066
G1 X46.7062 Y-23.6571 Z0.2142
G1 X46.6968 Y-23.6571 Z0.2207
G1 X46.6874 Y-23.6571 Z0.2262
G1 X46.6781 Y-23.6571 Z0.2309
G1 X46.6687 Y-23.6571 Z0.2348
G1 X46.6593 Y-23.6571 Z0.2380
G1 X46.6499 Y-23.6571 Z0.2405
G1 X46.6406 Y-23.6571 Z0.2424
G1 X46.6312 Y-23.6571 Z0.2437
G1 X46.6198 Y-23.6571 Z0.2445
G1 X46.5855 Y-23.6571 Z0.2446
G1 X46.5474 Y-23.6571 Z0.2524
G1 X46.5151 Y-23.6571 Z0.2741
G1 X46.4935 Y-23.6571 Z0.3065
G1 X46.4860 Y-23.6571 Z0.3446
G0 Z0.4947
G0 X46.4860 Y-23.6571 
G0 Z0.4947
G0 X47.0887 Y-23.6326 
G1 X47.0887 Y-23.6326 Z0.1303 F75.
G1 X47.0749 Y-23.6326 Z0.0796 F25.
G1 X47.0373 Y-23.6326 Z0.0429
G1 X46.9863 Y-23.6326 Z0.0303
G1 X46.9360 Y-23.6326 Z0.0453
G1 X46.9078 Y-23.6326 Z0.0628 F75.
G1 X46.8422 Y-23.6326 Z0.1071
G1 X46.8317 Y-23.6326 Z0.1147
G1 X46.7860 Y-23.6326 Z0.1498
G1 X46.7297 Y-23.6326 Z0.1946
G1 X46.7203 Y-23.6326 Z0.2023
G1 X46.7110 Y-23.6326 Z0.2107
G1 X46.7016 Y-23.6326 Z0.2180
G1 X46.6922 Y-23.6326 Z0.2242
G1 X46.6828 Y-23.6326 Z0.2295
G1 X46.6735 Y-23.6326 Z0.2339
G1 X46.6641 Y-23.6326 Z0.2376
G1 X46.6547 Y-23.6326 Z0.2406
G1 X46.6453 Y-23.6326 Z0.2429
G1 X46.6360 Y-23.6326 Z0.2446
G1 X46.6233 Y-23.6326 Z0.2460
G1 X46.6107 Y-23.6326 Z0.2463
G1 X46.5981 Y-23.6326 Z0.2462
G1 X46.5855 Y-23.6326 Z0.2464
G1 X46.5476 Y-23.6326 Z0.2543
G1 X46.5155 Y-23.6326 Z0.2761
G1 X46.4941 Y-23.6326 Z0.3084
G1 X46.4866 Y-23.6326 Z0.3464
G0 Z0.4964
G0 X46.4866 Y-23.6326 
G0 Z0.4964
G0 X47.0932 Y-23.6082 
G1 X47.0932 Y-23.6082 Z0.1311 F75.
G1 X47.0797 Y-23.6082 Z0.0809 F25.
G1 X47.0428 Y-23.6082 Z0.0442
G1 X46.9925 Y-23.6082 Z0.0311
G1 X46.9423 Y-23.6082 Z0.0450
G1 X46.9142 Y-23.6082 Z0.0616 F75.
G1 X46.8978 Y-23.6082 Z0.0719
G1 X46.8580 Y-23.6082 Z0.0989
G1 X46.8345 Y-23.6082 Z0.1151
G1 X46.8017 Y-23.6082 Z0.1394
G1 X46.7830 Y-23.6082 Z0.1537
G1 X46.7548 Y-23.6082 Z0.1761
G1 X46.7162 Y-23.6082 Z0.2062
G1 X46.7080 Y-23.6082 Z0.2134
G1 X46.6986 Y-23.6082 Z0.2206
G1 X46.6892 Y-23.6082 Z0.2266
G1 X46.6798 Y-23.6082 Z0.2318
G1 X46.6705 Y-23.6082 Z0.2361
G1 X46.6611 Y-23.6082 Z0.2397
G1 X46.6517 Y-23.6082 Z0.2426
G1 X46.6423 Y-23.6082 Z0.2449
G1 X46.6281 Y-23.6082 Z0.2471
G1 X46.6139 Y-23.6082 Z0.2480
G1 X46.5997 Y-23.6082 Z0.2479
G1 X46.5855 Y-23.6082 Z0.2480
G1 X46.5475 Y-23.6082 Z0.2560
G1 X46.5155 Y-23.6082 Z0.2777
G1 X46.4941 Y-23.6082 Z0.3100
G1 X46.4866 Y-23.6082 Z0.3480
G0 Z0.4981
G0 X46.4866 Y-23.6082 
G0 Z0.4981
G0 X47.0996 Y-23.5837 
G1 X47.0996 Y-23.5837 Z0.1309 F75.
G1 X47.0861 Y-23.5837 Z0.0806 F25.
G1 X47.0492 Y-23.5837 Z0.0440
G1 X46.9988 Y-23.5837 Z0.0309
G1 X46.9487 Y-23.5837 Z0.0448
G1 X46.8901 Y-23.5837 Z0.0794 F75.
G1 X46.8362 Y-23.5837 Z0.1165
G1 X46.7800 Y-23.5837 Z0.1578
G1 X46.7143 Y-23.5837 Z0.2084
G1 X46.7050 Y-23.5837 Z0.2161
G1 X46.6956 Y-23.5837 Z0.2231
G1 X46.6862 Y-23.5837 Z0.2290
G1 X46.6768 Y-23.5837 Z0.2341
G1 X46.6675 Y-23.5837 Z0.2383
G1 X46.6581 Y-23.5837 Z0.2418
G1 X46.6487 Y-23.5837 Z0.2446
G1 X46.6329 Y-23.5837 Z0.2478
G1 X46.6171 Y-23.5837 Z0.2494
G1 X46.5855 Y-23.5837 Z0.2496
G1 X46.5474 Y-23.5837 Z0.2575
G1 X46.5152 Y-23.5837 Z0.2792
G1 X46.4937 Y-23.5837 Z0.3115
G1 X46.4862 Y-23.5837 Z0.3496
G0 Z0.4996
G0 X46.4862 Y-23.5837 
G0 Z0.4996
G0 X47.1066 Y-23.5592 
G1 X47.1066 Y-23.5592 Z0.1299 F75.
G1 X47.0931 Y-23.5592 Z0.0797 F25.
G1 X47.0562 Y-23.5592 Z0.0431
G1 X47.0058 Y-23.5592 Z0.0299
G1 X46.9557 Y-23.5592 Z0.0439
G1 X46.9182 Y-23.5592 Z0.0661 F75.
G1 X46.8807 Y-23.5592 Z0.0887
G1 X46.8666 Y-23.5592 Z0.0981
G1 X46.8291 Y-23.5592 Z0.1240
G1 X46.7893 Y-23.5592 Z0.1533
G1 X46.7682 Y-23.5592 Z0.1682
G1 X46.7354 Y-23.5592 Z0.1927
G1 X46.6932 Y-23.5592 Z0.2252
G1 X46.6838 Y-23.5592 Z0.2310
G1 X46.6744 Y-23.5592 Z0.2360
G1 X46.6650 Y-23.5592 Z0.2402
G1 X46.6557 Y-23.5592 Z0.2436
G1 X46.6469 Y-23.5592 Z0.2462
G1 X46.6381 Y-23.5592 Z0.2482
G1 X46.6294 Y-23.5592 Z0.2497
G1 X46.6206 Y-23.5592 Z0.2506
G1 X46.6118 Y-23.5592 Z0.2511
G1 X46.5943 Y-23.5592 Z0.2510
G1 X46.5855 Y-23.5592 Z0.2512
G1 X46.5479 Y-23.5592 Z0.2595
G1 X46.5163 Y-23.5592 Z0.2813
G1 X46.4952 Y-23.5592 Z0.3134
G1 X46.4878 Y-23.5592 Z0.3511
G0 Z0.5012
G0 X46.4878 Y-23.5592 
G0 Z0.5012
G0 X47.1115 Y-23.5347 
G1 X47.1115 Y-23.5347 Z0.1311 F75.
G1 X47.0985 Y-23.5347 Z0.0819 F25.
G1 X47.0629 Y-23.5347 Z0.0454
G1 X47.0139 Y-23.5347 Z0.0312
G1 X46.9643 Y-23.5347 Z0.0430
G1 X46.9479 Y-23.5347 Z0.0517 F75.
G1 X46.9081 Y-23.5347 Z0.0754
G1 X46.8800 Y-23.5347 Z0.0925
G1 X46.8425 Y-23.5347 Z0.1173
G1 X46.8284 Y-23.5347 Z0.1270
G1 X46.8050 Y-23.5347 Z0.1441
G1 X46.7675 Y-23.5347 Z0.1705
G1 X46.7206 Y-23.5347 Z0.2051
G1 X46.6972 Y-23.5347 Z0.2228
G1 X46.6925 Y-23.5347 Z0.2261
G1 X46.6831 Y-23.5347 Z0.2320
G1 X46.6737 Y-23.5347 Z0.2371
G1 X46.6643 Y-23.5347 Z0.2413
G1 X46.6545 Y-23.5347 Z0.2449
G1 X46.6446 Y-23.5347 Z0.2478
G1 X46.6348 Y-23.5347 Z0.2500
G1 X46.6249 Y-23.5347 Z0.2515
G1 X46.6151 Y-23.5347 Z0.2524
G1 X46.6052 Y-23.5347 Z0.2526
G1 X46.5855 Y-23.5347 Z0.2527
G1 X46.5474 Y-23.5347 Z0.2605
G1 X46.5152 Y-23.5347 Z0.2822
G1 X46.4937 Y-23.5347 Z0.3146
G1 X46.4862 Y-23.5347 Z0.3527
G0 Z0.5027
G0 X46.4862 Y-23.5347 
G0 Z0.5027
G0 X47.1170 Y-23.5103 
G1 X47.1170 Y-23.5103 Z0.1333 F75.
G1 X47.1045 Y-23.5103 Z0.0847 F25.
G1 X47.0699 Y-23.5103 Z0.0484
G1 X47.0221 Y-23.5103 Z0.0334
G1 X46.9730 Y-23.5103 Z0.0435
G1 X46.9402 Y-23.5103 Z0.0596 F75.
G1 X46.8793 Y-23.5103 Z0.0964
G1 X46.8183 Y-23.5103 Z0.1366
G1 X46.7668 Y-23.5103 Z0.1728
G1 X46.7152 Y-23.5103 Z0.2107
G1 X46.7011 Y-23.5103 Z0.2203
G1 X46.6918 Y-23.5103 Z0.2270
G1 X46.6824 Y-23.5103 Z0.2331
G1 X46.6730 Y-23.5103 Z0.2382
G1 X46.6621 Y-23.5103 Z0.2431
G1 X46.6511 Y-23.5103 Z0.2470
G1 X46.6402 Y-23.5103 Z0.2500
G1 X46.6292 Y-23.5103 Z0.2522
G1 X46.6183 Y-23.5103 Z0.2535
G1 X46.6074 Y-23.5103 Z0.2541
G1 X46.5855 Y-23.5103 Z0.2541
G1 X46.5473 Y-23.5103 Z0.2619
G1 X46.5151 Y-23.5103 Z0.2836
G1 X46.4935 Y-23.5103 Z0.3160
G1 X46.4859 Y-23.5103 Z0.3541
G0 Z0.5041
G0 X46.4859 Y-23.5103 
G0 Z0.5041
G0 X47.1267 Y-23.4858 
G1 X47.1267 Y-23.4858 Z0.1324 F75.
G1 X47.1141 Y-23.4858 Z0.0837 F25.
G1 X47.0793 Y-23.4858 Z0.0474
G1 X47.0313 Y-23.4858 Z0.0325
G1 X46.9821 Y-23.4858 Z0.0429
G1 X46.9352 Y-23.4858 Z0.0663 F75.
G1 X46.9211 Y-23.4858 Z0.0745
G1 X46.8789 Y-23.4858 Z0.1000
G1 X46.8391 Y-23.4858 Z0.1262
G1 X46.8180 Y-23.4858 Z0.1394
G1 X46.7899 Y-23.4858 Z0.1584
G1 X46.7618 Y-23.4858 Z0.1782
G1 X46.7336 Y-23.4858 Z0.1989
G1 X46.6914 Y-23.4858 Z0.2277
G1 X46.6821 Y-23.4858 Z0.2338
G1 X46.6700 Y-23.4858 Z0.2404
G1 X46.6579 Y-23.4858 Z0.2456
G1 X46.6458 Y-23.4858 Z0.2496
G1 X46.6338 Y-23.4858 Z0.2526
G1 X46.6217 Y-23.4858 Z0.2545
G1 X46.6096 Y-23.4858 Z0.2554
G1 X46.5855 Y-23.4858 Z0.2556
G1 X46.5474 Y-23.4858 Z0.2634
G1 X46.5152 Y-23.4858 Z0.2851
G1 X46.4937 Y-23.4858 Z0.3175
G1 X46.4862 Y-23.4858 Z0.3556
G0 Z0.5056
G0 X46.4862 Y-23.4858 
G0 Z0.5056
G0 X47.1373 Y-23.4613 
G1 X47.1373 Y-23.4613 Z0.1311 F75.
G1 X47.1246 Y-23.4613 Z0.0825 F25.
G1 X47.0900 Y-23.4613 Z0.0461
G1 X47.0420 Y-23.4613 Z0.0312
G1 X46.9928 Y-23.4613 Z0.0415
G1 X46.9600 Y-23.4613 Z0.0579 F75.
G1 X46.9318 Y-23.4613 Z0.0725
G1 X46.8943 Y-23.4613 Z0.0942
G1 X46.8756 Y-23.4613 Z0.1057
G1 X46.8568 Y-23.4613 Z0.1179
G1 X46.8146 Y-23.4613 Z0.1443
G1 X46.7631 Y-23.4613 Z0.1790
G1 X46.7455 Y-23.4613 Z0.1916
G1 X46.6861 Y-23.4613 Z0.2317
G1 X46.6794 Y-23.4613 Z0.2359
G1 X46.6660 Y-23.4613 Z0.2430
G1 X46.6525 Y-23.4613 Z0.2484
G1 X46.6391 Y-23.4613 Z0.2524
G1 X46.6257 Y-23.4613 Z0.2551
G1 X46.6123 Y-23.4613 Z0.2565
G1 X46.6056 Y-23.4613 Z0.2568
G1 X46.5855 Y-23.4613 Z0.2569
G1 X46.5474 Y-23.4613 Z0.2647
G1 X46.5152 Y-23.4613 Z0.2865
G1 X46.4937 Y-23.4613 Z0.3188
G1 X46.4862 Y-23.4613 Z0.3569
G0 Z0.5069
G0 X46.4862 Y-23.4613 
G0 Z0.5069
G0 X47.1430 Y-23.4368 
G1 X47.1430 Y-23.4368 Z0.1327 F75.
G1 X47.1311 Y-23.4368 Z0.0854 F25.
G1 X47.0982 Y-23.4368 Z0.0493
G1 X47.0521 Y-23.4368 Z0.0331
G1 X47.0039 Y-23.4368 Z0.0407
G1 X46.9933 Y-23.4368 Z0.0452 F75.
G1 X46.9757 Y-23.4368 Z0.0540
G1 X46.9335 Y-23.4368 Z0.0758
G1 X46.8703 Y-23.4368 Z0.1123
G1 X46.8164 Y-23.4368 Z0.1459
G1 X46.7695 Y-23.4368 Z0.1774
G1 X46.7601 Y-23.4368 Z0.1834
G1 X46.7414 Y-23.4368 Z0.1950
G1 X46.6817 Y-23.4368 Z0.2351
G1 X46.6743 Y-23.4368 Z0.2394
G1 X46.6595 Y-23.4368 Z0.2466
G1 X46.6447 Y-23.4368 Z0.2518
G1 X46.6299 Y-23.4368 Z0.2555
G1 X46.6151 Y-23.4368 Z0.2575
G1 X46.6003 Y-23.4368 Z0.2582
G1 X46.5929 Y-23.4368 Z0.2580
G1 X46.5855 Y-23.4368 Z0.2582
G1 X46.5480 Y-23.4368 Z0.2666
G1 X46.5165 Y-23.4368 Z0.2884
G1 X46.4955 Y-23.4368 Z0.3205
G1 X46.4882 Y-23.4368 Z0.3582
G0 Z0.5082
G0 X46.4882 Y-23.4368 
G0 Z0.5082
G0 X47.1552 Y-23.4124 
G1 X47.1552 Y-23.4124 Z0.1328 F75.
G1 X47.1434 Y-23.4124 Z0.0857 F25.
G1 X47.1108 Y-23.4124 Z0.0497
G1 X47.0651 Y-23.4124 Z0.0333
G1 X47.0171 Y-23.4124 Z0.0403
G1 X46.9890 Y-23.4124 Z0.0519 F75.
G1 X46.9749 Y-23.4124 Z0.0588
G1 X46.9327 Y-23.4124 Z0.0805
G1 X46.8905 Y-23.4124 Z0.1047
G1 X46.8671 Y-23.4124 Z0.1176
G1 X46.8437 Y-23.4124 Z0.1316
G1 X46.8109 Y-23.4124 Z0.1522
G1 X46.7827 Y-23.4124 Z0.1711
G1 X46.7359 Y-23.4124 Z0.1999
G1 X46.7171 Y-23.4124 Z0.2116
G1 X46.6842 Y-23.4124 Z0.2339
G1 X46.6760 Y-23.4124 Z0.2390
G1 X46.6678 Y-23.4124 Z0.2434
G1 X46.6595 Y-23.4124 Z0.2473
G1 X46.6513 Y-23.4124 Z0.2505
G1 X46.6431 Y-23.4124 Z0.2532
G1 X46.6348 Y-23.4124 Z0.2554
G1 X46.6184 Y-23.4124 Z0.2583
G1 X46.6019 Y-23.4124 Z0.2594
G1 X46.5937 Y-23.4124 Z0.2593
G1 X46.5855 Y-23.4124 Z0.2595
G1 X46.5481 Y-23.4124 Z0.2679
G1 X46.5167 Y-23.4124 Z0.2898
G1 X46.4957 Y-23.4124 Z0.3219
G1 X46.4884 Y-23.4124 Z0.3595
G0 Z0.5095
G0 X46.4884 Y-23.4124 
G0 Z0.5095
G0 X47.1684 Y-23.3879 
G1 X47.1684 Y-23.3879 Z0.1320 F75.
G1 X47.1566 Y-23.3879 Z0.0849 F25.
G1 X47.1240 Y-23.3879 Z0.0489
G1 X47.0784 Y-23.3879 Z0.0325
G1 X47.0304 Y-23.3879 Z0.0395
G1 X47.0116 Y-23.3879 Z0.0472 F75.
G1 X46.9882 Y-23.3879 Z0.0572
G1 X46.9460 Y-23.3879 Z0.0780
G1 X46.9319 Y-23.3879 Z0.0853
G1 X46.9085 Y-23.3879 Z0.0986
G1 X46.8663 Y-23.3879 Z0.1216
G1 X46.8147 Y-23.3879 Z0.1525
G1 X46.7960 Y-23.3879 Z0.1646
G1 X46.7679 Y-23.3879 Z0.1817
G1 X46.7304 Y-23.3879 Z0.2048
G1 X46.6919 Y-23.3879 Z0.2290
G1 X46.6851 Y-23.3879 Z0.2336
G1 X46.6760 Y-23.3879 Z0.2394
G1 X46.6670 Y-23.3879 Z0.2444
G1 X46.6579 Y-23.3879 Z0.2486
G1 X46.6489 Y-23.3879 Z0.2521
G1 X46.6398 Y-23.3879 Z0.2550
G1 X46.6308 Y-23.3879 Z0.2572
G1 X46.6217 Y-23.3879 Z0.2589
G1 X46.6126 Y-23.3879 Z0.2600
G1 X46.6036 Y-23.3879 Z0.2606
G1 X46.5855 Y-23.3879 Z0.2607
G1 X46.5475 Y-23.3879 Z0.2686
G1 X46.5154 Y-23.3879 Z0.2903
G1 X46.4939 Y-23.3879 Z0.3227
G1 X46.4864 Y-23.3879 Z0.3607
G0 Z0.5107
G0 X46.4864 Y-23.3879 
G0 Z0.5107
G0 X47.1842 Y-23.3634 
G1 X47.1842 Y-23.3634 Z0.1301 F75.
G1 X47.1723 Y-23.3634 Z0.0830 F25.
G1 X47.1397 Y-23.3634 Z0.0470
G1 X47.0939 Y-23.3634 Z0.0306
G1 X47.0458 Y-23.3634 Z0.0378
G1 X47.0271 Y-23.3634 Z0.0456 F75.
G1 X46.9849 Y-23.3634 Z0.0636
G1 X46.9239 Y-23.3634 Z0.0938
G1 X46.8677 Y-23.3634 Z0.1243
G1 X46.8161 Y-23.3634 Z0.1550
G1 X46.7974 Y-23.3634 Z0.1654
G1 X46.7458 Y-23.3634 Z0.1967
G1 X46.6849 Y-23.3634 Z0.2347
G1 X46.6708 Y-23.3634 Z0.2429
G1 X46.6614 Y-23.3634 Z0.2477
G1 X46.6521 Y-23.3634 Z0.2517
G1 X46.6427 Y-23.3634 Z0.2550
G1 X46.6333 Y-23.3634 Z0.2576
G1 X46.6239 Y-23.3634 Z0.2595
G1 X46.6146 Y-23.3634 Z0.2609
G1 X46.6052 Y-23.3634 Z0.2616
G1 X46.5855 Y-23.3634 Z0.2619
G1 X46.5476 Y-23.3634 Z0.2699
G1 X46.5157 Y-23.3634 Z0.2917
G1 X46.4944 Y-23.3634 Z0.3239
G1 X46.4869 Y-23.3634 Z0.3619
G0 Z0.5119
G0 X46.4869 Y-23.3634 
G0 Z0.5119
G0 X47.1952 Y-23.3389 
G1 X47.1952 Y-23.3389 Z0.1315 F75.
G1 X47.1841 Y-23.3389 Z0.0856 F25.
G1 X47.1532 Y-23.3389 Z0.0500
G1 X47.1094 Y-23.3389 Z0.0325
G1 X47.0625 Y-23.3389 Z0.0370
G1 X47.0437 Y-23.3389 Z0.0435 F75.
G1 X46.9875 Y-23.3389 Z0.0674
G1 X46.9418 Y-23.3389 Z0.0898
G1 X46.9219 Y-23.3389 Z0.0990
G1 X46.8937 Y-23.3389 Z0.1138
G1 X46.8656 Y-23.3389 Z0.1291
G1 X46.8375 Y-23.3389 Z0.1458
G1 X46.8281 Y-23.3389 Z0.1511
G1 X46.8000 Y-23.3389 Z0.1662
G1 X46.7672 Y-23.3389 Z0.1852
G1 X46.7062 Y-23.3389 Z0.2227
G1 X46.6687 Y-23.3389 Z0.2446
G1 X46.6594 Y-23.3389 Z0.2492
G1 X46.6500 Y-23.3389 Z0.2531
G1 X46.6406 Y-23.3389 Z0.2563
G1 X46.6312 Y-23.3389 Z0.2589
G1 X46.6219 Y-23.3389 Z0.2608
G1 X46.6125 Y-23.3389 Z0.2620
G1 X46.5990 Y-23.3389 Z0.2628
G1 X46.5855 Y-23.3389 Z0.2629
G1 X46.5474 Y-23.3389 Z0.2707
G1 X46.5151 Y-23.3389 Z0.2924
G1 X46.4936 Y-23.3389 Z0.3248
G1 X46.4860 Y-23.3389 Z0.3629
G0 Z0.5129
G0 X46.4860 Y-23.3389 
G0 Z0.5129
G0 X47.2118 Y-23.3145 
G1 X47.2118 Y-23.3145 Z0.1310 F75.
G1 X47.2007 Y-23.3145 Z0.0853 F25.
G1 X47.1699 Y-23.3145 Z0.0496
G1 X47.1261 Y-23.3145 Z0.0321
G1 X47.0793 Y-23.3145 Z0.0365
G1 X47.0511 Y-23.3145 Z0.0461 F75.
G1 X47.0418 Y-23.3145 Z0.0495
G1 X46.9855 Y-23.3145 Z0.0732
G1 X46.9609 Y-23.3145 Z0.0852
G1 X46.9199 Y-23.3145 Z0.1041
G1 X46.8636 Y-23.3145 Z0.1337
G1 X46.8496 Y-23.3145 Z0.1419
G1 X46.7980 Y-23.3145 Z0.1697
G1 X46.7418 Y-23.3145 Z0.2022
G1 X46.7277 Y-23.3145 Z0.2107
G1 X46.6668 Y-23.3145 Z0.2461
G1 X46.6574 Y-23.3145 Z0.2507
G1 X46.6480 Y-23.3145 Z0.2546
G1 X46.6386 Y-23.3145 Z0.2577
G1 X46.6293 Y-23.3145 Z0.2602
G1 X46.6183 Y-23.3145 Z0.2622
G1 X46.6074 Y-23.3145 Z0.2635
G1 X46.5964 Y-23.3145 Z0.2639
G1 X46.5855 Y-23.3145 Z0.2639
G1 X46.5472 Y-23.3145 Z0.2716
G1 X46.5148 Y-23.3145 Z0.2932
G1 X46.4931 Y-23.3145 Z0.3257
G1 X46.4855 Y-23.3145 Z0.3639
G0 Z0.5139
G0 X46.4855 Y-23.3145 
G0 Z0.5139
G0 X47.2311 Y-23.2900 
G1 X47.2311 Y-23.2900 Z0.1296 F75.
G1 X47.2200 Y-23.2900 Z0.0838 F25.
G1 X47.1891 Y-23.2900 Z0.0482
G1 X47.1454 Y-23.2900 Z0.0307
G1 X47.0985 Y-23.2900 Z0.0351
G1 X47.0422 Y-23.2900 Z0.0545 F75.
G1 X46.9837 Y-23.2900 Z0.0789
G1 X46.9204 Y-23.2900 Z0.1080
G1 X46.8641 Y-23.2900 Z0.1374
G1 X46.8547 Y-23.2900 Z0.1418
G1 X46.8454 Y-23.2900 Z0.1466
G1 X46.7985 Y-23.2900 Z0.1718
G1 X46.7516 Y-23.2900 Z0.1988
G1 X46.7235 Y-23.2900 Z0.2139
G1 X46.7047 Y-23.2900 Z0.2245
G1 X46.6672 Y-23.2900 Z0.2463
G1 X46.6579 Y-23.2900 Z0.2511
G1 X46.6485 Y-23.2900 Z0.2550
G1 X46.6327 Y-23.2900 Z0.2601
G1 X46.6170 Y-23.2900 Z0.2633
G1 X46.6012 Y-23.2900 Z0.2648
G1 X46.5855 Y-23.2900 Z0.2650
G1 X46.5475 Y-23.2900 Z0.2729
G1 X46.5154 Y-23.2900 Z0.2946
G1 X46.4940 Y-23.2900 Z0.3269
G1 X46.4865 Y-23.2900 Z0.3650
G0 Z0.5150
G0 X46.4865 Y-23.2900 
G0 Z0.5150
G0 X47.2446 Y-23.2655 
G1 X47.2446 Y-23.2655 Z0.1314 F75.
G1 X47.2344 Y-23.2655 Z0.0874 F25.
G1 X47.2058 Y-23.2655 Z0.0523
G1 X47.1648 Y-23.2655 Z0.0335
G1 X47.1196 Y-23.2655 Z0.0346
G1 X47.1055 Y-23.2655 Z0.0382 F75.
G1 X47.1008 Y-23.2655 Z0.0396
G1 X47.0446 Y-23.2655 Z0.0589
G1 X46.9930 Y-23.2655 Z0.0801
G1 X46.9789 Y-23.2655 Z0.0855
G1 X46.9227 Y-23.2655 Z0.1111
G1 X46.9133 Y-23.2655 Z0.1158
G1 X46.8852 Y-23.2655 Z0.1305
G1 X46.8571 Y-23.2655 Z0.1437
G1 X46.8383 Y-23.2655 Z0.1531
G1 X46.8196 Y-23.2655 Z0.1629
G1 X46.7914 Y-23.2655 Z0.1781
G1 X46.7680 Y-23.2655 Z0.1916
G1 X46.7258 Y-23.2655 Z0.2138
G1 X46.6743 Y-23.2655 Z0.2427
G1 X46.6696 Y-23.2655 Z0.2455
G1 X46.6591 Y-23.2655 Z0.2511
G1 X46.6485 Y-23.2655 Z0.2556
G1 X46.6380 Y-23.2655 Z0.2593
G1 X46.6275 Y-23.2655 Z0.2621
G1 X46.6170 Y-23.2655 Z0.2642
G1 X46.6065 Y-23.2655 Z0.2654
G1 X46.5960 Y-23.2655 Z0.2659
G1 X46.5855 Y-23.2655 Z0.2660
G1 X46.5474 Y-23.2655 Z0.2738
G1 X46.5152 Y-23.2655 Z0.2955
G1 X46.4937 Y-23.2655 Z0.3279
G1 X46.4861 Y-23.2655 Z0.3660
G0 Z0.5160
G0 X46.4861 Y-23.2655 
G0 Z0.5160
G0 X47.2687 Y-23.2410 
G1 X47.2687 Y-23.2410 Z0.1301 F75.
G1 X47.2584 Y-23.2410 Z0.0860 F25.
G1 X47.2298 Y-23.2410 Z0.0509
G1 X47.1887 Y-23.2410 Z0.0321
G1 X47.1434 Y-23.2410 Z0.0333
G1 X47.1153 Y-23.2410 Z0.0407 F75.
G1 X47.1012 Y-23.2410 Z0.0446
G1 X47.0497 Y-23.2410 Z0.0624
G1 X47.0403 Y-23.2410 Z0.0657
G1 X47.0133 Y-23.2410 Z0.0769
G1 X46.9793 Y-23.2410 Z0.0898
G1 X46.9184 Y-23.2410 Z0.1173
G1 X46.9043 Y-23.2410 Z0.1246
G1 X46.8528 Y-23.2410 Z0.1487
G1 X46.7942 Y-23.2410 Z0.1789
G1 X46.7825 Y-23.2410 Z0.1854
G1 X46.7309 Y-23.2410 Z0.2123
G1 X46.6799 Y-23.2410 Z0.2407
G1 X46.6597 Y-23.2410 Z0.2512
G1 X46.6529 Y-23.2410 Z0.2543
G1 X46.6394 Y-23.2410 Z0.2595
G1 X46.6260 Y-23.2410 Z0.2632
G1 X46.6125 Y-23.2410 Z0.2656
G1 X46.5990 Y-23.2410 Z0.2667
G1 X46.5855 Y-23.2410 Z0.2670
G1 X46.5477 Y-23.2410 Z0.2751
G1 X46.5159 Y-23.2410 Z0.2969
G1 X46.4947 Y-23.2410 Z0.3291
G1 X46.4872 Y-23.2410 Z0.3670
G0 Z0.5170
G0 X46.4872 Y-23.2410 
G0 Z0.5170
G0 X47.2924 Y-23.2166 
G1 X47.2924 Y-23.2166 Z0.1289 F75.
G1 X47.2822 Y-23.2166 Z0.0848 F25.
G1 X47.2536 Y-23.2166 Z0.0498
G1 X47.2125 Y-23.2166 Z0.0309
G1 X47.1672 Y-23.2166 Z0.0321
G1 X47.1391 Y-23.2166 Z0.0394 F75.
G1 X47.1016 Y-23.2166 Z0.0496
G1 X47.0547 Y-23.2166 Z0.0658
G1 X47.0172 Y-23.2166 Z0.0799
G1 X46.9797 Y-23.2166 Z0.0941
G1 X46.9704 Y-23.2166 Z0.0982
G1 X46.9188 Y-23.2166 Z0.1214
G1 X46.9094 Y-23.2166 Z0.1254
G1 X46.8485 Y-23.2166 Z0.1538
G1 X46.7993 Y-23.2166 Z0.1791
G1 X46.7688 Y-23.2166 Z0.1938
G1 X46.7360 Y-23.2166 Z0.2109
G1 X46.7172 Y-23.2166 Z0.2211
G1 X46.6925 Y-23.2166 Z0.2349
G1 X46.6596 Y-23.2166 Z0.2517
G1 X46.6514 Y-23.2166 Z0.2556
G1 X46.6431 Y-23.2166 Z0.2588
G1 X46.6349 Y-23.2166 Z0.2615
G1 X46.6184 Y-23.2166 Z0.2654
G1 X46.6020 Y-23.2166 Z0.2674
G1 X46.5937 Y-23.2166 Z0.2678
G1 X46.5855 Y-23.2166 Z0.2678
G1 X46.5473 Y-23.2166 Z0.2755
G1 X46.5150 Y-23.2166 Z0.2972
G1 X46.4935 Y-23.2166 Z0.3296
G1 X46.4859 Y-23.2166 Z0.3678
G0 Z0.5178
G0 X46.4859 Y-23.2166 
G0 Z0.5178
G0 X47.3155 Y-23.1921 
G1 X47.3155 Y-23.1921 Z0.1292 F75.
G1 X47.3057 Y-23.1921 Z0.0861 F25.
G1 X47.2784 Y-23.1921 Z0.0514
G1 X47.2388 Y-23.1921 Z0.0319
G1 X47.1946 Y-23.1921 Z0.0314
G1 X47.1665 Y-23.1921 Z0.0374 F75.
G1 X47.1571 Y-23.1921 Z0.0397
G1 X47.1009 Y-23.1921 Z0.0551
G1 X47.0493 Y-23.1921 Z0.0729
G1 X47.0352 Y-23.1921 Z0.0775
G1 X46.9790 Y-23.1921 Z0.0989
G1 X46.9696 Y-23.1921 Z0.1030
G1 X46.9368 Y-23.1921 Z0.1177
G1 X46.9134 Y-23.1921 Z0.1271
G1 X46.9040 Y-23.1921 Z0.1311
G1 X46.8759 Y-23.1921 Z0.1440
G1 X46.8477 Y-23.1921 Z0.1571
G1 X46.8173 Y-23.1921 Z0.1727
G1 X46.7423 Y-23.1921 Z0.2090
G1 X46.7259 Y-23.1921 Z0.2176
G1 X46.7048 Y-23.1921 Z0.2292
G1 X46.6602 Y-23.1921 Z0.2518
G1 X46.6509 Y-23.1921 Z0.2563
G1 X46.6415 Y-23.1921 Z0.2600
G1 X46.6321 Y-23.1921 Z0.2630
G1 X46.6227 Y-23.1921 Z0.2653
G1 X46.6134 Y-23.1921 Z0.2670
G1 X46.6040 Y-23.1921 Z0.2681
G1 X46.5946 Y-23.1921 Z0.2686
G1 X46.5855 Y-23.1921 Z0.2686
G1 X46.5472 Y-23.1921 Z0.2761
G1 X46.5147 Y-23.1921 Z0.2978
G1 X46.4930 Y-23.1921 Z0.3303
G1 X46.4853 Y-23.1921 Z0.3686
G0 Z0.5186
G0 X46.4853 Y-23.1921 
G0 Z0.5186
G0 X47.3431 Y-23.1676 
G1 X47.3431 Y-23.1676 Z0.1282 F75.
G1 X47.3333 Y-23.1676 Z0.0851 F25.
G1 X47.3059 Y-23.1676 Z0.0504
G1 X47.2663 Y-23.1676 Z0.0309
G1 X47.2221 Y-23.1676 Z0.0304
G1 X47.1659 Y-23.1676 Z0.0424 F75.
G1 X47.1565 Y-23.1676 Z0.0449
G1 X47.1003 Y-23.1676 Z0.0604
G1 X47.0651 Y-23.1676 Z0.0725
G1 X47.0346 Y-23.1676 Z0.0821
G1 X46.9784 Y-23.1676 Z0.1036
G1 X46.9503 Y-23.1676 Z0.1159
G1 X46.9128 Y-23.1676 Z0.1306
G1 X46.9034 Y-23.1676 Z0.1347
G1 X46.8518 Y-23.1676 Z0.1581
G1 X46.8284 Y-23.1676 Z0.1697
G1 X46.7206 Y-23.1676 Z0.2216
G1 X46.6596 Y-23.1676 Z0.2526
G1 X46.6503 Y-23.1676 Z0.2570
G1 X46.6409 Y-23.1676 Z0.2607
G1 X46.6315 Y-23.1676 Z0.2637
G1 X46.6221 Y-23.1676 Z0.2661
G1 X46.6130 Y-23.1676 Z0.2677
G1 X46.6038 Y-23.1676 Z0.2688
G1 X46.5946 Y-23.1676 Z0.2694
G1 X46.5855 Y-23.1676 Z0.2694
G1 X46.5471 Y-23.1676 Z0.2769
G1 X46.5146 Y-23.1676 Z0.2986
G1 X46.4929 Y-23.1676 Z0.3310
G1 X46.4853 Y-23.1676 Z0.3694
G0 Z0.5194
G0 X46.4853 Y-23.1676 
G0 Z0.5194
G0 X47.3699 Y-23.1431 
G1 X47.3699 Y-23.1431 Z0.1285 F75.
G1 X47.3606 Y-23.1431 Z0.0865 F25.
G1 X47.3346 Y-23.1431 Z0.0522
G1 X47.2966 Y-23.1431 Z0.0321
G1 X47.2536 Y-23.1431 Z0.0298
G1 X47.2279 Y-23.1431 Z0.0340 F75.
G1 X47.1786 Y-23.1431 Z0.0446
G1 X47.1599 Y-23.1431 Z0.0488
G1 X47.0990 Y-23.1431 Z0.0661
G1 X47.0849 Y-23.1431 Z0.0708
G1 X47.0380 Y-23.1431 Z0.0854
G1 X47.0286 Y-23.1431 Z0.0889
G1 X46.9677 Y-23.1431 Z0.1123
G1 X46.9068 Y-23.1431 Z0.1364
G1 X46.8505 Y-23.1431 Z0.1618
G1 X46.8341 Y-23.1431 Z0.1689
G1 X46.7333 Y-23.1431 Z0.2168
G1 X46.7052 Y-23.1431 Z0.2299
G1 X46.6536 Y-23.1431 Z0.2560
G1 X46.6451 Y-23.1431 Z0.2597
G1 X46.6366 Y-23.1431 Z0.2628
G1 X46.6281 Y-23.1431 Z0.2653
G1 X46.6196 Y-23.1431 Z0.2673
G1 X46.6025 Y-23.1431 Z0.2697
G1 X46.5855 Y-23.1431 Z0.2702
G1 X46.5481 Y-23.1431 Z0.2785
G1 X46.5166 Y-23.1431 Z0.3004
G1 X46.4956 Y-23.1431 Z0.3325
G1 X46.4882 Y-23.1431 Z0.3701
G0 Z0.5202
G0 X46.4882 Y-23.1431 
G0 Z0.5202
G0 X47.4006 Y-23.1187 
G1 X47.4006 Y-23.1187 Z0.1292 F75.
G1 X47.3915 Y-23.1187 Z0.0875 F25.
G1 X47.3658 Y-23.1187 Z0.0534
G1 X47.3282 Y-23.1187 Z0.0331
G1 X47.2856 Y-23.1187 Z0.0304
G1 X47.2247 Y-23.1187 Z0.0396 F75.
G1 X47.1637 Y-23.1187 Z0.0527
G1 X47.0957 Y-23.1187 Z0.0719
G1 X47.0418 Y-23.1187 Z0.0887
G1 X47.0325 Y-23.1187 Z0.0918
G1 X46.9856 Y-23.1187 Z0.1097
G1 X46.9668 Y-23.1187 Z0.1160
G1 X46.9106 Y-23.1187 Z0.1381
G1 X46.8684 Y-23.1187 Z0.1570
G1 X46.8075 Y-23.1187 Z0.1830
G1 X46.7512 Y-23.1187 Z0.2097
G1 X46.7231 Y-23.1187 Z0.2224
G1 X46.6793 Y-23.1187 Z0.2434
G1 X46.6606 Y-23.1187 Z0.2529
G1 X46.6481 Y-23.1187 Z0.2589
G1 X46.6355 Y-23.1187 Z0.2636
G1 X46.6230 Y-23.1187 Z0.2671
G1 X46.6105 Y-23.1187 Z0.2694
G1 X46.5980 Y-23.1187 Z0.2707
G1 X46.5855 Y-23.1187 Z0.2709
G1 X46.5477 Y-23.1187 Z0.2790
G1 X46.5158 Y-23.1187 Z0.3007
G1 X46.4946 Y-23.1187 Z0.3330
G1 X46.4871 Y-23.1187 Z0.3709
G0 Z0.5209
G0 X46.4871 Y-23.1187 
G0 Z0.5209
G0 X47.4384 Y-23.0942 
G1 X47.4384 Y-23.0942 Z0.1275 F75.
G1 X47.4293 Y-23.0942 Z0.0856 F25.
G1 X47.4034 Y-23.0942 Z0.0515
G1 X47.3656 Y-23.0942 Z0.0313
G1 X47.3229 Y-23.0942 Z0.0287
G1 X47.2291 Y-23.0942 Z0.0434 F75.
G1 X47.1635 Y-23.0942 Z0.0577
G1 X47.1541 Y-23.0942 Z0.0602
G1 X47.1190 Y-23.0942 Z0.0701
G1 X47.0979 Y-23.0942 Z0.0755
G1 X47.0323 Y-23.0942 Z0.0963
G1 X47.0088 Y-23.0942 Z0.1053
G1 X46.9666 Y-23.0942 Z0.1194
G1 X46.9104 Y-23.0942 Z0.1415
G1 X46.8729 Y-23.0942 Z0.1578
G1 X46.7815 Y-23.0942 Z0.1968
G1 X46.7651 Y-23.0942 Z0.2044
G1 X46.7229 Y-23.0942 Z0.2234
G1 X46.6617 Y-23.0942 Z0.2528
G1 X46.6542 Y-23.0942 Z0.2566
G1 X46.6456 Y-23.0942 Z0.2604
G1 X46.6370 Y-23.0942 Z0.2636
G1 X46.6284 Y-23.0942 Z0.2663
G1 X46.6198 Y-23.0942 Z0.2683
G1 X46.6112 Y-23.0942 Z0.2699
G1 X46.6027 Y-23.0942 Z0.2710
G1 X46.5855 Y-23.0942 Z0.2716
G1 X46.5483 Y-23.0942 Z0.2802
G1 X46.5171 Y-23.0942 Z0.3021
G1 X46.4964 Y-23.0942 Z0.3341
G1 X46.4891 Y-23.0942 Z0.3715
G0 Z0.5216
G0 X46.4891 Y-23.0942 
G0 Z0.5216
G0 X47.4732 Y-23.0697 
G1 X47.4732 Y-23.0697 Z0.1273 F75.
G1 X47.4645 Y-23.0697 Z0.0867 F25.
G1 X47.4401 Y-23.0697 Z0.0531
G1 X47.4041 Y-23.0697 Z0.0323
G1 X47.3628 Y-23.0697 Z0.0279
G1 X47.3534 Y-23.0697 Z0.0289 F75.
G1 X47.3253 Y-23.0697 Z0.0329
G1 X47.3066 Y-23.0697 Z0.0353
G1 X47.2503 Y-23.0697 Z0.0442
G1 X47.2222 Y-23.0697 Z0.0492
G1 X47.1800 Y-23.0697 Z0.0591
G1 X47.1659 Y-23.0697 Z0.0621
G1 X47.1566 Y-23.0697 Z0.0644
G1 X47.1378 Y-23.0697 Z0.0696
G1 X47.0956 Y-23.0697 Z0.0803
G1 X47.0628 Y-23.0697 Z0.0909
G1 X46.9691 Y-23.0697 Z0.1219
G1 X46.9503 Y-23.0697 Z0.1291
G1 X46.8988 Y-23.0697 Z0.1494
G1 X46.7581 Y-23.0697 Z0.2085
G1 X46.7253 Y-23.0697 Z0.2232
G1 X46.6738 Y-23.0697 Z0.2478
G1 X46.6503 Y-23.0697 Z0.2587
G1 X46.6409 Y-23.0697 Z0.2626
G1 X46.6316 Y-23.0697 Z0.2658
G1 X46.6222 Y-23.0697 Z0.2683
G1 X46.6128 Y-23.0697 Z0.2702
G1 X46.5992 Y-23.0697 Z0.2718
G1 X46.5855 Y-23.0697 Z0.2722
G1 X46.5481 Y-23.0697 Z0.2806
G1 X46.5166 Y-23.0697 Z0.3024
G1 X46.4956 Y-23.0697 Z0.3345
G1 X46.4883 Y-23.0697 Z0.3722
G0 Z0.5222
G0 X46.4883 Y-23.0697 
G0 Z0.5222
G0 X47.5191 Y-23.0453 
G1 X47.5191 Y-23.0453 Z0.1268 F75.
G1 X47.5105 Y-23.0453 Z0.0863 F25.
G1 X47.4863 Y-23.0453 Z0.0527
G1 X47.4506 Y-23.0453 Z0.0318
G1 X47.4094 Y-23.0453 Z0.0272
G1 X47.3532 Y-23.0453 Z0.0327 F75.
G1 X47.2875 Y-23.0453 Z0.0424
G1 X47.2688 Y-23.0453 Z0.0454
G1 X47.2219 Y-23.0453 Z0.0536
G1 X47.1563 Y-23.0453 Z0.0691
G1 X47.1000 Y-23.0453 Z0.0834
G1 X47.0907 Y-23.0453 Z0.0861
G1 X47.0438 Y-23.0453 Z0.1012
G1 X47.0344 Y-23.0453 Z0.1040
G1 X46.9688 Y-23.0453 Z0.1254
G1 X46.9594 Y-23.0453 Z0.1289
G1 X46.9219 Y-23.0453 Z0.1436
G1 X46.8750 Y-23.0453 Z0.1610
G1 X46.7344 Y-23.0453 Z0.2201
G1 X46.6502 Y-23.0453 Z0.2592
G1 X46.6409 Y-23.0453 Z0.2630
G1 X46.6317 Y-23.0453 Z0.2662
G1 X46.6224 Y-23.0453 Z0.2687
G1 X46.6132 Y-23.0453 Z0.2706
G1 X46.6040 Y-23.0453 Z0.2719
G1 X46.5947 Y-23.0453 Z0.2726
G1 X46.5855 Y-23.0453 Z0.2728
G1 X46.5477 Y-23.0453 Z0.2809
G1 X46.5158 Y-23.0453 Z0.3026
G1 X46.4946 Y-23.0453 Z0.3349
G1 X46.4871 Y-23.0453 Z0.3728
G0 Z0.5228
G0 X46.4871 Y-23.0453 
G0 Z0.5228
G0 X47.5692 Y-23.0208 
G1 X47.5692 Y-23.0208 Z0.1269 F75.
G1 X47.5609 Y-23.0208 Z0.0871 F25.
G1 X47.5375 Y-23.0208 Z0.0538
G1 X47.5027 Y-23.0208 Z0.0327
G1 X47.4623 Y-23.0208 Z0.0272
G1 X47.4155 Y-23.0208 Z0.0304 F75.
G1 X47.3498 Y-23.0208 Z0.0371
G1 X47.2936 Y-23.0208 Z0.0455
G1 X47.2373 Y-23.0208 Z0.0553
G1 X47.2186 Y-23.0208 Z0.0588
G1 X47.1717 Y-23.0208 Z0.0697
G1 X47.1623 Y-23.0208 Z0.0716
G1 X47.1530 Y-23.0208 Z0.0739
G1 X47.1295 Y-23.0208 Z0.0802
G1 X47.0967 Y-23.0208 Z0.0885
G1 X47.0592 Y-23.0208 Z0.1004
G1 X47.0311 Y-23.0208 Z0.1081
G1 X47.0217 Y-23.0208 Z0.1110
G1 X46.9655 Y-23.0208 Z0.1299
G1 X46.9373 Y-23.0208 Z0.1407
G1 X46.8483 Y-23.0208 Z0.1739
G1 X46.7084 Y-23.0208 Z0.2328
G1 X46.6489 Y-23.0208 Z0.2601
G1 X46.6410 Y-23.0208 Z0.2634
G1 X46.6330 Y-23.0208 Z0.2662
G1 X46.6172 Y-23.0208 Z0.2703
G1 X46.6013 Y-23.0208 Z0.2727
G1 X46.5855 Y-23.0208 Z0.2733
G1 X46.5485 Y-23.0208 Z0.2821
G1 X46.5175 Y-23.0208 Z0.3040
G1 X46.4968 Y-23.0208 Z0.3359
G1 X46.4896 Y-23.0208 Z0.3732
G0 Z0.5233
G0 X46.4896 Y-23.0208 
G0 Z0.5233
G0 X47.6304 Y-22.9963 
G1 X47.6304 Y-22.9963 Z0.1259 F75.
G1 X47.6223 Y-22.9963 Z0.0864 F25.
G1 X47.5993 Y-22.9963 Z0.0534
G1 X47.5651 Y-22.9963 Z0.0321
G1 X47.5253 Y-22.9963 Z0.0260
G1 X47.5019 Y-22.9963 Z0.0272 F75.
G1 X47.4269 Y-22.9963 Z0.0328
G1 X47.3941 Y-22.9963 Z0.0364
G1 X47.3566 Y-22.9963 Z0.0401
G1 X47.3378 Y-22.9963 Z0.0427
G1 X47.3144 Y-22.9963 Z0.0462
G1 X47.2253 Y-22.9963 Z0.0617
G1 X47.1878 Y-22.9963 Z0.0701
G1 X47.1597 Y-22.9963 Z0.0759
G1 X47.1503 Y-22.9963 Z0.0784
G1 X47.1035 Y-22.9963 Z0.0910
G1 X47.0941 Y-22.9963 Z0.0934
G1 X47.0847 Y-22.9963 Z0.0964
G1 X47.0753 Y-22.9963 Z0.0992
G1 X47.0285 Y-22.9963 Z0.1120
G1 X46.9628 Y-22.9963 Z0.1342
G1 X46.8275 Y-22.9963 Z0.1840
G1 X46.7238 Y-22.9963 Z0.2271
G1 X46.6769 Y-22.9963 Z0.2475
G1 X46.6441 Y-22.9963 Z0.2624
G1 X46.6347 Y-22.9963 Z0.2659
G1 X46.6253 Y-22.9963 Z0.2687
G1 X46.6154 Y-22.9963 Z0.2710
G1 X46.6054 Y-22.9963 Z0.2726
G1 X46.5954 Y-22.9963 Z0.2735
G1 X46.5855 Y-22.9963 Z0.2738
G1 X46.5480 Y-22.9963 Z0.2821
G1 X46.5163 Y-22.9963 Z0.3039
G1 X46.4953 Y-22.9963 Z0.3360
G1 X46.4879 Y-22.9963 Z0.3737
G0 Z0.5238
G0 X46.4879 Y-22.9963 
G0 Z0.5238
G0 X47.6948 Y-22.9718 
G1 X47.6948 Y-22.9718 Z0.1255 F75.
G1 X47.6866 Y-22.9718 Z0.0858 F25.
G1 X47.6633 Y-22.9718 Z0.0527
G1 X47.6289 Y-22.9718 Z0.0315
G1 X47.5888 Y-22.9718 Z0.0256
G1 X47.5607 Y-22.9718 Z0.0273 F75.
G1 X47.4904 Y-22.9718 Z0.0308
G1 X47.4482 Y-22.9718 Z0.0340
G1 X47.3451 Y-22.9718 Z0.0454
G1 X47.3357 Y-22.9718 Z0.0469
G1 X47.2209 Y-22.9718 Z0.0669
G1 X47.1576 Y-22.9718 Z0.0802
G1 X47.0263 Y-22.9718 Z0.1158
G1 X46.9794 Y-22.9718 Z0.1316
G1 X46.9607 Y-22.9718 Z0.1373
G1 X46.9419 Y-22.9718 Z0.1438
G1 X46.8482 Y-22.9718 Z0.1781
G1 X46.7990 Y-22.9718 Z0.1966
G1 X46.7451 Y-22.9718 Z0.2190
G1 X46.6630 Y-22.9718 Z0.2546
G1 X46.6372 Y-22.9718 Z0.2654
G1 X46.6242 Y-22.9718 Z0.2694
G1 X46.6113 Y-22.9718 Z0.2721
G1 X46.5984 Y-22.9718 Z0.2737
G1 X46.5855 Y-22.9718 Z0.2742
G1 X46.5483 Y-22.9718 Z0.2828
G1 X46.5171 Y-22.9718 Z0.3047
G1 X46.4964 Y-22.9718 Z0.3367
G1 X46.4891 Y-22.9718 Z0.3741
G0 Z0.5242
G0 X46.4891 Y-22.9718 
G0 Z0.5242
G0 X47.7464 Y-22.9474 
G1 X47.7464 Y-22.9474 Z0.1251 F75.
G1 X47.7386 Y-22.9474 Z0.0863 F25.
G1 X47.7162 Y-22.9474 Z0.0535
G1 X47.6829 Y-22.9474 Z0.0320
G1 X47.6439 Y-22.9474 Z0.0252
G1 X47.6064 Y-22.9474 Z0.0262 F75.
G1 X47.5126 Y-22.9474 Z0.0326
G1 X47.4798 Y-22.9474 Z0.0343
G1 X47.4704 Y-22.9474 Z0.0351
G1 X47.3532 Y-22.9474 Z0.0481
G1 X47.2314 Y-22.9474 Z0.0686
G1 X47.1564 Y-22.9474 Z0.0842
G1 X47.1095 Y-22.9474 Z0.0968
G1 X47.0532 Y-22.9474 Z0.1116
G1 X47.0251 Y-22.9474 Z0.1194
G1 X46.9970 Y-22.9474 Z0.1288
G1 X46.9595 Y-22.9474 Z0.1398
G1 X46.9173 Y-22.9474 Z0.1544
G1 X46.8751 Y-22.9474 Z0.1698
G1 X46.7720 Y-22.9474 Z0.2085
G1 X46.7064 Y-22.9474 Z0.2365
G1 X46.6407 Y-22.9474 Z0.2642
G1 X46.6314 Y-22.9474 Z0.2675
G1 X46.6220 Y-22.9474 Z0.2701
G1 X46.6126 Y-22.9474 Z0.2721
G1 X46.6032 Y-22.9474 Z0.2735
G1 X46.5939 Y-22.9474 Z0.2743
G1 X46.5855 Y-22.9474 Z0.2745
G1 X46.5479 Y-22.9474 Z0.2827
G1 X46.5163 Y-22.9474 Z0.3046
G1 X46.4952 Y-22.9474 Z0.3367
G1 X46.4878 Y-22.9474 Z0.3745
G0 Z0.5245
G0 X46.4878 Y-22.9474 
G0 Z0.5245
G0 X47.7977 Y-22.9229 
G1 X47.7977 Y-22.9229 Z0.1250 F75.
G1 X47.7897 Y-22.9229 Z0.0857 F25.
G1 X47.7669 Y-22.9229 Z0.0528
G1 X47.7330 Y-22.9229 Z0.0314
G1 X47.6935 Y-22.9229 Z0.0251
G1 X47.6747 Y-22.9229 Z0.0259 F75.
G1 X47.5997 Y-22.9229 Z0.0280
G1 X47.4872 Y-22.9229 Z0.0361
G1 X47.3654 Y-22.9229 Z0.0494
G1 X47.3560 Y-22.9229 Z0.0506
G1 X47.2505 Y-22.9229 Z0.0684
G1 X47.1591 Y-22.9229 Z0.0874
G1 X47.1497 Y-22.9229 Z0.0897
G1 X47.0279 Y-22.9229 Z0.1218
G1 X47.0091 Y-22.9229 Z0.1276
G1 X46.9622 Y-22.9229 Z0.1411
G1 X46.9435 Y-22.9229 Z0.1474
G1 X46.8919 Y-22.9229 Z0.1653
G1 X46.7607 Y-22.9229 Z0.2137
G1 X46.6435 Y-22.9229 Z0.2633
G1 X46.6290 Y-22.9229 Z0.2684
G1 X46.6145 Y-22.9229 Z0.2720
G1 X46.6000 Y-22.9229 Z0.2741
G1 X46.5855 Y-22.9229 Z0.2748
G1 X46.5486 Y-22.9229 Z0.2836
G1 X46.5177 Y-22.9229 Z0.3056
G1 X46.4972 Y-22.9229 Z0.3374
G1 X46.4900 Y-22.9229 Z0.3747
G0 Z0.5248
G0 X46.4900 Y-22.9229 
G0 Z0.5248
G0 X47.8356 Y-22.8984 
G1 X47.8356 Y-22.8984 Z0.1251 F75.
G1 X47.8277 Y-22.8984 Z0.0861 F25.
G1 X47.8053 Y-22.8984 Z0.0533
G1 X47.7718 Y-22.8984 Z0.0318
G1 X47.7326 Y-22.8984 Z0.0251
G1 X47.7139 Y-22.8984 Z0.0257 F75.
G1 X47.6857 Y-22.8984 Z0.0263
G1 X47.6623 Y-22.8984 Z0.0278
G1 X47.6014 Y-22.8984 Z0.0295
G1 X47.5076 Y-22.8984 Z0.0363
G1 X47.4889 Y-22.8984 Z0.0381
G1 X47.4326 Y-22.8984 Z0.0446
G1 X47.3857 Y-22.8984 Z0.0497
G1 X47.3576 Y-22.8984 Z0.0532
G1 X47.2732 Y-22.8984 Z0.0675
G1 X47.1514 Y-22.8984 Z0.0929
G1 X47.0201 Y-22.8984 Z0.1265
G1 X46.9639 Y-22.8984 Z0.1428
G1 X46.9451 Y-22.8984 Z0.1490
G1 X46.9170 Y-22.8984 Z0.1587
G1 X46.8842 Y-22.8984 Z0.1691
G1 X46.7576 Y-22.8984 Z0.2154
G1 X46.7482 Y-22.8984 Z0.2191
G1 X46.6826 Y-22.8984 Z0.2468
G1 X46.6340 Y-22.8984 Z0.2669
G1 X46.6219 Y-22.8984 Z0.2705
G1 X46.6098 Y-22.8984 Z0.2730
G1 X46.5976 Y-22.8984 Z0.2745
G1 X46.5855 Y-22.8984 Z0.2749
G1 X46.5484 Y-22.8984 Z0.2836
G1 X46.5173 Y-22.8984 Z0.3055
G1 X46.4966 Y-22.8984 Z0.3375
G1 X46.4894 Y-22.8984 Z0.3749
G0 Z0.5249
G0 X46.4894 Y-22.8984 
G0 Z0.5249
G0 X47.8688 Y-22.8739 
G1 X47.8688 Y-22.8739 Z0.1252 F75.
G1 X47.8610 Y-22.8739 Z0.0867 F25.
G1 X47.8390 Y-22.8739 Z0.0541
G1 X47.8061 Y-22.8739 Z0.0325
G1 X47.7675 Y-22.8739 Z0.0252
G1 X47.7323 Y-22.8739 Z0.0257 F75.
G1 X47.7042 Y-22.8739 Z0.0269
G1 X47.6831 Y-22.8739 Z0.0273
G1 X47.6550 Y-22.8739 Z0.0293
G1 X47.6362 Y-22.8739 Z0.0302
G1 X47.5987 Y-22.8739 Z0.0312
G1 X47.5331 Y-22.8739 Z0.0360
G1 X47.5003 Y-22.8739 Z0.0391
G1 X47.3925 Y-22.8739 Z0.0516
G1 X47.3644 Y-22.8739 Z0.0551
G1 X47.2800 Y-22.8739 Z0.0694
G1 X47.1675 Y-22.8739 Z0.0920
G1 X47.1487 Y-22.8739 Z0.0959
G1 X47.1300 Y-22.8739 Z0.1005
G1 X47.0128 Y-22.8739 Z0.1305
G1 X46.9800 Y-22.8739 Z0.1403
G1 X46.9612 Y-22.8739 Z0.1457
G1 X46.9284 Y-22.8739 Z0.1567
G1 X46.8956 Y-22.8739 Z0.1667
G1 X46.8769 Y-22.8739 Z0.1726
G1 X46.8112 Y-22.8739 Z0.1967
G1 X46.7737 Y-22.8739 Z0.2099
G1 X46.7409 Y-22.8739 Z0.2224
G1 X46.6515 Y-22.8739 Z0.2600
G1 X46.6350 Y-22.8739 Z0.2666
G1 X46.6267 Y-22.8739 Z0.2693
G1 X46.6185 Y-22.8739 Z0.2714
G1 X46.6020 Y-22.8739 Z0.2741
G1 X46.5855 Y-22.8739 Z0.2750
G1 X46.5489 Y-22.8739 Z0.2842
G1 X46.5184 Y-22.8739 Z0.3062
G1 X46.4981 Y-22.8739 Z0.3379
G1 X46.4910 Y-22.8739 Z0.3749
G0 Z0.5250
G0 X46.4910 Y-22.8739 
G0 Z0.5250
G0 X47.8959 Y-22.8495 
G1 X47.8959 Y-22.8495 Z0.1252 F75.
G1 X47.8882 Y-22.8495 Z0.0866 F25.
G1 X47.8661 Y-22.8495 Z0.0540
G1 X47.8332 Y-22.8495 Z0.0324
G1 X47.7944 Y-22.8495 Z0.0253
G1 X47.7382 Y-22.8495 Z0.0261 F75.
G1 X47.6913 Y-22.8495 Z0.0282
G1 X47.6772 Y-22.8495 Z0.0286
G1 X47.6257 Y-22.8495 Z0.0321
G1 X47.5976 Y-22.8495 Z0.0329
G1 X47.5601 Y-22.8495 Z0.0356
G1 X47.5085 Y-22.8495 Z0.0403
G1 X47.4253 Y-22.8495 Z0.0500
G1 X47.3913 Y-22.8495 Z0.0545
G1 X47.3679 Y-22.8495 Z0.0574
G1 X47.3257 Y-22.8495 Z0.0645
G1 X47.2882 Y-22.8495 Z0.0706
G1 X47.2507 Y-22.8495 Z0.0776
G1 X47.1569 Y-22.8495 Z0.0967
G1 X47.1101 Y-22.8495 Z0.1075
G1 X47.0069 Y-22.8495 Z0.1341
G1 X46.9038 Y-22.8495 Z0.1654
G1 X46.8687 Y-22.8495 Z0.1765
G1 X46.8241 Y-22.8495 Z0.1926
G1 X46.7819 Y-22.8495 Z0.2075
G1 X46.7315 Y-22.8495 Z0.2265
G1 X46.6507 Y-22.8495 Z0.2604
G1 X46.6319 Y-22.8495 Z0.2677
G1 X46.6226 Y-22.8495 Z0.2704
G1 X46.6132 Y-22.8495 Z0.2725
G1 X46.6038 Y-22.8495 Z0.2740
G1 X46.5944 Y-22.8495 Z0.2748
G1 X46.5855 Y-22.8495 Z0.2751
G1 X46.5482 Y-22.8495 Z0.2836
G1 X46.5168 Y-22.8495 Z0.3054
G1 X46.4959 Y-22.8495 Z0.3375
G1 X46.4886 Y-22.8495 Z0.3751
G0 Z0.5251
G0 X46.4886 Y-22.8495 
G0 Z0.5251
G0 X47.9139 Y-22.8250 
G1 X47.9139 Y-22.8250 Z0.1252 F75.
G1 X47.9061 Y-22.8250 Z0.0865 F25.
G1 X47.8839 Y-22.8250 Z0.0538
G1 X47.8508 Y-22.8250 Z0.0323
G1 X47.8119 Y-22.8250 Z0.0252
G1 X47.7416 Y-22.8250 Z0.0266 F75.
G1 X47.6759 Y-22.8250 Z0.0295
G1 X47.6103 Y-22.8250 Z0.0340
G1 X47.5845 Y-22.8250 Z0.0354
G1 X47.5166 Y-22.8250 Z0.0417
G1 X47.4392 Y-22.8250 Z0.0506
G1 X47.3713 Y-22.8250 Z0.0598
G1 X47.2963 Y-22.8250 Z0.0719
G1 X47.2306 Y-22.8250 Z0.0840
G1 X47.2119 Y-22.8250 Z0.0877
G1 X47.1369 Y-22.8250 Z0.1037
G1 X47.0806 Y-22.8250 Z0.1169
G1 X47.0009 Y-22.8250 Z0.1377
G1 X46.9681 Y-22.8250 Z0.1475
G1 X46.9306 Y-22.8250 Z0.1584
G1 X46.9119 Y-22.8250 Z0.1641
G1 X46.8603 Y-22.8250 Z0.1805
G1 X46.8369 Y-22.8250 Z0.1889
G1 X46.7806 Y-22.8250 Z0.2085
G1 X46.7220 Y-22.8250 Z0.2306
G1 X46.6681 Y-22.8250 Z0.2531
G1 X46.6400 Y-22.8250 Z0.2647
G1 X46.6306 Y-22.8250 Z0.2680
G1 X46.6213 Y-22.8250 Z0.2706
G1 X46.6119 Y-22.8250 Z0.2726
G1 X46.5987 Y-22.8250 Z0.2744
G1 X46.5855 Y-22.8250 Z0.2750
G1 X46.5486 Y-22.8250 Z0.2839
G1 X46.5178 Y-22.8250 Z0.3059
G1 X46.4972 Y-22.8250 Z0.3377
G1 X46.4901 Y-22.8250 Z0.3749
G0 Z0.5250
G0 X46.4901 Y-22.8250 
G0 Z0.5250
G0 X47.9218 Y-22.8005 
G1 X47.9218 Y-22.8005 Z0.1251 F75.
G1 X47.9140 Y-22.8005 Z0.0863 F25.
G1 X47.8917 Y-22.8005 Z0.0536
G1 X47.8584 Y-22.8005 Z0.0321
G1 X47.8194 Y-22.8005 Z0.0252
G1 X47.7538 Y-22.8005 Z0.0268 F75.
G1 X47.6694 Y-22.8005 Z0.0309
G1 X47.5944 Y-22.8005 Z0.0363
G1 X47.5194 Y-22.8005 Z0.0431
G1 X47.4444 Y-22.8005 Z0.0517
G1 X47.3694 Y-22.8005 Z0.0621
G1 X47.2944 Y-22.8005 Z0.0742
G1 X47.2194 Y-22.8005 Z0.0881
G1 X47.1444 Y-22.8005 Z0.1038
G1 X47.0694 Y-22.8005 Z0.1214
G1 X46.9944 Y-22.8005 Z0.1411
G1 X46.9194 Y-22.8005 Z0.1629
G1 X46.8444 Y-22.8005 Z0.1869
G1 X46.7694 Y-22.8005 Z0.2133
G1 X46.7131 Y-22.8005 Z0.2346
G1 X46.6381 Y-22.8005 Z0.2653
G1 X46.6288 Y-22.8005 Z0.2685
G1 X46.6194 Y-22.8005 Z0.2711
G1 X46.6109 Y-22.8005 Z0.2728
G1 X46.6024 Y-22.8005 Z0.2740
G1 X46.5855 Y-22.8005 Z0.2750
G1 X46.5491 Y-22.8005 Z0.2842
G1 X46.5186 Y-22.8005 Z0.3063
G1 X46.4984 Y-22.8005 Z0.3379
G1 X46.4914 Y-22.8005 Z0.3748
G0 Z0.5250
G0 X46.4914 Y-22.8005 
G0 Z0.5250
G0 X47.9150 Y-22.7760 
G1 X47.9150 Y-22.7760 Z0.1253 F75.
G1 X47.9072 Y-22.7760 Z0.0865 F25.
G1 X47.8850 Y-22.7760 Z0.0539
G1 X47.8519 Y-22.7760 Z0.0323
G1 X47.8130 Y-22.7760 Z0.0253
G1 X47.7520 Y-22.7760 Z0.0266 F75.
G1 X47.6817 Y-22.7760 Z0.0299
G1 X47.6630 Y-22.7760 Z0.0309
G1 X47.6161 Y-22.7760 Z0.0342
G1 X47.5973 Y-22.7760 Z0.0351
G1 X47.5739 Y-22.7760 Z0.0370
G1 X47.5083 Y-22.7760 Z0.0429
G1 X47.4333 Y-22.7760 Z0.0516
G1 X47.3630 Y-22.7760 Z0.0613
G1 X47.2880 Y-22.7760 Z0.0736
G1 X47.2130 Y-22.7760 Z0.0877
G1 X47.1380 Y-22.7760 Z0.1037
G1 X47.0630 Y-22.7760 Z0.1216
G1 X46.9997 Y-22.7760 Z0.1382
G1 X46.9692 Y-22.7760 Z0.1473
G1 X46.9188 Y-22.7760 Z0.1620
G1 X46.8591 Y-22.7760 Z0.1811
G1 X46.8380 Y-22.7760 Z0.1886
G1 X46.7817 Y-22.7760 Z0.2083
G1 X46.7208 Y-22.7760 Z0.2313
G1 X46.6505 Y-22.7760 Z0.2604
G1 X46.6317 Y-22.7760 Z0.2676
G1 X46.6223 Y-22.7760 Z0.2703
G1 X46.6130 Y-22.7760 Z0.2724
G1 X46.5992 Y-22.7760 Z0.2744
G1 X46.5855 Y-22.7760 Z0.2750
G1 X46.5487 Y-22.7760 Z0.2839
G1 X46.5179 Y-22.7760 Z0.3059
G1 X46.4974 Y-22.7760 Z0.3377
G1 X46.4903 Y-22.7760 Z0.3749
G0 Z0.5250
G0 X46.4903 Y-22.7760 
G0 Z0.5250
G0 X47.8973 Y-22.7516 
G1 X47.8973 Y-22.7516 Z0.1254 F75.
G1 X47.8895 Y-22.7516 Z0.0867 F25.
G1 X47.8674 Y-22.7516 Z0.0541
G1 X47.8343 Y-22.7516 Z0.0325
G1 X47.7955 Y-22.7516 Z0.0254
G1 X47.7627 Y-22.7516 Z0.0260 F75.
G1 X47.6830 Y-22.7516 Z0.0293
G1 X47.6455 Y-22.7516 Z0.0314
G1 X47.5986 Y-22.7516 Z0.0337
G1 X47.5330 Y-22.7516 Z0.0392
G1 X47.5002 Y-22.7516 Z0.0416
G1 X47.4393 Y-22.7516 Z0.0486
G1 X47.4205 Y-22.7516 Z0.0510
G1 X47.3877 Y-22.7516 Z0.0554
G1 X47.3596 Y-22.7516 Z0.0588
G1 X47.3174 Y-22.7516 Z0.0661
G1 X47.2893 Y-22.7516 Z0.0707
G1 X47.2424 Y-22.7516 Z0.0792
G1 X47.2143 Y-22.7516 Z0.0842
G1 X47.1885 Y-22.7516 Z0.0902
G1 X47.1580 Y-22.7516 Z0.0966
G1 X47.0924 Y-22.7516 Z0.1117
G1 X47.0666 Y-22.7516 Z0.1189
G1 X47.0455 Y-22.7516 Z0.1241
G1 X47.0057 Y-22.7516 Z0.1345
G1 X46.9588 Y-22.7516 Z0.1488
G1 X46.9447 Y-22.7516 Z0.1533
G1 X46.9049 Y-22.7516 Z0.1652
G1 X46.8674 Y-22.7516 Z0.1772
G1 X46.8205 Y-22.7516 Z0.1942
G1 X46.7736 Y-22.7516 Z0.2107
G1 X46.7314 Y-22.7516 Z0.2267
G1 X46.6518 Y-22.7516 Z0.2599
G1 X46.6330 Y-22.7516 Z0.2673
G1 X46.6236 Y-22.7516 Z0.2701
G1 X46.6143 Y-22.7516 Z0.2722
G1 X46.6049 Y-22.7516 Z0.2738
G1 X46.5955 Y-22.7516 Z0.2747
G1 X46.5855 Y-22.7516 Z0.2751
G1 X46.5483 Y-22.7516 Z0.2836
G1 X46.5170 Y-22.7516 Z0.3055
G1 X46.4962 Y-22.7516 Z0.3375
G1 X46.4890 Y-22.7516 Z0.3750
G0 Z0.5251
G0 X46.4890 Y-22.7516 
G0 Z0.5251
G0 X47.8728 Y-22.7271 
G1 X47.8728 Y-22.7271 Z0.1255 F75.
G1 X47.8650 Y-22.7271 Z0.0866 F25.
G1 X47.8426 Y-22.7271 Z0.0538
G1 X47.8092 Y-22.7271 Z0.0323
G1 X47.7700 Y-22.7271 Z0.0255
G1 X47.7325 Y-22.7271 Z0.0266 F75.
G1 X47.6575 Y-22.7271 Z0.0295
G1 X47.6013 Y-22.7271 Z0.0323
G1 X47.5544 Y-22.7271 Z0.0361
G1 X47.5357 Y-22.7271 Z0.0372
G1 X47.4911 Y-22.7271 Z0.0403
G1 X47.3575 Y-22.7271 Z0.0562
G1 X47.2169 Y-22.7271 Z0.0803
G1 X47.1654 Y-22.7271 Z0.0925
G1 X47.1513 Y-22.7271 Z0.0954
G1 X47.0857 Y-22.7271 Z0.1105
G1 X47.0482 Y-22.7271 Z0.1215
G1 X47.0107 Y-22.7271 Z0.1312
G1 X46.9638 Y-22.7271 Z0.1450
G1 X46.9544 Y-22.7271 Z0.1480
G1 X46.9263 Y-22.7271 Z0.1577
G1 X46.8982 Y-22.7271 Z0.1661
G1 X46.8747 Y-22.7271 Z0.1737
G1 X46.8044 Y-22.7271 Z0.1995
G1 X46.7669 Y-22.7271 Z0.2127
G1 X46.7411 Y-22.7271 Z0.2225
G1 X46.6528 Y-22.7271 Z0.2595
G1 X46.6359 Y-22.7271 Z0.2662
G1 X46.6275 Y-22.7271 Z0.2690
G1 X46.6191 Y-22.7271 Z0.2712
G1 X46.6023 Y-22.7271 Z0.2740
G1 X46.5855 Y-22.7271 Z0.2750
G1 X46.5490 Y-22.7271 Z0.2841
G1 X46.5184 Y-22.7271 Z0.3061
G1 X46.4982 Y-22.7271 Z0.3379
G1 X46.4911 Y-22.7271 Z0.3748
G0 Z0.5250
G0 X46.4911 Y-22.7271 
G0 Z0.5250
G0 X47.8399 Y-22.7026 
G1 X47.8399 Y-22.7026 Z0.1253 F75.
G1 X47.8320 Y-22.7026 Z0.0862 F25.
G1 X47.8093 Y-22.7026 Z0.0533
G1 X47.7756 Y-22.7026 Z0.0319
G1 X47.7362 Y-22.7026 Z0.0254
G1 X47.6987 Y-22.7026 Z0.0268 F75.
G1 X47.6612 Y-22.7026 Z0.0279
G1 X47.6050 Y-22.7026 Z0.0308
G1 X47.5768 Y-22.7026 Z0.0329
G1 X47.5487 Y-22.7026 Z0.0343
G1 X47.4808 Y-22.7026 Z0.0393
G1 X47.4268 Y-22.7026 Z0.0456
G1 X47.3800 Y-22.7026 Z0.0507
G1 X47.3518 Y-22.7026 Z0.0541
G1 X47.3003 Y-22.7026 Z0.0630
G1 X47.2862 Y-22.7026 Z0.0650
G1 X47.2581 Y-22.7026 Z0.0701
G1 X47.2112 Y-22.7026 Z0.0782
G1 X47.1409 Y-22.7026 Z0.0950
G1 X47.0893 Y-22.7026 Z0.1067
G1 X47.0800 Y-22.7026 Z0.1091
G1 X47.0237 Y-22.7026 Z0.1257
G1 X47.0143 Y-22.7026 Z0.1282
G1 X46.9581 Y-22.7026 Z0.1445
G1 X46.9487 Y-22.7026 Z0.1477
G1 X46.9112 Y-22.7026 Z0.1608
G1 X46.8831 Y-22.7026 Z0.1698
G1 X46.7800 Y-22.7026 Z0.2077
G1 X46.7612 Y-22.7026 Z0.2144
G1 X46.7495 Y-22.7026 Z0.2189
G1 X46.6610 Y-22.7026 Z0.2559
G1 X46.6359 Y-22.7026 Z0.2662
G1 X46.6233 Y-22.7026 Z0.2701
G1 X46.6107 Y-22.7026 Z0.2728
G1 X46.5981 Y-22.7026 Z0.2744
G1 X46.5855 Y-22.7026 Z0.2749
G1 X46.5485 Y-22.7026 Z0.2836
G1 X46.5174 Y-22.7026 Z0.3055
G1 X46.4968 Y-22.7026 Z0.3375
G1 X46.4896 Y-22.7026 Z0.3748
G0 Z0.5249
G0 X46.4896 Y-22.7026 
G0 Z0.5249
G0 X47.8001 Y-22.6781 
G1 X47.8001 Y-22.6781 Z0.1252 F75.
G1 X47.7922 Y-22.6781 Z0.0862 F25.
G1 X47.7696 Y-22.6781 Z0.0534
G1 X47.7361 Y-22.6781 Z0.0319
G1 X47.6968 Y-22.6781 Z0.0253
G1 X47.6593 Y-22.6781 Z0.0266 F75.
G1 X47.5562 Y-22.6781 Z0.0318
G1 X47.4718 Y-22.6781 Z0.0380
G1 X47.4530 Y-22.6781 Z0.0402
G1 X47.3499 Y-22.6781 Z0.0515
G1 X47.3218 Y-22.6781 Z0.0562
G1 X47.2796 Y-22.6781 Z0.0619
G1 X47.2468 Y-22.6781 Z0.0687
G1 X47.2093 Y-22.6781 Z0.0753
G1 X47.1694 Y-22.6781 Z0.0848
G1 X47.1530 Y-22.6781 Z0.0882
G1 X47.1249 Y-22.6781 Z0.0957
G1 X47.0874 Y-22.6781 Z0.1042
G1 X47.0780 Y-22.6781 Z0.1066
G1 X47.0218 Y-22.6781 Z0.1232
G1 X47.0124 Y-22.6781 Z0.1264
G1 X46.9983 Y-22.6781 Z0.1307
G1 X46.9562 Y-22.6781 Z0.1430
G1 X46.9468 Y-22.6781 Z0.1461
G1 X46.8905 Y-22.6781 Z0.1659
G1 X46.7593 Y-22.6781 Z0.2146
G1 X46.6468 Y-22.6781 Z0.2618
G1 X46.6315 Y-22.6781 Z0.2676
G1 X46.6161 Y-22.6781 Z0.2716
G1 X46.6008 Y-22.6781 Z0.2739
G1 X46.5855 Y-22.6781 Z0.2747
G1 X46.5487 Y-22.6781 Z0.2836
G1 X46.5179 Y-22.6781 Z0.3056
G1 X46.4975 Y-22.6781 Z0.3374
G1 X46.4904 Y-22.6781 Z0.3745
G0 Z0.5247
G0 X46.4904 Y-22.6781 
G0 Z0.5247
G0 X47.7543 Y-22.6537 
G1 X47.7543 Y-22.6537 Z0.1254 F75.
G1 X47.7463 Y-22.6537 Z0.0862 F25.
G1 X47.7235 Y-22.6537 Z0.0533
G1 X47.6897 Y-22.6537 Z0.0319
G1 X47.6503 Y-22.6537 Z0.0255
G1 X47.6128 Y-22.6537 Z0.0270 F75.
G1 X47.5612 Y-22.6537 Z0.0295
G1 X47.4956 Y-22.6537 Z0.0342
G1 X47.4651 Y-22.6537 Z0.0360
G1 X47.3503 Y-22.6537 Z0.0486
G1 X47.2940 Y-22.6537 Z0.0560
G1 X47.2753 Y-22.6537 Z0.0587
G1 X47.2190 Y-22.6537 Z0.0703
G1 X47.2096 Y-22.6537 Z0.0719
G1 X47.1909 Y-22.6537 Z0.0762
G1 X47.1534 Y-22.6537 Z0.0840
G1 X47.1440 Y-22.6537 Z0.0862
G1 X47.1065 Y-22.6537 Z0.0969
G1 X47.0784 Y-22.6537 Z0.1035
G1 X47.0503 Y-22.6537 Z0.1118
G1 X47.0221 Y-22.6537 Z0.1197
G1 X47.0128 Y-22.6537 Z0.1227
G1 X46.9940 Y-22.6537 Z0.1293
G1 X46.9753 Y-22.6537 Z0.1353
G1 X46.9565 Y-22.6537 Z0.1407
G1 X46.9471 Y-22.6537 Z0.1437
G1 X46.9190 Y-22.6537 Z0.1535
G1 X46.7760 Y-22.6537 Z0.2069
G1 X46.6753 Y-22.6537 Z0.2497
G1 X46.6378 Y-22.6537 Z0.2652
G1 X46.6284 Y-22.6537 Z0.2683
G1 X46.6190 Y-22.6537 Z0.2708
G1 X46.6096 Y-22.6537 Z0.2725
G1 X46.6003 Y-22.6537 Z0.2737
G1 X46.5855 Y-22.6537 Z0.2744
G1 X46.5486 Y-22.6537 Z0.2833
G1 X46.5177 Y-22.6537 Z0.3052
G1 X46.4972 Y-22.6537 Z0.3371
G1 X46.4900 Y-22.6537 Z0.3743
G0 Z0.5244
G0 X46.4900 Y-22.6537 
G0 Z0.5244
G0 X47.7001 Y-22.6292 
G1 X47.7001 Y-22.6292 Z0.1256 F75.
G1 X47.6920 Y-22.6292 Z0.0863 F25.
G1 X47.6692 Y-22.6292 Z0.0533
G1 X47.6352 Y-22.6292 Z0.0319
G1 X47.5956 Y-22.6292 Z0.0257
G1 X47.5581 Y-22.6292 Z0.0273 F75.
G1 X47.4925 Y-22.6292 Z0.0313
G1 X47.4644 Y-22.6292 Z0.0328
G1 X47.4362 Y-22.6292 Z0.0353
G1 X47.3612 Y-22.6292 Z0.0435
G1 X47.3144 Y-22.6292 Z0.0493
G1 X47.2769 Y-22.6292 Z0.0544
G1 X47.2581 Y-22.6292 Z0.0581
G1 X47.1456 Y-22.6292 Z0.0815
G1 X47.0800 Y-22.6292 Z0.1001
G1 X47.0237 Y-22.6292 Z0.1158
G1 X47.0144 Y-22.6292 Z0.1185
G1 X46.9675 Y-22.6292 Z0.1350
G1 X46.9487 Y-22.6292 Z0.1408
G1 X46.9394 Y-22.6292 Z0.1441
G1 X46.7987 Y-22.6292 Z0.1966
G1 X46.7237 Y-22.6292 Z0.2281
G1 X46.6405 Y-22.6292 Z0.2640
G1 X46.6268 Y-22.6292 Z0.2685
G1 X46.6130 Y-22.6292 Z0.2717
G1 X46.5992 Y-22.6292 Z0.2735
G1 X46.5855 Y-22.6292 Z0.2741
G1 X46.5485 Y-22.6292 Z0.2828
G1 X46.5174 Y-22.6292 Z0.3047
G1 X46.4967 Y-22.6292 Z0.3367
G1 X46.4895 Y-22.6292 Z0.3740
G0 Z0.5241
G0 X46.4895 Y-22.6292 
G0 Z0.5241
G0 X47.6349 Y-22.6047 
G1 X47.6349 Y-22.6047 Z0.1259 F75.
G1 X47.6268 Y-22.6047 Z0.0865 F25.
G1 X47.6038 Y-22.6047 Z0.0534
G1 X47.5696 Y-22.6047 Z0.0321
G1 X47.5298 Y-22.6047 Z0.0261
G1 X47.4735 Y-22.6047 Z0.0290 F75.
G1 X47.4548 Y-22.6047 Z0.0303
G1 X47.4126 Y-22.6047 Z0.0340
G1 X47.3798 Y-22.6047 Z0.0377
G1 X47.2860 Y-22.6047 Z0.0492
G1 X47.2719 Y-22.6047 Z0.0511
G1 X47.2321 Y-22.6047 Z0.0592
G1 X47.2110 Y-22.6047 Z0.0629
G1 X47.2016 Y-22.6047 Z0.0649
G1 X47.1829 Y-22.6047 Z0.0696
G1 X47.1454 Y-22.6047 Z0.0774
G1 X47.1360 Y-22.6047 Z0.0799
G1 X47.0798 Y-22.6047 Z0.0958
G1 X47.0704 Y-22.6047 Z0.0990
G1 X47.0563 Y-22.6047 Z0.1032
G1 X47.0141 Y-22.6047 Z0.1151
G1 X46.9673 Y-22.6047 Z0.1315
G1 X46.9298 Y-22.6047 Z0.1455
G1 X46.8173 Y-22.6047 Z0.1880
G1 X46.7048 Y-22.6047 Z0.2353
G1 X46.6813 Y-22.6047 Z0.2454
G1 X46.6485 Y-22.6047 Z0.2604
G1 X46.6391 Y-22.6047 Z0.2642
G1 X46.6298 Y-22.6047 Z0.2674
G1 X46.6187 Y-22.6047 Z0.2702
G1 X46.6076 Y-22.6047 Z0.2722
G1 X46.5965 Y-22.6047 Z0.2734
G1 X46.5855 Y-22.6047 Z0.2737
G1 X46.5481 Y-22.6047 Z0.2821
G1 X46.5166 Y-22.6047 Z0.3039
G1 X46.4957 Y-22.6047 Z0.3360
G1 X46.4883 Y-22.6047 Z0.3736
G0 Z0.5237
G0 X46.4883 Y-22.6047 
G0 Z0.5237
G0 X47.5695 Y-22.5802 
G1 X47.5695 Y-22.5802 Z0.1262 F75.
G1 X47.5611 Y-22.5802 Z0.0860 F25.
G1 X47.5372 Y-22.5802 Z0.0526
G1 X47.5020 Y-22.5802 Z0.0316
G1 X47.4612 Y-22.5802 Z0.0265
G1 X47.4144 Y-22.5802 Z0.0304 F75.
G1 X47.3979 Y-22.5802 Z0.0315
G1 X47.2690 Y-22.5802 Z0.0475
G1 X47.2550 Y-22.5802 Z0.0502
G1 X47.2081 Y-22.5802 Z0.0583
G1 X47.1987 Y-22.5802 Z0.0605
G1 X47.1612 Y-22.5802 Z0.0699
G1 X47.1425 Y-22.5802 Z0.0739
G1 X47.0862 Y-22.5802 Z0.0892
G1 X47.0769 Y-22.5802 Z0.0918
G1 X47.0487 Y-22.5802 Z0.1016
G1 X47.0347 Y-22.5802 Z0.1059
G1 X47.0112 Y-22.5802 Z0.1125
G1 X46.9550 Y-22.5802 Z0.1321
G1 X46.9222 Y-22.5802 Z0.1453
G1 X46.8401 Y-22.5802 Z0.1764
G1 X46.7862 Y-22.5802 Z0.1996
G1 X46.7034 Y-22.5802 Z0.2349
G1 X46.6484 Y-22.5802 Z0.2602
G1 X46.6405 Y-22.5802 Z0.2634
G1 X46.6326 Y-22.5802 Z0.2662
G1 X46.6169 Y-22.5802 Z0.2703
G1 X46.6012 Y-22.5802 Z0.2726
G1 X46.5855 Y-22.5802 Z0.2732
G1 X46.5485 Y-22.5802 Z0.2820
G1 X46.5175 Y-22.5802 Z0.3039
G1 X46.4969 Y-22.5802 Z0.3358
G1 X46.4896 Y-22.5802 Z0.3731
G0 Z0.5232
G0 X46.4896 Y-22.5802 
G0 Z0.5232
G0 X47.5037 Y-22.5558 
G1 X47.5037 Y-22.5558 Z0.1271 F75.
G1 X47.4952 Y-22.5558 Z0.0868 F25.
G1 X47.4713 Y-22.5558 Z0.0534
G1 X47.4359 Y-22.5558 Z0.0324
G1 X47.3951 Y-22.5558 Z0.0274
G1 X47.3763 Y-22.5558 Z0.0291 F75.
G1 X47.2662 Y-22.5558 Z0.0432
G1 X47.2076 Y-22.5558 Z0.0534
G1 X47.1982 Y-22.5558 Z0.0554
G1 X47.1326 Y-22.5558 Z0.0721
G1 X47.0763 Y-22.5558 Z0.0870
G1 X47.0248 Y-22.5558 Z0.1049
G1 X47.0060 Y-22.5558 Z0.1107
G1 X46.9638 Y-22.5558 Z0.1254
G1 X46.9451 Y-22.5558 Z0.1322
G1 X46.9029 Y-22.5558 Z0.1496
G1 X46.8630 Y-22.5558 Z0.1647
G1 X46.7763 Y-22.5558 Z0.2022
G1 X46.7271 Y-22.5558 Z0.2231
G1 X46.6638 Y-22.5558 Z0.2528
G1 X46.6451 Y-22.5558 Z0.2613
G1 X46.6302 Y-22.5558 Z0.2665
G1 X46.6153 Y-22.5558 Z0.2701
G1 X46.6004 Y-22.5558 Z0.2722
G1 X46.5855 Y-22.5558 Z0.2727
G1 X46.5483 Y-22.5558 Z0.2813
G1 X46.5171 Y-22.5558 Z0.3032
G1 X46.4963 Y-22.5558 Z0.3352
G1 X46.4891 Y-22.5558 Z0.3726
G0 Z0.5227
G0 X46.4891 Y-22.5558 
G0 Z0.5227
G0 X47.4506 Y-22.5313 
G1 X47.4506 Y-22.5313 Z0.1279 F75.
G1 X47.4417 Y-22.5313 Z0.0867 F25.
G1 X47.4167 Y-22.5313 Z0.0529
G1 X47.3800 Y-22.5313 Z0.0323
G1 X47.3380 Y-22.5313 Z0.0287
G1 X47.2724 Y-22.5313 Z0.0370 F75.
G1 X47.2068 Y-22.5313 Z0.0486
G1 X47.1974 Y-22.5313 Z0.0504
G1 X47.1529 Y-22.5313 Z0.0615
G1 X47.1411 Y-22.5313 Z0.0642
G1 X47.1130 Y-22.5313 Z0.0725
G1 X47.0755 Y-22.5313 Z0.0824
G1 X47.0146 Y-22.5313 Z0.1035
G1 X47.0005 Y-22.5313 Z0.1089
G1 X46.9630 Y-22.5313 Z0.1220
G1 X46.9443 Y-22.5313 Z0.1287
G1 X46.8833 Y-22.5313 Z0.1539
G1 X46.7497 Y-22.5313 Z0.2119
G1 X46.6536 Y-22.5313 Z0.2571
G1 X46.6443 Y-22.5313 Z0.2612
G1 X46.6349 Y-22.5313 Z0.2647
G1 X46.6255 Y-22.5313 Z0.2674
G1 X46.6161 Y-22.5313 Z0.2695
G1 X46.6068 Y-22.5313 Z0.2710
G1 X46.5974 Y-22.5313 Z0.2719
G1 X46.5855 Y-22.5313 Z0.2722
G1 X46.5479 Y-22.5313 Z0.2804
G1 X46.5162 Y-22.5313 Z0.3022
G1 X46.4952 Y-22.5313 Z0.3344
G1 X46.4878 Y-22.5313 Z0.3721
G0 Z0.5222
G0 X46.4878 Y-22.5313 
G0 Z0.5222
G0 X47.4016 Y-22.5068 
G1 X47.4016 Y-22.5068 Z0.1288 F75.
G1 X47.3927 Y-22.5068 Z0.0875 F25.
G1 X47.3676 Y-22.5068 Z0.0536
G1 X47.3308 Y-22.5068 Z0.0331
G1 X47.2887 Y-22.5068 Z0.0296
G1 X47.2770 Y-22.5068 Z0.0311 F75.
G1 X47.2043 Y-22.5068 Z0.0440
G1 X47.1950 Y-22.5068 Z0.0458
G1 X47.1762 Y-22.5068 Z0.0504
G1 X47.1387 Y-22.5068 Z0.0590
G1 X47.0965 Y-22.5068 Z0.0720
G1 X47.0731 Y-22.5068 Z0.0783
G1 X47.0168 Y-22.5068 Z0.0975
G1 X47.0075 Y-22.5068 Z0.1011
G1 X46.9887 Y-22.5068 Z0.1090
G1 X46.9746 Y-22.5068 Z0.1143
G1 X46.9512 Y-22.5068 Z0.1224
G1 X46.9418 Y-22.5068 Z0.1258
G1 X46.8856 Y-22.5068 Z0.1494
G1 X46.8668 Y-22.5068 Z0.1583
G1 X46.7696 Y-22.5068 Z0.2011
G1 X46.7403 Y-22.5068 Z0.2155
G1 X46.6661 Y-22.5068 Z0.2503
G1 X46.6500 Y-22.5068 Z0.2584
G1 X46.6371 Y-22.5068 Z0.2635
G1 X46.6242 Y-22.5068 Z0.2673
G1 X46.6113 Y-22.5068 Z0.2698
G1 X46.5984 Y-22.5068 Z0.2712
G1 X46.5855 Y-22.5068 Z0.2715
G1 X46.5479 Y-22.5068 Z0.2798
G1 X46.5162 Y-22.5068 Z0.3016
G1 X46.4951 Y-22.5068 Z0.3337
G1 X46.4877 Y-22.5068 Z0.3715
G0 Z0.5215
G0 X46.4877 Y-22.5068 
G0 Z0.5215
G0 X47.3643 Y-22.4823 
G1 X47.3643 Y-22.4823 Z0.1299 F75.
G1 X47.3549 Y-22.4823 Z0.0876 F25.
G1 X47.3286 Y-22.4823 Z0.0533
G1 X47.2903 Y-22.4823 Z0.0333
G1 X47.2471 Y-22.4823 Z0.0313
G1 X47.1932 Y-22.4823 Z0.0407 F75.
G1 X47.1346 Y-22.4823 Z0.0542
G1 X47.0667 Y-22.4823 Z0.0754
G1 X47.0128 Y-22.4823 Z0.0937
G1 X47.0034 Y-22.4823 Z0.0975
G1 X46.9659 Y-22.4823 Z0.1132
G1 X46.9378 Y-22.4823 Z0.1237
G1 X46.8909 Y-22.4823 Z0.1435
G1 X46.8721 Y-22.4823 Z0.1521
G1 X46.8534 Y-22.4823 Z0.1612
G1 X46.8346 Y-22.4823 Z0.1698
G1 X46.7924 Y-22.4823 Z0.1883
G1 X46.7221 Y-22.4823 Z0.2231
G1 X46.6753 Y-22.4823 Z0.2452
G1 X46.6565 Y-22.4823 Z0.2549
G1 X46.6471 Y-22.4823 Z0.2592
G1 X46.6317 Y-22.4823 Z0.2647
G1 X46.6163 Y-22.4823 Z0.2684
G1 X46.6009 Y-22.4823 Z0.2704
G1 X46.5855 Y-22.4823 Z0.2709
G1 X46.5481 Y-22.4823 Z0.2792
G1 X46.5165 Y-22.4823 Z0.3011
G1 X46.4955 Y-22.4823 Z0.3332
G1 X46.4882 Y-22.4823 Z0.3708
G0 Z0.5209
G0 X46.4882 Y-22.4823 
G0 Z0.5209
G0 X47.3270 Y-22.4579 
G1 X47.3270 Y-22.4579 Z0.1301 F75.
G1 X47.3176 Y-22.4579 Z0.0879 F25.
G1 X47.2914 Y-22.4579 Z0.0536
G1 X47.2531 Y-22.4579 Z0.0335
G1 X47.2099 Y-22.4579 Z0.0315
G1 X47.2005 Y-22.4579 Z0.0332 F75.
G1 X47.1911 Y-22.4579 Z0.0351
G1 X47.1630 Y-22.4579 Z0.0419
G1 X47.1349 Y-22.4579 Z0.0484
G1 X47.1255 Y-22.4579 Z0.0511
G1 X47.0704 Y-22.4579 Z0.0686
G1 X47.0552 Y-22.4579 Z0.0742
G1 X47.0130 Y-22.4579 Z0.0885
G1 X47.0036 Y-22.4579 Z0.0920
G1 X46.9474 Y-22.4579 Z0.1157
G1 X46.9286 Y-22.4579 Z0.1239
G1 X46.8818 Y-22.4579 Z0.1438
G1 X46.8208 Y-22.4579 Z0.1730
G1 X46.8138 Y-22.4579 Z0.1762
G1 X46.7013 Y-22.4579 Z0.2320
G1 X46.6872 Y-22.4579 Z0.2387
G1 X46.6568 Y-22.4579 Z0.2544
G1 X46.6474 Y-22.4579 Z0.2587
G1 X46.6380 Y-22.4579 Z0.2622
G1 X46.6286 Y-22.4579 Z0.2651
G1 X46.6193 Y-22.4579 Z0.2673
G1 X46.6099 Y-22.4579 Z0.2688
G1 X46.5977 Y-22.4579 Z0.2700
G1 X46.5855 Y-22.4579 Z0.2701
G1 X46.5476 Y-22.4579 Z0.2781
G1 X46.5156 Y-22.4579 Z0.2998
G1 X46.4942 Y-22.4579 Z0.3321
G1 X46.4867 Y-22.4579 Z0.3701
G0 Z0.5202
G0 X46.4867 Y-22.4579 
G0 Z0.5202
G0 X47.2992 Y-22.4334 
G1 X47.2992 Y-22.4334 Z0.1300 F75.
G1 X47.2891 Y-22.4334 Z0.0863 F25.
G1 X47.2611 Y-22.4334 Z0.0514
G1 X47.2206 Y-22.4334 Z0.0323
G1 X47.1758 Y-22.4334 Z0.0327
G1 X47.1289 Y-22.4334 Z0.0440 F75.
G1 X47.1008 Y-22.4334 Z0.0530
G1 X47.0586 Y-22.4334 Z0.0668
G1 X47.0445 Y-22.4334 Z0.0723
G1 X47.0305 Y-22.4334 Z0.0774
G1 X47.0070 Y-22.4334 Z0.0854
G1 X46.9531 Y-22.4334 Z0.1079
G1 X46.9320 Y-22.4334 Z0.1183
G1 X46.9133 Y-22.4334 Z0.1269
G1 X46.8758 Y-22.4334 Z0.1430
G1 X46.8277 Y-22.4334 Z0.1662
G1 X46.8055 Y-22.4334 Z0.1783
G1 X46.7039 Y-22.4334 Z0.2292
G1 X46.6885 Y-22.4334 Z0.2376
G1 X46.6556 Y-22.4334 Z0.2546
G1 X46.6469 Y-22.4334 Z0.2584
G1 X46.6381 Y-22.4334 Z0.2617
G1 X46.6293 Y-22.4334 Z0.2643
G1 X46.6206 Y-22.4334 Z0.2664
G1 X46.6118 Y-22.4334 Z0.2679
G1 X46.6030 Y-22.4334 Z0.2689
G1 X46.5942 Y-22.4334 Z0.2694
G1 X46.5855 Y-22.4334 Z0.2694
G1 X46.5471 Y-22.4334 Z0.2769
G1 X46.5146 Y-22.4334 Z0.2986
G1 X46.4929 Y-22.4334 Z0.3311
G1 X46.4853 Y-22.4334 Z0.3694
G0 Z0.5194
G0 X46.4853 Y-22.4334 
G0 Z0.5194
G0 X47.2692 Y-22.4089 
G1 X47.2692 Y-22.4089 Z0.1312 F75.
G1 X47.2591 Y-22.4089 Z0.0874 F25.
G1 X47.2308 Y-22.4089 Z0.0524
G1 X47.1900 Y-22.4089 Z0.0334
G1 X47.1450 Y-22.4089 Z0.0342
G1 X47.1274 Y-22.4089 Z0.0386 F75.
G1 X47.0489 Y-22.4089 Z0.0641
G1 X47.0184 Y-22.4089 Z0.0762
G1 X47.0044 Y-22.4089 Z0.0811
G1 X46.9598 Y-22.4089 Z0.0997
G1 X46.9012 Y-22.4089 Z0.1283
G1 X46.8825 Y-22.4089 Z0.1364
G1 X46.8567 Y-22.4089 Z0.1485
G1 X46.8309 Y-22.4089 Z0.1614
G1 X46.7887 Y-22.4089 Z0.1845
G1 X46.7700 Y-22.4089 Z0.1941
G1 X46.7278 Y-22.4089 Z0.2151
G1 X46.6779 Y-22.4089 Z0.2427
G1 X46.6608 Y-22.4089 Z0.2515
G1 X46.6539 Y-22.4089 Z0.2549
G1 X46.6402 Y-22.4089 Z0.2604
G1 X46.6266 Y-22.4089 Z0.2644
G1 X46.6129 Y-22.4089 Z0.2671
G1 X46.5992 Y-22.4089 Z0.2684
G1 X46.5855 Y-22.4089 Z0.2686
G1 X46.5477 Y-22.4089 Z0.2766
G1 X46.5157 Y-22.4089 Z0.2984
G1 X46.4944 Y-22.4089 Z0.3307
G1 X46.4869 Y-22.4089 Z0.3686
G0 Z0.5186
G0 X46.4869 Y-22.4089 
G0 Z0.5186
G0 X47.2492 Y-22.3844 
G1 X47.2492 Y-22.3844 Z0.1301 F75.
G1 X47.2381 Y-22.3844 Z0.0843 F25.
G1 X47.2073 Y-22.3844 Z0.0487
G1 X47.1636 Y-22.3844 Z0.0311
G1 X47.1167 Y-22.3844 Z0.0355
G1 X47.0745 Y-22.3844 Z0.0500 F75.
G1 X47.0393 Y-22.3844 Z0.0615
G1 X47.0089 Y-22.3844 Z0.0735
G1 X46.9655 Y-22.3844 Z0.0919
G1 X46.8729 Y-22.3844 Z0.1371
G1 X46.8378 Y-22.3844 Z0.1546
G1 X46.7651 Y-22.3844 Z0.1943
G1 X46.7487 Y-22.3844 Z0.2027
G1 X46.6667 Y-22.3844 Z0.2481
G1 X46.6565 Y-22.3844 Z0.2533
G1 X46.6464 Y-22.3844 Z0.2577
G1 X46.6362 Y-22.3844 Z0.2612
G1 X46.6261 Y-22.3844 Z0.2639
G1 X46.6159 Y-22.3844 Z0.2659
G1 X46.6058 Y-22.3844 Z0.2672
G1 X46.5956 Y-22.3844 Z0.2678
G1 X46.5855 Y-22.3844 Z0.2679
G1 X46.5475 Y-22.3844 Z0.2757
G1 X46.5153 Y-22.3844 Z0.2975
G1 X46.4938 Y-22.3844 Z0.3298
G1 X46.4863 Y-22.3844 Z0.3679
G0 Z0.5179
G0 X46.4863 Y-22.3844 
G0 Z0.5179
G0 X47.2239 Y-22.3600 
G1 X47.2239 Y-22.3600 Z0.1317 F75.
G1 X47.2127 Y-22.3600 Z0.0857 F25.
G1 X47.1817 Y-22.3600 Z0.0501
G1 X47.1377 Y-22.3600 Z0.0327
G1 X47.0906 Y-22.3600 Z0.0374
G1 X47.0297 Y-22.3600 Z0.0589 F75.
G1 X47.0156 Y-22.3600 Z0.0647
G1 X46.9969 Y-22.3600 Z0.0727
G1 X46.9688 Y-22.3600 Z0.0853
G1 X46.8984 Y-22.3600 Z0.1197
G1 X46.8844 Y-22.3600 Z0.1270
G1 X46.8656 Y-22.3600 Z0.1372
G1 X46.8422 Y-22.3600 Z0.1492
G1 X46.7719 Y-22.3600 Z0.1877
G1 X46.7438 Y-22.3600 Z0.2045
G1 X46.6734 Y-22.3600 Z0.2435
G1 X46.6688 Y-22.3600 Z0.2464
G1 X46.6594 Y-22.3600 Z0.2514
G1 X46.6500 Y-22.3600 Z0.2557
G1 X46.6406 Y-22.3600 Z0.2592
G1 X46.6268 Y-22.3600 Z0.2631
G1 X46.6131 Y-22.3600 Z0.2656
G1 X46.5993 Y-22.3600 Z0.2669
G1 X46.5855 Y-22.3600 Z0.2670
G1 X46.5476 Y-22.3600 Z0.2750
G1 X46.5156 Y-22.3600 Z0.2968
G1 X46.4943 Y-22.3600 Z0.3291
G1 X46.4868 Y-22.3600 Z0.3670
G0 Z0.5170
G0 X46.4868 Y-22.3600 
G0 Z0.5170
G0 X47.2010 Y-22.3355 
G1 X47.2010 Y-22.3355 Z0.1326 F75.
G1 X47.1899 Y-22.3355 Z0.0868 F25.
G1 X47.1591 Y-22.3355 Z0.0512
G1 X47.1154 Y-22.3355 Z0.0336
G1 X47.0685 Y-22.3355 Z0.0381
G1 X47.0532 Y-22.3355 Z0.0433 F75.
G1 X47.0310 Y-22.3355 Z0.0520
G1 X47.0028 Y-22.3355 Z0.0639
G1 X46.9747 Y-22.3355 Z0.0767
G1 X46.9208 Y-22.3355 Z0.1033
G1 X46.8950 Y-22.3355 Z0.1171
G1 X46.8810 Y-22.3355 Z0.1244
G1 X46.8528 Y-22.3355 Z0.1399
G1 X46.8388 Y-22.3355 Z0.1480
G1 X46.7942 Y-22.3355 Z0.1724
G1 X46.7685 Y-22.3355 Z0.1877
G1 X46.7263 Y-22.3355 Z0.2132
G1 X46.6841 Y-22.3355 Z0.2368
G1 X46.6700 Y-22.3355 Z0.2452
G1 X46.6653 Y-22.3355 Z0.2479
G1 X46.6560 Y-22.3355 Z0.2525
G1 X46.6466 Y-22.3355 Z0.2564
G1 X46.6372 Y-22.3355 Z0.2596
G1 X46.6278 Y-22.3355 Z0.2621
G1 X46.6185 Y-22.3355 Z0.2640
G1 X46.6020 Y-22.3355 Z0.2658
G1 X46.5855 Y-22.3355 Z0.2661
G1 X46.5478 Y-22.3355 Z0.2743
G1 X46.5160 Y-22.3355 Z0.2961
G1 X46.4948 Y-22.3355 Z0.3283
G1 X46.4874 Y-22.3355 Z0.3661
G0 Z0.5161
G0 X46.4874 Y-22.3355 
G0 Z0.5161
G0 X47.1836 Y-22.3110 
G1 X47.1836 Y-22.3110 Z0.1324 F75.
G1 X47.1720 Y-22.3110 Z0.0857 F25.
G1 X47.1399 Y-22.3110 Z0.0498
G1 X47.0948 Y-22.3110 Z0.0331
G1 X47.0470 Y-22.3110 Z0.0394
G1 X47.0283 Y-22.3110 Z0.0467 F75.
G1 X47.0095 Y-22.3110 Z0.0548
G1 X46.9720 Y-22.3110 Z0.0721
G1 X46.9439 Y-22.3110 Z0.0861
G1 X46.8970 Y-22.3110 Z0.1112
G1 X46.8783 Y-22.3110 Z0.1216
G1 X46.8408 Y-22.3110 Z0.1431
G1 X46.7845 Y-22.3110 Z0.1762
G1 X46.7470 Y-22.3110 Z0.1986
G1 X46.7095 Y-22.3110 Z0.2214
G1 X46.6908 Y-22.3110 Z0.2324
G1 X46.6720 Y-22.3110 Z0.2436
G1 X46.6627 Y-22.3110 Z0.2488
G1 X46.6533 Y-22.3110 Z0.2532
G1 X46.6439 Y-22.3110 Z0.2568
G1 X46.6345 Y-22.3110 Z0.2597
G1 X46.6252 Y-22.3110 Z0.2619
G1 X46.6158 Y-22.3110 Z0.2636
G1 X46.6064 Y-22.3110 Z0.2646
G1 X46.5970 Y-22.3110 Z0.2651
G1 X46.5855 Y-22.3110 Z0.2651
G1 X46.5474 Y-22.3110 Z0.2729
G1 X46.5151 Y-22.3110 Z0.2946
G1 X46.4936 Y-22.3110 Z0.3270
G1 X46.4861 Y-22.3110 Z0.3651
G0 Z0.5151
G0 X46.4861 Y-22.3110 
G0 Z0.5151
G0 X47.1696 Y-22.2865 
G1 X47.1696 Y-22.2865 Z0.1315 F75.
G1 X47.1575 Y-22.2865 Z0.0838 F25.
G1 X47.1241 Y-22.2865 Z0.0476
G1 X47.0776 Y-22.2865 Z0.0318
G1 X47.0291 Y-22.2865 Z0.0400
G1 X47.0103 Y-22.2865 Z0.0483 F75.
G1 X46.9916 Y-22.2865 Z0.0569
G1 X46.9681 Y-22.2865 Z0.0681
G1 X46.9353 Y-22.2865 Z0.0853
G1 X46.9025 Y-22.2865 Z0.1032
G1 X46.8791 Y-22.2865 Z0.1167
G1 X46.8416 Y-22.2865 Z0.1387
G1 X46.7970 Y-22.2865 Z0.1668
G1 X46.7666 Y-22.2865 Z0.1848
G1 X46.7178 Y-22.2865 Z0.2144
G1 X46.6887 Y-22.2865 Z0.2332
G1 X46.6752 Y-22.2865 Z0.2413
G1 X46.6662 Y-22.2865 Z0.2465
G1 X46.6573 Y-22.2865 Z0.2509
G1 X46.6483 Y-22.2865 Z0.2546
G1 X46.6393 Y-22.2865 Z0.2576
G1 X46.6304 Y-22.2865 Z0.2600
G1 X46.6214 Y-22.2865 Z0.2619
G1 X46.6124 Y-22.2865 Z0.2631
G1 X46.6034 Y-22.2865 Z0.2639
G1 X46.5855 Y-22.2865 Z0.2641
G1 X46.5477 Y-22.2865 Z0.2722
G1 X46.5157 Y-22.2865 Z0.2939
G1 X46.4944 Y-22.2865 Z0.3262
G1 X46.4869 Y-22.2865 Z0.3641
G0 Z0.5141
G0 X46.4869 Y-22.2865 
G0 Z0.5141
G0 X47.1532 Y-22.2621 
G1 X47.1532 Y-22.2621 Z0.1326 F75.
G1 X47.1409 Y-22.2621 Z0.0847 F25.
G1 X47.1072 Y-22.2621 Z0.0485
G1 X47.0603 Y-22.2621 Z0.0328
G1 X47.0116 Y-22.2621 Z0.0416
G1 X46.9905 Y-22.2621 Z0.0512 F75.
G1 X46.9741 Y-22.2621 Z0.0594
G1 X46.9319 Y-22.2621 Z0.0816
G1 X46.9179 Y-22.2621 Z0.0896
G1 X46.8616 Y-22.2621 Z0.1226
G1 X46.8148 Y-22.2621 Z0.1529
G1 X46.7773 Y-22.2621 Z0.1765
G1 X46.7421 Y-22.2621 Z0.1976
G1 X46.6959 Y-22.2621 Z0.2275
G1 X46.6801 Y-22.2621 Z0.2378
G1 X46.6722 Y-22.2621 Z0.2427
G1 X46.6643 Y-22.2621 Z0.2470
G1 X46.6564 Y-22.2621 Z0.2507
G1 X46.6486 Y-22.2621 Z0.2538
G1 X46.6328 Y-22.2621 Z0.2587
G1 X46.6170 Y-22.2621 Z0.2617
G1 X46.6012 Y-22.2621 Z0.2630
G1 X46.5855 Y-22.2621 Z0.2631
G1 X46.5474 Y-22.2621 Z0.2709
G1 X46.5152 Y-22.2621 Z0.2926
G1 X46.4937 Y-22.2621 Z0.3250
G1 X46.4861 Y-22.2621 Z0.3631
G0 Z0.5131
G0 X46.4861 Y-22.2621 
G0 Z0.5131
G0 X47.1426 Y-22.2376 
G1 X47.1426 Y-22.2376 Z0.1313 F75.
G1 X47.1299 Y-22.2376 Z0.0825 F25.
G1 X47.0950 Y-22.2376 Z0.0461
G1 X47.0468 Y-22.2376 Z0.0314
G1 X46.9975 Y-22.2376 Z0.0421
G1 X46.9600 Y-22.2376 Z0.0611 F75.
G1 X46.9459 Y-22.2376 Z0.0686
G1 X46.9225 Y-22.2376 Z0.0821
G1 X46.8826 Y-22.2376 Z0.1056
G1 X46.8475 Y-22.2376 Z0.1277
G1 X46.7654 Y-22.2376 Z0.1812
G1 X46.7537 Y-22.2376 Z0.1893
G1 X46.6765 Y-22.2376 Z0.2397
G1 X46.6695 Y-22.2376 Z0.2437
G1 X46.6555 Y-22.2376 Z0.2504
G1 X46.6415 Y-22.2376 Z0.2554
G1 X46.6275 Y-22.2376 Z0.2589
G1 X46.6135 Y-22.2376 Z0.2611
G1 X46.5995 Y-22.2376 Z0.2619
G1 X46.5855 Y-22.2376 Z0.2619
G1 X46.5473 Y-22.2376 Z0.2696
G1 X46.5149 Y-22.2376 Z0.2913
G1 X46.4933 Y-22.2376 Z0.3237
G1 X46.4857 Y-22.2376 Z0.3619
G0 Z0.5119
G0 X46.4857 Y-22.2376 
G0 Z0.5119
G0 X47.1286 Y-22.2131 
G1 X47.1286 Y-22.2131 Z0.1327 F75.
G1 X47.1159 Y-22.2131 Z0.0840 F25.
G1 X47.0811 Y-22.2131 Z0.0476
G1 X47.0329 Y-22.2131 Z0.0328
G1 X46.9836 Y-22.2131 Z0.0434
G1 X46.9696 Y-22.2131 Z0.0505 F75.
G1 X46.9461 Y-22.2131 Z0.0635
G1 X46.9086 Y-22.2131 Z0.0851
G1 X46.8524 Y-22.2131 Z0.1206
G1 X46.7891 Y-22.2131 Z0.1623
G1 X46.7399 Y-22.2131 Z0.1976
G1 X46.7258 Y-22.2131 Z0.2071
G1 X46.6836 Y-22.2131 Z0.2347
G1 X46.6714 Y-22.2131 Z0.2422
G1 X46.6591 Y-22.2131 Z0.2482
G1 X46.6468 Y-22.2131 Z0.2529
G1 X46.6346 Y-22.2131 Z0.2565
G1 X46.6223 Y-22.2131 Z0.2589
G1 X46.6100 Y-22.2131 Z0.2603
G1 X46.5978 Y-22.2131 Z0.2607
G1 X46.5855 Y-22.2131 Z0.2607
G1 X46.5472 Y-22.2131 Z0.2683
G1 X46.5147 Y-22.2131 Z0.2900
G1 X46.4930 Y-22.2131 Z0.3224
G1 X46.4854 Y-22.2131 Z0.3607
G0 Z0.5107
G0 X46.4854 Y-22.2131 
G0 Z0.5107
G0 X47.1212 Y-22.1886 
G1 X47.1212 Y-22.1886 Z0.1313 F75.
G1 X47.1081 Y-22.1886 Z0.0817 F25.
G1 X47.0720 Y-22.1886 Z0.0452
G1 X47.0225 Y-22.1886 Z0.0313
G1 X46.9727 Y-22.1886 Z0.0439
G1 X46.9317 Y-22.1886 Z0.0667 F75.
G1 X46.8977 Y-22.1886 Z0.0876
G1 X46.8719 Y-22.1886 Z0.1039
G1 X46.8133 Y-22.1886 Z0.1431
G1 X46.7477 Y-22.1886 Z0.1899
G1 X46.7149 Y-22.1886 Z0.2135
G1 X46.6821 Y-22.1886 Z0.2353
G1 X46.6727 Y-22.1886 Z0.2409
G1 X46.6618 Y-22.1886 Z0.2464
G1 X46.6509 Y-22.1886 Z0.2507
G1 X46.6400 Y-22.1886 Z0.2542
G1 X46.6291 Y-22.1886 Z0.2567
G1 X46.6182 Y-22.1886 Z0.2584
G1 X46.6073 Y-22.1886 Z0.2594
G1 X46.5855 Y-22.1886 Z0.2596
G1 X46.5475 Y-22.1886 Z0.2674
G1 X46.5154 Y-22.1886 Z0.2892
G1 X46.4939 Y-22.1886 Z0.3215
G1 X46.4864 Y-22.1886 Z0.3595
G0 Z0.5096
G0 X46.4864 Y-22.1886 
G0 Z0.5096
G0 X47.1105 Y-22.1642 
G1 X47.1105 Y-22.1642 Z0.1322 F75.
G1 X47.0973 Y-22.1642 Z0.0825 F25.
G1 X47.0611 Y-22.1642 Z0.0459
G1 X47.0116 Y-22.1642 Z0.0322
G1 X46.9618 Y-22.1642 Z0.0449
G1 X46.9524 Y-22.1642 Z0.0501 F75.
G1 X46.9243 Y-22.1642 Z0.0668
G1 X46.8950 Y-22.1642 Z0.0850
G1 X46.8399 Y-22.1642 Z0.1218
G1 X46.8118 Y-22.1642 Z0.1421
G1 X46.7368 Y-22.1642 Z0.1957
G1 X46.6899 Y-22.1642 Z0.2296
G1 X46.6805 Y-22.1642 Z0.2359
G1 X46.6711 Y-22.1642 Z0.2412
G1 X46.6618 Y-22.1642 Z0.2457
G1 X46.6522 Y-22.1642 Z0.2495
G1 X46.6427 Y-22.1642 Z0.2526
G1 X46.6332 Y-22.1642 Z0.2550
G1 X46.6236 Y-22.1642 Z0.2567
G1 X46.6141 Y-22.1642 Z0.2578
G1 X46.6046 Y-22.1642 Z0.2583
G1 X46.5950 Y-22.1642 Z0.2582
G1 X46.5855 Y-22.1642 Z0.2584
G1 X46.5477 Y-22.1642 Z0.2664
G1 X46.5157 Y-22.1642 Z0.2882
G1 X46.4945 Y-22.1642 Z0.3204
G1 X46.4870 Y-22.1642 Z0.3584
G0 Z0.5084
G0 X46.4870 Y-22.1642 
G0 Z0.5084
G0 X47.1044 Y-22.1397 
G1 X47.1044 Y-22.1397 Z0.1313 F75.
G1 X47.0908 Y-22.1397 Z0.0810 F25.
G1 X47.0537 Y-22.1397 Z0.0443
G1 X47.0032 Y-22.1397 Z0.0313
G1 X46.9531 Y-22.1397 Z0.0455
G1 X46.9156 Y-22.1397 Z0.0679 F75.
G1 X46.8968 Y-22.1397 Z0.0800
G1 X46.8599 Y-22.1397 Z0.1046
G1 X46.7937 Y-22.1397 Z0.1528
G1 X46.7656 Y-22.1397 Z0.1728
G1 X46.7234 Y-22.1397 Z0.2034
G1 X46.6906 Y-22.1397 Z0.2287
G1 X46.6812 Y-22.1397 Z0.2350
G1 X46.6718 Y-22.1397 Z0.2402
G1 X46.6624 Y-22.1397 Z0.2447
G1 X46.6531 Y-22.1397 Z0.2483
G1 X46.6446 Y-22.1397 Z0.2510
G1 X46.6362 Y-22.1397 Z0.2532
G1 X46.6193 Y-22.1397 Z0.2561
G1 X46.6108 Y-22.1397 Z0.2568
G1 X46.6024 Y-22.1397 Z0.2570
G1 X46.5855 Y-22.1397 Z0.2571
G1 X46.5473 Y-22.1397 Z0.2648
G1 X46.5150 Y-22.1397 Z0.2865
G1 X46.4935 Y-22.1397 Z0.3189
G1 X46.4859 Y-22.1397 Z0.3571
G0 Z0.5071
G0 X46.4859 Y-22.1397 
G0 Z0.5071
G0 X47.0956 Y-22.1152 
G1 X47.0956 Y-22.1152 Z0.1324 F75.
G1 X47.0821 Y-22.1152 Z0.0822 F25.
G1 X47.0452 Y-22.1152 Z0.0456
G1 X46.9949 Y-22.1152 Z0.0324
G1 X46.9448 Y-22.1152 Z0.0463
G1 X46.9336 Y-22.1152 Z0.0528 F75.
G1 X46.9073 Y-22.1152 Z0.0696
G1 X46.8815 Y-22.1152 Z0.0865
G1 X46.8417 Y-22.1152 Z0.1151
G1 X46.7749 Y-22.1152 Z0.1641
G1 X46.7620 Y-22.1152 Z0.1733
G1 X46.6917 Y-22.1152 Z0.2276
G1 X46.6823 Y-22.1152 Z0.2338
G1 X46.6729 Y-22.1152 Z0.2390
G1 X46.6635 Y-22.1152 Z0.2434
G1 X46.6542 Y-22.1152 Z0.2471
G1 X46.6448 Y-22.1152 Z0.2500
G1 X46.6300 Y-22.1152 Z0.2534
G1 X46.6151 Y-22.1152 Z0.2552
G1 X46.6077 Y-22.1152 Z0.2555
G1 X46.5929 Y-22.1152 Z0.2555
G1 X46.5855 Y-22.1152 Z0.2557
G1 X46.5479 Y-22.1152 Z0.2639
G1 X46.5163 Y-22.1152 Z0.2857
G1 X46.4952 Y-22.1152 Z0.3179
G1 X46.4878 Y-22.1152 Z0.3556
G0 Z0.5057
G0 X46.4878 Y-22.1152 
G0 Z0.5057
G0 X47.0907 Y-22.0907 
G1 X47.0907 Y-22.0907 Z0.1319 F75.
G1 X47.0769 Y-22.0907 Z0.0812 F25.
G1 X47.0393 Y-22.0907 Z0.0445
G1 X46.9882 Y-22.0907 Z0.0319
G1 X46.9379 Y-22.0907 Z0.0470
G1 X46.9068 Y-22.0907 Z0.0663 F75.
G1 X46.8629 Y-22.0907 Z0.0971
G1 X46.8348 Y-22.0907 Z0.1173
G1 X46.7832 Y-22.0907 Z0.1554
G1 X46.7551 Y-22.0907 Z0.1778
G1 X46.7082 Y-22.0907 Z0.2139
G1 X46.7035 Y-22.0907 Z0.2180
G1 X46.6941 Y-22.0907 Z0.2254
G1 X46.6848 Y-22.0907 Z0.2317
G1 X46.6754 Y-22.0907 Z0.2371
G1 X46.6660 Y-22.0907 Z0.2416
G1 X46.6566 Y-22.0907 Z0.2453
G1 X46.6473 Y-22.0907 Z0.2483
G1 X46.6379 Y-22.0907 Z0.2507
G1 X46.6248 Y-22.0907 Z0.2530
G1 X46.6117 Y-22.0907 Z0.2541
G1 X46.5855 Y-22.0907 Z0.2542
G1 X46.5474 Y-22.0907 Z0.2620
G1 X46.5151 Y-22.0907 Z0.2837
G1 X46.4935 Y-22.0907 Z0.3161
G1 X46.4860 Y-22.0907 Z0.3542
G0 Z0.5042
G0 X46.4860 Y-22.0907 
G0 Z0.5042
G0 X47.0852 Y-22.0663 
G1 X47.0852 Y-22.0663 Z0.1319 F75.
G1 X47.0712 Y-22.0663 Z0.0809 F25.
G1 X47.0331 Y-22.0663 Z0.0441
G1 X46.9815 Y-22.0663 Z0.0320
G1 X46.9310 Y-22.0663 Z0.0479
G1 X46.9216 Y-22.0663 Z0.0540 F75.
G1 X46.9029 Y-22.0663 Z0.0665
G1 X46.8326 Y-22.0663 Z0.1161
G1 X46.8068 Y-22.0663 Z0.1352
G1 X46.7810 Y-22.0663 Z0.1555
G1 X46.7353 Y-22.0663 Z0.1922
G1 X46.7154 Y-22.0663 Z0.2076
G1 X46.7107 Y-22.0663 Z0.2115
G1 X46.7060 Y-22.0663 Z0.2157
G1 X46.6966 Y-22.0663 Z0.2233
G1 X46.6873 Y-22.0663 Z0.2297
G1 X46.6779 Y-22.0663 Z0.2351
G1 X46.6685 Y-22.0663 Z0.2397
G1 X46.6591 Y-22.0663 Z0.2435
G1 X46.6498 Y-22.0663 Z0.2466
G1 X46.6404 Y-22.0663 Z0.2491
G1 X46.6310 Y-22.0663 Z0.2509
G1 X46.6196 Y-22.0663 Z0.2523
G1 X46.6082 Y-22.0663 Z0.2528
G1 X46.5855 Y-22.0663 Z0.2528
G1 X46.5473 Y-22.0663 Z0.2605
G1 X46.5149 Y-22.0663 Z0.2822
G1 X46.4933 Y-22.0663 Z0.3146
G1 X46.4857 Y-22.0663 Z0.3528
G0 Z0.5028
G0 X46.4857 Y-22.0663 
G0 Z0.5028
G0 X47.0813 Y-22.0418 
G1 X47.0813 Y-22.0418 Z0.1323 F75.
G1 X47.0672 Y-22.0418 Z0.0811 F25.
G1 X47.0289 Y-22.0418 Z0.0443
G1 X46.9772 Y-22.0418 Z0.0324
G1 X46.9266 Y-22.0418 Z0.0486
G1 X46.9078 Y-22.0418 Z0.0608 F75.
G1 X46.8938 Y-22.0418 Z0.0703
G1 X46.8282 Y-22.0418 Z0.1167
G1 X46.7766 Y-22.0418 Z0.1574
G1 X46.7297 Y-22.0418 Z0.1953
G1 X46.7133 Y-22.0418 Z0.2090
G1 X46.7110 Y-22.0418 Z0.2112
G1 X46.7016 Y-22.0418 Z0.2192
G1 X46.6922 Y-22.0418 Z0.2259
G1 X46.6828 Y-22.0418 Z0.2317
G1 X46.6735 Y-22.0418 Z0.2366
G1 X46.6641 Y-22.0418 Z0.2407
G1 X46.6547 Y-22.0418 Z0.2440
G1 X46.6453 Y-22.0418 Z0.2467
G1 X46.6360 Y-22.0418 Z0.2488
G1 X46.6266 Y-22.0418 Z0.2502
G1 X46.6163 Y-22.0418 Z0.2511
G1 X46.6060 Y-22.0418 Z0.2513
G1 X46.5958 Y-22.0418 Z0.2512
G1 X46.5855 Y-22.0418 Z0.2513
G1 X46.5476 Y-22.0418 Z0.2593
G1 X46.5156 Y-22.0418 Z0.2811
G1 X46.4942 Y-22.0418 Z0.3133
G1 X46.4867 Y-22.0418 Z0.3513
G0 Z0.5013
G0 X46.4867 Y-22.0418 
G0 Z0.5013
G0 X47.0758 Y-22.0173 
G1 X47.0758 Y-22.0173 Z0.1341 F75.
G1 X47.0619 Y-22.0173 Z0.0832 F25.
G1 X47.0240 Y-22.0173 Z0.0465
G1 X46.9727 Y-22.0173 Z0.0342
G1 X46.9223 Y-22.0173 Z0.0497
G1 X46.8988 Y-22.0173 Z0.0645 F75.
G1 X46.8848 Y-22.0173 Z0.0740
G1 X46.8520 Y-22.0173 Z0.0972
G1 X46.8238 Y-22.0173 Z0.1184
G1 X46.7535 Y-22.0173 Z0.1745
G1 X46.7172 Y-22.0173 Z0.2053
G1 X46.7113 Y-22.0173 Z0.2108
G1 X46.7066 Y-22.0173 Z0.2148
G1 X46.6973 Y-22.0173 Z0.2220
G1 X46.6879 Y-22.0173 Z0.2281
G1 X46.6785 Y-22.0173 Z0.2333
G1 X46.6691 Y-22.0173 Z0.2377
G1 X46.6598 Y-22.0173 Z0.2413
G1 X46.6504 Y-22.0173 Z0.2442
G1 X46.6410 Y-22.0173 Z0.2465
G1 X46.6316 Y-22.0173 Z0.2482
G1 X46.6223 Y-22.0173 Z0.2492
G1 X46.6131 Y-22.0173 Z0.2497
G1 X46.5855 Y-22.0173 Z0.2498
G1 X46.5473 Y-22.0173 Z0.2575
G1 X46.5150 Y-22.0173 Z0.2792
G1 X46.4935 Y-22.0173 Z0.3116
G1 X46.4859 Y-22.0173 Z0.3498
G0 Z0.4998
G0 X46.4859 Y-22.0173 
G0 Z0.4998
G0 X47.0719 Y-21.9928 
G1 X47.0719 Y-21.9928 Z0.1346 F75.
G1 X47.0579 Y-21.9928 Z0.0836 F25.
G1 X47.0199 Y-21.9928 Z0.0469
G1 X46.9684 Y-21.9928 Z0.0347
G1 X46.9179 Y-21.9928 Z0.0504
G1 X46.8804 Y-21.9928 Z0.0745 F75.
G1 X46.8711 Y-21.9928 Z0.0813
G1 X46.8195 Y-21.9928 Z0.1202
G1 X46.7750 Y-21.9928 Z0.1556
G1 X46.7281 Y-21.9928 Z0.1953
G1 X46.7117 Y-21.9928 Z0.2103
G1 X46.7023 Y-21.9928 Z0.2179
G1 X46.6929 Y-21.9928 Z0.2244
G1 X46.6836 Y-21.9928 Z0.2299
G1 X46.6742 Y-21.9928 Z0.2346
G1 X46.6648 Y-21.9928 Z0.2385
G1 X46.6554 Y-21.9928 Z0.2416
G1 X46.6461 Y-21.9928 Z0.2442
G1 X46.6367 Y-21.9928 Z0.2460
G1 X46.6273 Y-21.9928 Z0.2473
G1 X46.6179 Y-21.9928 Z0.2480
G1 X46.5855 Y-21.9928 Z0.2482
G1 X46.5474 Y-21.9928 Z0.2560
G1 X46.5152 Y-21.9928 Z0.2777
G1 X46.4937 Y-21.9928 Z0.3101
G1 X46.4862 Y-21.9928 Z0.3482
G0 Z0.4982
G0 X46.4862 Y-21.9928 
G0 Z0.4982
G0 X47.0696 Y-21.9684 
G1 X47.0696 Y-21.9684 Z0.1339 F75.
G1 X47.0556 Y-21.9684 Z0.0828 F25.
G1 X47.0175 Y-21.9684 Z0.0461
G1 X46.9659 Y-21.9684 Z0.0340
G1 X46.9154 Y-21.9684 Z0.0498
G1 X46.8826 Y-21.9684 Z0.0710 F75.
G1 X46.8709 Y-21.9684 Z0.0795
G1 X46.8498 Y-21.9684 Z0.0957
G1 X46.8123 Y-21.9684 Z0.1242
G1 X46.7936 Y-21.9684 Z0.1391
G1 X46.7842 Y-21.9684 Z0.1468
G1 X46.7443 Y-21.9684 Z0.1807
G1 X46.7139 Y-21.9684 Z0.2082
G1 X46.7092 Y-21.9684 Z0.2123
G1 X46.6998 Y-21.9684 Z0.2193
G1 X46.6904 Y-21.9684 Z0.2254
G1 X46.6811 Y-21.9684 Z0.2305
G1 X46.6717 Y-21.9684 Z0.2348
G1 X46.6623 Y-21.9684 Z0.2384
G1 X46.6529 Y-21.9684 Z0.2412
G1 X46.6436 Y-21.9684 Z0.2435
G1 X46.6342 Y-21.9684 Z0.2451
G1 X46.6248 Y-21.9684 Z0.2461
G1 X46.6154 Y-21.9684 Z0.2465
G1 X46.5855 Y-21.9684 Z0.2465
G1 X46.5473 Y-21.9684 Z0.2542
G1 X46.5149 Y-21.9684 Z0.2759
G1 X46.4933 Y-21.9684 Z0.3083
G1 X46.4857 Y-21.9684 Z0.3465
G0 Z0.4965
G0 X46.4857 Y-21.9684 
G0 Z0.4965
G0 X47.0675 Y-21.9439 
G1 X47.0675 Y-21.9439 Z0.1331 F75.
G1 X47.0535 Y-21.9439 Z0.0820 F25.
G1 X47.0153 Y-21.9439 Z0.0452
G1 X46.9637 Y-21.9439 Z0.0331
G1 X46.9131 Y-21.9439 Z0.0491
G1 X46.8945 Y-21.9439 Z0.0612 F75.
G1 X46.8759 Y-21.9439 Z0.0741
G1 X46.8526 Y-21.9439 Z0.0914
G1 X46.8130 Y-21.9439 Z0.1220
G1 X46.7827 Y-21.9439 Z0.1469
G1 X46.7640 Y-21.9439 Z0.1627
G1 X46.7384 Y-21.9439 Z0.1853
G1 X46.7174 Y-21.9439 Z0.2049
G1 X46.7081 Y-21.9439 Z0.2128
G1 X46.6988 Y-21.9439 Z0.2195
G1 X46.6895 Y-21.9439 Z0.2252
G1 X46.6801 Y-21.9439 Z0.2300
G1 X46.6708 Y-21.9439 Z0.2341
G1 X46.6615 Y-21.9439 Z0.2375
G1 X46.6522 Y-21.9439 Z0.2401
G1 X46.6429 Y-21.9439 Z0.2422
G1 X46.6335 Y-21.9439 Z0.2436
G1 X46.6242 Y-21.9439 Z0.2445
G1 X46.6149 Y-21.9439 Z0.2448
G1 X46.5776 Y-21.9439 Z0.2532
G1 X46.5461 Y-21.9439 Z0.2751
G1 X46.5252 Y-21.9439 Z0.3071
G1 X46.5179 Y-21.9439 Z0.3447
G0 Z0.4948
G0 X46.5179 Y-21.9439 
G0 Z0.4948
G0 X47.0664 Y-21.9194 
G1 X47.0664 Y-21.9194 Z0.1331 F75.
G1 X47.0522 Y-21.9194 Z0.0817 F25.
G1 X47.0136 Y-21.9194 Z0.0449
G1 X46.9615 Y-21.9194 Z0.0332
G1 X46.9109 Y-21.9194 Z0.0499
G1 X46.8880 Y-21.9194 Z0.0653 F75.
G1 X46.8376 Y-21.9194 Z0.1017
G1 X46.8193 Y-21.9194 Z0.1160
G1 X46.8009 Y-21.9194 Z0.1310
G1 X46.7826 Y-21.9194 Z0.1462
G1 X46.7460 Y-21.9194 Z0.1782
G1 X46.7185 Y-21.9194 Z0.2038
G1 X46.7094 Y-21.9194 Z0.2114
G1 X46.7002 Y-21.9194 Z0.2180
G1 X46.6910 Y-21.9194 Z0.2235
G1 X46.6819 Y-21.9194 Z0.2283
G1 X46.6727 Y-21.9194 Z0.2323
G1 X46.6636 Y-21.9194 Z0.2356
G1 X46.6544 Y-21.9194 Z0.2382
G1 X46.6453 Y-21.9194 Z0.2403
G1 X46.6361 Y-21.9194 Z0.2417
G1 X46.6269 Y-21.9194 Z0.2426
G1 X46.6178 Y-21.9194 Z0.2429
G1 X46.5806 Y-21.9194 Z0.2515
G1 X46.5494 Y-21.9194 Z0.2734
G1 X46.5286 Y-21.9194 Z0.3054
G1 X46.5213 Y-21.9194 Z0.3429
G0 Z0.4929
G0 X46.5213 Y-21.9194 
G0 Z0.4929
G0 X47.0649 Y-21.8949 
G1 X47.0649 Y-21.8949 Z0.1337 F75.
G1 X47.0506 Y-21.8949 Z0.0821 F25.
G1 X47.0116 Y-21.8949 Z0.0453
G1 X46.9593 Y-21.8949 Z0.0338
G1 X46.9086 Y-21.8949 Z0.0511
G1 X46.8905 Y-21.8949 Z0.0634 F75.
G1 X46.8725 Y-21.8949 Z0.0763
G1 X46.8364 Y-21.8949 Z0.1026
G1 X46.8184 Y-21.8949 Z0.1167
G1 X46.8003 Y-21.8949 Z0.1315
G1 X46.7823 Y-21.8949 Z0.1465
G1 X46.7462 Y-21.8949 Z0.1781
G1 X46.7191 Y-21.8949 Z0.2031
G1 X46.7101 Y-21.8949 Z0.2105
G1 X46.7011 Y-21.8949 Z0.2168
G1 X46.6921 Y-21.8949 Z0.2222
G1 X46.6830 Y-21.8949 Z0.2268
G1 X46.6740 Y-21.8949 Z0.2307
G1 X46.6650 Y-21.8949 Z0.2339
G1 X46.6560 Y-21.8949 Z0.2365
G1 X46.6470 Y-21.8949 Z0.2385
G1 X46.6379 Y-21.8949 Z0.2399
G1 X46.6289 Y-21.8949 Z0.2408
G1 X46.6199 Y-21.8949 Z0.2411
G1 X46.5828 Y-21.8949 Z0.2497
G1 X46.5515 Y-21.8949 Z0.2716
G1 X46.5308 Y-21.8949 Z0.3036
G1 X46.5235 Y-21.8949 Z0.3410
G0 Z0.4911
G0 X46.5235 Y-21.8949 
G0 Z0.4911
G0 X47.0644 Y-21.8705 
G1 X47.0644 Y-21.8705 Z0.1340 F75.
G1 X47.0501 Y-21.8705 Z0.0824 F25.
G1 X47.0112 Y-21.8705 Z0.0456
G1 X46.9589 Y-21.8705 Z0.0342
G1 X46.9081 Y-21.8705 Z0.0514
G1 X46.8903 Y-21.8705 Z0.0636 F75.
G1 X46.8724 Y-21.8705 Z0.0763
G1 X46.8366 Y-21.8705 Z0.1025
G1 X46.8187 Y-21.8705 Z0.1164
G1 X46.8008 Y-21.8705 Z0.1310
G1 X46.7830 Y-21.8705 Z0.1459
G1 X46.7472 Y-21.8705 Z0.1773
G1 X46.7204 Y-21.8705 Z0.2019
G1 X46.7114 Y-21.8705 Z0.2091
G1 X46.7025 Y-21.8705 Z0.2153
G1 X46.6936 Y-21.8705 Z0.2206
G1 X46.6846 Y-21.8705 Z0.2251
G1 X46.6757 Y-21.8705 Z0.2290
G1 X46.6667 Y-21.8705 Z0.2321
G1 X46.6578 Y-21.8705 Z0.2347
G1 X46.6489 Y-21.8705 Z0.2366
G1 X46.6399 Y-21.8705 Z0.2380
G1 X46.6310 Y-21.8705 Z0.2389
G1 X46.6220 Y-21.8705 Z0.2392
G1 X46.5849 Y-21.8705 Z0.2479
G1 X46.5537 Y-21.8705 Z0.2698
G1 X46.5330 Y-21.8705 Z0.3018
G1 X46.5257 Y-21.8705 Z0.3392
G0 Z0.4892
G0 X46.5257 Y-21.8705 
G0 Z0.4892
G0 X47.0643 Y-21.8460 
G1 X47.0643 Y-21.8460 Z0.1341 F75.
G1 X47.0500 Y-21.8460 Z0.0825 F25.
G1 X47.0111 Y-21.8460 Z0.0457
G1 X46.9588 Y-21.8460 Z0.0343
G1 X46.9081 Y-21.8460 Z0.0514
G1 X46.8904 Y-21.8460 Z0.0634 F75.
G1 X46.8726 Y-21.8460 Z0.0761
G1 X46.8371 Y-21.8460 Z0.1021
G1 X46.8194 Y-21.8460 Z0.1159
G1 X46.8016 Y-21.8460 Z0.1302
G1 X46.7839 Y-21.8460 Z0.1451
G1 X46.7484 Y-21.8460 Z0.1762
G1 X46.7218 Y-21.8460 Z0.2005
G1 X46.7129 Y-21.8460 Z0.2076
G1 X46.7040 Y-21.8460 Z0.2137
G1 X46.6951 Y-21.8460 Z0.2190
G1 X46.6863 Y-21.8460 Z0.2234
G1 X46.6774 Y-21.8460 Z0.2272
G1 X46.6685 Y-21.8460 Z0.2303
G1 X46.6597 Y-21.8460 Z0.2328
G1 X46.6508 Y-21.8460 Z0.2348
G1 X46.6419 Y-21.8460 Z0.2362
G1 X46.6330 Y-21.8460 Z0.2371
G1 X46.6242 Y-21.8460 Z0.2374
G1 X46.5871 Y-21.8460 Z0.2461
G1 X46.5559 Y-21.8460 Z0.2680
G1 X46.5352 Y-21.8460 Z0.2999
G1 X46.5280 Y-21.8460 Z0.3373
G0 Z0.4874
G0 X46.5280 Y-21.8460 
G0 Z0.4874
G0 X47.0642 Y-21.8215 
G1 X47.0642 Y-21.8215 Z0.1342 F75.
G1 X47.0499 Y-21.8215 Z0.0827 F25.
G1 X47.0111 Y-21.8215 Z0.0459
G1 X46.9588 Y-21.8215 Z0.0344
G1 X46.9081 Y-21.8215 Z0.0514
G1 X46.8905 Y-21.8215 Z0.0633 F75.
G1 X46.8729 Y-21.8215 Z0.0759
G1 X46.8377 Y-21.8215 Z0.1017
G1 X46.8201 Y-21.8215 Z0.1153
G1 X46.8024 Y-21.8215 Z0.1295
G1 X46.7848 Y-21.8215 Z0.1443
G1 X46.7672 Y-21.8215 Z0.1598
G1 X46.7232 Y-21.8215 Z0.1991
G1 X46.7144 Y-21.8215 Z0.2061
G1 X46.7055 Y-21.8215 Z0.2121
G1 X46.6967 Y-21.8215 Z0.2173
G1 X46.6879 Y-21.8215 Z0.2217
G1 X46.6791 Y-21.8215 Z0.2254
G1 X46.6703 Y-21.8215 Z0.2285
G1 X46.6615 Y-21.8215 Z0.2310
G1 X46.6527 Y-21.8215 Z0.2329
G1 X46.6439 Y-21.8215 Z0.2343
G1 X46.6351 Y-21.8215 Z0.2352
G1 X46.6263 Y-21.8215 Z0.2356
G1 X46.5892 Y-21.8215 Z0.2443
G1 X46.5581 Y-21.8215 Z0.2662
G1 X46.5375 Y-21.8215 Z0.2981
G1 X46.5302 Y-21.8215 Z0.3355
G0 Z0.4856
G0 X46.5302 Y-21.8215 
G0 Z0.4856
G0 X47.0640 Y-21.7971 
G1 X47.0640 Y-21.7971 Z0.1343 F75.
G1 X47.0498 Y-21.7971 Z0.0828 F25.
G1 X47.0110 Y-21.7971 Z0.0460
G1 X46.9588 Y-21.7971 Z0.0344
G1 X46.9081 Y-21.7971 Z0.0514
G1 X46.8907 Y-21.7971 Z0.0632 F75.
G1 X46.8557 Y-21.7971 Z0.0882
G1 X46.8382 Y-21.7971 Z0.1013
G1 X46.8207 Y-21.7971 Z0.1148
G1 X46.8032 Y-21.7971 Z0.1288
G1 X46.7858 Y-21.7971 Z0.1435
G1 X46.7246 Y-21.7971 Z0.1978
G1 X46.7158 Y-21.7971 Z0.2046
G1 X46.7071 Y-21.7971 Z0.2105
G1 X46.6983 Y-21.7971 Z0.2155
G1 X46.6896 Y-21.7971 Z0.2198
G1 X46.6809 Y-21.7971 Z0.2235
G1 X46.6721 Y-21.7971 Z0.2265
G1 X46.6634 Y-21.7971 Z0.2290
G1 X46.6546 Y-21.7971 Z0.2309
G1 X46.6459 Y-21.7971 Z0.2323
G1 X46.6371 Y-21.7971 Z0.2331
G1 X46.6284 Y-21.7971 Z0.2334
G1 X46.5913 Y-21.7971 Z0.2421
G1 X46.5602 Y-21.7971 Z0.2641
G1 X46.5395 Y-21.7971 Z0.2960
G1 X46.5323 Y-21.7971 Z0.3334
G0 Z0.4834
G0 X46.5323 Y-21.7971 
G0 Z0.4834
G0 X47.0640 Y-21.7726 
G1 X47.0640 Y-21.7726 Z0.1344 F75.
G1 X47.0497 Y-21.7726 Z0.0829 F25.
G1 X47.0110 Y-21.7726 Z0.0461
G1 X46.9588 Y-21.7726 Z0.0345
G1 X46.9081 Y-21.7726 Z0.0514
G1 X46.8908 Y-21.7726 Z0.0631 F75.
G1 X46.8561 Y-21.7726 Z0.0879
G1 X46.8387 Y-21.7726 Z0.1009
G1 X46.8214 Y-21.7726 Z0.1142
G1 X46.7954 Y-21.7726 Z0.1353
G1 X46.7693 Y-21.7726 Z0.1580
G1 X46.7260 Y-21.7726 Z0.1964
G1 X46.7173 Y-21.7726 Z0.2031
G1 X46.7086 Y-21.7726 Z0.2088
G1 X46.6999 Y-21.7726 Z0.2138
G1 X46.6913 Y-21.7726 Z0.2180
G1 X46.6826 Y-21.7726 Z0.2216
G1 X46.6739 Y-21.7726 Z0.2246
G1 X46.6652 Y-21.7726 Z0.2270
G1 X46.6566 Y-21.7726 Z0.2288
G1 X46.6479 Y-21.7726 Z0.2302
G1 X46.6392 Y-21.7726 Z0.2310
G1 X46.6305 Y-21.7726 Z0.2313
G1 X46.5934 Y-21.7726 Z0.2400
G1 X46.5623 Y-21.7726 Z0.2619
G1 X46.5416 Y-21.7726 Z0.2939
G1 X46.5343 Y-21.7726 Z0.3313
G0 Z0.4813
G0 X46.5343 Y-21.7726 
G0 Z0.4813
G0 X47.0640 Y-21.7481 
G1 X47.0640 Y-21.7481 Z0.1344 F75.
G1 X47.0497 Y-21.7481 Z0.0829 F25.
G1 X47.0110 Y-21.7481 Z0.0461
G1 X46.9588 Y-21.7481 Z0.0345
G1 X46.9081 Y-21.7481 Z0.0514
G1 X46.8909 Y-21.7481 Z0.0630 F75.
G1 X46.8565 Y-21.7481 Z0.0875
G1 X46.8393 Y-21.7481 Z0.1005
G1 X46.8220 Y-21.7481 Z0.1137
G1 X46.7962 Y-21.7481 Z0.1345
G1 X46.7360 Y-21.7481 Z0.1874
G1 X46.7317 Y-21.7481 Z0.1913
G1 X46.7273 Y-21.7481 Z0.1950
G1 X46.7187 Y-21.7481 Z0.2015
G1 X46.7101 Y-21.7481 Z0.2071
G1 X46.7015 Y-21.7481 Z0.2120
G1 X46.6929 Y-21.7481 Z0.2162
G1 X46.6843 Y-21.7481 Z0.2197
G1 X46.6757 Y-21.7481 Z0.2226
G1 X46.6671 Y-21.7481 Z0.2250
G1 X46.6585 Y-21.7481 Z0.2268
G1 X46.6499 Y-21.7481 Z0.2281
G1 X46.6327 Y-21.7481 Z0.2292
G1 X46.5964 Y-21.7481 Z0.2386
G1 X46.5662 Y-21.7481 Z0.2607
G1 X46.5462 Y-21.7481 Z0.2923
G1 X46.5392 Y-21.7481 Z0.3290
G0 Z0.4792
G0 X46.5392 Y-21.7481 
G0 Z0.4792
G0 X47.0640 Y-21.7236 
G1 X47.0640 Y-21.7236 Z0.1344 F75.
G1 X47.0497 Y-21.7236 Z0.0829 F25.
G1 X47.0110 Y-21.7236 Z0.0461
G1 X46.9588 Y-21.7236 Z0.0345
G1 X46.9081 Y-21.7236 Z0.0514
G1 X46.8911 Y-21.7236 Z0.0629 F75.
G1 X46.8569 Y-21.7236 Z0.0872
G1 X46.8227 Y-21.7236 Z0.1132
G1 X46.7971 Y-21.7236 Z0.1338
G1 X46.7287 Y-21.7236 Z0.1936
G1 X46.7202 Y-21.7236 Z0.2000
G1 X46.7117 Y-21.7236 Z0.2055
G1 X46.7031 Y-21.7236 Z0.2102
G1 X46.6946 Y-21.7236 Z0.2143
G1 X46.6860 Y-21.7236 Z0.2178
G1 X46.6775 Y-21.7236 Z0.2206
G1 X46.6689 Y-21.7236 Z0.2230
G1 X46.6604 Y-21.7236 Z0.2247
G1 X46.6519 Y-21.7236 Z0.2260
G1 X46.6348 Y-21.7236 Z0.2271
G1 X46.5985 Y-21.7236 Z0.2365
G1 X46.5682 Y-21.7236 Z0.2585
G1 X46.5482 Y-21.7236 Z0.2901
G1 X46.5412 Y-21.7236 Z0.3269
G0 Z0.4771
G0 X46.5412 Y-21.7236 
G0 Z0.4771
G0 X47.0645 Y-21.6992 
G1 X47.0645 Y-21.6992 Z0.1340 F75.
G1 X47.0502 Y-21.6992 Z0.0824 F25.
G1 X47.0112 Y-21.6992 Z0.0456
G1 X46.9589 Y-21.6992 Z0.0342
G1 X46.9081 Y-21.6992 Z0.0514
G1 X46.8811 Y-21.6992 Z0.0698 F75.
G1 X46.8541 Y-21.6992 Z0.0892
G1 X46.8271 Y-21.6992 Z0.1097
G1 X46.8001 Y-21.6992 Z0.1313
G1 X46.7866 Y-21.6992 Z0.1429
G1 X46.7326 Y-21.6992 Z0.1899
G1 X46.7259 Y-21.6992 Z0.1952
G1 X46.7191 Y-21.6992 Z0.2000
G1 X46.7056 Y-21.6992 Z0.2080
G1 X46.6921 Y-21.6992 Z0.2142
G1 X46.6683 Y-21.6992 Z0.2296
G1 X46.6497 Y-21.6992 Z0.2511
G1 X46.6380 Y-21.6992 Z0.2769
G1 X46.6339 Y-21.6992 Z0.3050
G0 Z0.4642
G0 X46.6339 Y-21.6992 
G0 Z0.4642
G0 X47.0640 Y-21.6747 
G1 X47.0640 Y-21.6747 Z0.1344 F75.
G1 X47.0497 Y-21.6747 Z0.0829 F25.
G1 X47.0110 Y-21.6747 Z0.0461
G1 X46.9588 Y-21.6747 Z0.0345
G1 X46.9081 Y-21.6747 Z0.0514
G1 X46.8867 Y-21.6747 Z0.0658 F75.
G1 X46.8511 Y-21.6747 Z0.0911
G1 X46.8225 Y-21.6747 Z0.1120
G1 X46.7940 Y-21.6747 Z0.1339
G1 X46.7652 Y-21.6747 Z0.1690
G1 X46.7549 Y-21.6747 Z0.2132
G0 Z0.3839
G0 X46.7549 Y-21.6747 
G0 Z0.3839
G0 X47.0611 Y-21.6502 
G1 X47.0611 Y-21.6502 Z0.1354 F75.
G1 X47.0473 Y-21.6502 Z0.0847 F25.
G1 X47.0096 Y-21.6502 Z0.0480
G1 X46.9585 Y-21.6502 Z0.0355
G1 X46.9081 Y-21.6502 Z0.0506
G1 X46.8844 Y-21.6502 Z0.0654 F75.
G1 X46.8607 Y-21.6502 Z0.0807
G1 X46.8271 Y-21.6502 Z0.1169
G1 X46.8149 Y-21.6502 Z0.1648
G0 Z0.3307
G0 X46.8149 Y-21.6502 
G0 Z0.3307
G0 X47.0597 Y-21.6405 
G1 X47.0597 Y-21.6405 Z0.1350 F75.
G1 X47.0460 Y-21.6405 Z0.0846 F25.
G1 X47.0089 Y-21.6405 Z0.0479
G1 X46.9583 Y-21.6405 Z0.0350
G1 X46.9081 Y-21.6405 Z0.0493
G1 X46.8847 Y-21.6405 Z0.0633 F75.
G1 X46.8492 Y-21.6405 Z0.0998
G1 X46.8362 Y-21.6405 Z0.1491
G0 Z2.0000
G0 X46.8362 Y-21.6405 
M5
G53 Z
X2Y0
