( MOP:  WheelPocketExtended-02 )
( FILE: G:\Shared drives\AlloyProjectFiles\Customer CAD files\Alloy-Standard-Builds-CAM\Fingerboards-in\Options\WheelPocketExtended-02.nc)
G90
(  BEGIN TOOL LIST )
(  TOOL 7 - Downcut PT125 - DESC: 0.1250 DIA, 2 FLUTE,  CARBIDE MAT )
(  ENDOF TOOL LIST )
( WheelPocketExtended-02)
T07
S12000
M3
G0 Z4.0000
G0 X27.6554 Y-22.9245 
G1 X27.6554 Y-22.9245 Z0.0000 F75.
G17
G3X27.7804Y-22.7995Z0.0000I0.0000J0.1250 F25.
G1 X27.7804 Y-22.4914 Z0.0000 F40.
G1 X27.6491 Y-22.4914 Z0.0000
G1 X27.6491 Y-23.1075 Z0.0000
G1 X27.7804 Y-23.1075 Z0.0000
G1 X27.7804 Y-22.7995 Z0.0000
G1 X27.7804 Y-22.6995 Z0.0000
G3X27.6554Y-22.5745Z0.0000I-0.1250J0.0000
G0 Z4.0000
G0 X27.6554 Y-22.5745 
M5
G53 Z
X2Y0
