( MOP:  03-Topside-prep-onePT850-01 )
( FILE: G:\Shared drives\AlloyProjectFiles\Customer CAD files\Alloy-Standard-Builds-CAM\t-in\TopsidePrep\03-Topside-prep-onePT850-01.nc)
G90
(  BEGIN TOOL LIST )
(  TOOL 1 - Surface 2PT500 - DESC: 2.5000 DIA, 2 FLUTE,  CARBIDE MAT )
(  ENDOF TOOL LIST )
( 03-Topside-prep-onePT850-01)
T01
S12000
M3
G0 Z4.0000
G0 X5.3244 Y-1.1673 
G1 X5.3244 Y-1.1673 Z1.8500 F75.
G1 X3.2031 Y-3.2886 Z1.8500 F50.
G1 X3.1854 Y-3.3063 Z1.8500
G1 X2.4877 Y-4.0040 Z1.8500 F150.
G1 X2.4830 Y-4.0516 Z1.8500
G1 X2.4830 Y-4.7158 Z1.8500
G1 X3.8972 Y-3.3016 Z1.8500
G1 X4.6043 Y-3.3016 Z1.8500
G1 X2.4830 Y-5.4229 Z1.8500
G1 X2.4830 Y-6.1300 Z1.8500
G1 X5.3114 Y-3.3016 Z1.8500
G1 X6.0185 Y-3.3016 Z1.8500
G1 X2.4830 Y-6.8371 Z1.8500
G1 X2.4830 Y-7.5442 Z1.8500
G1 X6.7256 Y-3.3016 Z1.8500
G1 X7.4327 Y-3.3016 Z1.8500
G1 X2.4830 Y-8.2514 Z1.8500
G1 X2.4830 Y-8.9585 Z1.8500
G1 X8.1399 Y-3.3016 Z1.8500
G1 X8.8470 Y-3.3016 Z1.8500
G1 X2.4830 Y-9.6656 Z1.8500
G1 X2.4830 Y-10.3727 Z1.8500
G1 X9.5541 Y-3.3016 Z1.8500
G1 X10.2612 Y-3.3016 Z1.8500
G1 X2.4830 Y-11.0798 Z1.8500
G1 X2.4830 Y-11.7869 Z1.8500
G1 X10.9683 Y-3.3016 Z1.8500
G1 X11.6754 Y-3.3016 Z1.8500
G1 X2.4830 Y-12.4940 Z1.8500
G1 X2.4830 Y-13.2011 Z1.8500
G1 X12.3825 Y-3.3016 Z1.8500
G1 X13.0896 Y-3.3016 Z1.8500
G1 X2.4830 Y-13.9082 Z1.8500
G1 X2.4830 Y-14.6153 Z1.8500
G1 X13.7967 Y-3.3016 Z1.8500
G1 X14.5038 Y-3.3016 Z1.8500
G1 X2.4830 Y-15.3224 Z1.8500
G1 X2.4830 Y-16.0295 Z1.8500
G1 X15.2109 Y-3.3016 Z1.8500
G1 X15.9180 Y-3.3016 Z1.8500
G1 X2.4830 Y-16.7366 Z1.8500
G1 X2.4830 Y-17.4437 Z1.8500
G1 X16.6251 Y-3.3016 Z1.8500
G1 X17.3322 Y-3.3016 Z1.8500
G1 X2.4830 Y-18.1509 Z1.8500
G1 X2.4830 Y-18.8580 Z1.8500
G1 X18.0393 Y-3.3016 Z1.8500
G1 X18.2330 Y-3.3016 Z1.8500
G1 X18.3793 Y-3.3160 Z1.8500
G1 X18.5200 Y-3.3587 Z1.8500
G1 X18.6304 Y-3.4177 Z1.8500
G1 X2.4830 Y-19.5651 Z1.8500
G1 X2.4830 Y-20.2722 Z1.8500
G1 X18.9410 Y-3.8142 Z1.8500
G1 X18.9686 Y-3.9053 Z1.8500
G1 X18.9830 Y-4.0516 Z1.8500
G1 X18.9830 Y-4.4793 Z1.8500
G1 X2.4830 Y-20.9793 Z1.8500
G1 X2.4830 Y-21.6864 Z1.8500
G1 X18.9830 Y-5.1864 Z1.8500
G1 X18.9830 Y-5.8935 Z1.8500
G1 X2.4830 Y-22.3935 Z1.8500
G1 X2.4830 Y-23.1006 Z1.8500
G1 X18.9830 Y-6.6006 Z1.8500
G1 X18.9830 Y-7.3077 Z1.8500
G1 X2.4830 Y-23.8077 Z1.8500
G1 X2.4830 Y-24.5148 Z1.8500
G1 X18.9830 Y-8.0148 Z1.8500
G1 X18.9830 Y-8.7219 Z1.8500
G1 X2.6667 Y-25.0382 Z1.8500
G1 X2.7027 Y-25.0819 Z1.8500
G1 X2.8163 Y-25.1752 Z1.8500
G1 X2.9460 Y-25.2445 Z1.8500
G1 X3.0867 Y-25.2872 Z1.8500
G1 X3.1214 Y-25.2906 Z1.8500
G1 X18.9830 Y-9.4290 Z1.8500
G1 X18.9830 Y-10.1361 Z1.8500
G1 X3.8175 Y-25.3016 Z1.8500
G1 X4.5246 Y-25.3016 Z1.8500
G1 X18.9830 Y-10.8432 Z1.8500
G1 X18.9830 Y-11.5503 Z1.8500
G1 X5.2317 Y-25.3016 Z1.8500
G1 X5.9388 Y-25.3016 Z1.8500
G1 X18.9830 Y-12.2575 Z1.8500
G1 X18.9830 Y-12.9646 Z1.8500
G1 X6.6459 Y-25.3016 Z1.8500
G1 X7.3531 Y-25.3016 Z1.8500
G1 X18.9830 Y-13.6717 Z1.8500
G1 X18.9830 Y-14.3788 Z1.8500
G1 X8.0602 Y-25.3016 Z1.8500
G1 X8.7673 Y-25.3016 Z1.8500
G1 X18.9830 Y-15.0859 Z1.8500
G1 X18.9830 Y-15.7930 Z1.8500
G1 X9.4744 Y-25.3016 Z1.8500
G1 X10.1815 Y-25.3016 Z1.8500
G1 X18.9830 Y-16.5001 Z1.8500
G1 X18.9830 Y-17.2072 Z1.8500
G1 X10.8886 Y-25.3016 Z1.8500
G1 X11.5957 Y-25.3016 Z1.8500
G1 X18.9830 Y-17.9143 Z1.8500
G1 X18.9830 Y-18.6214 Z1.8500
G1 X12.3028 Y-25.3016 Z1.8500
G1 X13.0099 Y-25.3016 Z1.8500
G1 X18.9830 Y-19.3285 Z1.8500
G1 X18.9830 Y-20.0356 Z1.8500
G1 X13.7170 Y-25.3016 Z1.8500
G1 X14.4241 Y-25.3016 Z1.8500
G1 X18.9830 Y-20.7427 Z1.8500
G1 X18.9830 Y-21.4498 Z1.8500
G1 X15.1312 Y-25.3016 Z1.8500
G1 X15.8383 Y-25.3016 Z1.8500
G1 X18.9830 Y-22.1569 Z1.8500
G1 X18.9830 Y-22.8641 Z1.8500
G1 X16.5454 Y-25.3016 Z1.8500
G1 X17.2526 Y-25.3016 Z1.8500
G1 X18.9830 Y-23.5712 Z1.8500
G1 X18.9830 Y-24.2783 Z1.8500
G1 X17.9597 Y-25.3016 Z1.8500
G0 Z4.0000
G0 X17.9597 Y-25.3016 
M5
G53 Z
X2Y0
