( BEGIN FILE 07-frontside-01-facing-1pt77-start.ncTNUM: 1 )
( Lefty:False Nunits:1 )
( cline: 9.733 delta:15.5 )
( start_unit: 1 num_units: 1)
( MOP:  07-frontside-01-facing-1pt77-start )
( FILE: G:\Shared drives\AlloyProjectFiles\Customer CAD files\Alloy-Standard-Builds-CAM\s-in\07-frontside-01-facing-1pt77-start.nc)
G90
(  BEGIN TOOL LIST )
(  TOOL 1 - Surface 2PT500 - DESC: 2.5000 DIA, 2 FLUTE,  CARBIDE MAT )
(  ENDOF TOOL LIST )
( 07-frontside-01-facing-1pt77-start)
T01
S12000
M3
G0 Z6.0000
G0 X2.6534 Y-0.6080 
G1 X2.6534 Y-0.6080 Z1.7700 F75.
G1 X1.8082 Y-2.4206 Z1.7700 F50.
G1 X1.7976 Y-2.4433 Z1.7700 F125.
G1 X1.1080 Y-3.9221 Z1.7700 F250.
G1 X1.1080 Y-5.4010 Z1.7700
G1 X2.4872 Y-2.4433 Z1.7700
G1 X3.1768 Y-2.4433 Z1.7700
G1 X1.1080 Y-6.8799 Z1.7700
G1 X1.1080 Y-8.3588 Z1.7700
G1 X3.8664 Y-2.4433 Z1.7700
G1 X4.5561 Y-2.4433 Z1.7700
G1 X1.1080 Y-9.8377 Z1.7700
G1 X1.1080 Y-11.3165 Z1.7700
G1 X5.2457 Y-2.4433 Z1.7700
G1 X5.9353 Y-2.4433 Z1.7700
G1 X1.1080 Y-12.7954 Z1.7700
G1 X1.1080 Y-14.2743 Z1.7700
G1 X6.6249 Y-2.4433 Z1.7700
G1 X7.3145 Y-2.4433 Z1.7700
G1 X1.1080 Y-15.7532 Z1.7700
G1 X1.1080 Y-17.2320 Z1.7700
G1 X8.0041 Y-2.4433 Z1.7700
G1 X8.6937 Y-2.4433 Z1.7700
G1 X1.1080 Y-18.7109 Z1.7700
G1 X1.1080 Y-20.1898 Z1.7700
G1 X9.3833 Y-2.4433 Z1.7700
G1 X10.0729 Y-2.4433 Z1.7700
G1 X1.1080 Y-21.6687 Z1.7700
G1 X1.1080 Y-23.1475 Z1.7700
G1 X10.7626 Y-2.4433 Z1.7700
G1 X11.4522 Y-2.4433 Z1.7700
G1 X1.1080 Y-24.6264 Z1.7700
G1 X1.1080 Y-25.0683 Z1.7700
G1 X1.1200 Y-25.1902 Z1.7700
G1 X1.1556 Y-25.3074 Z1.7700
G1 X1.2133 Y-25.4155 Z1.7700
G1 X1.2911 Y-25.5102 Z1.7700
G1 X1.3594 Y-25.5663 Z1.7700
G1 X12.1418 Y-2.4433 Z1.7700
G1 X12.8314 Y-2.4433 Z1.7700
G1 X1.9897 Y-25.6933 Z1.7700
G1 X2.6793 Y-25.6933 Z1.7700
G1 X13.5210 Y-2.4433 Z1.7700
G1 X14.2106 Y-2.4433 Z1.7700
G1 X3.3690 Y-25.6933 Z1.7700
G1 X4.0586 Y-25.6933 Z1.7700
G1 X14.9002 Y-2.4433 Z1.7700
G1 X15.5898 Y-2.4433 Z1.7700
G1 X4.7482 Y-25.6933 Z1.7700
G1 X5.4378 Y-25.6933 Z1.7700
G1 X16.2794 Y-2.4433 Z1.7700
G1 X16.9691 Y-2.4433 Z1.7700
G1 X6.1274 Y-25.6933 Z1.7700
G1 X6.8170 Y-25.6933 Z1.7700
G1 X17.6587 Y-2.4433 Z1.7700
G1 X17.7330 Y-2.4433 Z1.7700
G1 X17.8549 Y-2.4553 Z1.7700
G1 X17.9722 Y-2.4908 Z1.7700
G1 X18.0802 Y-2.5486 Z1.7700
G1 X18.1749 Y-2.6263 Z1.7700
G1 X18.2310 Y-2.6947 Z1.7700
G1 X7.5066 Y-25.6933 Z1.7700
G1 X8.1962 Y-25.6933 Z1.7700
G1 X18.3580 Y-3.9013 Z1.7700
G1 X18.3580 Y-5.3802 Z1.7700
G1 X8.8858 Y-25.6933 Z1.7700
G1 X9.5755 Y-25.6933 Z1.7700
G1 X18.3580 Y-6.8591 Z1.7700
G1 X18.3580 Y-8.3379 Z1.7700
G1 X10.2651 Y-25.6933 Z1.7700
G1 X10.9547 Y-25.6933 Z1.7700
G1 X18.3580 Y-9.8168 Z1.7700
G1 X18.3580 Y-11.2957 Z1.7700
G1 X11.6443 Y-25.6933 Z1.7700
G1 X12.3339 Y-25.6933 Z1.7700
G1 X18.3580 Y-12.7746 Z1.7700
G1 X18.3580 Y-14.2534 Z1.7700
G1 X13.0235 Y-25.6933 Z1.7700
G1 X13.7131 Y-25.6933 Z1.7700
G1 X18.3580 Y-15.7323 Z1.7700
G1 X18.3580 Y-17.2112 Z1.7700
G1 X14.4027 Y-25.6933 Z1.7700
G1 X15.0923 Y-25.6933 Z1.7700
G1 X18.3580 Y-18.6901 Z1.7700
G1 X18.3580 Y-20.1689 Z1.7700
G1 X15.7820 Y-25.6933 Z1.7700
G1 X16.4716 Y-25.6933 Z1.7700
G1 X18.3580 Y-21.6478 Z1.7700
G1 X18.3580 Y-23.1267 Z1.7700
G1 X17.1612 Y-25.6933 Z1.7700
G1 X17.7330 Y-25.6933 Z1.7700
G1 X17.8549 Y-25.6813 Z1.7700
G1 X17.8566 Y-25.6807 Z1.7700
G1 X18.3580 Y-24.6056 Z1.7700
G1 X18.5014 Y-24.4008 Z1.8700
G1 X18.5587 Y-24.3189 Z1.8700
G0 Z6.0000
G0 X18.5587 Y-24.3189 
M5
G53 Z
G0 X2Y0
( END FILE 07-frontside-01-facing-1pt77-start.nc )
( BEGIN FILE AS-Trem-Posts-front-07.ncTNUM: 6 )
( Lefty:False Nunits:1 )
( cline: 9.733 delta:15.5 )
( start_unit: 1 num_units: 1)
( MOP:  AS-Trem-Posts-front-07 )
( FILE: G:\Shared drives\AlloyProjectFiles\Customer CAD files\Alloy-Standard-Builds-CAM\s-in\Bridges\AS-Trem-Posts-front-07.nc)
G90
(  BEGIN TOOL LIST )
(  TOOL 6 - Downcut PT250 - DESC: 0.2500 DIA, 2 FLUTE,  CARBIDE MAT )
(  ENDOF TOOL LIST )
( AS-Trem-Posts-front-07)
( Max Depth 1.75)
T06
S12000
M3
G0 Z4.0000
G0 X10.9132 Y-16.8346 
G1 X10.9132 Y-16.8346 Z1.8100 F75.
G1 X10.9132 Y-16.8346 Z1.7850 F25.
G1 X10.9131 Y-16.8327 Z1.7840
G1 X10.9117 Y-16.8247 Z1.7795
G1 X10.9095 Y-16.8170 Z1.7750
G1 X10.9064 Y-16.8096 Z1.7706
G1 X10.9025 Y-16.8025 Z1.7661
G1 X10.8979 Y-16.7960 Z1.7616
G1 X10.8925 Y-16.7900 Z1.7572
G1 X10.8865 Y-16.7846 Z1.7527
G1 X10.8799 Y-16.7799 Z1.7483
G1 X10.8729 Y-16.7760 Z1.7438
G1 X10.8655 Y-16.7730 Z1.7393
G1 X10.8577 Y-16.7707 Z1.7349
G1 X10.8498 Y-16.7694 Z1.7304
G1 X10.8417 Y-16.7689 Z1.7260
G1 X10.8337 Y-16.7694 Z1.7215
G1 X10.8258 Y-16.7707 Z1.7170
G1 X10.8180 Y-16.7730 Z1.7126
G1 X10.8106 Y-16.7760 Z1.7081
G1 X10.8036 Y-16.7799 Z1.7036
G1 X10.7970 Y-16.7846 Z1.6992
G1 X10.7910 Y-16.7900 Z1.6947
G1 X10.7856 Y-16.7960 Z1.6903
G1 X10.7810 Y-16.8025 Z1.6858
G1 X10.7771 Y-16.8096 Z1.6813
G1 X10.7740 Y-16.8170 Z1.6769
G1 X10.7718 Y-16.8247 Z1.6724
G1 X10.7704 Y-16.8327 Z1.6679
G1 X10.7700 Y-16.8407 Z1.6635
G1 X10.7704 Y-16.8488 Z1.6590
G1 X10.7718 Y-16.8567 Z1.6546
G1 X10.7740 Y-16.8644 Z1.6501
G1 X10.7771 Y-16.8719 Z1.6456
G1 X10.7810 Y-16.8789 Z1.6412
G1 X10.7856 Y-16.8855 Z1.6367
G1 X10.7910 Y-16.8915 Z1.6323
G1 X10.7970 Y-16.8968 Z1.6278
G1 X10.8036 Y-16.9015 Z1.6233
G1 X10.8106 Y-16.9054 Z1.6189
G1 X10.8180 Y-16.9085 Z1.6144
G1 X10.8258 Y-16.9107 Z1.6099
G1 X10.8337 Y-16.9120 Z1.6055
G1 X10.8417 Y-16.9125 Z1.6010
G1 X10.8498 Y-16.9120 Z1.5966
G1 X10.8577 Y-16.9107 Z1.5921
G1 X10.8655 Y-16.9085 Z1.5876
G1 X10.8729 Y-16.9054 Z1.5832
G1 X10.8799 Y-16.9015 Z1.5787
G1 X10.8865 Y-16.8968 Z1.5742
G1 X10.8925 Y-16.8915 Z1.5698
G1 X10.8979 Y-16.8855 Z1.5653
G1 X10.9025 Y-16.8789 Z1.5609
G1 X10.9064 Y-16.8719 Z1.5564
G1 X10.9095 Y-16.8644 Z1.5519
G1 X10.9117 Y-16.8567 Z1.5475
G1 X10.9131 Y-16.8488 Z1.5430
G1 X10.9135 Y-16.8407 Z1.5385
G17
G3X10.7700Y-16.8407Z1.5385I-0.0718J0.0000
G3X10.9135Y-16.8407Z1.5385I0.0717J0.0000
G1 X10.8959 Y-16.7937 Z1.5385
G1 X10.8925 Y-16.7900 Z1.5357
G1 X10.8865 Y-16.7846 Z1.5313
G1 X10.8799 Y-16.7799 Z1.5268
G1 X10.8729 Y-16.7760 Z1.5223
G1 X10.8655 Y-16.7730 Z1.5179
G1 X10.8577 Y-16.7707 Z1.5134
G1 X10.8498 Y-16.7694 Z1.5090
G1 X10.8417 Y-16.7689 Z1.5045
G1 X10.8337 Y-16.7694 Z1.5000
G1 X10.8258 Y-16.7707 Z1.4956
G1 X10.8180 Y-16.7730 Z1.4911
G1 X10.8106 Y-16.7760 Z1.4867
G1 X10.8036 Y-16.7799 Z1.4822
G1 X10.7970 Y-16.7846 Z1.4777
G1 X10.7910 Y-16.7900 Z1.4733
G1 X10.7856 Y-16.7960 Z1.4688
G1 X10.7810 Y-16.8025 Z1.4643
G1 X10.7771 Y-16.8096 Z1.4599
G1 X10.7740 Y-16.8170 Z1.4554
G1 X10.7718 Y-16.8247 Z1.4510
G1 X10.7704 Y-16.8327 Z1.4465
G1 X10.7700 Y-16.8407 Z1.4420
G1 X10.7704 Y-16.8488 Z1.4376
G1 X10.7718 Y-16.8567 Z1.4331
G1 X10.7740 Y-16.8644 Z1.4286
G1 X10.7771 Y-16.8719 Z1.4242
G1 X10.7810 Y-16.8789 Z1.4197
G1 X10.7856 Y-16.8855 Z1.4153
G1 X10.7910 Y-16.8915 Z1.4108
G1 X10.7970 Y-16.8968 Z1.4063
G1 X10.8036 Y-16.9015 Z1.4019
G1 X10.8106 Y-16.9054 Z1.3974
G1 X10.8180 Y-16.9085 Z1.3930
G1 X10.8258 Y-16.9107 Z1.3885
G1 X10.8337 Y-16.9120 Z1.3840
G1 X10.8417 Y-16.9125 Z1.3796
G1 X10.8498 Y-16.9120 Z1.3751
G1 X10.8577 Y-16.9107 Z1.3706
G1 X10.8655 Y-16.9085 Z1.3662
G1 X10.8729 Y-16.9054 Z1.3617
G1 X10.8799 Y-16.9015 Z1.3573
G1 X10.8865 Y-16.8968 Z1.3528
G1 X10.8925 Y-16.8915 Z1.3483
G1 X10.8979 Y-16.8855 Z1.3439
G1 X10.9025 Y-16.8789 Z1.3394
G1 X10.9064 Y-16.8719 Z1.3349
G1 X10.9095 Y-16.8644 Z1.3305
G1 X10.9117 Y-16.8567 Z1.3260
G1 X10.9131 Y-16.8488 Z1.3216
G1 X10.9135 Y-16.8407 Z1.3171
G3X10.7700Y-16.8407Z1.3171I-0.0718J0.0000
G3X10.9135Y-16.8407Z1.3171I0.0717J0.0000
G1 X10.8959 Y-16.7937 Z1.3171
G1 X10.8925 Y-16.7900 Z1.3143
G1 X10.8865 Y-16.7846 Z1.3098
G1 X10.8799 Y-16.7799 Z1.3054
G1 X10.8729 Y-16.7760 Z1.3009
G1 X10.8655 Y-16.7730 Z1.2964
G1 X10.8577 Y-16.7707 Z1.2920
G1 X10.8498 Y-16.7694 Z1.2875
G1 X10.8417 Y-16.7689 Z1.2831
G1 X10.8337 Y-16.7694 Z1.2786
G1 X10.8258 Y-16.7707 Z1.2741
G1 X10.8180 Y-16.7730 Z1.2697
G1 X10.8106 Y-16.7760 Z1.2652
G1 X10.8036 Y-16.7799 Z1.2607
G1 X10.7970 Y-16.7846 Z1.2563
G1 X10.7910 Y-16.7900 Z1.2518
G1 X10.7856 Y-16.7960 Z1.2474
G1 X10.7810 Y-16.8025 Z1.2429
G1 X10.7771 Y-16.8096 Z1.2384
G1 X10.7740 Y-16.8170 Z1.2340
G1 X10.7718 Y-16.8247 Z1.2295
G1 X10.7704 Y-16.8327 Z1.2250
G1 X10.7700 Y-16.8407 Z1.2206
G1 X10.7704 Y-16.8488 Z1.2161
G1 X10.7718 Y-16.8567 Z1.2117
G1 X10.7740 Y-16.8644 Z1.2072
G1 X10.7771 Y-16.8719 Z1.2027
G1 X10.7810 Y-16.8789 Z1.1983
G1 X10.7856 Y-16.8855 Z1.1938
G1 X10.7910 Y-16.8915 Z1.1894
G1 X10.7970 Y-16.8968 Z1.1849
G1 X10.8036 Y-16.9015 Z1.1804
G1 X10.8106 Y-16.9054 Z1.1760
G1 X10.8180 Y-16.9085 Z1.1715
G1 X10.8258 Y-16.9107 Z1.1670
G1 X10.8337 Y-16.9120 Z1.1626
G1 X10.8417 Y-16.9125 Z1.1581
G1 X10.8498 Y-16.9120 Z1.1537
G1 X10.8577 Y-16.9107 Z1.1492
G1 X10.8655 Y-16.9085 Z1.1447
G1 X10.8729 Y-16.9054 Z1.1403
G1 X10.8799 Y-16.9015 Z1.1358
G1 X10.8865 Y-16.8968 Z1.1313
G1 X10.8925 Y-16.8915 Z1.1269
G1 X10.8979 Y-16.8855 Z1.1224
G1 X10.9025 Y-16.8789 Z1.1180
G1 X10.9064 Y-16.8719 Z1.1135
G1 X10.9095 Y-16.8644 Z1.1090
G1 X10.9117 Y-16.8567 Z1.1046
G1 X10.9131 Y-16.8488 Z1.1001
G1 X10.9135 Y-16.8407 Z1.0956
G3X10.7700Y-16.8407Z1.0956I-0.0718J0.0000
G3X10.9135Y-16.8407Z1.0956I0.0717J0.0000
G1 X10.8959 Y-16.7937 Z1.0956
G1 X10.8925 Y-16.7900 Z1.0928
G1 X10.8865 Y-16.7846 Z1.0884
G1 X10.8799 Y-16.7799 Z1.0839
G1 X10.8729 Y-16.7760 Z1.0794
G1 X10.8655 Y-16.7730 Z1.0750
G1 X10.8577 Y-16.7707 Z1.0705
G1 X10.8498 Y-16.7694 Z1.0661
G1 X10.8417 Y-16.7689 Z1.0616
G1 X10.8337 Y-16.7694 Z1.0571
G1 X10.8258 Y-16.7707 Z1.0527
G1 X10.8180 Y-16.7730 Z1.0482
G1 X10.8106 Y-16.7760 Z1.0438
G1 X10.8036 Y-16.7799 Z1.0393
G1 X10.7970 Y-16.7846 Z1.0348
G1 X10.7910 Y-16.7900 Z1.0304
G1 X10.7856 Y-16.7960 Z1.0259
G1 X10.7810 Y-16.8025 Z1.0214
G1 X10.7771 Y-16.8096 Z1.0170
G1 X10.7740 Y-16.8170 Z1.0125
G1 X10.7718 Y-16.8247 Z1.0081
G1 X10.7704 Y-16.8327 Z1.0036
G1 X10.7700 Y-16.8407 Z0.9991
G1 X10.7704 Y-16.8488 Z0.9947
G1 X10.7718 Y-16.8567 Z0.9902
G1 X10.7740 Y-16.8644 Z0.9857
G1 X10.7771 Y-16.8719 Z0.9813
G1 X10.7810 Y-16.8789 Z0.9768
G1 X10.7856 Y-16.8855 Z0.9724
G1 X10.7910 Y-16.8915 Z0.9679
G1 X10.7970 Y-16.8968 Z0.9634
G1 X10.8036 Y-16.9015 Z0.9590
G1 X10.8106 Y-16.9054 Z0.9545
G1 X10.8180 Y-16.9085 Z0.9501
G1 X10.8258 Y-16.9107 Z0.9456
G1 X10.8337 Y-16.9120 Z0.9411
G1 X10.8417 Y-16.9125 Z0.9367
G1 X10.8498 Y-16.9120 Z0.9322
G1 X10.8577 Y-16.9107 Z0.9277
G1 X10.8655 Y-16.9085 Z0.9233
G1 X10.8729 Y-16.9054 Z0.9188
G1 X10.8799 Y-16.9015 Z0.9144
G1 X10.8865 Y-16.8968 Z0.9099
G1 X10.8925 Y-16.8915 Z0.9054
G1 X10.8979 Y-16.8855 Z0.9010
G1 X10.9025 Y-16.8789 Z0.8965
G1 X10.9064 Y-16.8719 Z0.8920
G1 X10.9095 Y-16.8644 Z0.8876
G1 X10.9117 Y-16.8567 Z0.8831
G1 X10.9131 Y-16.8488 Z0.8787
G1 X10.9135 Y-16.8407 Z0.8742
G3X10.7700Y-16.8407Z0.8742I-0.0718J0.0000
G3X10.9135Y-16.8407Z0.8742I0.0717J0.0000
G1 X10.8417 Y-16.8407 Z0.8742
G0 Z2.0600
G0 X10.8417 Y-16.8407 
G0 Z2.0600
G0 X8.6944 Y-16.8346 
G1 X8.6944 Y-16.8346 Z1.8100 F75.
G1 X8.6944 Y-16.8346 Z1.7850 F25.
G1 X8.6943 Y-16.8327 Z1.7840
G1 X8.6930 Y-16.8247 Z1.7795
G1 X8.6907 Y-16.8170 Z1.7750
G1 X8.6877 Y-16.8096 Z1.7706
G1 X8.6838 Y-16.8025 Z1.7661
G1 X8.6791 Y-16.7960 Z1.7616
G1 X8.6738 Y-16.7900 Z1.7572
G1 X8.6677 Y-16.7846 Z1.7527
G1 X8.6612 Y-16.7799 Z1.7483
G1 X8.6541 Y-16.7760 Z1.7438
G1 X8.6467 Y-16.7730 Z1.7393
G1 X8.6390 Y-16.7707 Z1.7349
G1 X8.6310 Y-16.7694 Z1.7304
G1 X8.6230 Y-16.7689 Z1.7260
G1 X8.6150 Y-16.7694 Z1.7215
G1 X8.6070 Y-16.7707 Z1.7170
G1 X8.5993 Y-16.7730 Z1.7126
G1 X8.5919 Y-16.7760 Z1.7081
G1 X8.5848 Y-16.7799 Z1.7036
G1 X8.5782 Y-16.7846 Z1.6992
G1 X8.5722 Y-16.7900 Z1.6947
G1 X8.5669 Y-16.7960 Z1.6903
G1 X8.5622 Y-16.8025 Z1.6858
G1 X8.5583 Y-16.8096 Z1.6813
G1 X8.5553 Y-16.8170 Z1.6769
G1 X8.5530 Y-16.8247 Z1.6724
G1 X8.5517 Y-16.8327 Z1.6679
G1 X8.5512 Y-16.8407 Z1.6635
G1 X8.5517 Y-16.8488 Z1.6590
G1 X8.5530 Y-16.8567 Z1.6546
G1 X8.5553 Y-16.8644 Z1.6501
G1 X8.5583 Y-16.8719 Z1.6456
G1 X8.5622 Y-16.8789 Z1.6412
G1 X8.5669 Y-16.8855 Z1.6367
G1 X8.5722 Y-16.8915 Z1.6323
G1 X8.5782 Y-16.8968 Z1.6278
G1 X8.5848 Y-16.9015 Z1.6233
G1 X8.5919 Y-16.9054 Z1.6189
G1 X8.5993 Y-16.9085 Z1.6144
G1 X8.6070 Y-16.9107 Z1.6099
G1 X8.6150 Y-16.9120 Z1.6055
G1 X8.6230 Y-16.9125 Z1.6010
G1 X8.6310 Y-16.9120 Z1.5966
G1 X8.6390 Y-16.9107 Z1.5921
G1 X8.6467 Y-16.9085 Z1.5876
G1 X8.6541 Y-16.9054 Z1.5832
G1 X8.6612 Y-16.9015 Z1.5787
G1 X8.6677 Y-16.8968 Z1.5742
G1 X8.6738 Y-16.8915 Z1.5698
G1 X8.6791 Y-16.8855 Z1.5653
G1 X8.6838 Y-16.8789 Z1.5609
G1 X8.6877 Y-16.8719 Z1.5564
G1 X8.6907 Y-16.8644 Z1.5519
G1 X8.6930 Y-16.8567 Z1.5475
G1 X8.6943 Y-16.8488 Z1.5430
G1 X8.6948 Y-16.8407 Z1.5385
G3X8.5512Y-16.8407Z1.5385I-0.0718J0.0000
G3X8.6948Y-16.8407Z1.5385I0.0718J0.0000
G1 X8.6771 Y-16.7937 Z1.5385
G1 X8.6738 Y-16.7900 Z1.5357
G1 X8.6677 Y-16.7846 Z1.5313
G1 X8.6612 Y-16.7799 Z1.5268
G1 X8.6541 Y-16.7760 Z1.5223
G1 X8.6467 Y-16.7730 Z1.5179
G1 X8.6390 Y-16.7707 Z1.5134
G1 X8.6310 Y-16.7694 Z1.5090
G1 X8.6230 Y-16.7689 Z1.5045
G1 X8.6150 Y-16.7694 Z1.5000
G1 X8.6070 Y-16.7707 Z1.4956
G1 X8.5993 Y-16.7730 Z1.4911
G1 X8.5919 Y-16.7760 Z1.4867
G1 X8.5848 Y-16.7799 Z1.4822
G1 X8.5782 Y-16.7846 Z1.4777
G1 X8.5722 Y-16.7900 Z1.4733
G1 X8.5669 Y-16.7960 Z1.4688
G1 X8.5622 Y-16.8025 Z1.4643
G1 X8.5583 Y-16.8096 Z1.4599
G1 X8.5553 Y-16.8170 Z1.4554
G1 X8.5530 Y-16.8247 Z1.4510
G1 X8.5517 Y-16.8327 Z1.4465
G1 X8.5512 Y-16.8407 Z1.4420
G1 X8.5517 Y-16.8488 Z1.4376
G1 X8.5530 Y-16.8567 Z1.4331
G1 X8.5553 Y-16.8644 Z1.4286
G1 X8.5583 Y-16.8719 Z1.4242
G1 X8.5622 Y-16.8789 Z1.4197
G1 X8.5669 Y-16.8855 Z1.4153
G1 X8.5722 Y-16.8915 Z1.4108
G1 X8.5782 Y-16.8968 Z1.4063
G1 X8.5848 Y-16.9015 Z1.4019
G1 X8.5919 Y-16.9054 Z1.3974
G1 X8.5993 Y-16.9085 Z1.3930
G1 X8.6070 Y-16.9107 Z1.3885
G1 X8.6150 Y-16.9120 Z1.3840
G1 X8.6230 Y-16.9125 Z1.3796
G1 X8.6310 Y-16.9120 Z1.3751
G1 X8.6390 Y-16.9107 Z1.3706
G1 X8.6467 Y-16.9085 Z1.3662
G1 X8.6541 Y-16.9054 Z1.3617
G1 X8.6612 Y-16.9015 Z1.3573
G1 X8.6677 Y-16.8968 Z1.3528
G1 X8.6738 Y-16.8915 Z1.3483
G1 X8.6791 Y-16.8855 Z1.3439
G1 X8.6838 Y-16.8789 Z1.3394
G1 X8.6877 Y-16.8719 Z1.3349
G1 X8.6907 Y-16.8644 Z1.3305
G1 X8.6930 Y-16.8567 Z1.3260
G1 X8.6943 Y-16.8488 Z1.3216
G1 X8.6948 Y-16.8407 Z1.3171
G3X8.5512Y-16.8407Z1.3171I-0.0718J0.0000
G3X8.6948Y-16.8407Z1.3171I0.0718J0.0000
G1 X8.6771 Y-16.7937 Z1.3171
G1 X8.6738 Y-16.7900 Z1.3143
G1 X8.6677 Y-16.7846 Z1.3098
G1 X8.6612 Y-16.7799 Z1.3054
G1 X8.6541 Y-16.7760 Z1.3009
G1 X8.6467 Y-16.7730 Z1.2964
G1 X8.6390 Y-16.7707 Z1.2920
G1 X8.6310 Y-16.7694 Z1.2875
G1 X8.6230 Y-16.7689 Z1.2831
G1 X8.6150 Y-16.7694 Z1.2786
G1 X8.6070 Y-16.7707 Z1.2741
G1 X8.5993 Y-16.7730 Z1.2697
G1 X8.5919 Y-16.7760 Z1.2652
G1 X8.5848 Y-16.7799 Z1.2607
G1 X8.5782 Y-16.7846 Z1.2563
G1 X8.5722 Y-16.7900 Z1.2518
G1 X8.5669 Y-16.7960 Z1.2474
G1 X8.5622 Y-16.8025 Z1.2429
G1 X8.5583 Y-16.8096 Z1.2384
G1 X8.5553 Y-16.8170 Z1.2340
G1 X8.5530 Y-16.8247 Z1.2295
G1 X8.5517 Y-16.8327 Z1.2250
G1 X8.5512 Y-16.8407 Z1.2206
G1 X8.5517 Y-16.8488 Z1.2161
G1 X8.5530 Y-16.8567 Z1.2117
G1 X8.5553 Y-16.8644 Z1.2072
G1 X8.5583 Y-16.8719 Z1.2027
G1 X8.5622 Y-16.8789 Z1.1983
G1 X8.5669 Y-16.8855 Z1.1938
G1 X8.5722 Y-16.8915 Z1.1894
G1 X8.5782 Y-16.8968 Z1.1849
G1 X8.5848 Y-16.9015 Z1.1804
G1 X8.5919 Y-16.9054 Z1.1760
G1 X8.5993 Y-16.9085 Z1.1715
G1 X8.6070 Y-16.9107 Z1.1670
G1 X8.6150 Y-16.9120 Z1.1626
G1 X8.6230 Y-16.9125 Z1.1581
G1 X8.6310 Y-16.9120 Z1.1537
G1 X8.6390 Y-16.9107 Z1.1492
G1 X8.6467 Y-16.9085 Z1.1447
G1 X8.6541 Y-16.9054 Z1.1403
G1 X8.6612 Y-16.9015 Z1.1358
G1 X8.6677 Y-16.8968 Z1.1313
G1 X8.6738 Y-16.8915 Z1.1269
G1 X8.6791 Y-16.8855 Z1.1224
G1 X8.6838 Y-16.8789 Z1.1180
G1 X8.6877 Y-16.8719 Z1.1135
G1 X8.6907 Y-16.8644 Z1.1090
G1 X8.6930 Y-16.8567 Z1.1046
G1 X8.6943 Y-16.8488 Z1.1001
G1 X8.6948 Y-16.8407 Z1.0956
G3X8.5512Y-16.8407Z1.0956I-0.0718J0.0000
G3X8.6948Y-16.8407Z1.0956I0.0718J0.0000
G1 X8.6771 Y-16.7937 Z1.0956
G1 X8.6738 Y-16.7900 Z1.0928
G1 X8.6677 Y-16.7846 Z1.0884
G1 X8.6612 Y-16.7799 Z1.0839
G1 X8.6541 Y-16.7760 Z1.0794
G1 X8.6467 Y-16.7730 Z1.0750
G1 X8.6390 Y-16.7707 Z1.0705
G1 X8.6310 Y-16.7694 Z1.0661
G1 X8.6230 Y-16.7689 Z1.0616
G1 X8.6150 Y-16.7694 Z1.0571
G1 X8.6070 Y-16.7707 Z1.0527
G1 X8.5993 Y-16.7730 Z1.0482
G1 X8.5919 Y-16.7760 Z1.0438
G1 X8.5848 Y-16.7799 Z1.0393
G1 X8.5782 Y-16.7846 Z1.0348
G1 X8.5722 Y-16.7900 Z1.0304
G1 X8.5669 Y-16.7960 Z1.0259
G1 X8.5622 Y-16.8025 Z1.0214
G1 X8.5583 Y-16.8096 Z1.0170
G1 X8.5553 Y-16.8170 Z1.0125
G1 X8.5530 Y-16.8247 Z1.0081
G1 X8.5517 Y-16.8327 Z1.0036
G1 X8.5512 Y-16.8407 Z0.9991
G1 X8.5517 Y-16.8488 Z0.9947
G1 X8.5530 Y-16.8567 Z0.9902
G1 X8.5553 Y-16.8644 Z0.9857
G1 X8.5583 Y-16.8719 Z0.9813
G1 X8.5622 Y-16.8789 Z0.9768
G1 X8.5669 Y-16.8855 Z0.9724
G1 X8.5722 Y-16.8915 Z0.9679
G1 X8.5782 Y-16.8968 Z0.9634
G1 X8.5848 Y-16.9015 Z0.9590
G1 X8.5919 Y-16.9054 Z0.9545
G1 X8.5993 Y-16.9085 Z0.9501
G1 X8.6070 Y-16.9107 Z0.9456
G1 X8.6150 Y-16.9120 Z0.9411
G1 X8.6230 Y-16.9125 Z0.9367
G1 X8.6310 Y-16.9120 Z0.9322
G1 X8.6390 Y-16.9107 Z0.9277
G1 X8.6467 Y-16.9085 Z0.9233
G1 X8.6541 Y-16.9054 Z0.9188
G1 X8.6612 Y-16.9015 Z0.9144
G1 X8.6677 Y-16.8968 Z0.9099
G1 X8.6738 Y-16.8915 Z0.9054
G1 X8.6791 Y-16.8855 Z0.9010
G1 X8.6838 Y-16.8789 Z0.8965
G1 X8.6877 Y-16.8719 Z0.8920
G1 X8.6907 Y-16.8644 Z0.8876
G1 X8.6930 Y-16.8567 Z0.8831
G1 X8.6943 Y-16.8488 Z0.8787
G1 X8.6948 Y-16.8407 Z0.8742
G3X8.5512Y-16.8407Z0.8742I-0.0718J0.0000
G3X8.6948Y-16.8407Z0.8742I0.0718J0.0000
G1 X8.6230 Y-16.8407 Z0.8742
G0 Z4.0000
G0 X8.6230 Y-16.8407 
M5
G53 Z
G0 X2Y0
( END FILE AS-Trem-Posts-front-07.nc )
( BEGIN FILE top-control-front-01.ncTNUM: 11 )
( Lefty:False Nunits:1 )
( cline: 9.733 delta:15.5 )
( start_unit: 1 num_units: 1)
( MOP:  top-control-front-01 )
( FILE: G:\Shared drives\AlloyProjectFiles\Customer CAD files\Alloy-Standard-Builds-CAM\s-in\Control\top-control-front-01.nc)
G90
(  BEGIN TOOL LIST )
(  TOOL 11 - Downcut PT750 ROUGH - DESC: 0.7500 DIA, 2 FLUTE,  CARBIDE MAT )
(  ENDOF TOOL LIST )
( top-control-front-01)
T11
S14000
M3
G0 Z4.0000
G0 X13.1894 Y-15.7394 
G1 X13.1894 Y-15.7394 Z1.7500 F75.
G1 X12.9525 Y-15.4591 Z1.6164 F50.
G1 X12.7273 Y-15.6944 Z1.4979
G1 X13.0243 Y-15.8550 Z1.3750
G1 X13.3213 Y-16.0157 Z1.3750 F150.
G17
G2X13.3315Y-15.9075Z1.3750I1.7217J-0.1072
G1 X12.9525 Y-15.4591 Z1.3750
G1 X12.7273 Y-15.6944 Z1.3750
G1 X13.0243 Y-15.8550 Z1.3750
G1 X13.0257 Y-15.8525 Z1.3750
G1 X13.1479 Y-15.9310 Z1.3750
G1 X13.2099 Y-15.9691 Z1.3750
G1 X13.2683 Y-16.0117 Z1.3750
G1 X13.3015 Y-16.0282 Z1.3750
G1 X13.3206 Y-16.0317 Z1.3750
G1 X13.3391 Y-16.0305 Z1.3750
G1 X13.3550 Y-16.0238 Z1.3750
G1 X13.3666 Y-16.0111 Z1.3750
G1 X13.3803 Y-15.9750 Z1.3750
G1 X13.3873 Y-15.9377 Z1.3750
G1 X13.3883 Y-15.9022 Z1.3750
G1 X13.3812 Y-15.8668 Z1.3750
G1 X13.3667 Y-15.8330 Z1.3750
G1 X13.1965 Y-15.5975 Z1.3750
G1 X13.1109 Y-15.4801 Z1.3750
G1 X13.0676 Y-15.4218 Z1.3750
G1 X13.0446 Y-15.3937 Z1.3750
G1 X13.0184 Y-15.3682 Z1.3750
G1 X12.9879 Y-15.3478 Z1.3750
G1 X12.9534 Y-15.3367 Z1.3750
G1 X12.9167 Y-15.3372 Z1.3750
G1 X12.8816 Y-15.3479 Z1.3750
G1 X12.8501 Y-15.3660 Z1.3750
G1 X12.8209 Y-15.3880 Z1.3750
G1 X12.7661 Y-15.4356 Z1.3750
G1 X12.6585 Y-15.5332 Z1.3750
G1 X12.6076 Y-15.5851 Z1.3750
G1 X12.5860 Y-15.6144 Z1.3750
G1 X12.5694 Y-15.6468 Z1.3750
G1 X12.5593 Y-15.6819 Z1.3750
G1 X12.5567 Y-15.7183 Z1.3750
G1 X12.5618 Y-15.7544 Z1.3750
G1 X12.5744 Y-15.7887 Z1.3750
G1 X12.5935 Y-15.8198 Z1.3750
G1 X12.6178 Y-15.8468 Z1.3750
G1 X12.6751 Y-15.8916 Z1.3750
G1 X12.9196 Y-16.0486 Z1.3750
G1 X12.9179 Y-16.0519 Z1.3750
G1 X13.3911 Y-16.3352 Z1.3750
G1 X13.5056 Y-16.4110 Z1.3750
G1 X13.5366 Y-16.4331 Z1.3750
G1 X13.5527 Y-16.4405 Z1.3750
G1 X13.5688 Y-16.4427 Z1.3750
G1 X13.5846 Y-16.4383 Z1.3750
G1 X13.5990 Y-16.4283 Z1.3750
G1 X13.6106 Y-16.4143 Z1.3750
G1 X13.6183 Y-16.3981 Z1.3750
G1 X13.6204 Y-16.3638 Z1.3750
G1 X13.6143 Y-16.3288 Z1.3750
G1 X13.6089 Y-16.2600 Z1.3750
G1 X13.6074 Y-16.1223 Z1.3750
G1 X13.6198 Y-15.9851 Z1.3750
G1 X13.6306 Y-15.9170 Z1.3750
G1 X13.6377 Y-15.8484 Z1.3750
G1 X13.6328 Y-15.8142 Z1.3750
G1 X13.6213 Y-15.7814 Z1.3750
G1 X13.6042 Y-15.7513 Z1.3750
G1 X13.5837 Y-15.7237 Z1.3750
G1 X13.4989 Y-15.6150 Z1.3750
G1 X13.1612 Y-15.1792 Z1.3750
G1 X13.0761 Y-15.0709 Z1.3750
G1 X13.0520 Y-15.0459 Z1.3750
G1 X13.0248 Y-15.0244 Z1.3750
G1 X12.9938 Y-15.0091 Z1.3750
G1 X12.9595 Y-15.0021 Z1.3750
G1 X12.9249 Y-15.0042 Z1.3750
G1 X12.8923 Y-15.0155 Z1.3750
G1 X12.8623 Y-15.0334 Z1.3750
G1 X12.8351 Y-15.0548 Z1.3750
G1 X12.7353 Y-15.1497 Z1.3750
G1 X12.3374 Y-15.5313 Z1.3750
G1 X12.2399 Y-15.6287 Z1.3750
G1 X12.2191 Y-15.6562 Z1.3750
G1 X12.2020 Y-15.6863 Z1.3750
G1 X12.1900 Y-15.7188 Z1.3750
G1 X12.1845 Y-15.7530 Z1.3750
G1 X12.1860 Y-15.7877 Z1.3750
G1 X12.1944 Y-15.8213 Z1.3750
G1 X12.2095 Y-15.8526 Z1.3750
G1 X12.2299 Y-15.8806 Z1.3750
G1 X12.2815 Y-15.9263 Z1.3750
G1 X12.3395 Y-15.9636 Z1.3750
G1 X12.8126 Y-16.2465 Z1.3750
G1 X12.8107 Y-16.2501 Z1.3750
G1 X13.2420 Y-16.4978 Z1.3750
G1 X13.3479 Y-16.5629 Z1.3750
G1 X13.4481 Y-16.6365 Z1.3750
G1 X13.6319 Y-16.8039 Z1.3750
G1 X13.9955 Y-17.1433 Z1.3750
G1 X14.1780 Y-17.3126 Z1.3750
G1 X14.2219 Y-17.3559 Z1.3750
G1 X14.2430 Y-17.3779 Z1.3750
G1 X14.2683 Y-17.3967 Z1.3750
G1 X14.3008 Y-17.4087 Z1.3750
G1 X14.3331 Y-17.4086 Z1.3750
G1 X14.3455 Y-17.4021 Z1.3750
G1 X14.3539 Y-17.3908 Z1.3750
G1 X14.3596 Y-17.3587 Z1.3750
G1 X14.3542 Y-17.3243 Z1.3750
G1 X14.3415 Y-17.2954 Z1.3750
G1 X14.3090 Y-17.2440 Z1.3750
G1 X14.2476 Y-17.1355 Z1.3750
G1 X14.1234 Y-16.9202 Z1.3750
G1 X14.0011 Y-16.7036 Z1.3750
G1 X13.9488 Y-16.5908 Z1.3750
G1 X13.9092 Y-16.4730 Z1.3750
G1 X13.8817 Y-16.3518 Z1.3750
G1 X13.8665 Y-16.2284 Z1.3750
G1 X13.8645 Y-16.1041 Z1.3750
G1 X13.8764 Y-15.9804 Z1.3750
G1 X13.9005 Y-15.8583 Z1.3750
G1 X13.9096 Y-15.7969 Z1.3750
G1 X13.9074 Y-15.7656 Z1.3750
G1 X13.8999 Y-15.7351 Z1.3750
G1 X13.8873 Y-15.7067 Z1.3750
G1 X13.8704 Y-15.6806 Z1.3750
G1 X13.8315 Y-15.6317 Z1.3750
G1 X13.7538 Y-15.5347 Z1.3750
G1 X13.1309 Y-14.7592 Z1.3750
G1 X13.0899 Y-14.7126 Z1.3750
G1 X13.0412 Y-14.6730 Z1.3750
G1 X13.0131 Y-14.6594 Z1.3750
G1 X12.9827 Y-14.6524 Z1.3750
G1 X12.9512 Y-14.6526 Z1.3750
G1 X12.9205 Y-14.6593 Z1.3750
G1 X12.8920 Y-14.6720 Z1.3750
G1 X12.8659 Y-14.6891 Z1.3750
G1 X12.8184 Y-14.7297 Z1.3750
G1 X12.7300 Y-14.8170 Z1.3750
G1 X12.3770 Y-15.1674 Z1.3750
G1 X12.0240 Y-15.5178 Z1.3750
G1 X11.9358 Y-15.6054 Z1.3750
G1 X11.8927 Y-15.6503 Z1.3750
G1 X11.8538 Y-15.6988 Z1.3750
G1 X11.8250 Y-15.7541 Z1.3750
G1 X11.8170 Y-15.7843 Z1.3750
G1 X11.8141 Y-15.8155 Z1.3750
G1 X11.8167 Y-15.8467 Z1.3750
G1 X11.8249 Y-15.8769 Z1.3750
G1 X11.8381 Y-15.9053 Z1.3750
G1 X11.8557 Y-15.9312 Z1.3750
G1 X11.9002 Y-15.9748 Z1.3750
G1 X11.9514 Y-16.0102 Z1.3750
G1 X12.0587 Y-16.0729 Z1.3750
G1 X12.2744 Y-16.1967 Z1.3750
G1 X12.7058 Y-16.4443 Z1.3750
G1 X12.7034 Y-16.4487 Z1.3750
G1 X12.8896 Y-16.5493 Z1.3750
G1 X13.2351 Y-16.7361 Z1.3750
G1 X13.3150 Y-16.7920 Z1.3750
G1 X14.6014 Y-17.9332 Z1.3750
G3X14.8108Y-17.7580Z1.3750I0.0916J0.1033
G1 X14.1467 Y-16.6699 Z1.3750
G2X14.0530Y-15.7729Z1.3750I0.8963J0.5470
G3X14.0396Y-15.6995Z1.3750I-0.0707J0.0250
G1 X12.9929 Y-14.4615 Z1.3750
G3X12.9736Y-14.4609Z1.3750I-0.0099J-0.0084
G1 X11.6275 Y-15.8671 Z1.3750
G1 X12.7034 Y-16.4487 Z1.3750
G0 Z1.9975
G0 X12.7034 Y-16.4487 
G0 Z1.9975
G0 X13.1894 Y-15.7394 
G1 X13.1894 Y-15.7394 Z1.3750 F75.
G1 X12.9525 Y-15.4591 Z1.2414 F50.
G1 X12.7273 Y-15.6944 Z1.1229
G1 X13.0243 Y-15.8550 Z1.0000
G1 X13.3213 Y-16.0157 Z1.0000 F150.
G2X13.3315Y-15.9075Z1.0000I1.7217J-0.1072
G1 X12.9525 Y-15.4591 Z1.0000
G1 X12.7273 Y-15.6944 Z1.0000
G1 X13.0243 Y-15.8550 Z1.0000
G1 X13.0257 Y-15.8525 Z1.0000
G1 X13.1479 Y-15.9310 Z1.0000
G1 X13.2099 Y-15.9691 Z1.0000
G1 X13.2683 Y-16.0117 Z1.0000
G1 X13.3015 Y-16.0282 Z1.0000
G1 X13.3206 Y-16.0317 Z1.0000
G1 X13.3391 Y-16.0305 Z1.0000
G1 X13.3550 Y-16.0238 Z1.0000
G1 X13.3666 Y-16.0111 Z1.0000
G1 X13.3803 Y-15.9750 Z1.0000
G1 X13.3873 Y-15.9377 Z1.0000
G1 X13.3883 Y-15.9022 Z1.0000
G1 X13.3812 Y-15.8668 Z1.0000
G1 X13.3667 Y-15.8330 Z1.0000
G1 X13.1965 Y-15.5975 Z1.0000
G1 X13.1109 Y-15.4801 Z1.0000
G1 X13.0676 Y-15.4218 Z1.0000
G1 X13.0446 Y-15.3937 Z1.0000
G1 X13.0184 Y-15.3682 Z1.0000
G1 X12.9879 Y-15.3478 Z1.0000
G1 X12.9534 Y-15.3367 Z1.0000
G1 X12.9167 Y-15.3372 Z1.0000
G1 X12.8816 Y-15.3479 Z1.0000
G1 X12.8501 Y-15.3660 Z1.0000
G1 X12.8209 Y-15.3880 Z1.0000
G1 X12.7661 Y-15.4356 Z1.0000
G1 X12.6585 Y-15.5332 Z1.0000
G1 X12.6076 Y-15.5851 Z1.0000
G1 X12.5860 Y-15.6144 Z1.0000
G1 X12.5694 Y-15.6468 Z1.0000
G1 X12.5593 Y-15.6819 Z1.0000
G1 X12.5567 Y-15.7183 Z1.0000
G1 X12.5618 Y-15.7544 Z1.0000
G1 X12.5744 Y-15.7887 Z1.0000
G1 X12.5935 Y-15.8198 Z1.0000
G1 X12.6178 Y-15.8468 Z1.0000
G1 X12.6751 Y-15.8916 Z1.0000
G1 X12.9196 Y-16.0486 Z1.0000
G1 X12.9179 Y-16.0519 Z1.0000
G1 X13.3911 Y-16.3352 Z1.0000
G1 X13.5056 Y-16.4110 Z1.0000
G1 X13.5366 Y-16.4331 Z1.0000
G1 X13.5527 Y-16.4405 Z1.0000
G1 X13.5688 Y-16.4427 Z1.0000
G1 X13.5846 Y-16.4383 Z1.0000
G1 X13.5990 Y-16.4283 Z1.0000
G1 X13.6106 Y-16.4143 Z1.0000
G1 X13.6183 Y-16.3981 Z1.0000
G1 X13.6204 Y-16.3638 Z1.0000
G1 X13.6143 Y-16.3288 Z1.0000
G1 X13.6089 Y-16.2600 Z1.0000
G1 X13.6074 Y-16.1223 Z1.0000
G1 X13.6198 Y-15.9851 Z1.0000
G1 X13.6306 Y-15.9170 Z1.0000
G1 X13.6377 Y-15.8484 Z1.0000
G1 X13.6328 Y-15.8142 Z1.0000
G1 X13.6213 Y-15.7814 Z1.0000
G1 X13.6042 Y-15.7513 Z1.0000
G1 X13.5837 Y-15.7237 Z1.0000
G1 X13.4989 Y-15.6150 Z1.0000
G1 X13.1612 Y-15.1792 Z1.0000
G1 X13.0761 Y-15.0709 Z1.0000
G1 X13.0520 Y-15.0459 Z1.0000
G1 X13.0248 Y-15.0244 Z1.0000
G1 X12.9938 Y-15.0091 Z1.0000
G1 X12.9595 Y-15.0021 Z1.0000
G1 X12.9249 Y-15.0042 Z1.0000
G1 X12.8923 Y-15.0155 Z1.0000
G1 X12.8623 Y-15.0334 Z1.0000
G1 X12.8351 Y-15.0548 Z1.0000
G1 X12.7353 Y-15.1497 Z1.0000
G1 X12.3374 Y-15.5313 Z1.0000
G1 X12.2399 Y-15.6287 Z1.0000
G1 X12.2191 Y-15.6562 Z1.0000
G1 X12.2020 Y-15.6863 Z1.0000
G1 X12.1900 Y-15.7188 Z1.0000
G1 X12.1845 Y-15.7530 Z1.0000
G1 X12.1860 Y-15.7877 Z1.0000
G1 X12.1944 Y-15.8213 Z1.0000
G1 X12.2095 Y-15.8526 Z1.0000
G1 X12.2299 Y-15.8806 Z1.0000
G1 X12.2815 Y-15.9263 Z1.0000
G1 X12.3395 Y-15.9636 Z1.0000
G1 X12.8126 Y-16.2465 Z1.0000
G1 X12.8107 Y-16.2501 Z1.0000
G1 X13.2420 Y-16.4978 Z1.0000
G1 X13.3479 Y-16.5629 Z1.0000
G1 X13.4481 Y-16.6365 Z1.0000
G1 X13.6319 Y-16.8039 Z1.0000
G1 X13.9955 Y-17.1433 Z1.0000
G1 X14.1780 Y-17.3126 Z1.0000
G1 X14.2219 Y-17.3559 Z1.0000
G1 X14.2430 Y-17.3779 Z1.0000
G1 X14.2683 Y-17.3967 Z1.0000
G1 X14.3008 Y-17.4087 Z1.0000
G1 X14.3331 Y-17.4086 Z1.0000
G1 X14.3455 Y-17.4021 Z1.0000
G1 X14.3539 Y-17.3908 Z1.0000
G1 X14.3596 Y-17.3587 Z1.0000
G1 X14.3542 Y-17.3243 Z1.0000
G1 X14.3415 Y-17.2954 Z1.0000
G1 X14.3090 Y-17.2440 Z1.0000
G1 X14.2476 Y-17.1355 Z1.0000
G1 X14.1234 Y-16.9202 Z1.0000
G1 X14.0011 Y-16.7036 Z1.0000
G1 X13.9488 Y-16.5908 Z1.0000
G1 X13.9092 Y-16.4730 Z1.0000
G1 X13.8817 Y-16.3518 Z1.0000
G1 X13.8665 Y-16.2284 Z1.0000
G1 X13.8645 Y-16.1041 Z1.0000
G1 X13.8764 Y-15.9804 Z1.0000
G1 X13.9005 Y-15.8583 Z1.0000
G1 X13.9096 Y-15.7969 Z1.0000
G1 X13.9074 Y-15.7656 Z1.0000
G1 X13.8999 Y-15.7351 Z1.0000
G1 X13.8873 Y-15.7067 Z1.0000
G1 X13.8704 Y-15.6806 Z1.0000
G1 X13.8315 Y-15.6317 Z1.0000
G1 X13.7538 Y-15.5347 Z1.0000
G1 X13.1309 Y-14.7592 Z1.0000
G1 X13.0899 Y-14.7126 Z1.0000
G1 X13.0412 Y-14.6730 Z1.0000
G1 X13.0131 Y-14.6594 Z1.0000
G1 X12.9827 Y-14.6524 Z1.0000
G1 X12.9512 Y-14.6526 Z1.0000
G1 X12.9205 Y-14.6593 Z1.0000
G1 X12.8920 Y-14.6720 Z1.0000
G1 X12.8659 Y-14.6891 Z1.0000
G1 X12.8184 Y-14.7297 Z1.0000
G1 X12.7300 Y-14.8170 Z1.0000
G1 X12.3770 Y-15.1674 Z1.0000
G1 X12.0240 Y-15.5178 Z1.0000
G1 X11.9358 Y-15.6054 Z1.0000
G1 X11.8927 Y-15.6503 Z1.0000
G1 X11.8538 Y-15.6988 Z1.0000
G1 X11.8250 Y-15.7541 Z1.0000
G1 X11.8170 Y-15.7843 Z1.0000
G1 X11.8141 Y-15.8155 Z1.0000
G1 X11.8167 Y-15.8467 Z1.0000
G1 X11.8249 Y-15.8769 Z1.0000
G1 X11.8381 Y-15.9053 Z1.0000
G1 X11.8557 Y-15.9312 Z1.0000
G1 X11.9002 Y-15.9748 Z1.0000
G1 X11.9514 Y-16.0102 Z1.0000
G1 X12.0587 Y-16.0729 Z1.0000
G1 X12.2744 Y-16.1967 Z1.0000
G1 X12.7058 Y-16.4443 Z1.0000
G1 X12.7034 Y-16.4487 Z1.0000
G1 X12.8896 Y-16.5493 Z1.0000
G1 X13.2351 Y-16.7361 Z1.0000
G1 X13.3150 Y-16.7920 Z1.0000
G1 X14.6014 Y-17.9332 Z1.0000
G3X14.8108Y-17.7580Z1.0000I0.0916J0.1033
G1 X14.1467 Y-16.6699 Z1.0000
G2X14.0530Y-15.7729Z1.0000I0.8963J0.5470
G3X14.0396Y-15.6995Z1.0000I-0.0707J0.0250
G1 X12.9929 Y-14.4615 Z1.0000
G3X12.9736Y-14.4609Z1.0000I-0.0099J-0.0084
G1 X11.6275 Y-15.8671 Z1.0000
G1 X12.7034 Y-16.4487 Z1.0000
G0 Z1.9975
G0 X12.7034 Y-16.4487 
G0 Z1.9975
G0 X13.1894 Y-15.7394 
G1 X13.1894 Y-15.7394 Z1.0000 F75.
G1 X12.9525 Y-15.4591 Z0.8664 F50.
G1 X12.7273 Y-15.6944 Z0.7479
G1 X13.0243 Y-15.8550 Z0.6250
G1 X13.3213 Y-16.0157 Z0.6250 F150.
G2X13.3315Y-15.9075Z0.6250I1.7217J-0.1072
G1 X12.9525 Y-15.4591 Z0.6250
G1 X12.7273 Y-15.6944 Z0.6250
G1 X13.0243 Y-15.8550 Z0.6250
G1 X13.0257 Y-15.8525 Z0.6250
G1 X13.1479 Y-15.9310 Z0.6250
G1 X13.2099 Y-15.9691 Z0.6250
G1 X13.2683 Y-16.0117 Z0.6250
G1 X13.3015 Y-16.0282 Z0.6250
G1 X13.3206 Y-16.0317 Z0.6250
G1 X13.3391 Y-16.0305 Z0.6250
G1 X13.3550 Y-16.0238 Z0.6250
G1 X13.3666 Y-16.0111 Z0.6250
G1 X13.3803 Y-15.9750 Z0.6250
G1 X13.3873 Y-15.9377 Z0.6250
G1 X13.3883 Y-15.9022 Z0.6250
G1 X13.3812 Y-15.8668 Z0.6250
G1 X13.3667 Y-15.8330 Z0.6250
G1 X13.1965 Y-15.5975 Z0.6250
G1 X13.1109 Y-15.4801 Z0.6250
G1 X13.0676 Y-15.4218 Z0.6250
G1 X13.0446 Y-15.3937 Z0.6250
G1 X13.0184 Y-15.3682 Z0.6250
G1 X12.9879 Y-15.3478 Z0.6250
G1 X12.9534 Y-15.3367 Z0.6250
G1 X12.9167 Y-15.3372 Z0.6250
G1 X12.8816 Y-15.3479 Z0.6250
G1 X12.8501 Y-15.3660 Z0.6250
G1 X12.8209 Y-15.3880 Z0.6250
G1 X12.7661 Y-15.4356 Z0.6250
G1 X12.6585 Y-15.5332 Z0.6250
G1 X12.6076 Y-15.5851 Z0.6250
G1 X12.5860 Y-15.6144 Z0.6250
G1 X12.5694 Y-15.6468 Z0.6250
G1 X12.5593 Y-15.6819 Z0.6250
G1 X12.5567 Y-15.7183 Z0.6250
G1 X12.5618 Y-15.7544 Z0.6250
G1 X12.5744 Y-15.7887 Z0.6250
G1 X12.5935 Y-15.8198 Z0.6250
G1 X12.6178 Y-15.8468 Z0.6250
G1 X12.6751 Y-15.8916 Z0.6250
G1 X12.9196 Y-16.0486 Z0.6250
G1 X12.9179 Y-16.0519 Z0.6250
G1 X13.3911 Y-16.3352 Z0.6250
G1 X13.5056 Y-16.4110 Z0.6250
G1 X13.5366 Y-16.4331 Z0.6250
G1 X13.5527 Y-16.4405 Z0.6250
G1 X13.5688 Y-16.4427 Z0.6250
G1 X13.5846 Y-16.4383 Z0.6250
G1 X13.5990 Y-16.4283 Z0.6250
G1 X13.6106 Y-16.4143 Z0.6250
G1 X13.6183 Y-16.3981 Z0.6250
G1 X13.6204 Y-16.3638 Z0.6250
G1 X13.6143 Y-16.3288 Z0.6250
G1 X13.6089 Y-16.2600 Z0.6250
G1 X13.6074 Y-16.1223 Z0.6250
G1 X13.6198 Y-15.9851 Z0.6250
G1 X13.6306 Y-15.9170 Z0.6250
G1 X13.6377 Y-15.8484 Z0.6250
G1 X13.6328 Y-15.8142 Z0.6250
G1 X13.6213 Y-15.7814 Z0.6250
G1 X13.6042 Y-15.7513 Z0.6250
G1 X13.5837 Y-15.7237 Z0.6250
G1 X13.4989 Y-15.6150 Z0.6250
G1 X13.1612 Y-15.1792 Z0.6250
G1 X13.0761 Y-15.0709 Z0.6250
G1 X13.0520 Y-15.0459 Z0.6250
G1 X13.0248 Y-15.0244 Z0.6250
G1 X12.9938 Y-15.0091 Z0.6250
G1 X12.9595 Y-15.0021 Z0.6250
G1 X12.9249 Y-15.0042 Z0.6250
G1 X12.8923 Y-15.0155 Z0.6250
G1 X12.8623 Y-15.0334 Z0.6250
G1 X12.8351 Y-15.0548 Z0.6250
G1 X12.7353 Y-15.1497 Z0.6250
G1 X12.3374 Y-15.5313 Z0.6250
G1 X12.2399 Y-15.6287 Z0.6250
G1 X12.2191 Y-15.6562 Z0.6250
G1 X12.2020 Y-15.6863 Z0.6250
G1 X12.1900 Y-15.7188 Z0.6250
G1 X12.1845 Y-15.7530 Z0.6250
G1 X12.1860 Y-15.7877 Z0.6250
G1 X12.1944 Y-15.8213 Z0.6250
G1 X12.2095 Y-15.8526 Z0.6250
G1 X12.2299 Y-15.8806 Z0.6250
G1 X12.2815 Y-15.9263 Z0.6250
G1 X12.3395 Y-15.9636 Z0.6250
G1 X12.8126 Y-16.2465 Z0.6250
G1 X12.8107 Y-16.2501 Z0.6250
G1 X13.2420 Y-16.4978 Z0.6250
G1 X13.3479 Y-16.5629 Z0.6250
G1 X13.4481 Y-16.6365 Z0.6250
G1 X13.6319 Y-16.8039 Z0.6250
G1 X13.9955 Y-17.1433 Z0.6250
G1 X14.1780 Y-17.3126 Z0.6250
G1 X14.2219 Y-17.3559 Z0.6250
G1 X14.2430 Y-17.3779 Z0.6250
G1 X14.2683 Y-17.3967 Z0.6250
G1 X14.3008 Y-17.4087 Z0.6250
G1 X14.3331 Y-17.4086 Z0.6250
G1 X14.3455 Y-17.4021 Z0.6250
G1 X14.3539 Y-17.3908 Z0.6250
G1 X14.3596 Y-17.3587 Z0.6250
G1 X14.3542 Y-17.3243 Z0.6250
G1 X14.3415 Y-17.2954 Z0.6250
G1 X14.3090 Y-17.2440 Z0.6250
G1 X14.2476 Y-17.1355 Z0.6250
G1 X14.1234 Y-16.9202 Z0.6250
G1 X14.0011 Y-16.7036 Z0.6250
G1 X13.9488 Y-16.5908 Z0.6250
G1 X13.9092 Y-16.4730 Z0.6250
G1 X13.8817 Y-16.3518 Z0.6250
G1 X13.8665 Y-16.2284 Z0.6250
G1 X13.8645 Y-16.1041 Z0.6250
G1 X13.8764 Y-15.9804 Z0.6250
G1 X13.9005 Y-15.8583 Z0.6250
G1 X13.9096 Y-15.7969 Z0.6250
G1 X13.9074 Y-15.7656 Z0.6250
G1 X13.8999 Y-15.7351 Z0.6250
G1 X13.8873 Y-15.7067 Z0.6250
G1 X13.8704 Y-15.6806 Z0.6250
G1 X13.8315 Y-15.6317 Z0.6250
G1 X13.7538 Y-15.5347 Z0.6250
G1 X13.1309 Y-14.7592 Z0.6250
G1 X13.0899 Y-14.7126 Z0.6250
G1 X13.0412 Y-14.6730 Z0.6250
G1 X13.0131 Y-14.6594 Z0.6250
G1 X12.9827 Y-14.6524 Z0.6250
G1 X12.9512 Y-14.6526 Z0.6250
G1 X12.9205 Y-14.6593 Z0.6250
G1 X12.8920 Y-14.6720 Z0.6250
G1 X12.8659 Y-14.6891 Z0.6250
G1 X12.8184 Y-14.7297 Z0.6250
G1 X12.7300 Y-14.8170 Z0.6250
G1 X12.3770 Y-15.1674 Z0.6250
G1 X12.0240 Y-15.5178 Z0.6250
G1 X11.9358 Y-15.6054 Z0.6250
G1 X11.8927 Y-15.6503 Z0.6250
G1 X11.8538 Y-15.6988 Z0.6250
G1 X11.8250 Y-15.7541 Z0.6250
G1 X11.8170 Y-15.7843 Z0.6250
G1 X11.8141 Y-15.8155 Z0.6250
G1 X11.8167 Y-15.8467 Z0.6250
G1 X11.8249 Y-15.8769 Z0.6250
G1 X11.8381 Y-15.9053 Z0.6250
G1 X11.8557 Y-15.9312 Z0.6250
G1 X11.9002 Y-15.9748 Z0.6250
G1 X11.9514 Y-16.0102 Z0.6250
G1 X12.0587 Y-16.0729 Z0.6250
G1 X12.2744 Y-16.1967 Z0.6250
G1 X12.7058 Y-16.4443 Z0.6250
G1 X12.7034 Y-16.4487 Z0.6250
G1 X12.8896 Y-16.5493 Z0.6250
G1 X13.2351 Y-16.7361 Z0.6250
G1 X13.3150 Y-16.7920 Z0.6250
G1 X14.6014 Y-17.9332 Z0.6250
G3X14.8108Y-17.7580Z0.6250I0.0916J0.1033
G1 X14.1467 Y-16.6699 Z0.6250
G2X14.0530Y-15.7729Z0.6250I0.8963J0.5470
G3X14.0396Y-15.6995Z0.6250I-0.0707J0.0250
G1 X12.9929 Y-14.4615 Z0.6250
G3X12.9736Y-14.4609Z0.6250I-0.0099J-0.0084
G1 X11.6275 Y-15.8671 Z0.6250
G1 X12.7034 Y-16.4487 Z0.6250
G0 Z1.9975
G0 X12.7034 Y-16.4487 
G0 Z1.9975
G0 X13.1894 Y-15.7394 
G1 X13.1894 Y-15.7394 Z0.6250 F75.
G1 X12.9525 Y-15.4591 Z0.4914 F50.
G1 X12.7273 Y-15.6944 Z0.3729
G1 X13.0243 Y-15.8550 Z0.2500
G1 X13.3213 Y-16.0157 Z0.2500 F150.
G2X13.3315Y-15.9075Z0.2500I1.7217J-0.1072
G1 X12.9525 Y-15.4591 Z0.2500
G1 X12.7273 Y-15.6944 Z0.2500
G1 X13.0243 Y-15.8550 Z0.2500
G1 X13.0257 Y-15.8525 Z0.2500
G1 X13.1479 Y-15.9310 Z0.2500
G1 X13.2099 Y-15.9691 Z0.2500
G1 X13.2683 Y-16.0117 Z0.2500
G1 X13.3015 Y-16.0282 Z0.2500
G1 X13.3206 Y-16.0317 Z0.2500
G1 X13.3391 Y-16.0305 Z0.2500
G1 X13.3550 Y-16.0238 Z0.2500
G1 X13.3666 Y-16.0111 Z0.2500
G1 X13.3803 Y-15.9750 Z0.2500
G1 X13.3873 Y-15.9377 Z0.2500
G1 X13.3883 Y-15.9022 Z0.2500
G1 X13.3812 Y-15.8668 Z0.2500
G1 X13.3667 Y-15.8330 Z0.2500
G1 X13.1965 Y-15.5975 Z0.2500
G1 X13.1109 Y-15.4801 Z0.2500
G1 X13.0676 Y-15.4218 Z0.2500
G1 X13.0446 Y-15.3937 Z0.2500
G1 X13.0184 Y-15.3682 Z0.2500
G1 X12.9879 Y-15.3478 Z0.2500
G1 X12.9534 Y-15.3367 Z0.2500
G1 X12.9167 Y-15.3372 Z0.2500
G1 X12.8816 Y-15.3479 Z0.2500
G1 X12.8501 Y-15.3660 Z0.2500
G1 X12.8209 Y-15.3880 Z0.2500
G1 X12.7661 Y-15.4356 Z0.2500
G1 X12.6585 Y-15.5332 Z0.2500
G1 X12.6076 Y-15.5851 Z0.2500
G1 X12.5860 Y-15.6144 Z0.2500
G1 X12.5694 Y-15.6468 Z0.2500
G1 X12.5593 Y-15.6819 Z0.2500
G1 X12.5567 Y-15.7183 Z0.2500
G1 X12.5618 Y-15.7544 Z0.2500
G1 X12.5744 Y-15.7887 Z0.2500
G1 X12.5935 Y-15.8198 Z0.2500
G1 X12.6178 Y-15.8468 Z0.2500
G1 X12.6751 Y-15.8916 Z0.2500
G1 X12.9196 Y-16.0486 Z0.2500
G1 X12.9179 Y-16.0519 Z0.2500
G1 X13.3911 Y-16.3352 Z0.2500
G1 X13.5056 Y-16.4110 Z0.2500
G1 X13.5366 Y-16.4331 Z0.2500
G1 X13.5527 Y-16.4405 Z0.2500
G1 X13.5688 Y-16.4427 Z0.2500
G1 X13.5846 Y-16.4383 Z0.2500
G1 X13.5990 Y-16.4283 Z0.2500
G1 X13.6106 Y-16.4143 Z0.2500
G1 X13.6183 Y-16.3981 Z0.2500
G1 X13.6204 Y-16.3638 Z0.2500
G1 X13.6143 Y-16.3288 Z0.2500
G1 X13.6089 Y-16.2600 Z0.2500
G1 X13.6074 Y-16.1223 Z0.2500
G1 X13.6198 Y-15.9851 Z0.2500
G1 X13.6306 Y-15.9170 Z0.2500
G1 X13.6377 Y-15.8484 Z0.2500
G1 X13.6328 Y-15.8142 Z0.2500
G1 X13.6213 Y-15.7814 Z0.2500
G1 X13.6042 Y-15.7513 Z0.2500
G1 X13.5837 Y-15.7237 Z0.2500
G1 X13.4989 Y-15.6150 Z0.2500
G1 X13.1612 Y-15.1792 Z0.2500
G1 X13.0761 Y-15.0709 Z0.2500
G1 X13.0520 Y-15.0459 Z0.2500
G1 X13.0248 Y-15.0244 Z0.2500
G1 X12.9938 Y-15.0091 Z0.2500
G1 X12.9595 Y-15.0021 Z0.2500
G1 X12.9249 Y-15.0042 Z0.2500
G1 X12.8923 Y-15.0155 Z0.2500
G1 X12.8623 Y-15.0334 Z0.2500
G1 X12.8351 Y-15.0548 Z0.2500
G1 X12.7353 Y-15.1497 Z0.2500
G1 X12.3374 Y-15.5313 Z0.2500
G1 X12.2399 Y-15.6287 Z0.2500
G1 X12.2191 Y-15.6562 Z0.2500
G1 X12.2020 Y-15.6863 Z0.2500
G1 X12.1900 Y-15.7188 Z0.2500
G1 X12.1845 Y-15.7530 Z0.2500
G1 X12.1860 Y-15.7877 Z0.2500
G1 X12.1944 Y-15.8213 Z0.2500
G1 X12.2095 Y-15.8526 Z0.2500
G1 X12.2299 Y-15.8806 Z0.2500
G1 X12.2815 Y-15.9263 Z0.2500
G1 X12.3395 Y-15.9636 Z0.2500
G1 X12.8126 Y-16.2465 Z0.2500
G1 X12.8107 Y-16.2501 Z0.2500
G1 X13.2420 Y-16.4978 Z0.2500
G1 X13.3479 Y-16.5629 Z0.2500
G1 X13.4481 Y-16.6365 Z0.2500
G1 X13.6319 Y-16.8039 Z0.2500
G1 X13.9955 Y-17.1433 Z0.2500
G1 X14.1780 Y-17.3126 Z0.2500
G1 X14.2219 Y-17.3559 Z0.2500
G1 X14.2430 Y-17.3779 Z0.2500
G1 X14.2683 Y-17.3967 Z0.2500
G1 X14.3008 Y-17.4087 Z0.2500
G1 X14.3331 Y-17.4086 Z0.2500
G1 X14.3455 Y-17.4021 Z0.2500
G1 X14.3539 Y-17.3908 Z0.2500
G1 X14.3596 Y-17.3587 Z0.2500
G1 X14.3542 Y-17.3243 Z0.2500
G1 X14.3415 Y-17.2954 Z0.2500
G1 X14.3090 Y-17.2440 Z0.2500
G1 X14.2476 Y-17.1355 Z0.2500
G1 X14.1234 Y-16.9202 Z0.2500
G1 X14.0011 Y-16.7036 Z0.2500
G1 X13.9488 Y-16.5908 Z0.2500
G1 X13.9092 Y-16.4730 Z0.2500
G1 X13.8817 Y-16.3518 Z0.2500
G1 X13.8665 Y-16.2284 Z0.2500
G1 X13.8645 Y-16.1041 Z0.2500
G1 X13.8764 Y-15.9804 Z0.2500
G1 X13.9005 Y-15.8583 Z0.2500
G1 X13.9096 Y-15.7969 Z0.2500
G1 X13.9074 Y-15.7656 Z0.2500
G1 X13.8999 Y-15.7351 Z0.2500
G1 X13.8873 Y-15.7067 Z0.2500
G1 X13.8704 Y-15.6806 Z0.2500
G1 X13.8315 Y-15.6317 Z0.2500
G1 X13.7538 Y-15.5347 Z0.2500
G1 X13.1309 Y-14.7592 Z0.2500
G1 X13.0899 Y-14.7126 Z0.2500
G1 X13.0412 Y-14.6730 Z0.2500
G1 X13.0131 Y-14.6594 Z0.2500
G1 X12.9827 Y-14.6524 Z0.2500
G1 X12.9512 Y-14.6526 Z0.2500
G1 X12.9205 Y-14.6593 Z0.2500
G1 X12.8920 Y-14.6720 Z0.2500
G1 X12.8659 Y-14.6891 Z0.2500
G1 X12.8184 Y-14.7297 Z0.2500
G1 X12.7300 Y-14.8170 Z0.2500
G1 X12.3770 Y-15.1674 Z0.2500
G1 X12.0240 Y-15.5178 Z0.2500
G1 X11.9358 Y-15.6054 Z0.2500
G1 X11.8927 Y-15.6503 Z0.2500
G1 X11.8538 Y-15.6988 Z0.2500
G1 X11.8250 Y-15.7541 Z0.2500
G1 X11.8170 Y-15.7843 Z0.2500
G1 X11.8141 Y-15.8155 Z0.2500
G1 X11.8167 Y-15.8467 Z0.2500
G1 X11.8249 Y-15.8769 Z0.2500
G1 X11.8381 Y-15.9053 Z0.2500
G1 X11.8557 Y-15.9312 Z0.2500
G1 X11.9002 Y-15.9748 Z0.2500
G1 X11.9514 Y-16.0102 Z0.2500
G1 X12.0587 Y-16.0729 Z0.2500
G1 X12.2744 Y-16.1967 Z0.2500
G1 X12.7058 Y-16.4443 Z0.2500
G1 X12.7034 Y-16.4487 Z0.2500
G1 X12.8896 Y-16.5493 Z0.2500
G1 X13.2351 Y-16.7361 Z0.2500
G1 X13.3150 Y-16.7920 Z0.2500
G1 X14.6014 Y-17.9332 Z0.2500
G3X14.8108Y-17.7580Z0.2500I0.0916J0.1033
G1 X14.1467 Y-16.6699 Z0.2500
G2X14.0530Y-15.7729Z0.2500I0.8963J0.5470
G3X14.0396Y-15.6995Z0.2500I-0.0707J0.0250
G1 X12.9929 Y-14.4615 Z0.2500
G3X12.9736Y-14.4609Z0.2500I-0.0099J-0.0084
G1 X11.6275 Y-15.8671 Z0.2500
G1 X12.7034 Y-16.4487 Z0.2500
G0 Z4.0000
G0 X12.7034 Y-16.4487 
M5
G53 Z
G0 X2Y0
( END FILE top-control-front-01.nc )
( BEGIN FILE top-control-front-02.ncTNUM: 3 )
( Lefty:False Nunits:1 )
( cline: 9.733 delta:15.5 )
( start_unit: 1 num_units: 1)
( MOP:  top-control-front-02 )
( FILE: G:\Shared drives\AlloyProjectFiles\Customer CAD files\Alloy-Standard-Builds-CAM\s-in\Control\top-control-front-02.nc)
G90
(  BEGIN TOOL LIST )
(  TOOL 3 - Downcut PT750 - DESC: 0.7500 DIA, 2 FLUTE,  CARBIDE MAT )
(  ENDOF TOOL LIST )
( top-control-front-02)
T03
S14000
M3
G0 Z4.0000
G0 X13.2046 Y-16.4922 
G1 X13.2046 Y-16.4922 Z0.2500 F75.
G17
G2X12.8658Y-16.5933Z0.2500I-0.2199J0.1188 F60.
G1 X11.5460 Y-15.8799 Z0.2500
G1 X12.9375 Y-14.4264 Z0.2500
G2X13.0311Y-14.4293Z0.2500I0.0455J-0.0435
G1 X14.0778 Y-15.6672 Z0.2500
G2X14.1002Y-15.7896Z0.2500I-0.0955J-0.0807
G3X14.1894Y-16.6439Z0.2500I0.9428J-0.3333
G1 X14.8535 Y-17.7320 Z0.2500
G2X14.5682Y-17.9706Z0.2500I-0.1605J-0.0979
G1 X13.2819 Y-16.8294 Z0.2500
G3X13.2113Y-16.7800Z0.2500I-0.2489J-0.2805
G1 X12.8658 Y-16.5933 Z0.2500
G1 X12.6459 Y-16.4744 Z0.2500
G2X12.5448Y-16.1356Z0.2500I0.1188J0.2199
G0 Z4.0000
G0 X12.5448 Y-16.1356 
M5
G53 Z
G0 X2Y0
( END FILE top-control-front-02.nc )
( BEGIN FILE top-jack-pocket-front-01.ncTNUM: 4 )
( Lefty:False Nunits:1 )
( cline: 9.733 delta:15.5 )
( start_unit: 1 num_units: 1)
( MOP:  top-jack-pocket-front-01 )
( FILE: G:\Shared drives\AlloyProjectFiles\Customer CAD files\Alloy-Standard-Builds-CAM\s-in\Control\top-jack-pocket-front-01.nc)
G90
(  BEGIN TOOL LIST )
(  TOOL 4 - Downcut PT500 - DESC: 0.5000 DIA, 2 FLUTE,  CARBIDE MAT )
(  ENDOF TOOL LIST )
( top-jack-pocket-front-01)
T04
S12000
M3
G0 Z4.0000
G0 X13.5501 Y-19.5341 
G1 X13.5501 Y-19.5341 Z1.8000 F75.
G1 X13.5618 Y-19.5409 Z1.7976 F50.
G1 X13.5458 Y-19.5250 Z1.7936
G1 X13.5297 Y-19.5093 Z1.7897
G1 X13.5135 Y-19.4937 Z1.7857
G1 X13.4971 Y-19.4783 Z1.7817
G1 X13.4806 Y-19.4630 Z1.7778
G1 X13.4640 Y-19.4478 Z1.7738
G1 X13.4472 Y-19.4328 Z1.7698
G1 X13.4303 Y-19.4180 Z1.7659
G1 X13.4133 Y-19.4033 Z1.7619
G1 X13.3961 Y-19.3887 Z1.7579
G1 X13.3788 Y-19.3743 Z1.7540
G1 X13.3614 Y-19.3601 Z1.7500
G1 X13.3438 Y-19.3460 Z1.7460
G1 X13.3262 Y-19.3321 Z1.7421
G1 X13.3084 Y-19.3183 Z1.7381
G1 X13.2904 Y-19.3047 Z1.7341
G1 X13.2724 Y-19.2912 Z1.7302
G1 X13.2543 Y-19.2779 Z1.7262
G1 X13.2360 Y-19.2648 Z1.7222
G1 X13.2176 Y-19.2518 Z1.7182
G1 X13.1991 Y-19.2390 Z1.7143
G1 X13.1805 Y-19.2263 Z1.7103
G1 X13.1618 Y-19.2138 Z1.7063
G1 X13.1429 Y-19.2015 Z1.7024
G1 X13.1240 Y-19.1894 Z1.6984
G1 X13.1050 Y-19.1774 Z1.6944
G1 X13.0858 Y-19.1655 Z1.6905
G1 X13.0666 Y-19.1539 Z1.6865
G1 X13.0472 Y-19.1424 Z1.6825
G1 X13.0277 Y-19.1311 Z1.6786
G1 X13.0462 Y-19.1494 Z1.6740
G1 X13.0648 Y-19.1675 Z1.6694
G1 X13.0836 Y-19.1855 Z1.6648
G1 X13.1026 Y-19.2032 Z1.6602
G1 X13.1218 Y-19.2207 Z1.6557
G1 X13.1411 Y-19.2381 Z1.6511
G1 X13.1607 Y-19.2552 Z1.6465
G1 X13.1804 Y-19.2722 Z1.6419
G1 X13.2002 Y-19.2889 Z1.6373
G1 X13.2203 Y-19.3055 Z1.6327
G1 X13.2405 Y-19.3218 Z1.6282
G1 X13.2609 Y-19.3379 Z1.6236
G1 X13.2814 Y-19.3539 Z1.6190
G1 X13.3021 Y-19.3696 Z1.6144
G1 X13.3230 Y-19.3851 Z1.6098
G1 X13.3383 Y-19.3963 Z1.6065
G1 X13.3538 Y-19.4074 Z1.6031
G1 X13.3693 Y-19.4184 Z1.5998
G1 X13.3849 Y-19.4292 Z1.5964
G1 X13.4006 Y-19.4400 Z1.5931
G1 X13.4164 Y-19.4506 Z1.5897
G1 X13.4322 Y-19.4611 Z1.5864
G1 X13.4482 Y-19.4715 Z1.5830
G1 X13.4642 Y-19.4818 Z1.5796
G1 X13.4803 Y-19.4919 Z1.5763
G1 X13.4964 Y-19.5020 Z1.5729
G1 X13.5127 Y-19.5119 Z1.5696
G1 X13.5290 Y-19.5217 Z1.5662
G1 X13.5454 Y-19.5314 Z1.5629
G1 X13.5618 Y-19.5409 Z1.5595
G1 X13.5458 Y-19.5250 Z1.5556
G1 X13.5297 Y-19.5093 Z1.5516
G1 X13.5135 Y-19.4937 Z1.5476
G1 X13.4971 Y-19.4783 Z1.5436
G1 X13.4806 Y-19.4630 Z1.5397
G1 X13.4640 Y-19.4478 Z1.5357
G1 X13.4472 Y-19.4328 Z1.5317
G1 X13.4303 Y-19.4180 Z1.5278
G1 X13.4133 Y-19.4033 Z1.5238
G1 X13.3961 Y-19.3887 Z1.5198
G1 X13.3788 Y-19.3743 Z1.5159
G1 X13.3614 Y-19.3601 Z1.5119
G1 X13.3438 Y-19.3460 Z1.5079
G1 X13.3262 Y-19.3321 Z1.5040
G1 X13.3084 Y-19.3183 Z1.5000
G17
G3X13.0277Y-19.1311Z1.5000I-1.5524J-2.0231 F100.
G3X13.3230Y-19.3851Z1.5000I1.8058J1.8005
G3X13.5618Y-19.5409Z1.5000I1.5105J2.0545
G3X13.3084Y-19.3183Z1.5000I-1.8058J-1.8005
G1 X13.3064 Y-19.3208 Z1.5000
G1 X13.2230 Y-19.2508 Z1.5000
G1 X13.1368 Y-19.1842 Z1.5000
G1 X13.0933 Y-19.1518 Z1.5000
G1 X13.0732 Y-19.1345 Z1.5000
G1 X13.0480 Y-19.1215 Z1.5000
G1 X13.0180 Y-19.1192 Z1.5000
G1 X13.0065 Y-19.1243 Z1.5000
G1 X13.0005 Y-19.1344 Z1.5000
G1 X13.0030 Y-19.1637 Z1.5000
G1 X13.0164 Y-19.1901 Z1.5000
G1 X13.0902 Y-19.2688 Z1.5000
G1 X13.1676 Y-19.3452 Z1.5000
G1 X13.2483 Y-19.4184 Z1.5000
G1 X13.3327 Y-19.4872 Z1.5000
G1 X13.4194 Y-19.5530 Z1.5000
G1 X13.5090 Y-19.6150 Z1.5000
G1 X13.5337 Y-19.6264 Z1.5000
G1 X13.5604 Y-19.6328 Z1.5000
G1 X13.5880 Y-19.6324 Z1.5000
G1 X13.6140 Y-19.6240 Z1.5000
G1 X13.6364 Y-19.6080 Z1.5000
G3X13.6274Y-19.4341Z1.5000I-0.0922J0.0824
G1 X13.5541 Y-19.3536 Z1.5000
G1 X13.3966 Y-19.2033 Z1.5000
G1 X13.3997 Y-19.1993 Z1.5000
G3X12.7609Y-18.8353Z1.5000I-1.6437J-2.1421
G3X12.6730Y-18.9499Z1.5000I-0.0279J-0.0696
G3X13.2341Y-19.5059Z1.5000I2.1605J1.6193
G3X14.0477Y-19.9138Z1.5000I1.5994J2.1753
G3X13.3997Y-19.1993Z1.5000I-2.2917J-1.4276
G0 Z1.9975
G0 X13.3997 Y-19.1993 
G0 Z1.9975
G0 X13.5501 Y-19.5341 
G1 X13.5501 Y-19.5341 Z1.5500 F75.
G1 X13.5618 Y-19.5409 Z1.5476 F50.
G1 X13.5458 Y-19.5250 Z1.5436
G1 X13.5297 Y-19.5093 Z1.5397
G1 X13.5135 Y-19.4937 Z1.5357
G1 X13.4971 Y-19.4783 Z1.5317
G1 X13.4806 Y-19.4630 Z1.5278
G1 X13.4640 Y-19.4478 Z1.5238
G1 X13.4472 Y-19.4328 Z1.5198
G1 X13.4303 Y-19.4180 Z1.5159
G1 X13.4133 Y-19.4033 Z1.5119
G1 X13.3961 Y-19.3887 Z1.5079
G1 X13.3788 Y-19.3743 Z1.5040
G1 X13.3614 Y-19.3601 Z1.5000
G1 X13.3438 Y-19.3460 Z1.4960
G1 X13.3262 Y-19.3321 Z1.4921
G1 X13.3084 Y-19.3183 Z1.4881
G1 X13.2904 Y-19.3047 Z1.4841
G1 X13.2724 Y-19.2912 Z1.4802
G1 X13.2543 Y-19.2779 Z1.4762
G1 X13.2360 Y-19.2648 Z1.4722
G1 X13.2176 Y-19.2518 Z1.4682
G1 X13.1991 Y-19.2390 Z1.4643
G1 X13.1805 Y-19.2263 Z1.4603
G1 X13.1618 Y-19.2138 Z1.4563
G1 X13.1429 Y-19.2015 Z1.4524
G1 X13.1240 Y-19.1894 Z1.4484
G1 X13.1050 Y-19.1774 Z1.4444
G1 X13.0858 Y-19.1655 Z1.4405
G1 X13.0666 Y-19.1539 Z1.4365
G1 X13.0472 Y-19.1424 Z1.4325
G1 X13.0277 Y-19.1311 Z1.4286
G1 X13.0462 Y-19.1494 Z1.4240
G1 X13.0648 Y-19.1675 Z1.4194
G1 X13.0836 Y-19.1855 Z1.4148
G1 X13.1026 Y-19.2032 Z1.4102
G1 X13.1218 Y-19.2207 Z1.4057
G1 X13.1411 Y-19.2381 Z1.4011
G1 X13.1607 Y-19.2552 Z1.3965
G1 X13.1804 Y-19.2722 Z1.3919
G1 X13.2002 Y-19.2889 Z1.3873
G1 X13.2203 Y-19.3055 Z1.3827
G1 X13.2405 Y-19.3218 Z1.3782
G1 X13.2609 Y-19.3379 Z1.3736
G1 X13.2814 Y-19.3539 Z1.3690
G1 X13.3021 Y-19.3696 Z1.3644
G1 X13.3230 Y-19.3851 Z1.3598
G1 X13.3383 Y-19.3963 Z1.3565
G1 X13.3538 Y-19.4074 Z1.3531
G1 X13.3693 Y-19.4184 Z1.3498
G1 X13.3849 Y-19.4292 Z1.3464
G1 X13.4006 Y-19.4400 Z1.3431
G1 X13.4164 Y-19.4506 Z1.3397
G1 X13.4322 Y-19.4611 Z1.3364
G1 X13.4482 Y-19.4715 Z1.3330
G1 X13.4642 Y-19.4818 Z1.3296
G1 X13.4803 Y-19.4919 Z1.3263
G1 X13.4964 Y-19.5020 Z1.3229
G1 X13.5127 Y-19.5119 Z1.3196
G1 X13.5290 Y-19.5217 Z1.3162
G1 X13.5454 Y-19.5314 Z1.3129
G1 X13.5618 Y-19.5409 Z1.3095
G1 X13.5458 Y-19.5250 Z1.3056
G1 X13.5297 Y-19.5093 Z1.3016
G1 X13.5135 Y-19.4937 Z1.2976
G1 X13.4971 Y-19.4783 Z1.2936
G1 X13.4806 Y-19.4630 Z1.2897
G1 X13.4640 Y-19.4478 Z1.2857
G1 X13.4472 Y-19.4328 Z1.2817
G1 X13.4303 Y-19.4180 Z1.2778
G1 X13.4133 Y-19.4033 Z1.2738
G1 X13.3961 Y-19.3887 Z1.2698
G1 X13.3788 Y-19.3743 Z1.2659
G1 X13.3614 Y-19.3601 Z1.2619
G1 X13.3438 Y-19.3460 Z1.2579
G1 X13.3262 Y-19.3321 Z1.2540
G1 X13.3084 Y-19.3183 Z1.2500
G3X13.0277Y-19.1311Z1.2500I-1.5524J-2.0231 F100.
G3X13.3230Y-19.3851Z1.2500I1.8058J1.8005
G3X13.5618Y-19.5409Z1.2500I1.5105J2.0545
G3X13.3084Y-19.3183Z1.2500I-1.8058J-1.8005
G1 X13.3064 Y-19.3208 Z1.2500
G1 X13.2230 Y-19.2508 Z1.2500
G1 X13.1368 Y-19.1842 Z1.2500
G1 X13.0933 Y-19.1518 Z1.2500
G1 X13.0732 Y-19.1345 Z1.2500
G1 X13.0480 Y-19.1215 Z1.2500
G1 X13.0180 Y-19.1192 Z1.2500
G1 X13.0065 Y-19.1243 Z1.2500
G1 X13.0005 Y-19.1344 Z1.2500
G1 X13.0030 Y-19.1637 Z1.2500
G1 X13.0164 Y-19.1901 Z1.2500
G1 X13.0902 Y-19.2688 Z1.2500
G1 X13.1676 Y-19.3452 Z1.2500
G1 X13.2483 Y-19.4184 Z1.2500
G1 X13.3327 Y-19.4872 Z1.2500
G1 X13.4194 Y-19.5530 Z1.2500
G1 X13.5090 Y-19.6150 Z1.2500
G1 X13.5337 Y-19.6264 Z1.2500
G1 X13.5604 Y-19.6328 Z1.2500
G1 X13.5880 Y-19.6324 Z1.2500
G3X13.6274Y-19.4341Z1.2500I-0.0313J0.1092
G1 X13.5541 Y-19.3536 Z1.2500
G1 X13.3966 Y-19.2033 Z1.2500
G1 X13.3997 Y-19.1993 Z1.2500
G3X12.7609Y-18.8353Z1.2500I-1.6437J-2.1421
G3X12.6730Y-18.9499Z1.2500I-0.0279J-0.0696
G3X13.2341Y-19.5059Z1.2500I2.1605J1.6193
G3X14.0477Y-19.9138Z1.2500I1.5994J2.1753
G3X13.3997Y-19.1993Z1.2500I-2.2917J-1.4276
G0 Z1.9975
G0 X13.3997 Y-19.1993 
G0 Z1.9975
G0 X13.5501 Y-19.5341 
G1 X13.5501 Y-19.5341 Z1.3000 F75.
G1 X13.5618 Y-19.5409 Z1.2976 F50.
G1 X13.5458 Y-19.5250 Z1.2936
G1 X13.5297 Y-19.5093 Z1.2897
G1 X13.5135 Y-19.4937 Z1.2857
G1 X13.4971 Y-19.4783 Z1.2817
G1 X13.4806 Y-19.4630 Z1.2778
G1 X13.4640 Y-19.4478 Z1.2738
G1 X13.4472 Y-19.4328 Z1.2698
G1 X13.4303 Y-19.4180 Z1.2659
G1 X13.4133 Y-19.4033 Z1.2619
G1 X13.3961 Y-19.3887 Z1.2579
G1 X13.3788 Y-19.3743 Z1.2540
G1 X13.3614 Y-19.3601 Z1.2500
G1 X13.3438 Y-19.3460 Z1.2460
G1 X13.3262 Y-19.3321 Z1.2421
G1 X13.3084 Y-19.3183 Z1.2381
G1 X13.2904 Y-19.3047 Z1.2341
G1 X13.2724 Y-19.2912 Z1.2302
G1 X13.2543 Y-19.2779 Z1.2262
G1 X13.2360 Y-19.2648 Z1.2222
G1 X13.2176 Y-19.2518 Z1.2182
G1 X13.1991 Y-19.2390 Z1.2143
G1 X13.1805 Y-19.2263 Z1.2103
G1 X13.1618 Y-19.2138 Z1.2063
G1 X13.1429 Y-19.2015 Z1.2024
G1 X13.1240 Y-19.1894 Z1.1984
G1 X13.1050 Y-19.1774 Z1.1944
G1 X13.0858 Y-19.1655 Z1.1905
G1 X13.0666 Y-19.1539 Z1.1865
G1 X13.0472 Y-19.1424 Z1.1825
G1 X13.0277 Y-19.1311 Z1.1786
G1 X13.0462 Y-19.1494 Z1.1740
G1 X13.0648 Y-19.1675 Z1.1694
G1 X13.0836 Y-19.1855 Z1.1648
G1 X13.1026 Y-19.2032 Z1.1602
G1 X13.1218 Y-19.2207 Z1.1557
G1 X13.1411 Y-19.2381 Z1.1511
G1 X13.1607 Y-19.2552 Z1.1465
G1 X13.1804 Y-19.2722 Z1.1419
G1 X13.2002 Y-19.2889 Z1.1373
G1 X13.2203 Y-19.3055 Z1.1327
G1 X13.2405 Y-19.3218 Z1.1282
G1 X13.2609 Y-19.3379 Z1.1236
G1 X13.2814 Y-19.3539 Z1.1190
G1 X13.3021 Y-19.3696 Z1.1144
G1 X13.3230 Y-19.3851 Z1.1098
G1 X13.3383 Y-19.3963 Z1.1065
G1 X13.3538 Y-19.4074 Z1.1031
G1 X13.3693 Y-19.4184 Z1.0998
G1 X13.3849 Y-19.4292 Z1.0964
G1 X13.4006 Y-19.4400 Z1.0931
G1 X13.4164 Y-19.4506 Z1.0897
G1 X13.4322 Y-19.4611 Z1.0864
G1 X13.4482 Y-19.4715 Z1.0830
G1 X13.4642 Y-19.4818 Z1.0796
G1 X13.4803 Y-19.4919 Z1.0763
G1 X13.4964 Y-19.5020 Z1.0729
G1 X13.5127 Y-19.5119 Z1.0696
G1 X13.5290 Y-19.5217 Z1.0662
G1 X13.5454 Y-19.5314 Z1.0629
G1 X13.5618 Y-19.5409 Z1.0595
G1 X13.5458 Y-19.5250 Z1.0556
G1 X13.5297 Y-19.5093 Z1.0516
G1 X13.5135 Y-19.4937 Z1.0476
G1 X13.4971 Y-19.4783 Z1.0436
G1 X13.4806 Y-19.4630 Z1.0397
G1 X13.4640 Y-19.4478 Z1.0357
G1 X13.4472 Y-19.4328 Z1.0317
G1 X13.4303 Y-19.4180 Z1.0278
G1 X13.4133 Y-19.4033 Z1.0238
G1 X13.3961 Y-19.3887 Z1.0198
G1 X13.3788 Y-19.3743 Z1.0159
G1 X13.3614 Y-19.3601 Z1.0119
G1 X13.3438 Y-19.3460 Z1.0079
G1 X13.3262 Y-19.3321 Z1.0040
G1 X13.3084 Y-19.3183 Z1.0000
G3X13.0277Y-19.1311Z1.0000I-1.5524J-2.0231 F100.
G3X13.3230Y-19.3851Z1.0000I1.8058J1.8005
G3X13.5618Y-19.5409Z1.0000I1.5105J2.0545
G3X13.3084Y-19.3183Z1.0000I-1.8058J-1.8005
G1 X13.3064 Y-19.3208 Z1.0000
G1 X13.2230 Y-19.2508 Z1.0000
G2X13.0732Y-19.1345Z1.0000I10.9186J14.2181
G3X13.0164Y-19.1901Z1.0000I-0.0370J-0.0189
G1 X13.0902 Y-19.2688 Z1.0000
G1 X13.1676 Y-19.3452 Z1.0000
G1 X13.2483 Y-19.4184 Z1.0000
G1 X13.3327 Y-19.4872 Z1.0000
G1 X13.4194 Y-19.5530 Z1.0000
G1 X13.5090 Y-19.6150 Z1.0000
G1 X13.5337 Y-19.6264 Z1.0000
G3X13.6274Y-19.4341Z1.0000I0.0319J0.1034
G1 X13.5541 Y-19.3536 Z1.0000
G1 X13.3966 Y-19.2033 Z1.0000
G1 X13.3997 Y-19.1993 Z1.0000
G3X12.7609Y-18.8353Z1.0000I-1.6437J-2.1421
G3X12.6730Y-18.9499Z1.0000I-0.0279J-0.0696
G3X13.2341Y-19.5059Z1.0000I2.1605J1.6193
G3X14.0477Y-19.9138Z1.0000I1.5994J2.1753
G3X13.3997Y-19.1993Z1.0000I-2.2917J-1.4276
G0 Z1.9975
G0 X13.3997 Y-19.1993 
G0 Z1.9975
G0 X13.1602 Y-19.2549 
G1 X13.1602 Y-19.2549 Z1.0500 F75.
G1 X13.1607 Y-19.2552 Z1.0499 F50.
G1 X13.1804 Y-19.2722 Z1.0453
G1 X13.2002 Y-19.2889 Z1.0407
G1 X13.2203 Y-19.3055 Z1.0362
G1 X13.2405 Y-19.3218 Z1.0316
G1 X13.2609 Y-19.3379 Z1.0270
G1 X13.2814 Y-19.3539 Z1.0224
G1 X13.3021 Y-19.3696 Z1.0178
G1 X13.3230 Y-19.3851 Z1.0132
G1 X13.3306 Y-19.3907 Z1.0116
G1 X13.3383 Y-19.3963 Z1.0099
G1 X13.3460 Y-19.4019 Z1.0082
G1 X13.3538 Y-19.4074 Z1.0065
G1 X13.3615 Y-19.4129 Z1.0049
G1 X13.3693 Y-19.4184 Z1.0032
G1 X13.3771 Y-19.4238 Z1.0015
G1 X13.3849 Y-19.4292 Z0.9998
G1 X13.3928 Y-19.4346 Z0.9981
G1 X13.4006 Y-19.4400 Z0.9965
G1 X13.4085 Y-19.4453 Z0.9948
G1 X13.4164 Y-19.4506 Z0.9931
G1 X13.4243 Y-19.4559 Z0.9914
G1 X13.4322 Y-19.4611 Z0.9898
G1 X13.4402 Y-19.4663 Z0.9881
G1 X13.4482 Y-19.4715 Z0.9864
G1 X13.4562 Y-19.4767 Z0.9847
G1 X13.4642 Y-19.4818 Z0.9831
G1 X13.4722 Y-19.4869 Z0.9814
G1 X13.4803 Y-19.4919 Z0.9797
G1 X13.4883 Y-19.4970 Z0.9780
G1 X13.4964 Y-19.5020 Z0.9763
G1 X13.5045 Y-19.5069 Z0.9747
G1 X13.5127 Y-19.5119 Z0.9730
G1 X13.5208 Y-19.5168 Z0.9713
G1 X13.5290 Y-19.5217 Z0.9696
G1 X13.5372 Y-19.5265 Z0.9680
G1 X13.5454 Y-19.5314 Z0.9663
G1 X13.5536 Y-19.5361 Z0.9646
G1 X13.5618 Y-19.5409 Z0.9629
G1 X13.5297 Y-19.5093 Z0.9550
G1 X13.4971 Y-19.4783 Z0.9471
G1 X13.4640 Y-19.4478 Z0.9391
G1 X13.4303 Y-19.4180 Z0.9312
G1 X13.3961 Y-19.3887 Z0.9233
G1 X13.3614 Y-19.3601 Z0.9153
G1 X13.3262 Y-19.3321 Z0.9074
G1 X13.2904 Y-19.3047 Z0.8994
G1 X13.2543 Y-19.2779 Z0.8915
G1 X13.2176 Y-19.2518 Z0.8836
G1 X13.1805 Y-19.2263 Z0.8756
G1 X13.1429 Y-19.2015 Z0.8677
G1 X13.1050 Y-19.1774 Z0.8598
G1 X13.0666 Y-19.1539 Z0.8518
G1 X13.0277 Y-19.1311 Z0.8439
G1 X13.0462 Y-19.1494 Z0.8393
G1 X13.0648 Y-19.1675 Z0.8347
G1 X13.0836 Y-19.1855 Z0.8301
G1 X13.1026 Y-19.2032 Z0.8256
G1 X13.1218 Y-19.2207 Z0.8210
G1 X13.1411 Y-19.2381 Z0.8164
G1 X13.1607 Y-19.2552 Z0.8118
G1 X13.1804 Y-19.2722 Z0.8072
G1 X13.2002 Y-19.2889 Z0.8026
G1 X13.2203 Y-19.3055 Z0.7981
G1 X13.2405 Y-19.3218 Z0.7935
G1 X13.2609 Y-19.3379 Z0.7889
G1 X13.2814 Y-19.3539 Z0.7843
G1 X13.3021 Y-19.3696 Z0.7797
G1 X13.3230 Y-19.3851 Z0.7752
G1 X13.3306 Y-19.3907 Z0.7735
G1 X13.3383 Y-19.3963 Z0.7718
G1 X13.3460 Y-19.4019 Z0.7701
G1 X13.3538 Y-19.4074 Z0.7684
G1 X13.3615 Y-19.4129 Z0.7668
G1 X13.3693 Y-19.4184 Z0.7651
G1 X13.3771 Y-19.4238 Z0.7634
G1 X13.3849 Y-19.4292 Z0.7617
G1 X13.3928 Y-19.4346 Z0.7601
G1 X13.4006 Y-19.4400 Z0.7584
G1 X13.4085 Y-19.4453 Z0.7567
G1 X13.4164 Y-19.4506 Z0.7550
G1 X13.4243 Y-19.4559 Z0.7534
G1 X13.4322 Y-19.4611 Z0.7517
G1 X13.4402 Y-19.4663 Z0.7500
G3X13.5618Y-19.5409Z0.7500I1.3933J2.1357 F100.
G3X13.0277Y-19.1311Z0.7500I-1.8058J-1.8005
G3X13.3230Y-19.3851Z0.7500I1.8058J1.8005
G3X13.4402Y-19.4663Z0.7500I1.5105J2.0545
G1 X13.4419 Y-19.4637 Z0.7500
G1 X13.4536 Y-19.4573 Z0.7500
G1 X13.4645 Y-19.4584 Z0.7500
G1 X13.4852 Y-19.4766 Z0.7500
G1 X13.5263 Y-19.5312 Z0.7500
G1 X13.5376 Y-19.5394 Z0.7500
G1 X13.5495 Y-19.5420 Z0.7500
G1 X13.5619 Y-19.5383 Z0.7500
G1 X13.5722 Y-19.5298 Z0.7500
G1 X13.5777 Y-19.5187 Z0.7500
G1 X13.5759 Y-19.5069 Z0.7500
G1 X13.5569 Y-19.4842 Z0.7500
G3X13.0374Y-19.0551Z0.7500I-1.2954J-1.0393
G3X12.9487Y-19.1937Z0.7500I-0.0175J-0.0865
G3X13.3582Y-19.5920Z0.7500I1.6503J1.2876
G3X14.0477Y-19.9138Z0.7500I1.4753J2.2614
G3X12.7609Y-18.8353Z0.7500I-2.2917J-1.4276
G3X12.6730Y-18.9499Z0.7500I-0.0279J-0.0696
G3X13.2341Y-19.5059Z0.7500I2.1605J1.6193
G3X13.3582Y-19.5920Z0.7500I1.5994J2.1753
G0 Z1.9975
G0 X13.3582 Y-19.5920 
G0 Z1.9975
G0 X13.1602 Y-19.2549 
G1 X13.1602 Y-19.2549 Z0.8000 F75.
G1 X13.1607 Y-19.2552 Z0.7999 F50.
G1 X13.1804 Y-19.2722 Z0.7953
G1 X13.2002 Y-19.2889 Z0.7907
G1 X13.2203 Y-19.3055 Z0.7862
G1 X13.2405 Y-19.3218 Z0.7816
G1 X13.2609 Y-19.3379 Z0.7770
G1 X13.2814 Y-19.3539 Z0.7724
G1 X13.3021 Y-19.3696 Z0.7678
G1 X13.3230 Y-19.3851 Z0.7632
G1 X13.3306 Y-19.3907 Z0.7616
G1 X13.3383 Y-19.3963 Z0.7599
G1 X13.3460 Y-19.4019 Z0.7582
G1 X13.3538 Y-19.4074 Z0.7565
G1 X13.3615 Y-19.4129 Z0.7549
G1 X13.3693 Y-19.4184 Z0.7532
G1 X13.3771 Y-19.4238 Z0.7515
G1 X13.3849 Y-19.4292 Z0.7498
G1 X13.3928 Y-19.4346 Z0.7481
G1 X13.4006 Y-19.4400 Z0.7465
G1 X13.4085 Y-19.4453 Z0.7448
G1 X13.4164 Y-19.4506 Z0.7431
G1 X13.4243 Y-19.4559 Z0.7414
G1 X13.4322 Y-19.4611 Z0.7398
G1 X13.4402 Y-19.4663 Z0.7381
G1 X13.4482 Y-19.4715 Z0.7364
G1 X13.4562 Y-19.4767 Z0.7347
G1 X13.4642 Y-19.4818 Z0.7331
G1 X13.4722 Y-19.4869 Z0.7314
G1 X13.4803 Y-19.4919 Z0.7297
G1 X13.4883 Y-19.4970 Z0.7280
G1 X13.4964 Y-19.5020 Z0.7263
G1 X13.5045 Y-19.5069 Z0.7247
G1 X13.5127 Y-19.5119 Z0.7230
G1 X13.5208 Y-19.5168 Z0.7213
G1 X13.5290 Y-19.5217 Z0.7196
G1 X13.5372 Y-19.5265 Z0.7180
G1 X13.5454 Y-19.5314 Z0.7163
G1 X13.5536 Y-19.5361 Z0.7146
G1 X13.5618 Y-19.5409 Z0.7129
G1 X13.5297 Y-19.5093 Z0.7050
G1 X13.4971 Y-19.4783 Z0.6971
G1 X13.4640 Y-19.4478 Z0.6891
G1 X13.4303 Y-19.4180 Z0.6812
G1 X13.3961 Y-19.3887 Z0.6733
G1 X13.3614 Y-19.3601 Z0.6653
G1 X13.3262 Y-19.3321 Z0.6574
G1 X13.2904 Y-19.3047 Z0.6494
G1 X13.2543 Y-19.2779 Z0.6415
G1 X13.2176 Y-19.2518 Z0.6336
G1 X13.1805 Y-19.2263 Z0.6256
G1 X13.1429 Y-19.2015 Z0.6177
G1 X13.1050 Y-19.1774 Z0.6098
G1 X13.0666 Y-19.1539 Z0.6018
G1 X13.0277 Y-19.1311 Z0.5939
G1 X13.0462 Y-19.1494 Z0.5893
G1 X13.0648 Y-19.1675 Z0.5847
G1 X13.0836 Y-19.1855 Z0.5801
G1 X13.1026 Y-19.2032 Z0.5756
G1 X13.1218 Y-19.2207 Z0.5710
G1 X13.1411 Y-19.2381 Z0.5664
G1 X13.1607 Y-19.2552 Z0.5618
G1 X13.1804 Y-19.2722 Z0.5572
G1 X13.2002 Y-19.2889 Z0.5526
G1 X13.2203 Y-19.3055 Z0.5481
G1 X13.2405 Y-19.3218 Z0.5435
G1 X13.2609 Y-19.3379 Z0.5389
G1 X13.2814 Y-19.3539 Z0.5343
G1 X13.3021 Y-19.3696 Z0.5297
G1 X13.3230 Y-19.3851 Z0.5252
G1 X13.3306 Y-19.3907 Z0.5235
G1 X13.3383 Y-19.3963 Z0.5218
G1 X13.3460 Y-19.4019 Z0.5201
G1 X13.3538 Y-19.4074 Z0.5184
G1 X13.3615 Y-19.4129 Z0.5168
G1 X13.3693 Y-19.4184 Z0.5151
G1 X13.3771 Y-19.4238 Z0.5134
G1 X13.3849 Y-19.4292 Z0.5117
G1 X13.3928 Y-19.4346 Z0.5101
G1 X13.4006 Y-19.4400 Z0.5084
G1 X13.4085 Y-19.4453 Z0.5067
G1 X13.4164 Y-19.4506 Z0.5050
G1 X13.4243 Y-19.4559 Z0.5034
G1 X13.4322 Y-19.4611 Z0.5017
G1 X13.4402 Y-19.4663 Z0.5000
G3X13.5618Y-19.5409Z0.5000I1.3933J2.1357 F100.
G3X13.0277Y-19.1311Z0.5000I-1.8058J-1.8005
G3X13.3230Y-19.3851Z0.5000I1.8058J1.8005
G3X13.4402Y-19.4663Z0.5000I1.5105J2.0545
G1 X13.4419 Y-19.4637 Z0.5000
G1 X13.4536 Y-19.4573 Z0.5000
G1 X13.4645 Y-19.4584 Z0.5000
G1 X13.4852 Y-19.4766 Z0.5000
G1 X13.5263 Y-19.5312 Z0.5000
G1 X13.5376 Y-19.5394 Z0.5000
G1 X13.5495 Y-19.5420 Z0.5000
G1 X13.5619 Y-19.5383 Z0.5000
G1 X13.5722 Y-19.5298 Z0.5000
G1 X13.5777 Y-19.5187 Z0.5000
G1 X13.5759 Y-19.5069 Z0.5000
G1 X13.5569 Y-19.4842 Z0.5000
G1 X13.4104 Y-19.3344 Z0.5000
G3X13.0374Y-19.0551Z0.5000I-1.0289J-0.9857
G3X12.9487Y-19.1937Z0.5000I-0.0175J-0.0865
G1 X12.9783 Y-19.2366 Z0.5000
G1 X13.0490 Y-19.3129 Z0.5000
G3X13.3582Y-19.5920Z0.5000I2.7880J2.7788
G3X14.0477Y-19.9138Z0.5000I1.4753J2.2614
G3X12.7609Y-18.8353Z0.5000I-2.2917J-1.4276
G3X12.6730Y-18.9499Z0.5000I-0.0279J-0.0696
G3X13.2341Y-19.5059Z0.5000I2.1605J1.6193
G3X13.3582Y-19.5920Z0.5000I1.5994J2.1753
G0 Z1.9975
G0 X13.3582 Y-19.5920 
G0 Z1.9975
G0 X13.1602 Y-19.2549 
G1 X13.1602 Y-19.2549 Z0.5500 F75.
G1 X13.1607 Y-19.2552 Z0.5499 F50.
G1 X13.1804 Y-19.2722 Z0.5453
G1 X13.2002 Y-19.2889 Z0.5407
G1 X13.2203 Y-19.3055 Z0.5362
G1 X13.2405 Y-19.3218 Z0.5316
G1 X13.2609 Y-19.3379 Z0.5270
G1 X13.2814 Y-19.3539 Z0.5224
G1 X13.3021 Y-19.3696 Z0.5178
G1 X13.3230 Y-19.3851 Z0.5132
G1 X13.3306 Y-19.3907 Z0.5116
G1 X13.3383 Y-19.3963 Z0.5099
G1 X13.3460 Y-19.4019 Z0.5082
G1 X13.3538 Y-19.4074 Z0.5065
G1 X13.3615 Y-19.4129 Z0.5049
G1 X13.3693 Y-19.4184 Z0.5032
G1 X13.3771 Y-19.4238 Z0.5015
G1 X13.3849 Y-19.4292 Z0.4998
G1 X13.3928 Y-19.4346 Z0.4981
G1 X13.4006 Y-19.4400 Z0.4965
G1 X13.4085 Y-19.4453 Z0.4948
G1 X13.4164 Y-19.4506 Z0.4931
G1 X13.4243 Y-19.4559 Z0.4914
G1 X13.4322 Y-19.4611 Z0.4898
G1 X13.4402 Y-19.4663 Z0.4881
G1 X13.4482 Y-19.4715 Z0.4864
G1 X13.4562 Y-19.4767 Z0.4847
G1 X13.4642 Y-19.4818 Z0.4831
G1 X13.4722 Y-19.4869 Z0.4814
G1 X13.4803 Y-19.4919 Z0.4797
G1 X13.4883 Y-19.4970 Z0.4780
G1 X13.4964 Y-19.5020 Z0.4763
G1 X13.5045 Y-19.5069 Z0.4747
G1 X13.5127 Y-19.5119 Z0.4730
G1 X13.5208 Y-19.5168 Z0.4713
G1 X13.5290 Y-19.5217 Z0.4696
G1 X13.5372 Y-19.5265 Z0.4680
G1 X13.5454 Y-19.5314 Z0.4663
G1 X13.5536 Y-19.5361 Z0.4646
G1 X13.5618 Y-19.5409 Z0.4629
G1 X13.5297 Y-19.5093 Z0.4550
G1 X13.4971 Y-19.4783 Z0.4471
G1 X13.4640 Y-19.4478 Z0.4391
G1 X13.4303 Y-19.4180 Z0.4312
G1 X13.3961 Y-19.3887 Z0.4233
G1 X13.3614 Y-19.3601 Z0.4153
G1 X13.3262 Y-19.3321 Z0.4074
G1 X13.2904 Y-19.3047 Z0.3994
G1 X13.2543 Y-19.2779 Z0.3915
G1 X13.2176 Y-19.2518 Z0.3836
G1 X13.1805 Y-19.2263 Z0.3756
G1 X13.1429 Y-19.2015 Z0.3677
G1 X13.1050 Y-19.1774 Z0.3598
G1 X13.0666 Y-19.1539 Z0.3518
G1 X13.0277 Y-19.1311 Z0.3439
G1 X13.0462 Y-19.1494 Z0.3393
G1 X13.0648 Y-19.1675 Z0.3347
G1 X13.0836 Y-19.1855 Z0.3301
G1 X13.1026 Y-19.2032 Z0.3256
G1 X13.1218 Y-19.2207 Z0.3210
G1 X13.1411 Y-19.2381 Z0.3164
G1 X13.1607 Y-19.2552 Z0.3118
G1 X13.1804 Y-19.2722 Z0.3072
G1 X13.2002 Y-19.2889 Z0.3026
G1 X13.2203 Y-19.3055 Z0.2981
G1 X13.2405 Y-19.3218 Z0.2935
G1 X13.2609 Y-19.3379 Z0.2889
G1 X13.2814 Y-19.3539 Z0.2843
G1 X13.3021 Y-19.3696 Z0.2797
G1 X13.3230 Y-19.3851 Z0.2752
G1 X13.3306 Y-19.3907 Z0.2735
G1 X13.3383 Y-19.3963 Z0.2718
G1 X13.3460 Y-19.4019 Z0.2701
G1 X13.3538 Y-19.4074 Z0.2684
G1 X13.3615 Y-19.4129 Z0.2668
G1 X13.3693 Y-19.4184 Z0.2651
G1 X13.3771 Y-19.4238 Z0.2634
G1 X13.3849 Y-19.4292 Z0.2617
G1 X13.3928 Y-19.4346 Z0.2601
G1 X13.4006 Y-19.4400 Z0.2584
G1 X13.4085 Y-19.4453 Z0.2567
G1 X13.4164 Y-19.4506 Z0.2550
G1 X13.4243 Y-19.4559 Z0.2534
G1 X13.4322 Y-19.4611 Z0.2517
G1 X13.4402 Y-19.4663 Z0.2500
G3X13.5618Y-19.5409Z0.2500I1.3933J2.1357 F100.
G3X13.0277Y-19.1311Z0.2500I-1.8058J-1.8005
G3X13.3230Y-19.3851Z0.2500I1.8058J1.8005
G3X13.4402Y-19.4663Z0.2500I1.5105J2.0545
G1 X13.4419 Y-19.4637 Z0.2500
G1 X13.4536 Y-19.4573 Z0.2500
G1 X13.4645 Y-19.4584 Z0.2500
G1 X13.4852 Y-19.4766 Z0.2500
G1 X13.5263 Y-19.5312 Z0.2500
G1 X13.5376 Y-19.5394 Z0.2500
G1 X13.5495 Y-19.5420 Z0.2500
G1 X13.5619 Y-19.5383 Z0.2500
G1 X13.5722 Y-19.5298 Z0.2500
G1 X13.5777 Y-19.5187 Z0.2500
G1 X13.5759 Y-19.5069 Z0.2500
G1 X13.5569 Y-19.4842 Z0.2500
G3X13.0374Y-19.0551Z0.2500I-1.2954J-1.0393
G1 X13.0113 Y-19.0536 Z0.2500
G3X12.9783Y-19.2366Z0.2500I0.0183J-0.0978
G3X13.3582Y-19.5920Z0.2500I2.5892J2.3874
G3X14.0477Y-19.9138Z0.2500I1.4753J2.2614
G3X12.7609Y-18.8353Z0.2500I-2.2917J-1.4276
G3X12.6730Y-18.9499Z0.2500I-0.0279J-0.0696
G3X13.2341Y-19.5059Z0.2500I2.1605J1.6193
G3X13.3582Y-19.5920Z0.2500I1.5994J2.1753
G0 Z4.0000
G0 X13.3582 Y-19.5920 
M5
G53 Z
( END FILE top-jack-pocket-front-01.nc )
( BEGIN FILE top-jack-pocket-front-02.ncTNUM: 4 )
( Lefty:False Nunits:1 )
( cline: 9.733 delta:15.5 )
( start_unit: 1 num_units: 1)
( MOP:  top-jack-pocket-front-02 )
( FILE: G:\Shared drives\AlloyProjectFiles\Customer CAD files\Alloy-Standard-Builds-CAM\s-in\Control\top-jack-pocket-front-02.nc)
G90
(  BEGIN TOOL LIST )
(  TOOL 4 - Downcut PT500 - DESC: 0.5000 DIA, 2 FLUTE,  CARBIDE MAT )
(  ENDOF TOOL LIST )
( top-jack-pocket-front-02)
T04
S12000
M3
G0 Z4.0000
G0 X13.5273 Y-19.5291 
G1 X13.5273 Y-19.5291 Z0.2500 F75.
G17
G2X13.1778Y-19.5825Z0.2500I-0.2014J0.1481 F40.
G2X12.5970Y-19.0069Z0.2500I1.6557J2.2519 F80.
G2X12.7963Y-18.7471Z0.2500I0.1360J0.1020
G2X14.1741Y-19.9397Z0.2500I-1.0403J-2.5943
G2X14.1698Y-20.0074Z0.2500I-0.0527J-0.0306
G2X14.1055Y-20.0292Z0.2500I-0.0484J0.0371
G2X13.1778Y-19.5825Z0.2500I0.7280J2.6986
G2X12.9833Y-19.4255Z0.2500I1.6425J2.2345
G2X12.9615Y-19.0725Z0.2500I0.1655J0.1874
G0 Z4.0000
G0 X12.9615 Y-19.0725 
M5
G53 Z
G0 X2Y0
( END FILE top-jack-pocket-front-02.nc )
( BEGIN FILE top-jack-pocket-front-03.ncTNUM: 17 )
( Lefty:False Nunits:1 )
( cline: 9.733 delta:15.5 )
( start_unit: 1 num_units: 1)
( MOP:  top-jack-pocket-front-03 )
( FILE: G:\Shared drives\AlloyProjectFiles\Customer CAD files\Alloy-Standard-Builds-CAM\s-in\Control\top-jack-pocket-front-03.nc)
G90
(  BEGIN TOOL LIST )
(  TOOL 17 - Undercut PT75 - DESC: 0.7500 DIA, 2 FLUTE,  CARBIDE MAT )
(  ENDOF TOOL LIST )
( top-jack-pocket-front-03)
( Undercut for S- jack pockets)
T17
S14000
M3
G0 Z4.9163
G0 X12.9630 Y-19.0915 
G1 X12.9630 Y-19.0915 Z1.4700 F75.
G1 X12.2881 Y-18.5607 Z1.4700 F60.
G1 X12.2881 Y-18.5607 Z1.0950
G1 X12.9630 Y-19.0915 Z1.0950
G0 Z4.9163
G0 X12.9630 Y-19.0915 
M5
G53 Z
G0 X2Y0
( END FILE top-jack-pocket-front-03.nc )
