( BEGIN FILE BellyCarve-back-01.ncTNUM: 11 )
( Lefty:False Nunits:1 )
( cline: 9.733 delta:15.5 )
( start_unit: 1 num_units: 1)
( MOP:  BellyCarve-back-01 )
( FILE: G:\Shared drives\AlloyProjectFiles\Customer CAD files\Alloy-Standard-Builds-CAM\s-in\FullStandardS-Specific\BellyCarve-back-01.nc)
G90
(  BEGIN TOOL LIST )
(  TOOL 11 - Downcut PT750 ROUGH - DESC: 0.7500 DIA, 2 FLUTE,  CARBIDE MAT )
(  ENDOF TOOL LIST )
( BellyCarve-back-01)
T11
S14000
M3
G0 Z4.0000
G0 X15.5898 Y-8.1259 
G1 X15.5898 Y-8.1259 Z1.7500 F75.
G1 X15.6049 Y-8.0027 Z1.7281 F50.
G1 X15.6204 Y-7.8537 Z1.7017
G1 X15.6334 Y-7.7052 Z1.6754
G1 X15.6439 Y-7.5570 Z1.6492
G1 X15.6519 Y-7.4085 Z1.6230
G1 X15.6572 Y-7.2592 Z1.5966
G1 X15.6595 Y-7.1089 Z1.5701
G1 X15.6584 Y-6.9576 Z1.5435
G1 X15.6536 Y-6.8053 Z1.5166
G1 X15.6487 Y-6.7113 Z1.5000
G17
G2X15.5139Y-8.6010Z1.5000I-8.0257J-0.3775 F150.
G2X15.2979Y-9.4365Z1.5000I-6.9100J1.3415
G2X14.9249Y-10.5836Z1.5000I-294.4611J95.0936
G3X14.6877Y-11.4588Z1.5000I8.3172J-2.7243
G3X14.6141Y-12.2723Z1.5000I3.0864J-0.6893
G3X14.7207Y-12.8237Z1.5000I2.1559J0.1307
G3X14.9361Y-13.3929Z1.5000I6.2364J2.0347
G3X15.4144Y-14.4998Z1.5000I67.6104J28.5626
G2X16.2453Y-16.9162Z1.5000I-15.0095J-6.5122
G2X16.5174Y-18.4524Z1.5000I-9.7265J-2.5144
G2X16.5058Y-19.5871Z1.5000I-5.3173J-0.5135
G0 Z1.7500
G0 X16.5058 Y-19.5871 
G0 Z1.7500
G0 X16.4871 Y-18.1731 
G1 X16.4871 Y-18.1731 Z1.5000 F75.
G1 X16.4999 Y-18.2770 Z1.4815 F50.
G1 X16.5174 Y-18.4524 Z1.4504
G1 X16.5305 Y-18.6293 Z1.4192
G1 X16.5390 Y-18.8078 Z1.3877
G1 X16.5420 Y-18.9882 Z1.3559
G1 X16.5390 Y-19.1702 Z1.3238
G1 X16.5292 Y-19.3538 Z1.2913
G1 X16.5125 Y-19.5333 Z1.2595
G1 X16.5058 Y-19.5871 Z1.2500
G3X16.5305Y-18.6293Z1.2500I-5.0067J0.6083 F150.
G3X16.2863Y-17.0831Z1.2500I-9.1606J-0.6543
G3X15.6716Y-15.1304Z1.2500I-14.8749J-3.6099
G3X15.1044Y-13.7881Z1.2500I-28.6507J-11.3157
G2X14.7506Y-12.9144Z1.2500I13.1319J5.8265
G2X14.6141Y-12.2723Z1.2500I2.2263J0.8088
G2X14.6877Y-11.4588Z1.2500I3.1600J0.1242
G2X14.8563Y-10.8057Z1.2500I7.1696J-1.5026
G2X15.2236Y-9.6711Z1.2500I49.4978J-15.3975
G3X15.4832Y-8.7508Z1.2500I-8.7809J2.9738
G3X15.6536Y-6.8053Z1.2500I-7.9701J1.6780
G1 X15.6487 Y-6.7113 Z1.2500
G0 Z1.6250
G0 X15.6487 Y-6.7113 
G0 Z1.6250
G0 X15.5898 Y-8.1259 
G1 X15.5898 Y-8.1259 Z1.2500 F75.
G1 X15.6049 Y-8.0027 Z1.2281 F50.
G1 X15.6204 Y-7.8537 Z1.2017
G1 X15.6334 Y-7.7052 Z1.1754
G1 X15.6439 Y-7.5570 Z1.1492
G1 X15.6519 Y-7.4085 Z1.1230
G1 X15.6572 Y-7.2592 Z1.0966
G1 X15.6595 Y-7.1089 Z1.0701
G1 X15.6584 Y-6.9576 Z1.0435
G1 X15.6536 Y-6.8053 Z1.0166
G1 X15.6487 Y-6.7113 Z1.0000
G2X15.5139Y-8.6010Z1.0000I-8.0257J-0.3775 F150.
G2X15.2979Y-9.4365Z1.0000I-6.9100J1.3415
G2X14.9249Y-10.5836Z1.0000I-294.4611J95.0936
G3X14.6877Y-11.4588Z1.0000I8.3172J-2.7243
G3X14.6141Y-12.2723Z1.0000I3.0864J-0.6893
G3X14.7207Y-12.8237Z1.0000I2.1559J0.1307
G3X14.9361Y-13.3929Z1.0000I6.2364J2.0347
G3X15.4144Y-14.4998Z1.0000I67.6104J28.5626
G2X16.2453Y-16.9162Z1.0000I-15.0095J-6.5122
G2X16.5174Y-18.4524Z1.0000I-9.7265J-2.5144
G2X16.5058Y-19.5871Z1.0000I-5.3173J-0.5135
G0 Z1.6230
G0 X16.5058 Y-19.5871 
G0 Z1.6230
G0 X16.4871 Y-18.1731 
G1 X16.4871 Y-18.1731 Z1.0000 F75.
G1 X16.4999 Y-18.2770 Z0.9815 F50.
G1 X16.5174 Y-18.4524 Z0.9504
G1 X16.5305 Y-18.6293 Z0.9192
G1 X16.5390 Y-18.8078 Z0.8877
G1 X16.5420 Y-18.9882 Z0.8559
G1 X16.5390 Y-19.1702 Z0.8238
G1 X16.5292 Y-19.3538 Z0.7913
G1 X16.5125 Y-19.5333 Z0.7595
G1 X16.5058 Y-19.5871 Z0.7500
G3X16.5305Y-18.6293Z0.7500I-5.0067J0.6083 F150.
G3X16.2863Y-17.0831Z0.7500I-9.1606J-0.6543
G3X15.6716Y-15.1304Z0.7500I-14.8749J-3.6099
G3X15.1044Y-13.7881Z0.7500I-28.6507J-11.3157
G2X14.7506Y-12.9144Z0.7500I13.1319J5.8265
G2X14.6141Y-12.2723Z0.7500I2.2263J0.8088
G2X14.6877Y-11.4588Z0.7500I3.1600J0.1242
G2X14.8563Y-10.8057Z0.7500I7.1696J-1.5026
G2X15.2236Y-9.6711Z0.7500I49.4978J-15.3975
G3X15.4832Y-8.7508Z0.7500I-8.7809J2.9738
G3X15.6536Y-6.8053Z0.7500I-7.9701J1.6780
G1 X15.6487 Y-6.7113 Z0.7500
G0 Z4.0000
G0 X15.6487 Y-6.7113 
M5
G53 Z
G0 X2Y0
( MOP:  BellyCarve-back-01 )
( FILE: G:\Shared drives\AlloyProjectFiles\Customer CAD files\Alloy-Standard-Builds-CAM\s-in\FullStandardS-Specific\BellyCarve-back-01.nc)
G90
(  BEGIN TOOL LIST )
(  TOOL 11 - Downcut PT750 ROUGH - DESC: 0.7500 DIA, 2 FLUTE,  CARBIDE MAT )
(  ENDOF TOOL LIST )
( BellyCarve-back-01)
T11
S14000
M3
G0 Z4.0000
G0 X15.5898 Y-8.1259 
G1 X15.5898 Y-8.1259 Z1.7500 F75.
G1 X15.6049 Y-8.0027 Z1.7281 F50.
G1 X15.6204 Y-7.8537 Z1.7017
G1 X15.6334 Y-7.7052 Z1.6754
G1 X15.6439 Y-7.5570 Z1.6492
G1 X15.6519 Y-7.4085 Z1.6230
G1 X15.6572 Y-7.2592 Z1.5966
G1 X15.6595 Y-7.1089 Z1.5701
G1 X15.6584 Y-6.9576 Z1.5435
G1 X15.6536 Y-6.8053 Z1.5166
G1 X15.6487 Y-6.7113 Z1.5000
G17
G2X15.5139Y-8.6010Z1.5000I-8.0257J-0.3775 F150.
G2X15.2979Y-9.4365Z1.5000I-6.9100J1.3415
G2X14.9249Y-10.5836Z1.5000I-294.4611J95.0936
G3X14.6877Y-11.4588Z1.5000I8.3172J-2.7243
G3X14.6141Y-12.2723Z1.5000I3.0864J-0.6893
G3X14.7207Y-12.8237Z1.5000I2.1559J0.1307
G3X14.9361Y-13.3929Z1.5000I6.2364J2.0347
G3X15.4144Y-14.4998Z1.5000I67.6104J28.5626
G2X16.2453Y-16.9162Z1.5000I-15.0095J-6.5122
G2X16.5174Y-18.4524Z1.5000I-9.7265J-2.5144
G2X16.5058Y-19.5871Z1.5000I-5.3173J-0.5135
G0 Z1.7500
G0 X16.5058 Y-19.5871 
G0 Z1.7500
G0 X16.4871 Y-18.1731 
G1 X16.4871 Y-18.1731 Z1.5000 F75.
G1 X16.4999 Y-18.2770 Z1.4815 F50.
G1 X16.5174 Y-18.4524 Z1.4504
G1 X16.5305 Y-18.6293 Z1.4192
G1 X16.5390 Y-18.8078 Z1.3877
G1 X16.5420 Y-18.9882 Z1.3559
G1 X16.5390 Y-19.1702 Z1.3238
G1 X16.5292 Y-19.3538 Z1.2913
G1 X16.5125 Y-19.5333 Z1.2595
G1 X16.5058 Y-19.5871 Z1.2500
G3X16.5305Y-18.6293Z1.2500I-5.0067J0.6083 F150.
G3X16.2863Y-17.0831Z1.2500I-9.1606J-0.6543
G3X15.6716Y-15.1304Z1.2500I-14.8749J-3.6099
G3X15.1044Y-13.7881Z1.2500I-28.6507J-11.3157
G2X14.7506Y-12.9144Z1.2500I13.1319J5.8265
G2X14.6141Y-12.2723Z1.2500I2.2263J0.8088
G2X14.6877Y-11.4588Z1.2500I3.1600J0.1242
G2X14.8563Y-10.8057Z1.2500I7.1696J-1.5026
G2X15.2236Y-9.6711Z1.2500I49.4978J-15.3975
G3X15.4832Y-8.7508Z1.2500I-8.7809J2.9738
G3X15.6536Y-6.8053Z1.2500I-7.9701J1.6780
G1 X15.6487 Y-6.7113 Z1.2500
G0 Z1.6250
G0 X15.6487 Y-6.7113 
G0 Z1.6250
G0 X15.5898 Y-8.1259 
G1 X15.5898 Y-8.1259 Z1.2500 F75.
G1 X15.6049 Y-8.0027 Z1.2281 F50.
G1 X15.6204 Y-7.8537 Z1.2017
G1 X15.6334 Y-7.7052 Z1.1754
G1 X15.6439 Y-7.5570 Z1.1492
G1 X15.6519 Y-7.4085 Z1.1230
G1 X15.6572 Y-7.2592 Z1.0966
G1 X15.6595 Y-7.1089 Z1.0701
G1 X15.6584 Y-6.9576 Z1.0435
G1 X15.6536 Y-6.8053 Z1.0166
G1 X15.6487 Y-6.7113 Z1.0000
G2X15.5139Y-8.6010Z1.0000I-8.0257J-0.3775 F150.
G2X15.2979Y-9.4365Z1.0000I-6.9100J1.3415
G2X14.9249Y-10.5836Z1.0000I-294.4611J95.0936
G3X14.6877Y-11.4588Z1.0000I8.3172J-2.7243
G3X14.6141Y-12.2723Z1.0000I3.0864J-0.6893
G3X14.7207Y-12.8237Z1.0000I2.1559J0.1307
G3X14.9361Y-13.3929Z1.0000I6.2364J2.0347
G3X15.4144Y-14.4998Z1.0000I67.6104J28.5626
G2X16.2453Y-16.9162Z1.0000I-15.0095J-6.5122
G2X16.5174Y-18.4524Z1.0000I-9.7265J-2.5144
G2X16.5058Y-19.5871Z1.0000I-5.3173J-0.5135
G0 Z1.6230
G0 X16.5058 Y-19.5871 
G0 Z1.6230
G0 X16.4871 Y-18.1731 
G1 X16.4871 Y-18.1731 Z1.0000 F75.
G1 X16.4999 Y-18.2770 Z0.9815 F50.
G1 X16.5174 Y-18.4524 Z0.9504
G1 X16.5305 Y-18.6293 Z0.9192
G1 X16.5390 Y-18.8078 Z0.8877
G1 X16.5420 Y-18.9882 Z0.8559
G1 X16.5390 Y-19.1702 Z0.8238
G1 X16.5292 Y-19.3538 Z0.7913
G1 X16.5125 Y-19.5333 Z0.7595
G1 X16.5058 Y-19.5871 Z0.7500
G3X16.5305Y-18.6293Z0.7500I-5.0067J0.6083 F150.
G3X16.2863Y-17.0831Z0.7500I-9.1606J-0.6543
G3X15.6716Y-15.1304Z0.7500I-14.8749J-3.6099
G3X15.1044Y-13.7881Z0.7500I-28.6507J-11.3157
G2X14.7506Y-12.9144Z0.7500I13.1319J5.8265
G2X14.6141Y-12.2723Z0.7500I2.2263J0.8088
G2X14.6877Y-11.4588Z0.7500I3.1600J0.1242
G2X14.8563Y-10.8057Z0.7500I7.1696J-1.5026
G2X15.2236Y-9.6711Z0.7500I49.4978J-15.3975
G3X15.4832Y-8.7508Z0.7500I-8.7809J2.9738
G3X15.6536Y-6.8053Z0.7500I-7.9701J1.6780
G1 X15.6487 Y-6.7113 Z0.7500
G0 Z4.0000
G0 X15.6487 Y-6.7113 
M5
G53 Z
G0 X2Y0
( MOP:  BellyCarve-back-01 )
( FILE: G:\Shared drives\AlloyProjectFiles\Customer CAD files\Alloy-Standard-Builds-CAM\s-in\FullStandardS-Specific\BellyCarve-back-01.nc)
G90
(  BEGIN TOOL LIST )
(  TOOL 11 - Downcut PT750 ROUGH - DESC: 0.7500 DIA, 2 FLUTE,  CARBIDE MAT )
(  ENDOF TOOL LIST )
( BellyCarve-back-01)
T11
S14000
M3
G0 Z4.0000
G0 X15.5898 Y-8.1259 
G1 X15.5898 Y-8.1259 Z1.7500 F75.
G1 X15.6049 Y-8.0027 Z1.7281 F50.
G1 X15.6204 Y-7.8537 Z1.7017
G1 X15.6334 Y-7.7052 Z1.6754
G1 X15.6439 Y-7.5570 Z1.6492
G1 X15.6519 Y-7.4085 Z1.6230
G1 X15.6572 Y-7.2592 Z1.5966
G1 X15.6595 Y-7.1089 Z1.5701
G1 X15.6584 Y-6.9576 Z1.5435
G1 X15.6536 Y-6.8053 Z1.5166
G1 X15.6487 Y-6.7113 Z1.5000
G17
G2X15.5139Y-8.6010Z1.5000I-8.0257J-0.3775 F150.
G2X15.2979Y-9.4365Z1.5000I-6.9100J1.3415
G2X14.9249Y-10.5836Z1.5000I-294.4611J95.0936
G3X14.6877Y-11.4588Z1.5000I8.3172J-2.7243
G3X14.6141Y-12.2723Z1.5000I3.0864J-0.6893
G3X14.7207Y-12.8237Z1.5000I2.1559J0.1307
G3X14.9361Y-13.3929Z1.5000I6.2364J2.0347
G3X15.4144Y-14.4998Z1.5000I67.6104J28.5626
G2X16.2453Y-16.9162Z1.5000I-15.0095J-6.5122
G2X16.5174Y-18.4524Z1.5000I-9.7265J-2.5144
G2X16.5058Y-19.5871Z1.5000I-5.3173J-0.5135
G0 Z1.7500
G0 X16.5058 Y-19.5871 
G0 Z1.7500
G0 X16.4871 Y-18.1731 
G1 X16.4871 Y-18.1731 Z1.5000 F75.
G1 X16.4999 Y-18.2770 Z1.4815 F50.
G1 X16.5174 Y-18.4524 Z1.4504
G1 X16.5305 Y-18.6293 Z1.4192
G1 X16.5390 Y-18.8078 Z1.3877
G1 X16.5420 Y-18.9882 Z1.3559
G1 X16.5390 Y-19.1702 Z1.3238
G1 X16.5292 Y-19.3538 Z1.2913
G1 X16.5125 Y-19.5333 Z1.2595
G1 X16.5058 Y-19.5871 Z1.2500
G3X16.5305Y-18.6293Z1.2500I-5.0067J0.6083 F150.
G3X16.2863Y-17.0831Z1.2500I-9.1606J-0.6543
G3X15.6716Y-15.1304Z1.2500I-14.8749J-3.6099
G3X15.1044Y-13.7881Z1.2500I-28.6507J-11.3157
G2X14.7506Y-12.9144Z1.2500I13.1319J5.8265
G2X14.6141Y-12.2723Z1.2500I2.2263J0.8088
G2X14.6877Y-11.4588Z1.2500I3.1600J0.1242
G2X14.8563Y-10.8057Z1.2500I7.1696J-1.5026
G2X15.2236Y-9.6711Z1.2500I49.4978J-15.3975
G3X15.4832Y-8.7508Z1.2500I-8.7809J2.9738
G3X15.6536Y-6.8053Z1.2500I-7.9701J1.6780
G1 X15.6487 Y-6.7113 Z1.2500
G0 Z1.6250
G0 X15.6487 Y-6.7113 
G0 Z1.6250
G0 X15.5898 Y-8.1259 
G1 X15.5898 Y-8.1259 Z1.2500 F75.
G1 X15.6049 Y-8.0027 Z1.2281 F50.
G1 X15.6204 Y-7.8537 Z1.2017
G1 X15.6334 Y-7.7052 Z1.1754
G1 X15.6439 Y-7.5570 Z1.1492
G1 X15.6519 Y-7.4085 Z1.1230
G1 X15.6572 Y-7.2592 Z1.0966
G1 X15.6595 Y-7.1089 Z1.0701
G1 X15.6584 Y-6.9576 Z1.0435
G1 X15.6536 Y-6.8053 Z1.0166
G1 X15.6487 Y-6.7113 Z1.0000
G2X15.5139Y-8.6010Z1.0000I-8.0257J-0.3775 F150.
G2X15.2979Y-9.4365Z1.0000I-6.9100J1.3415
G2X14.9249Y-10.5836Z1.0000I-294.4611J95.0936
G3X14.6877Y-11.4588Z1.0000I8.3172J-2.7243
G3X14.6141Y-12.2723Z1.0000I3.0864J-0.6893
G3X14.7207Y-12.8237Z1.0000I2.1559J0.1307
G3X14.9361Y-13.3929Z1.0000I6.2364J2.0347
G3X15.4144Y-14.4998Z1.0000I67.6104J28.5626
G2X16.2453Y-16.9162Z1.0000I-15.0095J-6.5122
G2X16.5174Y-18.4524Z1.0000I-9.7265J-2.5144
G2X16.5058Y-19.5871Z1.0000I-5.3173J-0.5135
G0 Z1.6230
G0 X16.5058 Y-19.5871 
G0 Z1.6230
G0 X16.4871 Y-18.1731 
G1 X16.4871 Y-18.1731 Z1.0000 F75.
G1 X16.4999 Y-18.2770 Z0.9815 F50.
G1 X16.5174 Y-18.4524 Z0.9504
G1 X16.5305 Y-18.6293 Z0.9192
G1 X16.5390 Y-18.8078 Z0.8877
G1 X16.5420 Y-18.9882 Z0.8559
G1 X16.5390 Y-19.1702 Z0.8238
G1 X16.5292 Y-19.3538 Z0.7913
G1 X16.5125 Y-19.5333 Z0.7595
G1 X16.5058 Y-19.5871 Z0.7500
G3X16.5305Y-18.6293Z0.7500I-5.0067J0.6083 F150.
G3X16.2863Y-17.0831Z0.7500I-9.1606J-0.6543
G3X15.6716Y-15.1304Z0.7500I-14.8749J-3.6099
G3X15.1044Y-13.7881Z0.7500I-28.6507J-11.3157
G2X14.7506Y-12.9144Z0.7500I13.1319J5.8265
G2X14.6141Y-12.2723Z0.7500I2.2263J0.8088
G2X14.6877Y-11.4588Z0.7500I3.1600J0.1242
G2X14.8563Y-10.8057Z0.7500I7.1696J-1.5026
G2X15.2236Y-9.6711Z0.7500I49.4978J-15.3975
G3X15.4832Y-8.7508Z0.7500I-8.7809J2.9738
G3X15.6536Y-6.8053Z0.7500I-7.9701J1.6780
G1 X15.6487 Y-6.7113 Z0.7500
G0 Z4.0000
G0 X15.6487 Y-6.7113 
M5
G53 Z
G0 X2Y0
( END FILE BellyCarve-back-01.nc )
( BEGIN FILE BellyCarve-back-04.ncTNUM: 12 )
( Lefty:False Nunits:1 )
( cline: 9.733 delta:15.5 )
( start_unit: 1 num_units: 1)
( MOP:  BellyCarve-back-04 )
( FILE: G:\Shared drives\AlloyProjectFiles\Customer CAD files\Alloy-Standard-Builds-CAM\s-in\FullStandardS-Specific\BellyCarve-back-04.nc)
G90
(  BEGIN TOOL LIST )
(  TOOL 12 - Ball PT750 - DESC: 0.7500 DIA, 2 FLUTE,  CARBIDE MAT )
(  ENDOF TOOL LIST )
( BellyCarve-back-04)
T12
S12000
M3
G0 Z4.0000
G0 X15.4270 Y-6.4348 
G1 X15.4270 Y-6.4348 Z1.6693 F75.
G1 X15.4343 Y-6.4478 Z1.6167 F25.
G1 X15.4542 Y-6.4830 Z1.5799
G1 X15.4815 Y-6.5314 Z1.5521 F150.
G1 X15.4907 Y-6.5476 Z1.5423
G1 X15.4998 Y-6.5637 Z1.5318
G1 X15.5089 Y-6.5799 Z1.5205
G1 X15.5135 Y-6.5879 Z1.5145
G1 X15.5180 Y-6.5960 Z1.5080
G1 X15.5271 Y-6.6122 Z1.4937
G1 X15.5441 Y-6.6421 Z1.4654
G1 X15.5474 Y-6.6481 Z1.4594
G1 X15.5542 Y-6.6601 Z1.4467
G1 X15.5610 Y-6.6721 Z1.4325
G1 X15.5644 Y-6.6781 Z1.4247
G1 X15.5677 Y-6.6840 Z1.4164
G1 X15.5711 Y-6.6900 Z1.4073
G1 X15.5745 Y-6.6960 Z1.3974
G1 X15.5813 Y-6.7080 Z1.3754
G1 X15.5816 Y-6.7085 Z1.3750
G1 X15.6001 Y-6.7413 Z1.3749
G1 X15.6189 Y-6.7747 Z1.3825 F159.
G1 X15.6349 Y-6.8030 Z1.4041
G1 X15.6456 Y-6.8219 Z1.4366
G1 X15.6494 Y-6.8286 Z1.4749
G0 Z1.7673
G0 X15.6494 Y-6.8286 
G0 Z1.7673
G0 X15.3474 Y-6.3748 
G1 X15.3474 Y-6.3748 Z1.7376 F75.
G1 X15.3499 Y-6.3791 Z1.7065 F25.
G1 X15.3570 Y-6.3916 Z1.6785
G1 X15.3681 Y-6.4110 Z1.6564
G1 X15.3821 Y-6.4354 Z1.6423
G1 X15.4029 Y-6.4717 Z1.6290 F150.
G1 X15.4098 Y-6.4839 Z1.6243
G1 X15.4237 Y-6.5081 Z1.6141
G1 X15.4376 Y-6.5323 Z1.6031
G1 X15.4514 Y-6.5565 Z1.5910
G1 X15.4670 Y-6.5838 Z1.5761
G1 X15.4757 Y-6.5989 Z1.5671
G1 X15.4930 Y-6.6292 Z1.5483
G1 X15.5045 Y-6.6493 Z1.5348
G1 X15.5160 Y-6.6694 Z1.5200
G1 X15.5275 Y-6.6894 Z1.5034
G1 X15.5354 Y-6.7032 Z1.4907
G1 X15.5476 Y-6.7245 Z1.4702
G1 X15.5505 Y-6.7295 Z1.4651
G1 X15.5569 Y-6.7408 Z1.4524
G1 X15.5619 Y-6.7496 Z1.4416
G1 X15.5677 Y-6.7596 Z1.4282
G1 X15.5706 Y-6.7647 Z1.4207
G1 X15.5734 Y-6.7697 Z1.4125
G1 X15.5763 Y-6.7747 Z1.4034
G1 X15.5792 Y-6.7797 Z1.3936
G1 X15.5820 Y-6.7847 Z1.3829
G1 X15.5849 Y-6.7897 Z1.3711
G1 X15.5853 Y-6.7905 Z1.3707
G1 X15.5947 Y-6.8068 Z1.3678
G1 X15.6040 Y-6.8230 Z1.3642
G1 X15.6257 Y-6.8609 Z1.3655 F159.
G1 X15.6450 Y-6.8947 Z1.3853
G1 X15.6583 Y-6.9180 Z1.4198
G1 X15.6630 Y-6.9262 Z1.4624
G0 Z1.8061
G0 X15.6630 Y-6.9262 
G0 Z1.8061
G0 X15.2840 Y-6.3446 
G1 X15.2840 Y-6.3446 Z1.7785 F75.
G1 X15.2867 Y-6.3494 Z1.7456 F25.
G1 X15.2948 Y-6.3633 Z1.7163
G1 X15.3072 Y-6.3847 Z1.6940
G1 X15.3227 Y-6.4113 Z1.6811
G1 X15.3403 Y-6.4417 Z1.6729 F150.
G1 X15.3579 Y-6.4722 Z1.6638
G1 X15.3756 Y-6.5026 Z1.6533
G1 X15.3888 Y-6.5254 Z1.6446
G1 X15.4197 Y-6.5786 Z1.6237
G1 X15.4285 Y-6.5938 Z1.6172
G1 X15.4461 Y-6.6242 Z1.6027
G1 X15.4638 Y-6.6547 Z1.5862
G1 X15.4749 Y-6.6738 Z1.5748
G1 X15.4986 Y-6.7147 Z1.5492
G1 X15.5024 Y-6.7213 Z1.5448
G1 X15.5102 Y-6.7347 Z1.5351
G1 X15.5256 Y-6.7614 Z1.5137
G1 X15.5334 Y-6.7747 Z1.5015
G1 X15.5372 Y-6.7814 Z1.4946
G1 X15.5411 Y-6.7880 Z1.4871
G1 X15.5450 Y-6.7947 Z1.4790
G1 X15.5488 Y-6.8014 Z1.4701
G1 X15.5546 Y-6.8114 Z1.4557
G1 X15.5604 Y-6.8214 Z1.4408
G1 X15.5682 Y-6.8347 Z1.4201
G1 X15.5720 Y-6.8414 Z1.4093
G1 X15.5759 Y-6.8480 Z1.3976
G1 X15.5798 Y-6.8547 Z1.3845
G1 X15.5836 Y-6.8614 Z1.3698
G1 X15.5875 Y-6.8681 Z1.3534
G1 X15.5878 Y-6.8685 Z1.3531
G1 X15.6049 Y-6.8980 Z1.3459
G1 X15.6270 Y-6.9361 Z1.3465 F159.
G1 X15.6468 Y-6.9704 Z1.3661
G1 X15.6605 Y-6.9940 Z1.4007
G1 X15.6654 Y-7.0024 Z1.4438
G0 Z1.8324
G0 X15.6654 Y-7.0024 
G0 Z1.8324
G0 X15.2286 Y-6.3294 
G1 X15.2286 Y-6.3294 Z1.8056 F75.
G1 X15.2315 Y-6.3345 Z1.7718 F25.
G1 X15.2401 Y-6.3491 Z1.7420
G1 X15.2533 Y-6.3715 Z1.7196
G1 X15.2696 Y-6.3992 Z1.7074
G1 X15.2906 Y-6.4349 Z1.6994 F150.
G1 X15.3221 Y-6.4886 Z1.6864
G1 X15.3326 Y-6.5065 Z1.6816
G1 X15.3536 Y-6.5422 Z1.6711
G1 X15.3746 Y-6.5780 Z1.6593
G1 X15.3851 Y-6.5959 Z1.6529
G1 X15.3956 Y-6.6138 Z1.6457
G1 X15.4219 Y-6.6585 Z1.6270
G1 X15.4271 Y-6.6674 Z1.6232
G1 X15.4377 Y-6.6853 Z1.6150
G1 X15.4566 Y-6.7176 Z1.5989
G1 X15.4756 Y-6.7499 Z1.5803
G1 X15.4851 Y-6.7660 Z1.5705
G1 X15.4945 Y-6.7821 Z1.5596
G1 X15.4993 Y-6.7902 Z1.5534
G1 X15.5040 Y-6.7983 Z1.5466
G1 X15.5088 Y-6.8063 Z1.5391
G1 X15.5135 Y-6.8144 Z1.5310
G1 X15.5230 Y-6.8305 Z1.5130
G1 X15.5372 Y-6.8547 Z1.4847
G1 X15.5419 Y-6.8628 Z1.4747
G1 X15.5467 Y-6.8709 Z1.4638
G1 X15.5526 Y-6.8810 Z1.4491
G1 X15.5656 Y-6.9032 Z1.4151
G1 X15.5704 Y-6.9112 Z1.4022
G1 X15.5751 Y-6.9193 Z1.3882
G1 X15.5799 Y-6.9274 Z1.3729
G1 X15.5822 Y-6.9314 Z1.3645
G1 X15.5846 Y-6.9354 Z1.3556
G1 X15.5893 Y-6.9435 Z1.3359
G1 X15.5897 Y-6.9441 Z1.3349
G1 X15.6058 Y-6.9714 Z1.3284
G1 X15.6280 Y-7.0093 Z1.3293 F159.
G1 X15.6479 Y-7.0432 Z1.3489
G1 X15.6617 Y-7.0666 Z1.3835
G1 X15.6666 Y-7.0750 Z1.4264
G0 Z1.8505
G0 X15.6666 Y-7.0750 
G0 Z1.8505
G0 X15.1763 Y-6.3203 
G1 X15.1763 Y-6.3203 Z1.8246 F75.
G1 X15.1796 Y-6.3258 Z1.7894 F25.
G1 X15.1889 Y-6.3416 Z1.7587
G1 X15.2033 Y-6.3657 Z1.7365
G1 X15.2207 Y-6.3949 Z1.7255
G1 X15.2446 Y-6.4352 Z1.7192 F150.
G1 X15.2686 Y-6.4755 Z1.7118
G1 X15.2926 Y-6.5158 Z1.7028
G1 X15.3285 Y-6.5762 Z1.6874
G1 X15.3405 Y-6.5963 Z1.6820
G1 X15.3525 Y-6.6165 Z1.6760
G1 X15.3645 Y-6.6366 Z1.6695
G1 X15.3765 Y-6.6568 Z1.6624
G1 X15.3885 Y-6.6769 Z1.6549
G1 X15.4035 Y-6.7021 Z1.6446
G1 X15.4236 Y-6.7359 Z1.6302
G1 X15.4348 Y-6.7547 Z1.6218
G1 X15.4459 Y-6.7735 Z1.6123
G1 X15.4543 Y-6.7875 Z1.6045
G1 X15.4571 Y-6.7922 Z1.6018
G1 X15.4627 Y-6.8016 Z1.5958
G1 X15.4683 Y-6.8110 Z1.5893
G1 X15.4739 Y-6.8204 Z1.5820
G1 X15.4808 Y-6.8321 Z1.5720
G1 X15.4906 Y-6.8485 Z1.5571
G1 X15.4962 Y-6.8579 Z1.5481
G1 X15.5018 Y-6.8673 Z1.5386
G1 X15.5129 Y-6.8861 Z1.5182
G1 X15.5241 Y-6.9048 Z1.4975
G1 X15.5297 Y-6.9142 Z1.4867
G1 X15.5353 Y-6.9236 Z1.4754
G1 X15.5409 Y-6.9330 Z1.4635
G1 X15.5464 Y-6.9423 Z1.4508
G1 X15.5520 Y-6.9517 Z1.4374
G1 X15.5674 Y-6.9775 Z1.3977
G1 X15.5744 Y-6.9893 Z1.3784
G1 X15.5799 Y-6.9986 Z1.3612
G1 X15.5827 Y-7.0033 Z1.3517
G1 X15.5855 Y-7.0080 Z1.3416
G1 X15.5915 Y-7.0180 Z1.3174
G1 X15.6066 Y-7.0435 Z1.3113
G1 X15.6291 Y-7.0812 Z1.3122 F159.
G1 X15.6492 Y-7.1150 Z1.3319
G1 X15.6630 Y-7.1383 Z1.3665
G1 X15.6680 Y-7.1466 Z1.4093
G0 Z1.8641
G0 X15.6680 Y-7.1466 
G0 Z1.8641
G0 X15.1300 Y-6.3220 
G1 X15.1300 Y-6.3220 Z1.8382 F75.
G1 X15.1333 Y-6.3275 Z1.8030 F25.
G1 X15.1428 Y-6.3433 Z1.7722
G1 X15.1573 Y-6.3673 Z1.7500
G1 X15.1750 Y-6.3966 Z1.7391
G1 X15.1961 Y-6.4317 Z1.7338 F150.
G1 X15.2355 Y-6.4970 Z1.7247
G1 X15.2476 Y-6.5170 Z1.7214
G1 X15.2718 Y-6.5572 Z1.7139
G1 X15.2960 Y-6.5973 Z1.7050
G1 X15.3111 Y-6.6224 Z1.6985
G1 X15.3444 Y-6.6776 Z1.6832
G1 X15.3686 Y-6.7178 Z1.6707
G1 X15.3746 Y-6.7278 Z1.6672
G1 X15.3867 Y-6.7479 Z1.6595
G1 X15.4049 Y-6.7780 Z1.6474
G1 X15.4170 Y-6.7980 Z1.6388
G1 X15.4230 Y-6.8081 Z1.6337
G1 X15.4291 Y-6.8181 Z1.6281
G1 X15.4351 Y-6.8282 Z1.6219
G1 X15.4412 Y-6.8382 Z1.6150
G1 X15.4472 Y-6.8482 Z1.6075
G1 X15.4533 Y-6.8583 Z1.5992
G1 X15.4714 Y-6.8884 Z1.5732
G1 X15.4775 Y-6.8984 Z1.5642
G1 X15.4896 Y-6.9185 Z1.5451
G1 X15.5017 Y-6.9386 Z1.5244
G1 X15.5228 Y-6.9737 Z1.4856
G1 X15.5319 Y-6.9887 Z1.4683
G1 X15.5380 Y-6.9988 Z1.4559
G1 X15.5440 Y-7.0088 Z1.4429
G1 X15.5501 Y-7.0188 Z1.4291
G1 X15.5576 Y-7.0314 Z1.4103
G1 X15.5696 Y-7.0512 Z1.3794
G1 X15.5733 Y-7.0574 Z1.3693
G1 X15.5770 Y-7.0636 Z1.3581
G1 X15.5807 Y-7.0697 Z1.3459
G1 X15.5845 Y-7.0759 Z1.3325
G1 X15.5882 Y-7.0821 Z1.3175
G1 X15.5919 Y-7.0882 Z1.3009
G1 X15.6075 Y-7.1141 Z1.2949
G1 X15.6301 Y-7.1516 Z1.2959 F159.
G1 X15.6504 Y-7.1852 Z1.3155
G1 X15.6643 Y-7.2084 Z1.3501
G1 X15.6693 Y-7.2166 Z1.3929
G0 Z1.8744
G0 X15.6693 Y-7.2166 
G0 Z1.8744
G0 X15.0844 Y-6.3253 
G1 X15.0844 Y-6.3253 Z1.8490 F75.
G1 X15.0880 Y-6.3311 Z1.8127 F25.
G1 X15.0981 Y-6.3478 Z1.7813
G1 X15.1136 Y-6.3731 Z1.7592
G1 X15.1321 Y-6.4035 Z1.7494
G1 X15.1566 Y-6.4435 Z1.7454 F150.
G1 X15.1810 Y-6.4835 Z1.7404
G1 X15.1932 Y-6.5035 Z1.7374
G1 X15.2054 Y-6.5235 Z1.7340
G1 X15.2421 Y-6.5835 Z1.7252
G1 X15.2543 Y-6.6035 Z1.7219
G1 X15.2787 Y-6.6435 Z1.7141
G1 X15.3031 Y-6.6835 Z1.7047
G1 X15.3153 Y-6.7035 Z1.6994
G1 X15.3398 Y-6.7435 Z1.6882
G1 X15.3520 Y-6.7635 Z1.6823
G1 X15.3642 Y-6.7835 Z1.6757
G1 X15.3764 Y-6.8035 Z1.6684
G1 X15.3825 Y-6.8135 Z1.6644
G1 X15.3886 Y-6.8235 Z1.6598
G1 X15.3947 Y-6.8335 Z1.6547
G1 X15.4008 Y-6.8435 Z1.6490
G1 X15.4069 Y-6.8535 Z1.6428
G1 X15.4146 Y-6.8661 Z1.6340
G1 X15.4283 Y-6.8886 Z1.6174
G1 X15.4375 Y-6.9036 Z1.6057
G1 X15.4680 Y-6.9536 Z1.5631
G1 X15.4741 Y-6.9636 Z1.5542
G1 X15.4863 Y-6.9836 Z1.5355
G1 X15.4985 Y-7.0036 Z1.5154
G1 X15.5081 Y-7.0192 Z1.4985
G1 X15.5272 Y-7.0506 Z1.4633
G1 X15.5315 Y-7.0576 Z1.4552
G1 X15.5401 Y-7.0716 Z1.4380
G1 X15.5443 Y-7.0786 Z1.4287
G1 X15.5486 Y-7.0856 Z1.4186
G1 X15.5550 Y-7.0960 Z1.4026
G1 X15.5699 Y-7.1205 Z1.3621
G1 X15.5742 Y-7.1275 Z1.3497
G1 X15.5785 Y-7.1345 Z1.3363
G1 X15.5828 Y-7.1415 Z1.3215
G1 X15.5849 Y-7.1450 Z1.3135
G1 X15.5881 Y-7.1503 Z1.3003
G1 X15.5913 Y-7.1555 Z1.2861
G1 X15.5916 Y-7.1561 Z1.2851
G1 X15.6083 Y-7.1833 Z1.2789
G1 X15.6311 Y-7.2207 Z1.2801 F159.
G1 X15.6514 Y-7.2540 Z1.2998
G1 X15.6654 Y-7.2769 Z1.3344
G1 X15.6704 Y-7.2850 Z1.3770
G0 Z1.8793
G0 X15.6704 Y-7.2850 
G0 Z1.8793
G0 X15.0411 Y-6.3328 
G1 X15.0411 Y-6.3328 Z1.8542 F75.
G1 X15.0450 Y-6.3390 Z1.8168 F25.
G1 X15.0559 Y-6.3566 Z1.7848
G1 X15.0722 Y-6.3831 Z1.7629
G1 X15.0918 Y-6.4147 Z1.7543
G1 X15.1164 Y-6.4545 Z1.7525 F150.
G1 X15.1411 Y-6.4944 Z1.7497
G1 X15.1657 Y-6.5343 Z1.7456
G1 X15.1904 Y-6.5741 Z1.7403
G1 X15.2520 Y-6.6738 Z1.7244
G1 X15.2643 Y-6.6937 Z1.7208
G1 X15.2890 Y-6.7336 Z1.7126
G1 X15.3044 Y-6.7585 Z1.7063
G1 X15.3260 Y-6.7934 Z1.6969
G1 X15.3383 Y-6.8133 Z1.6912
G1 X15.3506 Y-6.8333 Z1.6840
G1 X15.3629 Y-6.8532 Z1.6748
G1 X15.3691 Y-6.8632 Z1.6695
G1 X15.3753 Y-6.8731 Z1.6636
G1 X15.3845 Y-6.8881 Z1.6537
G1 X15.4030 Y-6.9180 Z1.6331
G1 X15.4123 Y-6.9329 Z1.6223
G1 X15.4246 Y-6.9529 Z1.6072
G1 X15.4369 Y-6.9728 Z1.5912
G1 X15.4492 Y-6.9927 Z1.5743
G1 X15.4677 Y-7.0226 Z1.5485
G1 X15.4739 Y-7.0326 Z1.5397
G1 X15.4862 Y-7.0525 Z1.5212
G1 X15.4993 Y-7.0737 Z1.4999
G1 X15.5058 Y-7.0843 Z1.4885
G1 X15.5255 Y-7.1160 Z1.4514
G1 X15.5320 Y-7.1266 Z1.4385
G1 X15.5386 Y-7.1372 Z1.4248
G1 X15.5451 Y-7.1478 Z1.4102
G1 X15.5516 Y-7.1584 Z1.3944
G1 X15.5566 Y-7.1663 Z1.3817
G1 X15.5680 Y-7.1848 Z1.3508
G1 X15.5713 Y-7.1901 Z1.3416
G1 X15.5745 Y-7.1954 Z1.3320
G1 X15.5778 Y-7.2007 Z1.3217
G1 X15.5811 Y-7.2060 Z1.3106
G1 X15.5844 Y-7.2113 Z1.2985
G1 X15.5885 Y-7.2179 Z1.2814
G1 X15.5909 Y-7.2219 Z1.2705
G1 X15.5914 Y-7.2226 Z1.2699
G1 X15.6075 Y-7.2487 Z1.2640
G1 X15.6305 Y-7.2858 Z1.2652 F159.
G1 X15.6510 Y-7.3190 Z1.2850
G1 X15.6651 Y-7.3418 Z1.3195
G1 X15.6701 Y-7.3499 Z1.3621
G0 Z1.8800
G0 X15.6701 Y-7.3499 
G0 Z1.8800
G0 X15.0007 Y-6.3451 
G1 X15.0007 Y-6.3451 Z1.8550 F75.
G1 X15.0047 Y-6.3516 Z1.8167 F25.
G1 X15.0162 Y-6.3699 Z1.7843
G1 X15.0334 Y-6.3974 Z1.7626
G1 X15.0537 Y-6.4298 Z1.7550
G1 X15.0786 Y-6.4696 Z1.7550 F150.
G1 X15.1035 Y-6.5093 Z1.7542
G1 X15.1284 Y-6.5490 Z1.7523
G1 X15.1532 Y-6.5887 Z1.7492
G1 X15.1781 Y-6.6285 Z1.7448
G1 X15.2030 Y-6.6682 Z1.7389
G1 X15.2217 Y-6.6980 Z1.7337
G1 X15.2528 Y-6.7476 Z1.7257
G1 X15.2776 Y-6.7874 Z1.7181
G1 X15.2901 Y-6.8072 Z1.7136
G1 X15.3025 Y-6.8271 Z1.7086
G1 X15.3150 Y-6.8470 Z1.7021
G1 X15.3274 Y-6.8668 Z1.6938
G1 X15.3336 Y-6.8768 Z1.6890
G1 X15.3398 Y-6.8867 Z1.6836
G1 X15.3554 Y-6.9115 Z1.6687
G1 X15.3647 Y-6.9264 Z1.6592
G1 X15.3958 Y-6.9761 Z1.6255
G1 X15.4020 Y-6.9860 Z1.6186
G1 X15.4145 Y-7.0059 Z1.6043
G1 X15.4269 Y-7.0257 Z1.5891
G1 X15.4393 Y-7.0456 Z1.5730
G1 X15.4518 Y-7.0655 Z1.5560
G1 X15.4690 Y-7.0930 Z1.5321
G1 X15.4776 Y-7.1068 Z1.5194
G1 X15.4863 Y-7.1205 Z1.5060
G1 X15.4949 Y-7.1343 Z1.4918
G1 X15.5035 Y-7.1480 Z1.4766
G1 X15.5143 Y-7.1652 Z1.4565
G1 X15.5293 Y-7.1893 Z1.4276
G1 X15.5380 Y-7.2031 Z1.4098
G1 X15.5466 Y-7.2168 Z1.3904
G1 X15.5509 Y-7.2237 Z1.3800
G1 X15.5573 Y-7.2340 Z1.3631
G1 X15.5681 Y-7.2512 Z1.3342
G1 X15.5724 Y-7.2581 Z1.3219
G1 X15.5767 Y-7.2650 Z1.3085
G1 X15.5810 Y-7.2719 Z1.2932
G1 X15.5832 Y-7.2753 Z1.2848
G1 X15.5864 Y-7.2805 Z1.2708
G1 X15.5897 Y-7.2856 Z1.2557
G1 X15.5900 Y-7.2861 Z1.2554
G1 X15.6046 Y-7.3095 Z1.2502
G1 X15.6277 Y-7.3464 Z1.2516 F159.
G1 X15.6483 Y-7.3793 Z1.2714
G1 X15.6625 Y-7.4020 Z1.3059
G1 X15.6676 Y-7.4100 Z1.3484
G0 Z1.8800
G0 X15.6676 Y-7.4100 
G0 Z1.8800
G0 X14.9645 Y-6.3644 
G1 X14.9645 Y-6.3644 Z1.8550 F75.
G1 X14.9686 Y-6.3708 Z1.8167 F25.
G1 X14.9802 Y-6.3891 Z1.7843
G1 X14.9975 Y-6.4165 Z1.7626
G1 X15.0180 Y-6.4488 Z1.7550
G1 X15.0933 Y-6.5676 Z1.7549 F150.
G1 X15.1184 Y-6.6072 Z1.7539
G1 X15.1435 Y-6.6467 Z1.7515
G1 X15.1686 Y-6.6863 Z1.7478
G1 X15.1937 Y-6.7259 Z1.7427
G1 X15.2188 Y-6.7655 Z1.7359
G1 X15.2251 Y-6.7754 Z1.7340
G1 X15.2565 Y-6.8249 Z1.7260
G1 X15.2690 Y-6.8447 Z1.7216
G1 X15.2816 Y-6.8645 Z1.7155
G1 X15.2942 Y-6.8843 Z1.7077
G1 X15.3067 Y-6.9041 Z1.6981
G1 X15.3318 Y-6.9436 Z1.6759
G1 X15.3444 Y-6.9634 Z1.6641
G1 X15.3569 Y-6.9832 Z1.6517
G1 X15.3726 Y-7.0080 Z1.6353
G1 X15.4008 Y-7.0525 Z1.6047
G1 X15.4071 Y-7.0624 Z1.5977
G1 X15.4197 Y-7.0822 Z1.5830
G1 X15.4302 Y-7.0987 Z1.5701
G1 X15.4406 Y-7.1153 Z1.5564
G1 X15.4511 Y-7.1318 Z1.5416
G1 X15.4721 Y-7.1649 Z1.5116
G1 X15.4826 Y-7.1814 Z1.4957
G1 X15.4931 Y-7.1980 Z1.4787
G1 X15.5036 Y-7.2145 Z1.4604
G1 X15.5246 Y-7.2476 Z1.4209
G1 X15.5350 Y-7.2641 Z1.4000
G1 X15.5403 Y-7.2724 Z1.3887
G1 X15.5455 Y-7.2807 Z1.3767
G1 X15.5508 Y-7.2889 Z1.3634
G1 X15.5560 Y-7.2972 Z1.3492
G1 X15.5665 Y-7.3138 Z1.3198
G1 X15.5718 Y-7.3220 Z1.3040
G1 X15.5744 Y-7.3262 Z1.2955
G1 X15.5770 Y-7.3303 Z1.2864
G1 X15.5796 Y-7.3344 Z1.2766
G1 X15.5822 Y-7.3386 Z1.2660
G1 X15.5875 Y-7.3468 Z1.2421
G1 X15.5878 Y-7.3474 Z1.2418
G1 X15.6017 Y-7.3693 Z1.2370
G1 X15.6250 Y-7.4060 Z1.2386 F159.
G1 X15.6457 Y-7.4387 Z1.2585
G1 X15.6600 Y-7.4611 Z1.2929
G1 X15.6650 Y-7.4691 Z1.3354
G0 Z1.8800
G0 X15.6650 Y-7.4691 
G0 Z1.8800
G0 X14.9306 Y-6.3874 
G1 X14.9306 Y-6.3874 Z1.8550 F75.
G1 X14.9347 Y-6.3938 Z1.8167 F25.
G1 X14.9465 Y-6.4121 Z1.7843
G1 X14.9640 Y-6.4393 Z1.7626
G1 X14.9847 Y-6.4715 Z1.7550
G1 X15.0986 Y-6.6490 Z1.7549 F150.
G1 X15.1113 Y-6.6688 Z1.7546
G1 X15.1366 Y-6.7082 Z1.7529
G1 X15.1619 Y-6.7476 Z1.7498
G1 X15.1873 Y-6.7871 Z1.7451
G1 X15.2126 Y-6.8265 Z1.7388
G1 X15.2253 Y-6.8463 Z1.7351
G1 X15.2379 Y-6.8660 Z1.7307
G1 X15.2506 Y-6.8857 Z1.7248
G1 X15.2633 Y-6.9054 Z1.7172
G1 X15.2759 Y-6.9251 Z1.7077
G1 X15.2886 Y-6.9449 Z1.6970
G1 X15.3012 Y-6.9646 Z1.6867
G1 X15.3266 Y-7.0040 Z1.6648
G1 X15.3392 Y-7.0237 Z1.6533
G1 X15.3519 Y-7.0435 Z1.6412
G1 X15.3646 Y-7.0632 Z1.6285
G1 X15.3772 Y-7.0829 Z1.6151
G1 X15.3990 Y-7.1169 Z1.5916
G1 X15.4143 Y-7.1406 Z1.5741
G1 X15.4265 Y-7.1596 Z1.5591
G1 X15.4387 Y-7.1786 Z1.5431
G1 X15.4478 Y-7.1928 Z1.5305
G1 X15.4692 Y-7.2261 Z1.5001
G1 X15.4752 Y-7.2356 Z1.4912
G1 X15.4874 Y-7.2546 Z1.4722
G1 X15.4996 Y-7.2735 Z1.4516
G1 X15.5088 Y-7.2878 Z1.4350
G1 X15.5240 Y-7.3115 Z1.4053
G1 X15.5301 Y-7.3210 Z1.3929
G1 X15.5362 Y-7.3305 Z1.3797
G1 X15.5423 Y-7.3400 Z1.3656
G1 X15.5484 Y-7.3495 Z1.3504
G1 X15.5545 Y-7.3590 Z1.3338
G1 X15.5637 Y-7.3732 Z1.3083
G1 X15.5667 Y-7.3780 Z1.2994
G1 X15.5698 Y-7.3827 Z1.2901
G1 X15.5728 Y-7.3875 Z1.2801
G1 X15.5758 Y-7.3922 Z1.2693
G1 X15.5789 Y-7.3970 Z1.2575
G1 X15.5827 Y-7.4029 Z1.2409
G1 X15.5854 Y-7.4071 Z1.2287
G1 X15.5989 Y-7.4281 Z1.2241
G1 X15.6224 Y-7.4647 Z1.2257 F159.
G1 X15.6433 Y-7.4972 Z1.2456
G1 X15.6576 Y-7.5196 Z1.2800
G1 X15.6627 Y-7.5275 Z1.3225
G0 Z1.8800
G0 X15.6627 Y-7.5275 
G0 Z1.8800
G0 X14.8992 Y-6.4141 
G1 X14.8992 Y-6.4141 Z1.8550 F75.
G1 X14.9033 Y-6.4205 Z1.8167 F25.
G1 X14.9151 Y-6.4386 Z1.7843
G1 X14.9328 Y-6.4658 Z1.7626
G1 X14.9537 Y-6.4979 Z1.7550
G1 X15.1070 Y-6.7337 Z1.7549 F150.
G1 X15.1325 Y-6.7730 Z1.7537
G1 X15.1581 Y-6.8123 Z1.7509
G1 X15.1836 Y-6.8516 Z1.7466
G1 X15.1964 Y-6.8712 Z1.7436
G1 X15.2092 Y-6.8909 Z1.7391
G1 X15.2220 Y-6.9105 Z1.7329
G1 X15.2347 Y-6.9302 Z1.7251
G1 X15.2475 Y-6.9498 Z1.7154
G1 X15.2539 Y-6.9597 Z1.7098
G1 X15.2619 Y-6.9719 Z1.7023
G1 X15.2794 Y-6.9990 Z1.6887
G1 X15.2986 Y-7.0284 Z1.6731
G1 X15.3242 Y-7.0677 Z1.6514
G1 X15.3369 Y-7.0874 Z1.6401
G1 X15.3497 Y-7.1070 Z1.6281
G1 X15.3625 Y-7.1267 Z1.6155
G1 X15.3785 Y-7.1513 Z1.5984
G1 X15.4008 Y-7.1856 Z1.5739
G1 X15.4136 Y-7.2053 Z1.5592
G1 X15.4264 Y-7.2249 Z1.5436
G1 X15.4391 Y-7.2446 Z1.5269
G1 X15.4519 Y-7.2642 Z1.5090
G1 X15.4711 Y-7.2937 Z1.4818
G1 X15.4775 Y-7.3035 Z1.4722
G1 X15.4902 Y-7.3232 Z1.4514
G1 X15.4966 Y-7.3330 Z1.4402
G1 X15.5030 Y-7.3428 Z1.4285
G1 X15.5222 Y-7.3723 Z1.3913
G1 X15.5286 Y-7.3821 Z1.3783
G1 X15.5349 Y-7.3920 Z1.3644
G1 X15.5413 Y-7.4018 Z1.3494
G1 X15.5477 Y-7.4116 Z1.3332
G1 X15.5621 Y-7.4337 Z1.2934
G1 X15.5669 Y-7.4411 Z1.2792
G1 X15.5709 Y-7.4472 Z1.2661
G1 X15.5749 Y-7.4534 Z1.2518
G1 X15.5769 Y-7.4565 Z1.2439
G1 X15.5789 Y-7.4595 Z1.2355
G1 X15.5829 Y-7.4657 Z1.2167
G1 X15.5833 Y-7.4664 Z1.2158
G1 X15.5961 Y-7.4860 Z1.2116
G1 X15.6197 Y-7.5224 Z1.2134 F159.
G1 X15.6407 Y-7.5547 Z1.2333
G1 X15.6551 Y-7.5768 Z1.2677
G1 X15.6603 Y-7.5847 Z1.3100
G0 Z1.8800
G0 X15.6603 Y-7.5847 
G0 Z1.8800
G0 X14.8688 Y-6.4423 
G1 X14.8688 Y-6.4423 Z1.8550 F75.
G1 X14.8730 Y-6.4487 Z1.8167 F25.
G1 X14.8849 Y-6.4668 Z1.7843
G1 X14.9028 Y-6.4939 Z1.7626
G1 X14.9238 Y-6.5259 Z1.7550
G1 X15.1042 Y-6.7999 Z1.7550 F150.
G1 X15.1300 Y-6.8391 Z1.7541
G1 X15.1429 Y-6.8587 Z1.7531
G1 X15.1558 Y-6.8783 Z1.7512
G1 X15.1687 Y-6.8978 Z1.7478
G1 X15.1816 Y-6.9174 Z1.7428
G1 X15.1944 Y-6.9370 Z1.7362
G1 X15.2073 Y-6.9566 Z1.7279
G1 X15.2202 Y-6.9761 Z1.7178
G1 X15.2331 Y-6.9957 Z1.7066
G1 X15.2589 Y-7.0349 Z1.6888
G1 X15.2718 Y-7.0544 Z1.6791
G1 X15.2911 Y-7.0838 Z1.6639
G1 X15.3233 Y-7.1328 Z1.6368
G1 X15.3362 Y-7.1523 Z1.6254
G1 X15.3491 Y-7.1719 Z1.6133
G1 X15.3620 Y-7.1915 Z1.6004
G1 X15.3748 Y-7.2111 Z1.5868
G1 X15.4006 Y-7.2502 Z1.5586
G1 X15.4135 Y-7.2698 Z1.5438
G1 X15.4264 Y-7.2894 Z1.5281
G1 X15.4393 Y-7.3089 Z1.5113
G1 X15.4651 Y-7.3481 Z1.4742
G1 X15.4779 Y-7.3677 Z1.4546
G1 X15.4908 Y-7.3873 Z1.4333
G1 X15.4973 Y-7.3970 Z1.4218
G1 X15.5037 Y-7.4068 Z1.4097
G1 X15.5198 Y-7.4313 Z1.3785
G1 X15.5230 Y-7.4362 Z1.3721
G1 X15.5295 Y-7.4460 Z1.3586
G1 X15.5359 Y-7.4558 Z1.3441
G1 X15.5424 Y-7.4656 Z1.3285
G1 X15.5487 Y-7.4752 Z1.3116
G1 X15.5586 Y-7.4902 Z1.2836
G1 X15.5609 Y-7.4937 Z1.2767
G1 X15.5655 Y-7.5008 Z1.2620
G1 X15.5679 Y-7.5043 Z1.2541
G1 X15.5702 Y-7.5078 Z1.2456
G1 X15.5725 Y-7.5113 Z1.2365
G1 X15.5760 Y-7.5166 Z1.2214
G1 X15.5794 Y-7.5219 Z1.2048
G1 X15.5798 Y-7.5225 Z1.2038
G1 X15.5934 Y-7.5431 Z1.1994
G1 X15.6172 Y-7.5792 Z1.2012 F159.
G1 X15.6383 Y-7.6114 Z1.2211
G1 X15.6529 Y-7.6334 Z1.2555
G1 X15.6580 Y-7.6413 Z1.2978
G0 Z1.8800
G0 X15.6580 Y-7.6413 
G0 Z1.8800
G0 X14.8367 Y-6.4677 
G1 X14.8367 Y-6.4677 Z1.8550 F75.
G1 X14.8409 Y-6.4740 Z1.8167 F25.
G1 X14.8529 Y-6.4921 Z1.7843
G1 X14.8709 Y-6.5191 Z1.7626
G1 X14.8921 Y-6.5509 Z1.7550
G1 X15.1033 Y-6.8678 Z1.7550 F150.
G1 X15.1131 Y-6.8825 Z1.7544
G1 X15.1261 Y-6.9020 Z1.7523
G1 X15.1391 Y-6.9215 Z1.7488
G1 X15.1521 Y-6.9410 Z1.7437
G1 X15.1651 Y-6.9605 Z1.7371
G1 X15.1781 Y-6.9800 Z1.7287
G1 X15.1911 Y-6.9995 Z1.7186
G1 X15.1959 Y-7.0068 Z1.7144
G1 X15.2203 Y-7.0434 Z1.6990
G1 X15.2430 Y-7.0775 Z1.6842
G1 X15.2560 Y-7.0970 Z1.6752
G1 X15.2690 Y-7.1165 Z1.6658
G1 X15.2820 Y-7.1360 Z1.6559
G1 X15.2983 Y-7.1604 Z1.6425
G1 X15.3210 Y-7.1945 Z1.6233
G1 X15.3340 Y-7.2140 Z1.6119
G1 X15.3470 Y-7.2335 Z1.5998
G1 X15.3600 Y-7.2530 Z1.5871
G1 X15.3763 Y-7.2774 Z1.5700
G1 X15.3990 Y-7.3116 Z1.5452
G1 X15.4120 Y-7.3311 Z1.5302
G1 X15.4250 Y-7.3506 Z1.5140
G1 X15.4380 Y-7.3701 Z1.4967
G1 X15.4640 Y-7.4091 Z1.4593
G1 X15.4770 Y-7.4286 Z1.4396
G1 X15.4835 Y-7.4383 Z1.4290
G1 X15.4900 Y-7.4481 Z1.4179
G1 X15.4965 Y-7.4578 Z1.4063
G1 X15.5030 Y-7.4676 Z1.3940
G1 X15.5160 Y-7.4871 Z1.3689
G1 X15.5235 Y-7.4984 Z1.3535
G1 X15.5310 Y-7.5096 Z1.3367
G1 X15.5385 Y-7.5209 Z1.3183
G1 X15.5442 Y-7.5294 Z1.3031
G1 X15.5573 Y-7.5491 Z1.2654
G1 X15.5611 Y-7.5547 Z1.2537
G1 X15.5648 Y-7.5604 Z1.2409
G1 X15.5686 Y-7.5660 Z1.2267
G1 X15.5705 Y-7.5688 Z1.2189
G1 X15.5733 Y-7.5731 Z1.2062
G1 X15.5761 Y-7.5773 Z1.1928
G1 X15.5764 Y-7.5777 Z1.1921
G1 X15.5907 Y-7.5992 Z1.1876
G1 X15.6147 Y-7.6352 Z1.1895 F159.
G1 X15.6359 Y-7.6671 Z1.2095
G1 X15.6505 Y-7.6890 Z1.2438
G1 X15.6557 Y-7.6968 Z1.2861
G0 Z1.8800
G0 X15.6557 Y-7.6968 
G0 Z1.8800
G0 X14.8045 Y-6.4931 
G1 X14.8045 Y-6.4931 Z1.8550 F75.
G1 X14.8088 Y-6.4994 Z1.8167 F25.
G1 X14.8209 Y-6.5173 Z1.7843
G1 X14.8391 Y-6.5442 Z1.7626
G1 X14.8605 Y-6.5759 Z1.7550
G1 X15.0767 Y-6.8965 Z1.7549 F150.
G1 X15.0833 Y-6.9062 Z1.7545
G1 X15.0964 Y-6.9257 Z1.7525
G1 X15.1095 Y-6.9451 Z1.7490
G1 X15.1226 Y-6.9645 Z1.7440
G1 X15.1357 Y-6.9840 Z1.7374
G1 X15.1488 Y-7.0034 Z1.7292
G1 X15.1619 Y-7.0228 Z1.7191
G1 X15.1652 Y-7.0277 Z1.7163
G1 X15.1668 Y-7.0301 Z1.7151
G1 X15.1881 Y-7.0617 Z1.7031
G1 X15.2012 Y-7.0811 Z1.6954
G1 X15.2209 Y-7.1102 Z1.6830
G1 X15.2406 Y-7.1394 Z1.6703
G1 X15.2537 Y-7.1588 Z1.6615
G1 X15.2668 Y-7.1783 Z1.6521
G1 X15.2799 Y-7.1977 Z1.6422
G1 X15.2963 Y-7.2220 Z1.6289
G1 X15.3258 Y-7.2657 Z1.6040
G1 X15.3323 Y-7.2754 Z1.5983
G1 X15.3454 Y-7.2948 Z1.5862
G1 X15.3585 Y-7.3143 Z1.5735
G1 X15.3716 Y-7.3337 Z1.5597
G1 X15.3979 Y-7.3726 Z1.5308
G1 X15.4110 Y-7.3920 Z1.5156
G1 X15.4241 Y-7.4114 Z1.4993
G1 X15.4372 Y-7.4308 Z1.4818
G1 X15.4634 Y-7.4697 Z1.4441
G1 X15.4765 Y-7.4891 Z1.4240
G1 X15.4830 Y-7.4988 Z1.4133
G1 X15.4896 Y-7.5086 Z1.4017
G1 X15.4974 Y-7.5201 Z1.3871
G1 X15.5156 Y-7.5470 Z1.3511
G1 X15.5208 Y-7.5547 Z1.3403
G1 X15.5259 Y-7.5624 Z1.3288
G1 X15.5311 Y-7.5701 Z1.3166
G1 X15.5363 Y-7.5778 Z1.3034
G1 X15.5415 Y-7.5855 Z1.2893
G1 X15.5519 Y-7.6009 Z1.2598
G1 X15.5571 Y-7.6086 Z1.2440
G1 X15.5597 Y-7.6125 Z1.2354
G1 X15.5623 Y-7.6163 Z1.2263
G1 X15.5649 Y-7.6202 Z1.2164
G1 X15.5675 Y-7.6240 Z1.2057
G1 X15.5727 Y-7.6317 Z1.1816
G1 X15.5731 Y-7.6323 Z1.1806
G1 X15.5876 Y-7.6538 Z1.1761
G1 X15.6118 Y-7.6896 Z1.1780 F159.
G1 X15.6332 Y-7.7214 Z1.1980
G1 X15.6479 Y-7.7432 Z1.2324
G1 X15.6531 Y-7.7510 Z1.2746
G0 Z1.8800
G0 X15.6531 Y-7.7510 
G0 Z1.8800
G0 X14.7735 Y-6.5200 
G1 X14.7735 Y-6.5200 Z1.8550 F75.
G1 X14.7778 Y-6.5262 Z1.8167 F25.
G1 X14.7900 Y-6.5441 Z1.7843
G1 X14.8083 Y-6.5709 Z1.7626
G1 X14.8299 Y-6.6025 Z1.7550
G1 X15.0447 Y-6.9171 Z1.7550 F150.
G1 X15.0546 Y-6.9316 Z1.7544
G1 X15.0678 Y-6.9509 Z1.7524
G1 X15.0810 Y-6.9703 Z1.7488
G1 X15.0942 Y-6.9896 Z1.7438
G1 X15.1075 Y-7.0090 Z1.7372
G1 X15.1207 Y-7.0284 Z1.7289
G1 X15.1339 Y-7.0477 Z1.7187
G1 X15.1372 Y-7.0525 Z1.7159
G1 X15.1405 Y-7.0574 Z1.7139
G1 X15.1868 Y-7.1251 Z1.6883
G1 X15.2000 Y-7.1445 Z1.6807
G1 X15.2198 Y-7.1735 Z1.6683
G1 X15.2396 Y-7.2025 Z1.6556
G1 X15.2529 Y-7.2219 Z1.6469
G1 X15.2661 Y-7.2413 Z1.6375
G1 X15.2793 Y-7.2606 Z1.6276
G1 X15.2958 Y-7.2848 Z1.6143
G1 X15.3255 Y-7.3284 Z1.5892
G1 X15.3322 Y-7.3380 Z1.5834
G1 X15.3454 Y-7.3574 Z1.5711
G1 X15.3586 Y-7.3767 Z1.5580
G1 X15.3751 Y-7.4009 Z1.5404
G1 X15.3982 Y-7.4348 Z1.5149
G1 X15.4115 Y-7.4542 Z1.4994
G1 X15.4247 Y-7.4735 Z1.4828
G1 X15.4395 Y-7.4953 Z1.4626
G1 X15.4577 Y-7.5219 Z1.4362
G1 X15.4643 Y-7.5316 Z1.4263
G1 X15.4709 Y-7.5412 Z1.4160
G1 X15.4774 Y-7.5507 Z1.4053
G1 X15.4839 Y-7.5603 Z1.3940
G1 X15.4905 Y-7.5699 Z1.3821
G1 X15.4970 Y-7.5795 Z1.3694
G1 X15.5101 Y-7.5986 Z1.3437
G1 X15.5166 Y-7.6082 Z1.3302
G1 X15.5232 Y-7.6178 Z1.3158
G1 X15.5297 Y-7.6273 Z1.3002
G1 X15.5363 Y-7.6369 Z1.2831
G1 X15.5493 Y-7.6561 Z1.2461
G1 X15.5526 Y-7.6609 Z1.2362
G1 X15.5559 Y-7.6656 Z1.2257
G1 X15.5591 Y-7.6704 Z1.2142
G1 X15.5624 Y-7.6752 Z1.2014
G1 X15.5657 Y-7.6800 Z1.1867
G1 X15.5689 Y-7.6848 Z1.1706
G1 X15.5694 Y-7.6855 Z1.1694
G1 X15.5818 Y-7.7036 Z1.1657
G1 X15.6061 Y-7.7392 Z1.1678 F159.
G1 X15.6276 Y-7.7707 Z1.1879
G1 X15.6424 Y-7.7923 Z1.2222
G1 X15.6476 Y-7.8000 Z1.2643
G0 Z1.8800
G0 X15.6476 Y-7.8000 
G0 Z1.8800
G0 X14.7426 Y-6.5470 
G1 X14.7426 Y-6.5470 Z1.8550 F75.
G1 X14.7469 Y-6.5532 Z1.8167 F25.
G1 X14.7593 Y-6.5711 Z1.7843
G1 X14.7777 Y-6.5977 Z1.7626
G1 X14.7995 Y-6.6292 Z1.7550
G1 X15.0160 Y-6.9425 Z1.7550 F150.
G1 X15.0260 Y-6.9570 Z1.7544
G1 X15.0393 Y-6.9763 Z1.7523
G1 X15.0527 Y-6.9955 Z1.7487
G1 X15.0660 Y-7.0148 Z1.7436
G1 X15.0793 Y-7.0341 Z1.7369
G1 X15.0927 Y-7.0534 Z1.7285
G1 X15.1060 Y-7.0727 Z1.7183
G1 X15.1093 Y-7.0775 Z1.7154
G1 X15.1859 Y-7.1883 Z1.6735
G1 X15.1993 Y-7.2076 Z1.6660
G1 X15.2126 Y-7.2269 Z1.6579
G1 X15.2392 Y-7.2655 Z1.6409
G1 X15.2526 Y-7.2847 Z1.6321
G1 X15.2659 Y-7.3040 Z1.6227
G1 X15.2792 Y-7.3233 Z1.6128
G1 X15.2959 Y-7.3474 Z1.5993
G1 X15.3192 Y-7.3811 Z1.5796
G1 X15.3325 Y-7.4004 Z1.5680
G1 X15.3459 Y-7.4197 Z1.5555
G1 X15.3592 Y-7.4390 Z1.5422
G1 X15.3708 Y-7.4559 Z1.5298
G1 X15.3925 Y-7.4872 Z1.5061
G1 X15.3992 Y-7.4968 Z1.4986
G1 X15.4125 Y-7.5161 Z1.4827
G1 X15.4258 Y-7.5354 Z1.4654
G1 X15.4358 Y-7.5498 Z1.4515
G1 X15.4549 Y-7.5774 Z1.4237
G1 X15.4627 Y-7.5888 Z1.4119
G1 X15.4706 Y-7.6001 Z1.3994
G1 X15.4784 Y-7.6115 Z1.3862
G1 X15.4863 Y-7.6229 Z1.3721
G1 X15.4941 Y-7.6342 Z1.3570
G1 X15.5098 Y-7.6569 Z1.3260
G1 X15.5177 Y-7.6683 Z1.3093
G1 X15.5256 Y-7.6797 Z1.2909
G1 X15.5295 Y-7.6854 Z1.2810
G1 X15.5354 Y-7.6939 Z1.2645
G1 X15.5452 Y-7.7081 Z1.2359
G1 X15.5491 Y-7.7138 Z1.2237
G1 X15.5531 Y-7.7195 Z1.2104
G1 X15.5570 Y-7.7251 Z1.1955
G1 X15.5589 Y-7.7280 Z1.1873
G1 X15.5619 Y-7.7322 Z1.1737
G1 X15.5648 Y-7.7365 Z1.1593
G1 X15.5654 Y-7.7373 Z1.1589
G1 X15.5761 Y-7.7527 Z1.1558
G1 X15.6005 Y-7.7881 Z1.1581 F159.
G1 X15.6221 Y-7.8194 Z1.1782
G1 X15.6369 Y-7.8408 Z1.2125
G1 X15.6422 Y-7.8484 Z1.2545
G0 Z1.8800
G0 X15.6422 Y-7.8484 
G0 Z1.8800
G0 X14.7118 Y-6.5739 
G1 X14.7118 Y-6.5739 Z1.8550 F75.
G1 X14.7161 Y-6.5802 Z1.8167 F25.
G1 X14.7285 Y-6.5979 Z1.7843
G1 X14.7471 Y-6.6245 Z1.7626
G1 X14.7691 Y-6.6559 Z1.7550
G1 X14.9874 Y-6.9679 Z1.7550 F150.
G1 X14.9975 Y-6.9823 Z1.7543
G1 X15.0109 Y-7.0015 Z1.7522
G1 X15.0244 Y-7.0208 Z1.7485
G1 X15.0378 Y-7.0400 Z1.7433
G1 X15.0512 Y-7.0592 Z1.7366
G1 X15.0647 Y-7.0784 Z1.7281
G1 X15.0815 Y-7.1024 Z1.7151
G1 X15.1318 Y-7.1744 Z1.6881
G1 X15.1856 Y-7.2512 Z1.6588
G1 X15.1990 Y-7.2704 Z1.6512
G1 X15.2125 Y-7.2896 Z1.6431
G1 X15.2393 Y-7.3280 Z1.6261
G1 X15.2528 Y-7.3472 Z1.6173
G1 X15.2662 Y-7.3664 Z1.6078
G1 X15.2796 Y-7.3856 Z1.5977
G1 X15.2931 Y-7.4048 Z1.5868
G1 X15.3199 Y-7.4432 Z1.5642
G1 X15.3334 Y-7.4624 Z1.5524
G1 X15.3468 Y-7.4817 Z1.5397
G1 X15.3602 Y-7.5009 Z1.5262
G1 X15.3720 Y-7.5177 Z1.5135
G1 X15.3938 Y-7.5489 Z1.4892
G1 X15.4006 Y-7.5585 Z1.4814
G1 X15.4140 Y-7.5777 Z1.4649
G1 X15.4231 Y-7.5907 Z1.4529
G1 X15.4346 Y-7.6071 Z1.4369
G1 X15.4551 Y-7.6365 Z1.4069
G1 X15.4597 Y-7.6430 Z1.3999
G1 X15.4689 Y-7.6561 Z1.3853
G1 X15.4780 Y-7.6692 Z1.3697
G1 X15.4889 Y-7.6847 Z1.3495
G1 X15.5032 Y-7.7051 Z1.3212
G1 X15.5100 Y-7.7149 Z1.3068
G1 X15.5146 Y-7.7215 Z1.2966
G1 X15.5192 Y-7.7280 Z1.2858
G1 X15.5237 Y-7.7346 Z1.2743
G1 X15.5300 Y-7.7435 Z1.2571
G1 X15.5420 Y-7.7607 Z1.2222
G1 X15.5466 Y-7.7672 Z1.2076
G1 X15.5489 Y-7.7705 Z1.1997
G1 X15.5512 Y-7.7738 Z1.1912
G1 X15.5535 Y-7.7770 Z1.1821
G1 X15.5569 Y-7.7819 Z1.1669
G1 X15.5606 Y-7.7873 Z1.1489
G1 X15.5704 Y-7.8013 Z1.1461
G1 X15.5950 Y-7.8364 Z1.1484 F159.
G1 X15.6168 Y-7.8676 Z1.1685
G1 X15.6317 Y-7.8889 Z1.2027
G1 X15.6370 Y-7.8965 Z1.2447
G0 Z1.8800
G0 X15.6370 Y-7.8965 
G0 Z1.8800
G0 X14.6809 Y-6.6009 
G1 X14.6809 Y-6.6009 Z1.8550 F75.
G1 X14.6853 Y-6.6071 Z1.8167 F25.
G1 X14.6979 Y-6.6248 Z1.7843
G1 X14.7166 Y-6.6513 Z1.7626
G1 X14.7387 Y-6.6825 Z1.7550
G1 X14.9554 Y-6.9885 Z1.7550 F150.
G1 X14.9690 Y-7.0077 Z1.7543
G1 X14.9825 Y-7.0268 Z1.7521
G1 X14.9961 Y-7.0459 Z1.7484
G1 X15.0096 Y-7.0650 Z1.7431
G1 X15.0232 Y-7.0842 Z1.7363
G1 X15.0367 Y-7.1033 Z1.7278
G1 X15.0502 Y-7.1224 Z1.7174
G1 X15.0536 Y-7.1272 Z1.7151
G1 X15.0909 Y-7.1798 Z1.6953
G1 X15.1857 Y-7.3137 Z1.6441
G1 X15.1992 Y-7.3328 Z1.6365
G1 X15.2162 Y-7.3567 Z1.6262
G1 X15.2399 Y-7.3902 Z1.6113
G1 X15.2534 Y-7.4093 Z1.6023
G1 X15.2670 Y-7.4285 Z1.5927
G1 X15.2805 Y-7.4476 Z1.5824
G1 X15.2940 Y-7.4667 Z1.5714
G1 X15.3211 Y-7.5050 Z1.5486
G1 X15.3347 Y-7.5241 Z1.5365
G1 X15.3482 Y-7.5432 Z1.5235
G1 X15.3618 Y-7.5624 Z1.5094
G1 X15.3888 Y-7.6006 Z1.4795
G1 X15.3993 Y-7.6154 Z1.4674
G1 X15.4098 Y-7.6302 Z1.4546
G1 X15.4202 Y-7.6449 Z1.4409
G1 X15.4333 Y-7.6634 Z1.4225
G1 X15.4516 Y-7.6893 Z1.3959
G1 X15.4621 Y-7.7040 Z1.3797
G1 X15.4725 Y-7.7188 Z1.3619
G1 X15.4843 Y-7.7354 Z1.3399
G1 X15.4987 Y-7.7558 Z1.3112
G1 X15.5039 Y-7.7631 Z1.3004
G1 X15.5092 Y-7.7705 Z1.2890
G1 X15.5144 Y-7.7779 Z1.2768
G1 X15.5196 Y-7.7853 Z1.2637
G1 X15.5249 Y-7.7927 Z1.2495
G1 X15.5353 Y-7.8075 Z1.2195
G1 X15.5405 Y-7.8149 Z1.2035
G1 X15.5432 Y-7.8185 Z1.1948
G1 X15.5458 Y-7.8222 Z1.1855
G1 X15.5484 Y-7.8259 Z1.1755
G1 X15.5510 Y-7.8296 Z1.1646
G1 X15.5562 Y-7.8370 Z1.1397
G1 X15.5566 Y-7.8375 Z1.1388
G1 X15.5648 Y-7.8492 Z1.1365
G1 X15.5896 Y-7.8841 Z1.1389 F159.
G1 X15.6115 Y-7.9150 Z1.1591
G1 X15.6265 Y-7.9362 Z1.1933
G1 X15.6318 Y-7.9437 Z1.2352
G0 Z1.8800
G0 X15.6318 Y-7.9437 
G0 Z1.8800
G0 X14.6502 Y-6.6278 
G1 X14.6502 Y-6.6278 Z1.8550 F75.
G1 X14.6546 Y-6.6340 Z1.8167 F25.
G1 X14.6672 Y-6.6516 Z1.7843
G1 X14.6861 Y-6.6780 Z1.7626
G1 X14.7084 Y-6.7091 Z1.7550
G1 X14.9268 Y-7.0139 Z1.7550 F150.
G1 X14.9405 Y-7.0329 Z1.7542
G1 X14.9542 Y-7.0520 Z1.7520
G1 X14.9678 Y-7.0710 Z1.7483
G1 X14.9815 Y-7.0901 Z1.7431
G1 X14.9951 Y-7.1091 Z1.7362
G1 X15.0088 Y-7.1282 Z1.7277
G1 X15.0241 Y-7.1496 Z1.7161
G1 X15.0634 Y-7.2044 Z1.6952
G1 X15.1862 Y-7.3758 Z1.6295
G1 X15.1999 Y-7.3949 Z1.6218
G1 X15.2204 Y-7.4235 Z1.6093
G1 X15.2409 Y-7.4520 Z1.5964
G1 X15.2545 Y-7.4711 Z1.5873
G1 X15.2682 Y-7.4901 Z1.5775
G1 X15.2818 Y-7.5092 Z1.5670
G1 X15.2955 Y-7.5283 Z1.5558
G1 X15.3159 Y-7.5568 Z1.5386
G1 X15.3228 Y-7.5664 Z1.5327
G1 X15.3364 Y-7.5854 Z1.5201
G1 X15.3501 Y-7.6045 Z1.5067
G1 X15.3620 Y-7.6211 Z1.4940
G1 X15.3872 Y-7.6563 Z1.4662
G1 X15.3990 Y-7.6727 Z1.4525
G1 X15.4107 Y-7.6891 Z1.4379
G1 X15.4225 Y-7.7055 Z1.4221
G1 X15.4445 Y-7.7362 Z1.3899
G1 X15.4577 Y-7.7546 Z1.3695
G1 X15.4694 Y-7.7710 Z1.3496
G1 X15.4753 Y-7.7792 Z1.3388
G1 X15.4812 Y-7.7874 Z1.3274
G1 X15.4959 Y-7.8079 Z1.2982
G1 X15.4988 Y-7.8120 Z1.2921
G1 X15.5047 Y-7.8202 Z1.2794
G1 X15.5106 Y-7.8284 Z1.2658
G1 X15.5164 Y-7.8366 Z1.2510
G1 X15.5216 Y-7.8438 Z1.2368
G1 X15.5311 Y-7.8571 Z1.2095
G1 X15.5341 Y-7.8612 Z1.2008
G1 X15.5370 Y-7.8653 Z1.1914
G1 X15.5399 Y-7.8694 Z1.1813
G1 X15.5429 Y-7.8735 Z1.1701
G1 X15.5458 Y-7.8776 Z1.1579
G1 X15.5491 Y-7.8822 Z1.1422
G1 X15.5517 Y-7.8858 Z1.1294
G1 X15.5593 Y-7.8964 Z1.1272
G1 X15.5844 Y-7.9314 Z1.1294 F159.
G1 X15.6065 Y-7.9623 Z1.1495
G1 X15.6217 Y-7.9836 Z1.1838
G1 X15.6271 Y-7.9911 Z1.2258
G0 Z1.8800
G0 X15.6271 Y-7.9911 
G0 Z1.8800
G0 X14.6194 Y-6.6547 
G1 X14.6194 Y-6.6547 Z1.8550 F75.
G1 X14.6239 Y-6.6608 Z1.8167 F25.
G1 X14.6366 Y-6.6784 Z1.7843
G1 X14.6557 Y-6.7046 Z1.7626
G1 X14.6781 Y-6.7356 Z1.7550
G1 X14.8983 Y-7.0392 Z1.7550 F150.
G1 X14.9120 Y-7.0582 Z1.7542
G1 X14.9258 Y-7.0771 Z1.7520
G1 X14.9396 Y-7.0961 Z1.7483
G1 X14.9533 Y-7.1151 Z1.7431
G1 X14.9671 Y-7.1341 Z1.7363
G1 X14.9808 Y-7.1530 Z1.7278
G1 X14.9963 Y-7.1744 Z1.7161
G1 X15.0909 Y-7.3048 Z1.6659
G1 X15.1184 Y-7.3428 Z1.6516
G1 X15.1872 Y-7.4376 Z1.6149
G1 X15.2010 Y-7.4566 Z1.6072
G1 X15.2216 Y-7.4851 Z1.5945
G1 X15.2423 Y-7.5135 Z1.5815
G1 X15.2560 Y-7.5325 Z1.5722
G1 X15.2698 Y-7.5515 Z1.5621
G1 X15.2870 Y-7.5752 Z1.5485
G1 X15.3111 Y-7.6084 Z1.5284
G1 X15.3248 Y-7.6274 Z1.5164
G1 X15.3386 Y-7.6463 Z1.5034
G1 X15.3516 Y-7.6642 Z1.4903
G1 X15.3646 Y-7.6821 Z1.4763
G1 X15.3840 Y-7.7090 Z1.4549
G1 X15.3905 Y-7.7179 Z1.4474
G1 X15.4035 Y-7.7358 Z1.4315
G1 X15.4165 Y-7.7537 Z1.4141
G1 X15.4262 Y-7.7672 Z1.4002
G1 X15.4425 Y-7.7895 Z1.3764
G1 X15.4554 Y-7.8074 Z1.3561
G1 X15.4619 Y-7.8164 Z1.3452
G1 X15.4684 Y-7.8253 Z1.3336
G1 X15.4765 Y-7.8365 Z1.3182
G1 X15.4911 Y-7.8566 Z1.2893
G1 X15.4944 Y-7.8611 Z1.2826
G1 X15.5009 Y-7.8701 Z1.2686
G1 X15.5074 Y-7.8790 Z1.2533
G1 X15.5139 Y-7.8880 Z1.2362
G1 X15.5268 Y-7.9059 Z1.1984
G1 X15.5301 Y-7.9103 Z1.1883
G1 X15.5333 Y-7.9148 Z1.1776
G1 X15.5366 Y-7.9193 Z1.1658
G1 X15.5398 Y-7.9238 Z1.1528
G1 X15.5431 Y-7.9282 Z1.1381
G1 X15.5467 Y-7.9333 Z1.1199
G1 X15.5539 Y-7.9432 Z1.1181
G1 X15.5790 Y-7.9777 Z1.1207 F159.
G1 X15.6011 Y-8.0083 Z1.1409
G1 X15.6163 Y-8.0292 Z1.1750
G1 X15.6216 Y-8.0366 Z1.2169
G0 Z1.8800
G0 X15.6216 Y-8.0366 
G0 Z1.8800
G0 X14.5887 Y-6.6815 
G1 X14.5887 Y-6.6815 Z1.8550 F75.
G1 X14.5932 Y-6.6877 Z1.8167 F25.
G1 X14.6060 Y-6.7051 Z1.7843
G1 X14.6252 Y-6.7313 Z1.7626
G1 X14.6479 Y-6.7622 Z1.7550
G1 X14.8697 Y-7.0645 Z1.7550 F150.
G1 X14.8836 Y-7.0834 Z1.7543
G1 X14.8975 Y-7.1023 Z1.7521
G1 X14.9114 Y-7.1212 Z1.7484
G1 X14.9252 Y-7.1400 Z1.7432
G1 X14.9391 Y-7.1589 Z1.7364
G1 X14.9530 Y-7.1778 Z1.7279
G1 X14.9686 Y-7.1991 Z1.7162
G1 X15.0362 Y-7.2912 Z1.6805
G1 X15.0778 Y-7.3479 Z1.6591
G1 X15.1887 Y-7.4990 Z1.6003
G1 X15.2026 Y-7.5179 Z1.5924
G1 X15.2372 Y-7.5652 Z1.5710
G1 X15.2442 Y-7.5746 Z1.5664
G1 X15.2580 Y-7.5935 Z1.5569
G1 X15.2719 Y-7.6124 Z1.5465
G1 X15.2858 Y-7.6313 Z1.5354
G1 X15.3135 Y-7.6691 Z1.5122
G1 X15.3274 Y-7.6880 Z1.4998
G1 X15.3412 Y-7.7069 Z1.4864
G1 X15.3568 Y-7.7281 Z1.4700
G1 X15.3828 Y-7.7636 Z1.4411
G1 X15.3967 Y-7.7825 Z1.4245
G1 X15.4106 Y-7.8014 Z1.4063
G1 X15.4210 Y-7.8155 Z1.3916
G1 X15.4383 Y-7.8392 Z1.3662
G1 X15.4452 Y-7.8486 Z1.3557
G1 X15.4522 Y-7.8580 Z1.3446
G1 X15.4591 Y-7.8675 Z1.3328
G1 X15.4660 Y-7.8769 Z1.3204
G1 X15.4695 Y-7.8817 Z1.3138
G1 X15.4868 Y-7.9053 Z1.2790
G1 X15.4938 Y-7.9147 Z1.2642
G1 X15.5007 Y-7.9242 Z1.2481
G1 X15.5076 Y-7.9336 Z1.2303
G1 X15.5128 Y-7.9407 Z1.2156
G1 X15.5215 Y-7.9525 Z1.1902
G1 X15.5250 Y-7.9572 Z1.1796
G1 X15.5284 Y-7.9620 Z1.1681
G1 X15.5319 Y-7.9667 Z1.1555
G1 X15.5354 Y-7.9714 Z1.1415
G1 X15.5385 Y-7.9756 Z1.1273
G1 X15.5415 Y-7.9798 Z1.1121
G1 X15.5419 Y-7.9804 Z1.1109
G1 X15.5485 Y-7.9893 Z1.1092
G1 X15.5738 Y-8.0237 Z1.1118 F159.
G1 X15.5961 Y-8.0541 Z1.1320
G1 X15.6113 Y-8.0749 Z1.1662
G1 X15.6167 Y-8.0823 Z1.2080
G0 Z1.8800
G0 X15.6167 Y-8.0823 
G0 Z1.8800
G0 X14.5580 Y-6.7084 
G1 X14.5580 Y-6.7084 Z1.8550 F75.
G1 X14.5626 Y-6.7145 Z1.8167 F25.
G1 X14.5755 Y-6.7319 Z1.7843
G1 X14.5948 Y-6.7579 Z1.7626
G1 X14.6176 Y-6.7887 Z1.7550
G1 X14.8412 Y-7.0897 Z1.7550 F150.
G1 X14.8552 Y-7.1085 Z1.7543
G1 X14.8692 Y-7.1273 Z1.7521
G1 X14.8832 Y-7.1462 Z1.7485
G1 X14.8971 Y-7.1650 Z1.7433
G1 X14.9111 Y-7.1838 Z1.7365
G1 X14.9251 Y-7.2026 Z1.7280
G1 X14.9391 Y-7.2214 Z1.7177
G1 X14.9408 Y-7.2238 Z1.7162
G1 X14.9810 Y-7.2779 Z1.6951
G1 X15.0369 Y-7.3531 Z1.6665
G1 X15.1836 Y-7.5507 Z1.5896
G1 X15.1906 Y-7.5601 Z1.5858
G1 X15.2046 Y-7.5789 Z1.5777
G1 X15.2325 Y-7.6166 Z1.5604
G1 X15.2465 Y-7.6354 Z1.5513
G1 X15.2605 Y-7.6542 Z1.5414
G1 X15.2744 Y-7.6730 Z1.5307
G1 X15.2884 Y-7.6918 Z1.5193
G1 X15.3094 Y-7.7200 Z1.5018
G1 X15.3164 Y-7.7294 Z1.4957
G1 X15.3303 Y-7.7483 Z1.4827
G1 X15.3443 Y-7.7671 Z1.4686
G1 X15.3583 Y-7.7859 Z1.4535
G1 X15.3723 Y-7.8047 Z1.4381
G1 X15.3862 Y-7.8235 Z1.4220
G1 X15.4002 Y-7.8423 Z1.4045
G1 X15.4159 Y-7.8635 Z1.3828
G1 X15.4351 Y-7.8894 Z1.3548
G1 X15.4421 Y-7.8988 Z1.3440
G1 X15.4491 Y-7.9082 Z1.3325
G1 X15.4561 Y-7.9176 Z1.3203
G1 X15.4631 Y-7.9270 Z1.3074
G1 X15.4806 Y-7.9505 Z1.2725
G1 X15.4840 Y-7.9552 Z1.2653
G1 X15.4910 Y-7.9646 Z1.2500
G1 X15.4980 Y-7.9741 Z1.2334
G1 X15.5015 Y-7.9788 Z1.2243
G1 X15.5068 Y-7.9858 Z1.2098
G1 X15.5182 Y-8.0012 Z1.1763
G1 X15.5213 Y-8.0054 Z1.1665
G1 X15.5244 Y-8.0096 Z1.1560
G1 X15.5275 Y-8.0138 Z1.1445
G1 X15.5306 Y-8.0180 Z1.1318
G1 X15.5337 Y-8.0222 Z1.1174
G1 X15.5369 Y-8.0263 Z1.1021
G1 X15.5432 Y-8.0349 Z1.1004
G1 X15.5687 Y-8.0692 Z1.1029 F159.
G1 X15.5912 Y-8.0996 Z1.1231
G1 X15.6067 Y-8.1204 Z1.1573
G1 X15.6122 Y-8.1277 Z1.1992
G0 Z1.8800
G0 X15.6122 Y-8.1277 
G0 Z1.8800
G0 X14.5274 Y-6.7352 
G1 X14.5274 Y-6.7352 Z1.8550 F75.
G1 X14.5320 Y-6.7413 Z1.8167 F25.
G1 X14.5450 Y-6.7586 Z1.7843
G1 X14.5645 Y-6.7845 Z1.7626
G1 X14.5875 Y-6.8151 Z1.7550
G1 X14.8127 Y-7.1149 Z1.7550 F150.
G1 X14.8198 Y-7.1243 Z1.7548
G1 X14.8268 Y-7.1336 Z1.7543
G1 X14.8409 Y-7.1524 Z1.7522
G1 X14.8550 Y-7.1711 Z1.7485
G1 X14.8691 Y-7.1899 Z1.7433
G1 X14.8831 Y-7.2086 Z1.7365
G1 X14.8972 Y-7.2273 Z1.7281
G1 X14.9113 Y-7.2461 Z1.7178
G1 X14.9131 Y-7.2484 Z1.7164
G1 X14.9148 Y-7.2508 Z1.7152
G1 X14.9958 Y-7.3585 Z1.6740
G1 X15.1084 Y-7.5084 Z1.6154
G1 X15.1225 Y-7.5271 Z1.6083
G1 X15.1788 Y-7.6021 Z1.5789
G1 X15.1929 Y-7.6208 Z1.5712
G1 X15.2070 Y-7.6395 Z1.5628
G1 X15.2352 Y-7.6770 Z1.5454
G1 X15.2492 Y-7.6957 Z1.5359
G1 X15.2633 Y-7.7145 Z1.5257
G1 X15.2809 Y-7.7379 Z1.5117
G1 X15.3056 Y-7.7707 Z1.4912
G1 X15.3196 Y-7.7894 Z1.4786
G1 X15.3337 Y-7.8082 Z1.4650
G1 X15.3496 Y-7.8292 Z1.4484
G1 X15.3689 Y-7.8550 Z1.4271
G1 X15.3760 Y-7.8644 Z1.4192
G1 X15.3900 Y-7.8831 Z1.4023
G1 X15.3971 Y-7.8925 Z1.3933
G1 X15.4041 Y-7.9018 Z1.3837
G1 X15.4112 Y-7.9112 Z1.3736
G1 X15.4323 Y-7.9393 Z1.3423
G1 X15.4393 Y-7.9487 Z1.3313
G1 X15.4464 Y-7.9581 Z1.3196
G1 X15.4534 Y-7.9674 Z1.3071
G1 X15.4627 Y-7.9797 Z1.2894
G1 X15.4781 Y-8.0002 Z1.2585
G1 X15.4816 Y-8.0049 Z1.2511
G1 X15.4886 Y-8.0143 Z1.2353
G1 X15.4940 Y-8.0214 Z1.2223
G1 X15.4993 Y-8.0285 Z1.2081
G1 X15.5127 Y-8.0463 Z1.1694
G1 X15.5153 Y-8.0498 Z1.1612
G1 X15.5180 Y-8.0534 Z1.1524
G1 X15.5207 Y-8.0570 Z1.1428
G1 X15.5234 Y-8.0605 Z1.1323
G1 X15.5260 Y-8.0641 Z1.1207
G1 X15.5314 Y-8.0712 Z1.0941
G1 X15.5318 Y-8.0717 Z1.0934
G1 X15.5379 Y-8.0799 Z1.0919
G1 X15.5635 Y-8.1139 Z1.0948 F159.
G1 X15.5860 Y-8.1438 Z1.1151
G1 X15.6013 Y-8.1642 Z1.1492
G1 X15.6068 Y-8.1715 Z1.1908
G0 Z1.8800
G0 X15.6068 Y-8.1715 
G0 Z1.8800
G0 X14.4968 Y-6.7620 
G1 X14.4968 Y-6.7620 Z1.8550 F75.
G1 X14.5014 Y-6.7680 Z1.8167 F25.
G1 X14.5145 Y-6.7853 Z1.7843
G1 X14.5341 Y-6.8111 Z1.7626
G1 X14.5573 Y-6.8416 Z1.7550
G1 X14.7878 Y-7.1447 Z1.7550 F150.
G1 X14.7985 Y-7.1587 Z1.7543
G1 X14.8126 Y-7.1774 Z1.7522
G1 X14.8268 Y-7.1961 Z1.7486
G1 X14.8410 Y-7.2147 Z1.7434
G1 X14.8552 Y-7.2334 Z1.7366
G1 X14.8694 Y-7.2520 Z1.7282
G1 X14.8836 Y-7.2707 Z1.7179
G1 X14.8871 Y-7.2753 Z1.7156
G1 X14.9545 Y-7.3640 Z1.6816
G1 X15.0467 Y-7.4852 Z1.6338
G1 X15.0822 Y-7.5319 Z1.6160
G1 X15.1815 Y-7.6625 Z1.5645
G1 X15.1957 Y-7.6811 Z1.5565
G1 X15.2311 Y-7.7278 Z1.5348
G1 X15.2382 Y-7.7371 Z1.5302
G1 X15.2524 Y-7.7557 Z1.5203
G1 X15.2666 Y-7.7744 Z1.5097
G1 X15.2843 Y-7.7977 Z1.4952
G1 X15.3021 Y-7.8210 Z1.4804
G1 X15.3092 Y-7.8304 Z1.4742
G1 X15.3234 Y-7.8490 Z1.4611
G1 X15.3375 Y-7.8677 Z1.4469
G1 X15.3553 Y-7.8910 Z1.4277
G1 X15.3659 Y-7.9050 Z1.4159
G1 X15.3801 Y-7.9237 Z1.3993
G1 X15.3943 Y-7.9423 Z1.3811
G1 X15.4049 Y-7.9563 Z1.3663
G1 X15.4227 Y-7.9796 Z1.3403
G1 X15.4298 Y-7.9889 Z1.3296
G1 X15.4368 Y-7.9983 Z1.3182
G1 X15.4439 Y-8.0076 Z1.3062
G1 X15.4510 Y-8.0169 Z1.2934
G1 X15.4581 Y-8.0263 Z1.2797
G1 X15.4727 Y-8.0455 Z1.2505
G1 X15.4803 Y-8.0554 Z1.2344
G1 X15.4840 Y-8.0603 Z1.2258
G1 X15.4878 Y-8.0653 Z1.2166
G1 X15.4915 Y-8.0702 Z1.2068
G1 X15.4972 Y-8.0776 Z1.1908
G1 X15.5066 Y-8.0900 Z1.1629
G1 X15.5103 Y-8.0949 Z1.1510
G1 X15.5141 Y-8.0999 Z1.1379
G1 X15.5179 Y-8.1048 Z1.1234
G1 X15.5197 Y-8.1073 Z1.1153
G1 X15.5226 Y-8.1110 Z1.1019
G1 X15.5259 Y-8.1154 Z1.0854
G1 X15.5328 Y-8.1244 Z1.0837
G1 X15.5585 Y-8.1582 Z1.0866 F159.
G1 X15.5811 Y-8.1880 Z1.1070
G1 X15.5966 Y-8.2083 Z1.1410
G1 X15.6021 Y-8.2156 Z1.1826
G0 Z1.8800
G0 X15.6021 Y-8.2156 
G0 Z1.8800
G0 X14.4662 Y-6.7888 
G1 X14.4662 Y-6.7888 Z1.8550 F75.
G1 X14.4708 Y-6.7948 Z1.8167 F25.
G1 X14.4840 Y-6.8120 Z1.7843
G1 X14.5038 Y-6.8377 Z1.7626
G1 X14.5271 Y-6.8680 Z1.7550
G1 X14.7594 Y-7.1699 Z1.7550 F150.
G1 X14.7701 Y-7.1838 Z1.7544
G1 X14.7844 Y-7.2024 Z1.7523
G1 X14.7987 Y-7.2210 Z1.7488
G1 X14.8130 Y-7.2395 Z1.7437
G1 X14.8273 Y-7.2581 Z1.7370
G1 X14.8416 Y-7.2767 Z1.7287
G1 X14.8559 Y-7.2953 Z1.7185
G1 X14.8576 Y-7.2976 Z1.7171
G1 X14.8594 Y-7.2999 Z1.7160
G1 X14.9130 Y-7.3696 Z1.6891
G1 X14.9916 Y-7.4717 Z1.6487
G1 X15.0381 Y-7.5321 Z1.6255
G1 X15.1774 Y-7.7132 Z1.5538
G1 X15.1846 Y-7.7225 Z1.5500
G1 X15.2024 Y-7.7457 Z1.5395
G1 X15.2274 Y-7.7782 Z1.5242
G1 X15.2417 Y-7.7968 Z1.5148
G1 X15.2560 Y-7.8154 Z1.5045
G1 X15.2739 Y-7.8386 Z1.4903
G1 X15.2989 Y-7.8711 Z1.4696
G1 X15.3132 Y-7.8897 Z1.4569
G1 X15.3275 Y-7.9083 Z1.4430
G1 X15.3382 Y-7.9222 Z1.4318
G1 X15.3632 Y-7.9547 Z1.4042
G1 X15.3704 Y-7.9640 Z1.3959
G1 X15.3847 Y-7.9826 Z1.3783
G1 X15.4007 Y-8.0035 Z1.3562
G1 X15.4204 Y-8.0290 Z1.3274
G1 X15.4275 Y-8.0383 Z1.3164
G1 X15.4347 Y-8.0476 Z1.3048
G1 X15.4418 Y-8.0569 Z1.2925
G1 X15.4516 Y-8.0695 Z1.2742
G1 X15.4662 Y-8.0886 Z1.2445
G1 X15.4711 Y-8.0949 Z1.2341
G1 X15.4760 Y-8.1013 Z1.2232
G1 X15.4809 Y-8.1076 Z1.2115
G1 X15.4858 Y-8.1140 Z1.1989
G1 X15.4906 Y-8.1203 Z1.1852
G1 X15.5004 Y-8.1330 Z1.1563
G1 X15.5053 Y-8.1393 Z1.1409
G1 X15.5077 Y-8.1425 Z1.1324
G1 X15.5102 Y-8.1457 Z1.1234
G1 X15.5126 Y-8.1488 Z1.1137
G1 X15.5150 Y-8.1520 Z1.1030
G1 X15.5203 Y-8.1588 Z1.0774
G1 X15.5276 Y-8.1684 Z1.0756
G1 X15.5535 Y-8.2020 Z1.0785 F159.
G1 X15.5763 Y-8.2317 Z1.0989
G1 X15.5919 Y-8.2519 Z1.1329
G1 X15.5974 Y-8.2591 Z1.1745
G0 Z1.8800
G0 X15.5974 Y-8.2591 
G0 Z1.8800
G0 X14.4358 Y-6.8158 
G1 X14.4358 Y-6.8158 Z1.8550 F75.
G1 X14.4405 Y-6.8218 Z1.8167 F25.
G1 X14.4538 Y-6.8389 Z1.7843
G1 X14.4737 Y-6.8645 Z1.7626
G1 X14.4972 Y-6.8947 Z1.7550
G1 X14.7348 Y-7.1998 Z1.7549 F150.
G1 X14.7420 Y-7.2091 Z1.7544
G1 X14.7563 Y-7.2276 Z1.7524
G1 X14.7707 Y-7.2461 Z1.7490
G1 X14.7851 Y-7.2646 Z1.7439
G1 X14.7995 Y-7.2830 Z1.7374
G1 X14.8139 Y-7.3015 Z1.7291
G1 X14.8283 Y-7.3200 Z1.7190
G1 X14.8319 Y-7.3247 Z1.7163
G1 X14.8715 Y-7.3755 Z1.6965
G1 X14.9363 Y-7.4587 Z1.6635
G1 X14.9939 Y-7.5327 Z1.6350
G1 X15.1739 Y-7.7639 Z1.5432
G1 X15.1883 Y-7.7824 Z1.5353
G1 X15.2207 Y-7.8240 Z1.5158
G1 X15.2314 Y-7.8379 Z1.5089
G1 X15.2458 Y-7.8564 Z1.4989
G1 X15.2602 Y-7.8749 Z1.4881
G1 X15.2746 Y-7.8934 Z1.4764
G1 X15.2962 Y-7.9211 Z1.4585
G1 X15.3034 Y-7.9304 Z1.4521
G1 X15.3178 Y-7.9488 Z1.4386
G1 X15.3322 Y-7.9673 Z1.4238
G1 X15.3610 Y-8.0043 Z1.3921
G1 X15.3754 Y-8.0228 Z1.3748
G1 X15.3898 Y-8.0413 Z1.3559
G1 X15.3970 Y-8.0506 Z1.3456
G1 X15.4150 Y-8.0737 Z1.3194
G1 X15.4186 Y-8.0783 Z1.3139
G1 X15.4306 Y-8.0937 Z1.2944
G1 X15.4366 Y-8.1014 Z1.2838
G1 X15.4425 Y-8.1090 Z1.2726
G1 X15.4605 Y-8.1321 Z1.2365
G1 X15.4665 Y-8.1398 Z1.2238
G1 X15.4725 Y-8.1475 Z1.2101
G1 X15.4784 Y-8.1552 Z1.1953
G1 X15.4852 Y-8.1638 Z1.1767
G1 X15.4964 Y-8.1782 Z1.1435
G1 X15.4994 Y-8.1821 Z1.1339
G1 X15.5024 Y-8.1859 Z1.1236
G1 X15.5054 Y-8.1897 Z1.1124
G1 X15.5084 Y-8.1936 Z1.1000
G1 X15.5113 Y-8.1974 Z1.0860
G1 X15.5143 Y-8.2013 Z1.0710
G1 X15.5147 Y-8.2018 Z1.0694
G1 X15.5224 Y-8.2117 Z1.0677
G1 X15.5485 Y-8.2451 Z1.0707 F159.
G1 X15.5714 Y-8.2745 Z1.0911
G1 X15.5870 Y-8.2946 Z1.1252
G1 X15.5925 Y-8.3017 Z1.1667
G0 Z1.8800
G0 X15.5925 Y-8.3017 
G0 Z1.8800
G0 X14.4067 Y-6.8443 
G1 X14.4067 Y-6.8443 Z1.8550 F75.
G1 X14.4114 Y-6.8503 Z1.8167 F25.
G1 X14.4248 Y-6.8673 Z1.7843
G1 X14.4449 Y-6.8928 Z1.7626
G1 X14.4685 Y-6.9229 Z1.7550
G1 X14.7042 Y-7.2221 Z1.7550 F150.
G1 X14.7151 Y-7.2359 Z1.7544
G1 X14.7296 Y-7.2543 Z1.7523
G1 X14.7441 Y-7.2727 Z1.7488
G1 X14.7586 Y-7.2911 Z1.7437
G1 X14.7731 Y-7.3095 Z1.7371
G1 X14.7876 Y-7.3279 Z1.7287
G1 X14.8021 Y-7.3464 Z1.7186
G1 X14.8039 Y-7.3487 Z1.7172
G1 X14.8057 Y-7.3510 Z1.7160
G1 X14.8311 Y-7.3832 Z1.7034
G1 X14.8818 Y-7.4476 Z1.6777
G1 X14.9507 Y-7.5351 Z1.6439
G1 X15.0703 Y-7.6870 Z1.5832
G1 X15.0921 Y-7.7146 Z1.5725
G1 X15.1719 Y-7.8159 Z1.5320
G1 X15.1864 Y-7.8343 Z1.5240
G1 X15.2154 Y-7.8711 Z1.5065
G1 X15.2226 Y-7.8803 Z1.5020
G1 X15.2371 Y-7.8987 Z1.4923
G1 X15.2516 Y-7.9171 Z1.4817
G1 X15.2643 Y-7.9333 Z1.4717
G1 X15.2879 Y-7.9632 Z1.4522
G1 X15.2951 Y-7.9724 Z1.4460
G1 X15.3096 Y-7.9908 Z1.4327
G1 X15.3241 Y-8.0092 Z1.4182
G1 X15.3386 Y-8.0276 Z1.4025
G1 X15.3531 Y-8.0460 Z1.3866
G1 X15.3676 Y-8.0645 Z1.3696
G1 X15.3749 Y-8.0737 Z1.3605
G1 X15.3821 Y-8.0829 Z1.3509
G1 X15.3921 Y-8.0955 Z1.3367
G1 X15.4106 Y-8.1191 Z1.3092
G1 X15.4176 Y-8.1279 Z1.2983
G1 X15.4246 Y-8.1368 Z1.2867
G1 X15.4316 Y-8.1457 Z1.2744
G1 X15.4404 Y-8.1568 Z1.2577
G1 X15.4561 Y-8.1768 Z1.2259
G1 X15.4596 Y-8.1813 Z1.2185
G1 X15.4666 Y-8.1902 Z1.2027
G1 X15.4736 Y-8.1991 Z1.1852
G1 X15.4789 Y-8.2057 Z1.1708
G1 X15.4911 Y-8.2213 Z1.1346
G1 X15.4946 Y-8.2257 Z1.1233
G1 X15.4981 Y-8.2302 Z1.1110
G1 X15.5017 Y-8.2346 Z1.0972
G1 X15.5034 Y-8.2368 Z1.0896
G1 X15.5052 Y-8.2391 Z1.0814
G1 X15.5087 Y-8.2435 Z1.0634
G1 X15.5091 Y-8.2441 Z1.0618
G1 X15.5171 Y-8.2543 Z1.0600
G1 X15.5433 Y-8.2875 Z1.0631 F159.
G1 X15.5664 Y-8.3168 Z1.0835
G1 X15.5821 Y-8.3368 Z1.1175
G1 X15.5877 Y-8.3438 Z1.1590
G0 Z1.8800
G0 X15.5877 Y-8.3438 
G0 Z1.8800
G0 X14.3776 Y-6.8728 
G1 X14.3776 Y-6.8728 Z1.8550 F75.
G1 X14.3823 Y-6.8788 Z1.8167 F25.
G1 X14.3958 Y-6.8957 Z1.7843
G1 X14.4160 Y-6.9211 Z1.7626
G1 X14.4399 Y-6.9510 Z1.7550
G1 X14.6772 Y-7.2489 Z1.7550 F150.
G1 X14.6882 Y-7.2627 Z1.7543
G1 X14.7028 Y-7.2810 Z1.7522
G1 X14.7174 Y-7.2993 Z1.7486
G1 X14.7320 Y-7.3176 Z1.7435
G1 X14.7466 Y-7.3360 Z1.7368
G1 X14.7612 Y-7.3543 Z1.7284
G1 X14.7786 Y-7.3761 Z1.7162
G1 X14.8196 Y-7.4276 Z1.6956
G1 X14.9073 Y-7.5376 Z1.6528
G1 X15.0168 Y-7.6751 Z1.5976
G1 X15.0533 Y-7.7209 Z1.5798
G1 X15.1702 Y-7.8675 Z1.5207
G1 X15.1884 Y-7.8905 Z1.5104
G1 X15.2140 Y-7.9225 Z1.4950
G1 X15.2286 Y-7.9409 Z1.4856
G1 X15.2432 Y-7.9592 Z1.4752
G1 X15.2596 Y-7.9798 Z1.4624
G1 X15.2870 Y-8.0142 Z1.4398
G1 X15.3016 Y-8.0325 Z1.4267
G1 X15.3162 Y-8.0508 Z1.4124
G1 X15.3272 Y-8.0646 Z1.4009
G1 X15.3491 Y-8.0921 Z1.3767
G1 X15.3600 Y-8.1058 Z1.3639
G1 X15.3746 Y-8.1242 Z1.3452
G1 X15.3826 Y-8.1342 Z1.3341
G1 X15.4065 Y-8.1642 Z1.2988
G1 X15.4145 Y-8.1742 Z1.2862
G1 X15.4225 Y-8.1842 Z1.2727
G1 X15.4305 Y-8.1942 Z1.2582
G1 X15.4384 Y-8.2042 Z1.2425
G1 X15.4504 Y-8.2192 Z1.2184
G1 X15.4544 Y-8.2242 Z1.2100
G1 X15.4624 Y-8.2342 Z1.1918
G1 X15.4663 Y-8.2392 Z1.1820
G1 X15.4703 Y-8.2442 Z1.1715
G1 X15.4743 Y-8.2492 Z1.1602
G1 X15.4843 Y-8.2618 Z1.1302
G1 X15.4863 Y-8.2643 Z1.1239
G1 X15.4903 Y-8.2693 Z1.1102
G1 X15.4942 Y-8.2743 Z1.0949
G1 X15.4962 Y-8.2768 Z1.0864
G1 X15.4992 Y-8.2805 Z1.0721
G1 X15.5022 Y-8.2843 Z1.0568
G1 X15.5028 Y-8.2849 Z1.0544
G1 X15.5119 Y-8.2964 Z1.0524
G1 X15.5382 Y-8.3294 Z1.0557 F159.
G1 X15.5613 Y-8.3584 Z1.0761
G1 X15.5771 Y-8.3782 Z1.1101
G1 X15.5827 Y-8.3852 Z1.1515
G0 Z1.8800
G0 X15.5827 Y-8.3852 
G0 Z1.8800
G0 X14.3485 Y-6.9013 
G1 X14.3485 Y-6.9013 Z1.8550 F75.
G1 X14.3533 Y-6.9073 Z1.8167 F25.
G1 X14.3669 Y-6.9241 Z1.7843
G1 X14.3873 Y-6.9494 Z1.7626
G1 X14.4113 Y-6.9792 Z1.7550
G1 X14.6466 Y-7.2711 Z1.7550 F150.
G1 X14.6613 Y-7.2894 Z1.7543
G1 X14.6761 Y-7.3076 Z1.7521
G1 X14.6908 Y-7.3259 Z1.7485
G1 X14.7055 Y-7.3441 Z1.7433
G1 X14.7202 Y-7.3624 Z1.7365
G1 X14.7349 Y-7.3806 Z1.7280
G1 X14.7533 Y-7.4034 Z1.7152
G1 X14.8599 Y-7.5357 Z1.6635
G1 X14.9629 Y-7.6634 Z1.6120
G1 X15.0070 Y-7.7182 Z1.5907
G1 X15.1615 Y-7.9098 Z1.5133
G1 X15.1762 Y-7.9280 Z1.5055
G1 X15.2019 Y-7.9600 Z1.4902
G1 X15.2129 Y-7.9736 Z1.4835
G1 X15.2203 Y-7.9828 Z1.4788
G1 X15.2350 Y-8.0010 Z1.4686
G1 X15.2497 Y-8.0193 Z1.4575
G1 X15.2791 Y-8.0558 Z1.4335
G1 X15.2938 Y-8.0740 Z1.4206
G1 X15.3085 Y-8.0923 Z1.4064
G1 X15.3196 Y-8.1059 Z1.3949
G1 X15.3453 Y-8.1379 Z1.3665
G1 X15.3527 Y-8.1470 Z1.3579
G1 X15.3616 Y-8.1581 Z1.3468
G1 X15.3706 Y-8.1692 Z1.3350
G1 X15.3818 Y-8.1831 Z1.3192
G1 X15.3974 Y-8.2025 Z1.2962
G1 X15.4064 Y-8.2136 Z1.2824
G1 X15.4153 Y-8.2247 Z1.2676
G1 X15.4243 Y-8.2358 Z1.2516
G1 X15.4310 Y-8.2441 Z1.2385
G1 X15.4444 Y-8.2608 Z1.2114
G1 X15.4511 Y-8.2691 Z1.1968
G1 X15.4556 Y-8.2746 Z1.1863
G1 X15.4600 Y-8.2802 Z1.1751
G1 X15.4645 Y-8.2857 Z1.1630
G1 X15.4690 Y-8.2913 Z1.1500
G1 X15.4779 Y-8.3024 Z1.1231
G1 X15.4824 Y-8.3079 Z1.1085
G1 X15.4846 Y-8.3107 Z1.1005
G1 X15.4869 Y-8.3135 Z1.0920
G1 X15.4891 Y-8.3163 Z1.0828
G1 X15.4925 Y-8.3204 Z1.0674
G1 X15.4964 Y-8.3253 Z1.0473
G1 X15.5067 Y-8.3380 Z1.0451
G1 X15.5332 Y-8.3709 Z1.0484 F159.
G1 X15.5564 Y-8.3998 Z1.0688
G1 X15.5723 Y-8.4195 Z1.1028
G1 X15.5779 Y-8.4264 Z1.1442
G0 Z1.8800
G0 X15.5779 Y-8.4264 
G0 Z1.8800
G0 X14.3195 Y-6.9298 
G1 X14.3195 Y-6.9298 Z1.8550 F75.
G1 X14.3243 Y-6.9357 Z1.8167 F25.
G1 X14.3380 Y-6.9525 Z1.7843
G1 X14.3585 Y-6.9776 Z1.7626
G1 X14.3827 Y-7.0073 Z1.7550
G1 X14.6197 Y-7.2979 Z1.7550 F150.
G1 X14.6345 Y-7.3161 Z1.7543
G1 X14.6493 Y-7.3342 Z1.7520
G1 X14.6641 Y-7.3524 Z1.7483
G1 X14.6790 Y-7.3706 Z1.7431
G1 X14.6938 Y-7.3887 Z1.7362
G1 X14.7086 Y-7.4069 Z1.7277
G1 X14.7234 Y-7.4250 Z1.7173
G1 X14.7252 Y-7.4273 Z1.7161
G1 X14.8197 Y-7.5431 Z1.6706
G1 X14.9011 Y-7.6430 Z1.6301
G1 X14.9604 Y-7.7157 Z1.6016
G1 X15.0937 Y-7.8791 Z1.5353
G1 X15.1085 Y-7.8973 Z1.5282
G1 X15.1604 Y-7.9609 Z1.5022
G1 X15.1752 Y-7.9790 Z1.4941
G1 X15.2048 Y-8.0154 Z1.4765
G1 X15.2122 Y-8.0244 Z1.4719
G1 X15.2270 Y-8.0426 Z1.4619
G1 X15.2418 Y-8.0608 Z1.4510
G1 X15.2566 Y-8.0789 Z1.4391
G1 X15.2715 Y-8.0971 Z1.4270
G1 X15.2863 Y-8.1153 Z1.4142
G1 X15.3011 Y-8.1334 Z1.4001
G1 X15.3159 Y-8.1516 Z1.3847
G1 X15.3407 Y-8.1820 Z1.3573
G1 X15.3506 Y-8.1942 Z1.3455
G1 X15.3606 Y-8.2064 Z1.3329
G1 X15.3706 Y-8.2186 Z1.3194
G1 X15.3930 Y-8.2461 Z1.2867
G1 X15.4005 Y-8.2553 Z1.2752
G1 X15.4104 Y-8.2675 Z1.2585
G1 X15.4204 Y-8.2797 Z1.2401
G1 X15.4378 Y-8.3011 Z1.2046
G1 X15.4453 Y-8.3103 Z1.1884
G1 X15.4503 Y-8.3164 Z1.1766
G1 X15.4553 Y-8.3225 Z1.1639
G1 X15.4615 Y-8.3301 Z1.1464
G1 X15.4702 Y-8.3408 Z1.1204
G1 X15.4752 Y-8.3470 Z1.1046
G1 X15.4777 Y-8.3500 Z1.0960
G1 X15.4802 Y-8.3531 Z1.0867
G1 X15.4827 Y-8.3561 Z1.0766
G1 X15.4852 Y-8.3592 Z1.0655
G1 X15.4902 Y-8.3653 Z1.0405
G1 X15.4905 Y-8.3657 Z1.0402
G1 X15.5015 Y-8.3792 Z1.0379
G1 X15.5282 Y-8.4119 Z1.0411 F159.
G1 X15.5516 Y-8.4406 Z1.0616
G1 X15.5676 Y-8.4602 Z1.0956
G1 X15.5733 Y-8.4672 Z1.1369
G0 Z1.8800
G0 X15.5733 Y-8.4672 
G0 Z1.8800
G0 X14.2905 Y-6.9582 
G1 X14.2905 Y-6.9582 Z1.8550 F75.
G1 X14.2954 Y-6.9641 Z1.8167 F25.
G1 X14.3092 Y-6.9808 Z1.7843
G1 X14.3298 Y-7.0058 Z1.7626
G1 X14.3542 Y-7.0354 Z1.7550
G1 X14.5928 Y-7.3246 Z1.7550 F150.
G1 X14.6077 Y-7.3427 Z1.7542
G1 X14.6226 Y-7.3608 Z1.7520
G1 X14.6376 Y-7.3789 Z1.7483
G1 X14.6525 Y-7.3969 Z1.7431
G1 X14.6674 Y-7.4150 Z1.7363
G1 X14.6823 Y-7.4331 Z1.7277
G1 X14.6991 Y-7.4534 Z1.7162
G1 X14.7718 Y-7.5416 Z1.6814
G1 X14.8464 Y-7.6320 Z1.6446
G1 X14.9135 Y-7.7133 Z1.6126
G1 X15.0403 Y-7.8670 Z1.5500
G1 X15.0626 Y-7.8941 Z1.5393
G1 X15.1521 Y-8.0026 Z1.4949
G1 X15.1596 Y-8.0116 Z1.4911
G1 X15.1745 Y-8.0297 Z1.4828
G1 X15.2043 Y-8.0659 Z1.4649
G1 X15.2192 Y-8.0840 Z1.4551
G1 X15.2342 Y-8.1020 Z1.4443
G1 X15.2453 Y-8.1156 Z1.4355
G1 X15.2714 Y-8.1472 Z1.4141
G1 X15.2789 Y-8.1563 Z1.4076
G1 X15.2938 Y-8.1744 Z1.3937
G1 X15.3108 Y-8.1949 Z1.3762
G1 X15.3306 Y-8.2190 Z1.3544
G1 X15.3416 Y-8.2322 Z1.3419
G1 X15.3525 Y-8.2455 Z1.3284
G1 X15.3635 Y-8.2588 Z1.3138
G1 X15.3717 Y-8.2687 Z1.3019
G1 X15.3854 Y-8.2853 Z1.2816
G1 X15.3963 Y-8.2986 Z1.2645
G1 X15.4072 Y-8.3118 Z1.2457
G1 X15.4127 Y-8.3185 Z1.2356
G1 X15.4182 Y-8.3251 Z1.2248
G1 X15.4346 Y-8.3450 Z1.1911
G1 X15.4401 Y-8.3516 Z1.1789
G1 X15.4456 Y-8.3583 Z1.1658
G1 X15.4510 Y-8.3649 Z1.1515
G1 X15.4565 Y-8.3716 Z1.1358
G1 X15.4647 Y-8.3815 Z1.1113
G1 X15.4674 Y-8.3848 Z1.1028
G1 X15.4702 Y-8.3881 Z1.0937
G1 X15.4729 Y-8.3915 Z1.0839
G1 X15.4757 Y-8.3948 Z1.0732
G1 X15.4784 Y-8.3981 Z1.0615
G1 X15.4839 Y-8.4047 Z1.0343
G1 X15.4842 Y-8.4052 Z1.0333
G1 X15.4963 Y-8.4198 Z1.0307
G1 X15.5232 Y-8.4524 Z1.0340 F159.
G1 X15.5467 Y-8.4809 Z1.0545
G1 X15.5628 Y-8.5004 Z1.0885
G1 X15.5685 Y-8.5073 Z1.1298
G0 Z1.8800
G0 X15.5685 Y-8.5073 
G0 Z1.8800
G0 X14.2616 Y-6.9866 
G1 X14.2616 Y-6.9866 Z1.8550 F75.
G1 X14.2665 Y-6.9925 Z1.8167 F25.
G1 X14.2803 Y-7.0091 Z1.7843
G1 X14.3011 Y-7.0340 Z1.7626
G1 X14.3257 Y-7.0634 Z1.7550
G1 X14.5659 Y-7.3513 Z1.7550 F150.
G1 X14.5809 Y-7.3693 Z1.7543
G1 X14.5960 Y-7.3873 Z1.7521
G1 X14.6110 Y-7.4053 Z1.7484
G1 X14.6260 Y-7.4233 Z1.7432
G1 X14.6410 Y-7.4413 Z1.7364
G1 X14.6560 Y-7.4593 Z1.7278
G1 X14.6729 Y-7.4795 Z1.7163
G1 X14.7236 Y-7.5403 Z1.6922
G1 X14.7837 Y-7.6122 Z1.6627
G1 X14.8700 Y-7.7157 Z1.6218
G1 X14.9827 Y-7.8507 Z1.5664
G1 X15.0164 Y-7.8912 Z1.5505
G1 X15.1516 Y-8.0531 Z1.4838
G1 X15.1666 Y-8.0711 Z1.4757
G1 X15.1967 Y-8.1071 Z1.4579
G1 X15.2117 Y-8.1251 Z1.4483
G1 X15.2267 Y-8.1431 Z1.4376
G1 X15.2398 Y-8.1588 Z1.4274
G1 X15.2642 Y-8.1881 Z1.4074
G1 X15.2717 Y-8.1971 Z1.4010
G1 X15.2868 Y-8.2151 Z1.3872
G1 X15.2987 Y-8.2293 Z1.3753
G1 X15.3106 Y-8.2436 Z1.3625
G1 X15.3284 Y-8.2650 Z1.3429
G1 X15.3344 Y-8.2721 Z1.3359
G1 X15.3463 Y-8.2864 Z1.3212
G1 X15.3582 Y-8.3006 Z1.3051
G1 X15.3820 Y-8.3291 Z1.2700
G1 X15.3939 Y-8.3434 Z1.2510
G1 X15.3998 Y-8.3505 Z1.2407
G1 X15.4058 Y-8.3577 Z1.2298
G1 X15.4147 Y-8.3684 Z1.2121
G1 X15.4266 Y-8.3826 Z1.1879
G1 X15.4296 Y-8.3862 Z1.1815
G1 X15.4355 Y-8.3933 Z1.1681
G1 X15.4415 Y-8.4005 Z1.1535
G1 X15.4474 Y-8.4076 Z1.1374
G1 X15.4593 Y-8.4218 Z1.1021
G1 X15.4623 Y-8.4254 Z1.0926
G1 X15.4653 Y-8.4290 Z1.0825
G1 X15.4683 Y-8.4325 Z1.0714
G1 X15.4712 Y-8.4361 Z1.0588
G1 X15.4742 Y-8.4397 Z1.0444
G1 X15.4776 Y-8.4437 Z1.0267
G1 X15.4890 Y-8.4574 Z1.0244
G1 X15.5160 Y-8.4897 Z1.0279 F159.
G1 X15.5395 Y-8.5180 Z1.0485
G1 X15.5556 Y-8.5372 Z1.0824
G1 X15.5613 Y-8.5440 Z1.1236
G0 Z1.8800
G0 X15.5613 Y-8.5440 
G0 Z1.8800
G0 X14.2327 Y-7.0150 
G1 X14.2327 Y-7.0150 Z1.8550 F75.
G1 X14.2376 Y-7.0208 Z1.8167 F25.
G1 X14.2516 Y-7.0374 Z1.7843
G1 X14.2725 Y-7.0622 Z1.7626
G1 X14.2972 Y-7.0914 Z1.7550
G1 X14.5391 Y-7.3780 Z1.7550 F150.
G1 X14.5542 Y-7.3959 Z1.7543
G1 X14.5693 Y-7.4138 Z1.7521
G1 X14.5844 Y-7.4317 Z1.7484
G1 X14.5995 Y-7.4496 Z1.7432
G1 X14.6147 Y-7.4675 Z1.7364
G1 X14.6298 Y-7.4854 Z1.7279
G1 X14.6468 Y-7.5056 Z1.7163
G1 X14.6827 Y-7.5481 Z1.6993
G1 X14.7281 Y-7.6018 Z1.6773
G1 X14.8112 Y-7.7003 Z1.6382
G1 X14.9284 Y-7.8391 Z1.5812
G1 X14.9737 Y-7.8929 Z1.5598
G1 X15.1438 Y-8.0943 Z1.4766
G1 X15.1589 Y-8.1123 Z1.4686
G1 X15.1892 Y-8.1481 Z1.4509
G1 X15.2043 Y-8.1660 Z1.4414
G1 X15.2194 Y-8.1839 Z1.4308
G1 X15.2345 Y-8.2018 Z1.4192
G1 X15.2572 Y-8.2287 Z1.4007
G1 X15.2648 Y-8.2376 Z1.3943
G1 X15.2776 Y-8.2528 Z1.3827
G1 X15.2905 Y-8.2681 Z1.3701
G1 X15.3001 Y-8.2795 Z1.3599
G1 X15.3226 Y-8.3061 Z1.3350
G1 X15.3290 Y-8.3137 Z1.3275
G1 X15.3419 Y-8.3289 Z1.3115
G1 X15.3547 Y-8.3442 Z1.2939
G1 X15.3740 Y-8.3670 Z1.2655
G1 X15.3804 Y-8.3746 Z1.2557
G1 X15.3869 Y-8.3822 Z1.2453
G1 X15.3933 Y-8.3898 Z1.2343
G1 X15.3997 Y-8.3974 Z1.2225
G1 X15.4061 Y-8.4051 Z1.2100
G1 X15.4190 Y-8.4203 Z1.1839
G1 X15.4254 Y-8.4279 Z1.1702
G1 X15.4318 Y-8.4355 Z1.1554
G1 X15.4350 Y-8.4393 Z1.1474
G1 X15.4383 Y-8.4431 Z1.1388
G1 X15.4431 Y-8.4488 Z1.1248
G1 X15.4511 Y-8.4583 Z1.1004
G1 X15.4543 Y-8.4621 Z1.0904
G1 X15.4575 Y-8.4659 Z1.0794
G1 X15.4607 Y-8.4697 Z1.0675
G1 X15.4640 Y-8.4736 Z1.0541
G1 X15.4672 Y-8.4774 Z1.0387
G1 X15.4704 Y-8.4812 Z1.0220
G1 X15.4708 Y-8.4817 Z1.0203
G1 X15.4818 Y-8.4947 Z1.0181
G1 X15.5089 Y-8.5268 Z1.0217 F159.
G1 X15.5327 Y-8.5549 Z1.0422
G1 X15.5488 Y-8.5741 Z1.0761
G1 X15.5545 Y-8.5809 Z1.1173
G0 Z1.8800
G0 X15.5545 Y-8.5809 
G0 Z1.8800
G0 X14.2038 Y-7.0434 
G1 X14.2038 Y-7.0434 Z1.8550 F75.
G1 X14.2087 Y-7.0492 Z1.8167 F25.
G1 X14.2228 Y-7.0657 Z1.7843
G1 X14.2439 Y-7.0903 Z1.7626
G1 X14.2687 Y-7.1194 Z1.7550
G1 X14.5122 Y-7.4046 Z1.7550 F150.
G1 X14.5198 Y-7.4135 Z1.7548
G1 X14.5274 Y-7.4224 Z1.7543
G1 X14.5427 Y-7.4403 Z1.7521
G1 X14.5579 Y-7.4581 Z1.7485
G1 X14.5731 Y-7.4759 Z1.7433
G1 X14.5883 Y-7.4937 Z1.7365
G1 X14.6035 Y-7.5115 Z1.7281
G1 X14.6207 Y-7.5316 Z1.7164
G1 X14.6644 Y-7.5828 Z1.6954
G1 X14.7748 Y-7.7121 Z1.6438
G1 X14.8699 Y-7.8234 Z1.5977
G1 X14.9270 Y-7.8903 Z1.5711
G1 X15.0678 Y-8.0551 Z1.5026
G1 X15.0830 Y-8.0730 Z1.4954
G1 X15.1439 Y-8.1443 Z1.4655
G1 X15.1515 Y-8.1532 Z1.4615
G1 X15.1667 Y-8.1710 Z1.4528
G1 X15.1819 Y-8.1888 Z1.4439
G1 X15.1971 Y-8.2066 Z1.4344
G1 X15.2124 Y-8.2245 Z1.4239
G1 X15.2295 Y-8.2445 Z1.4109
G1 X15.2566 Y-8.2763 Z1.3887
G1 X15.2704 Y-8.2925 Z1.3763
G1 X15.2842 Y-8.3086 Z1.3628
G1 X15.2946 Y-8.3208 Z1.3518
G1 X15.3119 Y-8.3410 Z1.3328
G1 X15.3257 Y-8.3572 Z1.3169
G1 X15.3395 Y-8.3733 Z1.2994
G1 X15.3499 Y-8.3855 Z1.2849
G1 X15.3671 Y-8.4057 Z1.2595
G1 X15.3740 Y-8.4138 Z1.2491
G1 X15.3809 Y-8.4219 Z1.2379
G1 X15.3878 Y-8.4300 Z1.2261
G1 X15.3947 Y-8.4380 Z1.2134
G1 X15.4017 Y-8.4461 Z1.1997
G1 X15.4155 Y-8.4623 Z1.1710
G1 X15.4224 Y-8.4704 Z1.1553
G1 X15.4293 Y-8.4785 Z1.1380
G1 X15.4345 Y-8.4846 Z1.1236
G1 X15.4465 Y-8.4987 Z1.0869
G1 X15.4500 Y-8.5028 Z1.0755
G1 X15.4535 Y-8.5068 Z1.0628
G1 X15.4569 Y-8.5108 Z1.0487
G1 X15.4586 Y-8.5129 Z1.0408
G1 X15.4638 Y-8.5189 Z1.0144
G1 X15.4643 Y-8.5195 Z1.0140
G1 X15.4747 Y-8.5317 Z1.0119
G1 X15.5019 Y-8.5636 Z1.0155 F159.
G1 X15.5258 Y-8.5915 Z1.0361
G1 X15.5421 Y-8.6106 Z1.0699
G1 X15.5478 Y-8.6173 Z1.1111
G0 Z1.8800
G0 X15.5478 Y-8.6173 
G0 Z1.8800
G0 X14.1749 Y-7.0717 
G1 X14.1749 Y-7.0717 Z1.8550 F75.
G1 X14.1799 Y-7.0775 Z1.8167 F25.
G1 X14.1940 Y-7.0939 Z1.7843
G1 X14.2153 Y-7.1185 Z1.7626
G1 X14.2403 Y-7.1474 Z1.7550
G1 X14.4892 Y-7.4356 Z1.7550 F150.
G1 X14.5007 Y-7.4489 Z1.7543
G1 X14.5160 Y-7.4667 Z1.7522
G1 X14.5314 Y-7.4844 Z1.7486
G1 X14.5467 Y-7.5021 Z1.7434
G1 X14.5620 Y-7.5199 Z1.7366
G1 X14.5773 Y-7.5376 Z1.7282
G1 X14.5965 Y-7.5598 Z1.7154
G1 X14.7305 Y-7.7150 Z1.6530
G1 X14.8148 Y-7.8125 Z1.6124
G1 X14.8799 Y-7.8879 Z1.5823
G1 X15.0140 Y-8.0431 Z1.5175
G1 X15.0370 Y-8.0697 Z1.5069
G1 X15.1365 Y-8.1850 Z1.4584
G1 X15.1442 Y-8.1939 Z1.4544
G1 X15.1595 Y-8.2116 Z1.4458
G1 X15.1825 Y-8.2382 Z1.4322
G1 X15.1902 Y-8.2471 Z1.4274
G1 X15.2055 Y-8.2648 Z1.4170
G1 X15.2208 Y-8.2826 Z1.4055
G1 X15.2503 Y-8.3167 Z1.3814
G1 X15.2651 Y-8.3338 Z1.3682
G1 X15.2798 Y-8.3509 Z1.3537
G1 X15.2909 Y-8.3637 Z1.3419
G1 X15.3093 Y-8.3850 Z1.3217
G1 X15.3241 Y-8.4021 Z1.3042
G1 X15.3314 Y-8.4106 Z1.2948
G1 X15.3388 Y-8.4192 Z1.2848
G1 X15.3462 Y-8.4277 Z1.2743
G1 X15.3610 Y-8.4448 Z1.2527
G1 X15.3683 Y-8.4533 Z1.2413
G1 X15.3757 Y-8.4619 Z1.2291
G1 X15.3831 Y-8.4704 Z1.2161
G1 X15.3923 Y-8.4811 Z1.1983
G1 X15.4052 Y-8.4960 Z1.1718
G1 X15.4126 Y-8.5046 Z1.1558
G1 X15.4200 Y-8.5131 Z1.1381
G1 X15.4236 Y-8.5174 Z1.1284
G1 X15.4292 Y-8.5238 Z1.1126
G1 X15.4384 Y-8.5345 Z1.0848
G1 X15.4421 Y-8.5387 Z1.0730
G1 X15.4458 Y-8.5430 Z1.0599
G1 X15.4495 Y-8.5473 Z1.0453
G1 X15.4513 Y-8.5494 Z1.0371
G1 X15.4568 Y-8.5558 Z1.0093
G1 X15.4573 Y-8.5564 Z1.0078
G1 X15.4676 Y-8.5683 Z1.0058
G1 X15.4950 Y-8.6000 Z1.0095 F159.
G1 X15.5189 Y-8.6277 Z1.0301
G1 X15.5352 Y-8.6466 Z1.0640
G1 X15.5410 Y-8.6533 Z1.1051
G0 Z1.8800
G0 X15.5410 Y-8.6533 
G0 Z1.8800
G0 X14.1461 Y-7.1001 
G1 X14.1461 Y-7.1001 Z1.8550 F75.
G1 X14.1511 Y-7.1058 Z1.8167 F25.
G1 X14.1653 Y-7.1221 Z1.7843
G1 X14.1867 Y-7.1466 Z1.7626
G1 X14.2118 Y-7.1754 Z1.7550
G1 X14.4624 Y-7.4622 Z1.7550 F150.
G1 X14.4740 Y-7.4754 Z1.7543
G1 X14.4894 Y-7.4931 Z1.7522
G1 X14.5048 Y-7.5107 Z1.7486
G1 X14.5203 Y-7.5284 Z1.7435
G1 X14.5357 Y-7.5460 Z1.7367
G1 X14.5511 Y-7.5637 Z1.7283
G1 X14.5665 Y-7.5813 Z1.7181
G1 X14.5685 Y-7.5835 Z1.7167
G1 X14.6822 Y-7.7137 Z1.6641
G1 X14.7516 Y-7.7931 Z1.6308
G1 X14.8345 Y-7.8880 Z1.5927
G1 X14.9598 Y-8.0314 Z1.5325
G1 X14.9925 Y-8.0689 Z1.5174
G1 X15.1294 Y-8.2255 Z1.4512
G1 X15.1371 Y-8.2343 Z1.4473
G1 X15.1564 Y-8.2564 Z1.4365
G1 X15.1757 Y-8.2785 Z1.4252
G1 X15.1834 Y-8.2873 Z1.4204
G1 X15.1988 Y-8.3049 Z1.4100
G1 X15.2142 Y-8.3226 Z1.3985
G1 X15.2451 Y-8.3579 Z1.3734
G1 X15.2605 Y-8.3755 Z1.3596
G1 X15.2759 Y-8.3932 Z1.3443
G1 X15.3000 Y-8.4208 Z1.3181
G1 X15.3067 Y-8.4285 Z1.3106
G1 X15.3145 Y-8.4373 Z1.3015
G1 X15.3222 Y-8.4461 Z1.2919
G1 X15.3299 Y-8.4550 Z1.2816
G1 X15.3395 Y-8.4660 Z1.2679
G1 X15.3569 Y-8.4858 Z1.2420
G1 X15.3607 Y-8.4903 Z1.2360
G1 X15.3684 Y-8.4991 Z1.2234
G1 X15.3761 Y-8.5079 Z1.2098
G1 X15.3839 Y-8.5167 Z1.1951
G1 X15.3993 Y-8.5344 Z1.1636
G1 X15.4070 Y-8.5432 Z1.1467
G1 X15.4108 Y-8.5476 Z1.1376
G1 X15.4147 Y-8.5520 Z1.1279
G1 X15.4186 Y-8.5564 Z1.1175
G1 X15.4224 Y-8.5609 Z1.1064
G1 X15.4320 Y-8.5719 Z1.0774
G1 X15.4340 Y-8.5741 Z1.0713
G1 X15.4378 Y-8.5785 Z1.0582
G1 X15.4417 Y-8.5829 Z1.0435
G1 X15.4436 Y-8.5851 Z1.0353
G1 X15.4467 Y-8.5887 Z1.0207
G1 X15.4502 Y-8.5927 Z1.0026
G1 X15.4507 Y-8.5932 Z1.0017
G1 X15.4606 Y-8.6045 Z0.9999
G1 X15.4881 Y-8.6361 Z1.0036 F159.
G1 X15.5122 Y-8.6636 Z1.0242
G1 X15.5286 Y-8.6824 Z1.0580
G1 X15.5344 Y-8.6891 Z1.0991
G0 Z1.8800
G0 X15.5344 Y-8.6891 
G0 Z1.8800
G0 X14.1172 Y-7.1284 
G1 X14.1172 Y-7.1284 Z1.8550 F75.
G1 X14.1223 Y-7.1341 Z1.8167 F25.
G1 X14.1366 Y-7.1503 Z1.7843
G1 X14.1581 Y-7.1746 Z1.7626
G1 X14.1834 Y-7.2033 Z1.7550
G1 X14.4357 Y-7.4887 Z1.7550 F150.
G1 X14.4473 Y-7.5019 Z1.7544
G1 X14.4628 Y-7.5194 Z1.7524
G1 X14.4783 Y-7.5370 Z1.7489
G1 X14.4939 Y-7.5545 Z1.7438
G1 X14.5094 Y-7.5721 Z1.7372
G1 X14.5249 Y-7.5897 Z1.7289
G1 X14.5404 Y-7.6072 Z1.7187
G1 X14.5424 Y-7.6094 Z1.7173
G1 X14.5443 Y-7.6116 Z1.7162
G1 X14.6336 Y-7.7126 Z1.6752
G1 X14.6956 Y-7.7828 Z1.6456
G1 X14.7868 Y-7.8860 Z1.6039
G1 X14.9052 Y-8.0199 Z1.5475
G1 X14.9478 Y-8.0682 Z1.5279
G1 X15.1225 Y-8.2658 Z1.4440
G1 X15.1302 Y-8.2746 Z1.4402
G1 X15.1457 Y-8.2921 Z1.4317
G1 X15.1690 Y-8.3185 Z1.4181
G1 X15.1768 Y-8.3273 Z1.4133
G1 X15.1923 Y-8.3448 Z1.4030
G1 X15.2078 Y-8.3624 Z1.3914
G1 X15.2389 Y-8.3975 Z1.3663
G1 X15.2544 Y-8.4151 Z1.3524
G1 X15.2699 Y-8.4326 Z1.3371
G1 X15.2854 Y-8.4502 Z1.3203
G1 X15.3009 Y-8.4678 Z1.3030
G1 X15.3087 Y-8.4765 Z1.2937
G1 X15.3165 Y-8.4853 Z1.2839
G1 X15.3242 Y-8.4941 Z1.2735
G1 X15.3320 Y-8.5029 Z1.2624
G1 X15.3475 Y-8.5204 Z1.2394
G1 X15.3553 Y-8.5292 Z1.2274
G1 X15.3630 Y-8.5380 Z1.2146
G1 X15.3708 Y-8.5468 Z1.2008
G1 X15.3805 Y-8.5578 Z1.1819
G1 X15.3941 Y-8.5731 Z1.1540
G1 X15.4018 Y-8.5819 Z1.1367
G1 X15.4057 Y-8.5863 Z1.1274
G1 X15.4096 Y-8.5907 Z1.1174
G1 X15.4154 Y-8.5973 Z1.1010
G1 X15.4251 Y-8.6083 Z1.0719
G1 X15.4297 Y-8.6134 Z1.0571
G1 X15.4320 Y-8.6160 Z1.0491
G1 X15.4342 Y-8.6186 Z1.0404
G1 X15.4365 Y-8.6212 Z1.0310
G1 X15.4388 Y-8.6237 Z1.0204
G1 X15.4434 Y-8.6289 Z0.9965
G1 X15.4438 Y-8.6294 Z0.9958
G1 X15.4536 Y-8.6405 Z0.9940
G1 X15.4813 Y-8.6718 Z0.9978 F159.
G1 X15.5055 Y-8.6992 Z1.0184
G1 X15.5220 Y-8.7178 Z1.0522
G1 X15.5278 Y-8.7244 Z1.0933
G0 Z1.8800
G0 X15.5278 Y-8.7244 
G0 Z1.8800
G0 X14.0899 Y-7.1583 
G1 X14.0899 Y-7.1583 Z1.8550 F75.
G1 X14.0949 Y-7.1640 Z1.8167 F25.
G1 X14.1094 Y-7.1801 Z1.7843
G1 X14.1310 Y-7.2043 Z1.7626
G1 X14.1565 Y-7.2328 Z1.7550
G1 X14.4103 Y-7.5168 Z1.7550 F150.
G1 X14.4221 Y-7.5299 Z1.7544
G1 X14.4377 Y-7.5474 Z1.7523
G1 X14.4533 Y-7.5648 Z1.7487
G1 X14.4689 Y-7.5823 Z1.7436
G1 X14.4845 Y-7.5998 Z1.7369
G1 X14.5002 Y-7.6173 Z1.7286
G1 X14.5158 Y-7.6347 Z1.7184
G1 X14.5177 Y-7.6369 Z1.7170
G1 X14.5861 Y-7.7134 Z1.6856
G1 X14.6329 Y-7.7658 Z1.6634
G1 X14.7384 Y-7.8837 Z1.6155
G1 X14.8477 Y-8.0061 Z1.5636
G1 X14.9014 Y-8.0661 Z1.5392
G1 X15.0508 Y-8.2332 Z1.4679
G1 X15.0664 Y-8.2507 Z1.4607
G1 X15.1171 Y-8.3075 Z1.4362
G1 X15.1250 Y-8.3162 Z1.4323
G1 X15.1445 Y-8.3381 Z1.4215
G1 X15.1640 Y-8.3599 Z1.4101
G1 X15.1718 Y-8.3686 Z1.4053
G1 X15.1874 Y-8.3861 Z1.3949
G1 X15.2050 Y-8.4058 Z1.3817
G1 X15.2265 Y-8.4298 Z1.3644
G1 X15.2343 Y-8.4385 Z1.3579
G1 X15.2499 Y-8.4560 Z1.3438
G1 X15.2655 Y-8.4735 Z1.3280
G1 X15.2890 Y-8.4997 Z1.3023
G1 X15.2968 Y-8.5084 Z1.2934
G1 X15.3046 Y-8.5172 Z1.2839
G1 X15.3124 Y-8.5259 Z1.2739
G1 X15.3202 Y-8.5346 Z1.2632
G1 X15.3436 Y-8.5608 Z1.2287
G1 X15.3515 Y-8.5696 Z1.2164
G1 X15.3593 Y-8.5783 Z1.2032
G1 X15.3671 Y-8.5870 Z1.1889
G1 X15.3749 Y-8.5958 Z1.1734
G1 X15.3866 Y-8.6089 Z1.1495
G1 X15.3905 Y-8.6133 Z1.1411
G1 X15.3944 Y-8.6176 Z1.1323
G1 X15.3983 Y-8.6220 Z1.1230
G1 X15.4022 Y-8.6264 Z1.1131
G1 X15.4061 Y-8.6307 Z1.1024
G1 X15.4173 Y-8.6432 Z1.0684
G1 X15.4210 Y-8.6474 Z1.0563
G1 X15.4248 Y-8.6516 Z1.0431
G1 X15.4285 Y-8.6558 Z1.0281
G1 X15.4303 Y-8.6578 Z1.0197
G1 X15.4359 Y-8.6641 Z0.9909
G1 X15.4366 Y-8.6648 Z0.9901
G1 X15.4467 Y-8.6762 Z0.9883
G1 X15.4745 Y-8.7073 Z0.9922 F159.
G1 X15.4989 Y-8.7345 Z1.0128
G1 X15.5154 Y-8.7530 Z1.0466
G1 X15.5213 Y-8.7595 Z1.0876
G0 Z1.8800
G0 X15.5213 Y-8.7595 
G0 Z1.8800
G0 X14.0626 Y-7.1882 
G1 X14.0626 Y-7.1882 Z1.8550 F75.
G1 X14.0677 Y-7.1939 Z1.8167 F25.
G1 X14.0822 Y-7.2100 Z1.7843
G1 X14.1040 Y-7.2340 Z1.7626
G1 X14.1297 Y-7.2624 Z1.7550
G1 X14.3851 Y-7.5449 Z1.7550 F150.
G1 X14.3969 Y-7.5579 Z1.7543
G1 X14.4126 Y-7.5753 Z1.7522
G1 X14.4283 Y-7.5927 Z1.7486
G1 X14.4440 Y-7.6101 Z1.7434
G1 X14.4597 Y-7.6275 Z1.7367
G1 X14.4755 Y-7.6449 Z1.7282
G1 X14.4931 Y-7.6644 Z1.7166
G1 X14.5383 Y-7.7144 Z1.6960
G1 X14.5698 Y-7.7492 Z1.6812
G1 X14.6798 Y-7.8709 Z1.6315
G1 X14.6955 Y-7.8883 Z1.6243
G1 X14.7898 Y-7.9926 Z1.5797
G1 X14.8547 Y-8.0643 Z1.5505
G1 X14.9981 Y-8.2229 Z1.4824
G1 X15.0217 Y-8.2490 Z1.4717
G1 X15.1121 Y-8.3490 Z1.4284
G1 X15.1199 Y-8.3576 Z1.4245
G1 X15.1337 Y-8.3729 Z1.4170
G1 X15.1592 Y-8.4011 Z1.4021
G1 X15.1671 Y-8.4098 Z1.3973
G1 X15.1828 Y-8.4272 Z1.3867
G1 X15.2005 Y-8.4467 Z1.3734
G1 X15.2221 Y-8.4706 Z1.3558
G1 X15.2300 Y-8.4793 Z1.3492
G1 X15.2457 Y-8.4967 Z1.3347
G1 X15.2634 Y-8.5163 Z1.3165
G1 X15.2850 Y-8.5402 Z1.2928
G1 X15.2928 Y-8.5489 Z1.2836
G1 X15.3007 Y-8.5576 Z1.2739
G1 X15.3086 Y-8.5663 Z1.2636
G1 X15.3194 Y-8.5782 Z1.2483
G1 X15.3361 Y-8.5967 Z1.2237
G1 X15.3400 Y-8.6010 Z1.2176
G1 X15.3479 Y-8.6097 Z1.2050
G1 X15.3557 Y-8.6184 Z1.1913
G1 X15.3636 Y-8.6271 Z1.1765
G1 X15.3783 Y-8.6434 Z1.1462
G1 X15.3872 Y-8.6532 Z1.1266
G1 X15.3923 Y-8.6589 Z1.1140
G1 X15.3975 Y-8.6646 Z1.1002
G1 X15.4026 Y-8.6703 Z1.0850
G1 X15.4103 Y-8.6788 Z1.0614
G1 X15.4129 Y-8.6817 Z1.0531
G1 X15.4155 Y-8.6845 Z1.0443
G1 X15.4181 Y-8.6874 Z1.0348
G1 X15.4206 Y-8.6902 Z1.0244
G1 X15.4232 Y-8.6930 Z1.0130
G1 X15.4288 Y-8.6992 Z0.9846
G1 X15.4399 Y-8.7115 Z0.9826
G1 X15.4679 Y-8.7424 Z0.9865 F159.
G1 X15.4923 Y-8.7695 Z1.0072
G1 X15.5090 Y-8.7879 Z1.0410
G1 X15.5148 Y-8.7944 Z1.0819
G0 Z1.8800
G0 X15.5148 Y-8.7944 
G0 Z1.8800
G0 X14.0353 Y-7.2181 
G1 X14.0353 Y-7.2181 Z1.8550 F75.
G1 X14.0405 Y-7.2237 Z1.8167 F25.
G1 X14.0551 Y-7.2397 Z1.7843
G1 X14.0770 Y-7.2637 Z1.7626
G1 X14.1028 Y-7.2919 Z1.7550
G1 X14.3559 Y-7.5687 Z1.7550 F150.
G1 X14.3717 Y-7.5859 Z1.7543
G1 X14.3875 Y-7.6032 Z1.7521
G1 X14.4033 Y-7.6205 Z1.7484
G1 X14.4192 Y-7.6378 Z1.7432
G1 X14.4350 Y-7.6551 Z1.7364
G1 X14.4508 Y-7.6724 Z1.7279
G1 X14.4686 Y-7.6919 Z1.7163
G1 X14.5141 Y-7.7416 Z1.6954
G1 X14.6446 Y-7.8843 Z1.6367
G1 X14.7316 Y-7.9794 Z1.5959
G1 X14.8077 Y-8.0627 Z1.5618
G1 X14.9451 Y-8.2129 Z1.4970
G1 X14.9728 Y-8.2432 Z1.4846
G1 X15.1072 Y-8.3902 Z1.4206
G1 X15.1151 Y-8.3988 Z1.4166
G1 X15.1295 Y-8.4145 Z1.4088
G1 X15.1547 Y-8.4421 Z1.3941
G1 X15.1626 Y-8.4507 Z1.3892
G1 X15.1784 Y-8.4680 Z1.3784
G1 X15.1942 Y-8.4853 Z1.3664
G1 X15.2179 Y-8.5113 Z1.3471
G1 X15.2258 Y-8.5199 Z1.3403
G1 X15.2417 Y-8.5372 Z1.3256
G1 X15.2535 Y-8.5502 Z1.3135
G1 X15.2772 Y-8.5761 Z1.2875
G1 X15.2812 Y-8.5804 Z1.2830
G1 X15.2891 Y-8.5891 Z1.2737
G1 X15.2970 Y-8.5977 Z1.2637
G1 X15.3049 Y-8.6064 Z1.2531
G1 X15.3128 Y-8.6150 Z1.2419
G1 X15.3286 Y-8.6323 Z1.2186
G1 X15.3366 Y-8.6410 Z1.2062
G1 X15.3445 Y-8.6496 Z1.1928
G1 X15.3524 Y-8.6583 Z1.1783
G1 X15.3593 Y-8.6658 Z1.1645
G1 X15.3715 Y-8.6792 Z1.1393
G1 X15.3748 Y-8.6828 Z1.1322
G1 X15.3814 Y-8.6900 Z1.1171
G1 X15.3880 Y-8.6972 Z1.1003
G1 X15.3929 Y-8.7026 Z1.0864
G1 X15.4045 Y-8.7152 Z1.0511
G1 X15.4077 Y-8.7188 Z1.0401
G1 X15.4110 Y-8.7224 Z1.0279
G1 X15.4143 Y-8.7260 Z1.0144
G1 X15.4176 Y-8.7296 Z0.9987
G1 X15.4214 Y-8.7338 Z0.9791
G1 X15.4331 Y-8.7465 Z0.9770
G1 X15.4613 Y-8.7773 Z0.9810 F159.
G1 X15.4858 Y-8.8042 Z1.0016
G1 X15.5026 Y-8.8225 Z1.0354
G1 X15.5085 Y-8.8290 Z1.0764
G0 Z1.8800
G0 X15.5085 Y-8.8290 
G0 Z1.8800
G0 X14.0081 Y-7.2480 
G1 X14.0081 Y-7.2480 Z1.8550 F75.
G1 X14.0133 Y-7.2536 Z1.8167 F25.
G1 X14.0280 Y-7.2695 Z1.7843
G1 X14.0500 Y-7.2933 Z1.7626
G1 X14.0760 Y-7.3214 Z1.7550
G1 X14.3307 Y-7.5967 Z1.7550 F150.
G1 X14.3466 Y-7.6139 Z1.7542
G1 X14.3625 Y-7.6311 Z1.7520
G1 X14.3784 Y-7.6483 Z1.7483
G1 X14.3943 Y-7.6655 Z1.7430
G1 X14.4102 Y-7.6827 Z1.7362
G1 X14.4261 Y-7.6999 Z1.7276
G1 X14.4421 Y-7.7171 Z1.7172
G1 X14.4460 Y-7.7214 Z1.7150
G1 X14.5933 Y-7.8806 Z1.6493
G1 X14.6728 Y-7.9666 Z1.6121
G1 X14.7604 Y-8.0613 Z1.5732
G1 X14.8877 Y-8.1989 Z1.5134
G1 X14.9275 Y-8.2419 Z1.4957
G1 X15.1025 Y-8.4312 Z1.4128
G1 X15.1105 Y-8.4398 Z1.4088
G1 X15.1224 Y-8.4527 Z1.4022
G1 X15.1463 Y-8.4785 Z1.3885
G1 X15.1582 Y-8.4914 Z1.3810
G1 X15.1741 Y-8.5086 Z1.3700
G1 X15.1861 Y-8.5215 Z1.3609
G1 X15.2100 Y-8.5473 Z1.3417
G1 X15.2219 Y-8.5602 Z1.3314
G1 X15.2378 Y-8.5774 Z1.3164
G1 X15.2497 Y-8.5903 Z1.3040
G1 X15.2696 Y-8.6118 Z1.2822
G1 X15.2776 Y-8.6204 Z1.2732
G1 X15.2856 Y-8.6290 Z1.2635
G1 X15.2935 Y-8.6376 Z1.2532
G1 X15.3015 Y-8.6462 Z1.2422
G1 X15.3214 Y-8.6678 Z1.2126
G1 X15.3253 Y-8.6721 Z1.2065
G1 X15.3333 Y-8.6807 Z1.1936
G1 X15.3413 Y-8.6893 Z1.1796
G1 X15.3492 Y-8.6979 Z1.1644
G1 X15.3653 Y-8.7153 Z1.1311
G1 X15.3693 Y-8.7196 Z1.1223
G1 X15.3734 Y-8.7240 Z1.1130
G1 X15.3774 Y-8.7283 Z1.1032
G1 X15.3814 Y-8.7327 Z1.0926
G1 X15.3865 Y-8.7381 Z1.0782
G1 X15.3975 Y-8.7501 Z1.0443
G1 X15.4016 Y-8.7545 Z1.0306
G1 X15.4056 Y-8.7588 Z1.0151
G1 X15.4076 Y-8.7610 Z1.0065
G1 X15.4106 Y-8.7643 Z0.9919
G1 X15.4136 Y-8.7675 Z0.9762
G1 X15.4142 Y-8.7682 Z0.9736
G1 X15.4263 Y-8.7812 Z0.9716
G1 X15.4545 Y-8.8117 Z0.9756 F159.
G1 X15.4792 Y-8.8384 Z0.9963
G1 X15.4960 Y-8.8565 Z1.0300
G1 X15.5019 Y-8.8629 Z1.0709
G0 Z1.8800
G0 X15.5019 Y-8.8629 
G0 Z1.8800
G0 X13.9809 Y-7.2779 
G1 X13.9809 Y-7.2779 Z1.8550 F75.
G1 X13.9861 Y-7.2834 Z1.8167 F25.
G1 X14.0009 Y-7.2992 Z1.7843
G1 X14.0231 Y-7.3229 Z1.7626
G1 X14.0492 Y-7.3509 Z1.7550
G1 X14.3054 Y-7.6247 Z1.7550 F150.
G1 X14.3215 Y-7.6418 Z1.7542
G1 X14.3375 Y-7.6589 Z1.7519
G1 X14.3535 Y-7.6761 Z1.7482
G1 X14.3695 Y-7.6932 Z1.7429
G1 X14.3855 Y-7.7103 Z1.7360
G1 X14.4015 Y-7.7274 Z1.7274
G1 X14.4175 Y-7.7445 Z1.7169
G1 X14.5456 Y-7.8814 Z1.6599
G1 X14.6137 Y-7.9542 Z1.6284
G1 X14.7127 Y-8.0601 Z1.5845
G1 X14.8338 Y-8.1895 Z1.5280
G1 X14.8839 Y-8.2430 Z1.5059
G1 X15.0660 Y-8.4377 Z1.4203
G1 X15.0980 Y-8.4719 Z1.4050
G1 X15.1060 Y-8.4805 Z1.4009
G1 X15.1221 Y-8.4976 Z1.3920
G1 X15.1381 Y-8.5147 Z1.3828
G1 X15.1541 Y-8.5318 Z1.3728
G1 X15.1701 Y-8.5489 Z1.3616
G1 X15.1821 Y-8.5618 Z1.3523
G1 X15.2021 Y-8.5832 Z1.3362
G1 X15.2181 Y-8.6003 Z1.3224
G1 X15.2341 Y-8.6174 Z1.3070
G1 X15.2421 Y-8.6260 Z1.2987
G1 X15.2662 Y-8.6516 Z1.2722
G1 X15.2742 Y-8.6602 Z1.2627
G1 X15.2822 Y-8.6687 Z1.2526
G1 X15.2902 Y-8.6773 Z1.2419
G1 X15.2982 Y-8.6859 Z1.2304
G1 X15.3142 Y-8.7030 Z1.2065
G1 X15.3222 Y-8.7115 Z1.1940
G1 X15.3302 Y-8.7201 Z1.1805
G1 X15.3398 Y-8.7303 Z1.1629
G1 X15.3493 Y-8.7405 Z1.1435
G1 X15.3589 Y-8.7507 Z1.1237
G1 X15.3636 Y-8.7558 Z1.1132
G1 X15.3684 Y-8.7609 Z1.1018
G1 X15.3732 Y-8.7660 Z1.0896
G1 X15.3795 Y-8.7727 Z1.0719
G1 X15.3899 Y-8.7839 Z1.0401
G1 X15.3923 Y-8.7864 Z1.0323
G1 X15.3947 Y-8.7890 Z1.0239
G1 X15.3971 Y-8.7916 Z1.0149
G1 X15.3995 Y-8.7941 Z1.0051
G1 X15.4030 Y-8.7979 Z0.9884
G1 X15.4070 Y-8.8021 Z0.9684
G1 X15.4179 Y-8.8138 Z0.9666
G1 X15.4463 Y-8.8442 Z0.9708 F159.
G1 X15.4710 Y-8.8706 Z0.9915
G1 X15.4878 Y-8.8886 Z1.0252
G1 X15.4938 Y-8.8949 Z1.0660
G0 Z1.8800
G0 X15.4938 Y-8.8949 
G0 Z1.8800
G0 X13.9538 Y-7.3077 
G1 X13.9538 Y-7.3077 Z1.8550 F75.
G1 X13.9590 Y-7.3132 Z1.8167 F25.
G1 X13.9739 Y-7.3290 Z1.7843
G1 X13.9962 Y-7.3525 Z1.7626
G1 X14.0225 Y-7.3803 Z1.7550
G1 X14.2802 Y-7.6527 Z1.7550 F150.
G1 X14.2963 Y-7.6697 Z1.7542
G1 X14.3125 Y-7.6867 Z1.7520
G1 X14.3286 Y-7.7038 Z1.7482
G1 X14.3447 Y-7.7208 Z1.7429
G1 X14.3608 Y-7.7378 Z1.7361
G1 X14.3769 Y-7.7548 Z1.7275
G1 X14.3930 Y-7.7719 Z1.7171
G1 X14.4937 Y-7.8783 Z1.6725
G1 X14.5541 Y-7.9421 Z1.6447
G1 X14.6638 Y-8.0581 Z1.5963
G1 X14.7756 Y-8.1762 Z1.5445
G1 X14.8360 Y-8.2400 Z1.5179
G1 X14.9931 Y-8.4060 Z1.4444
G1 X15.0132 Y-8.4273 Z1.4355
G1 X15.0937 Y-8.5124 Z1.3972
G1 X15.1018 Y-8.5209 Z1.3931
G1 X15.1340 Y-8.5550 Z1.3747
G1 X15.1501 Y-8.5720 Z1.3645
G1 X15.1662 Y-8.5890 Z1.3531
G1 X15.1823 Y-8.6061 Z1.3404
G1 X15.1984 Y-8.6231 Z1.3274
G1 X15.2145 Y-8.6401 Z1.3132
G1 X15.2307 Y-8.6571 Z1.2972
G1 X15.2548 Y-8.6827 Z1.2708
G1 X15.2629 Y-8.6912 Z1.2616
G1 X15.2709 Y-8.6997 Z1.2518
G1 X15.2790 Y-8.7082 Z1.2414
G1 X15.2870 Y-8.7167 Z1.2302
G1 X15.3072 Y-8.7380 Z1.2004
G1 X15.3112 Y-8.7422 Z1.1943
G1 X15.3222 Y-8.7538 Z1.1762
G1 X15.3276 Y-8.7596 Z1.1664
G1 X15.3331 Y-8.7654 Z1.1561
G1 X15.3496 Y-8.7828 Z1.1225
G1 X15.3550 Y-8.7886 Z1.1107
G1 X15.3605 Y-8.7944 Z1.0980
G1 X15.3660 Y-8.8001 Z1.0841
G1 X15.3728 Y-8.8074 Z1.0646
G1 X15.3824 Y-8.8175 Z1.0355
G1 X15.3852 Y-8.8204 Z1.0263
G1 X15.3879 Y-8.8233 Z1.0163
G1 X15.3906 Y-8.8262 Z1.0054
G1 X15.3934 Y-8.8291 Z0.9933
G1 X15.3961 Y-8.8320 Z0.9795
G1 X15.3989 Y-8.8349 Z0.9648
G1 X15.3992 Y-8.8353 Z0.9634
G1 X15.4096 Y-8.8463 Z0.9617
G1 X15.4382 Y-8.8764 Z0.9659 F159.
G1 X15.4630 Y-8.9027 Z0.9866
G1 X15.4799 Y-8.9205 Z1.0203
G1 X15.4859 Y-8.9269 Z1.0611
G0 Z1.8800
G0 X15.4859 Y-8.9269 
G0 Z1.8800
G0 X13.9266 Y-7.3375 
G1 X13.9266 Y-7.3375 Z1.8550 F75.
G1 X13.9319 Y-7.3430 Z1.8167 F25.
G1 X13.9469 Y-7.3586 Z1.7843
G1 X13.9693 Y-7.3821 Z1.7626
G1 X13.9958 Y-7.4097 Z1.7550
G1 X14.2550 Y-7.6806 Z1.7550 F150.
G1 X14.2713 Y-7.6976 Z1.7542
G1 X14.2875 Y-7.7145 Z1.7520
G1 X14.3037 Y-7.7314 Z1.7483
G1 X14.3199 Y-7.7484 Z1.7430
G1 X14.3361 Y-7.7653 Z1.7362
G1 X14.3523 Y-7.7822 Z1.7276
G1 X14.3685 Y-7.7992 Z1.7172
G1 X14.3725 Y-7.8034 Z1.7153
G1 X14.4455 Y-7.8796 Z1.6831
G1 X14.4900 Y-7.9262 Z1.6627
G1 X14.6156 Y-8.0574 Z1.6077
G1 X14.7209 Y-8.1675 Z1.5592
G1 X14.7898 Y-8.2394 Z1.5291
G1 X14.9397 Y-8.3960 Z1.4593
G1 X14.9600 Y-8.4172 Z1.4505
G1 X15.0815 Y-8.5442 Z1.3934
G1 X15.0977 Y-8.5611 Z1.3852
G1 X15.1301 Y-8.5950 Z1.3666
G1 X15.1463 Y-8.6119 Z1.3562
G1 X15.1625 Y-8.6289 Z1.3445
G1 X15.1909 Y-8.6585 Z1.3217
G1 X15.1949 Y-8.6627 Z1.3183
G1 X15.2111 Y-8.6797 Z1.3036
G1 X15.2273 Y-8.6966 Z1.2871
G1 X15.2517 Y-8.7220 Z1.2604
G1 X15.2598 Y-8.7305 Z1.2508
G1 X15.2679 Y-8.7389 Z1.2407
G1 X15.2760 Y-8.7474 Z1.2299
G1 X15.2841 Y-8.7559 Z1.2183
G1 X15.2984 Y-8.7708 Z1.1971
G1 X15.3045 Y-8.7773 Z1.1877
G1 X15.3107 Y-8.7837 Z1.1777
G1 X15.3169 Y-8.7902 Z1.1672
G1 X15.3231 Y-8.7967 Z1.1559
G1 X15.3293 Y-8.8031 Z1.1438
G1 X15.3417 Y-8.8160 Z1.1185
G1 X15.3478 Y-8.8225 Z1.1051
G1 X15.3540 Y-8.8290 Z1.0903
G1 X15.3602 Y-8.8354 Z1.0739
G1 X15.3649 Y-8.8403 Z1.0603
G1 X15.3726 Y-8.8484 Z1.0364
G1 X15.3757 Y-8.8516 Z1.0265
G1 X15.3788 Y-8.8548 Z1.0157
G1 X15.3819 Y-8.8581 Z1.0039
G1 X15.3850 Y-8.8613 Z0.9906
G1 X15.3881 Y-8.8645 Z0.9753
G1 X15.3912 Y-8.8678 Z0.9588
G1 X15.3916 Y-8.8682 Z0.9584
G1 X15.4014 Y-8.8785 Z0.9568
G1 X15.4301 Y-8.9084 Z0.9610 F159.
G1 X15.4551 Y-8.9346 Z0.9817
G1 X15.4721 Y-8.9523 Z1.0154
G1 X15.4781 Y-8.9586 Z1.0562
G0 Z1.8800
G0 X15.4781 Y-8.9586 
G0 Z1.8800
G0 X13.8995 Y-7.3673 
G1 X13.8995 Y-7.3673 Z1.8550 F75.
G1 X13.9048 Y-7.3727 Z1.8167 F25.
G1 X13.9199 Y-7.3883 Z1.7843
G1 X13.9424 Y-7.4116 Z1.7626
G1 X13.9691 Y-7.4391 Z1.7550
G1 X14.2299 Y-7.7086 Z1.7550 F150.
G1 X14.2462 Y-7.7254 Z1.7543
G1 X14.2625 Y-7.7422 Z1.7521
G1 X14.2788 Y-7.7591 Z1.7484
G1 X14.2951 Y-7.7759 Z1.7431
G1 X14.3114 Y-7.7928 Z1.7363
G1 X14.3277 Y-7.8096 Z1.7277
G1 X14.3440 Y-7.8264 Z1.7174
G1 X14.3460 Y-7.8285 Z1.7163
G1 X14.3929 Y-7.8770 Z1.6957
G1 X14.4255 Y-7.9106 Z1.6809
G1 X14.5651 Y-8.0548 Z1.6201
G1 X14.6618 Y-8.1548 Z1.5757
G1 X14.7352 Y-8.2306 Z1.5439
G1 X14.8860 Y-8.3864 Z1.4743
G1 X14.9145 Y-8.4159 Z1.4619
G1 X14.9471 Y-8.4495 Z1.4468
G1 X15.0775 Y-8.5843 Z1.3857
G1 X15.0958 Y-8.6032 Z1.3761
G1 X15.1183 Y-8.6264 Z1.3633
G1 X15.1264 Y-8.6348 Z1.3584
G1 X15.1427 Y-8.6516 Z1.3477
G1 X15.1610 Y-8.6706 Z1.3339
G1 X15.1835 Y-8.6937 Z1.3159
G1 X15.1916 Y-8.7022 Z1.3089
G1 X15.2079 Y-8.7190 Z1.2938
G1 X15.2161 Y-8.7274 Z1.2856
G1 X15.2395 Y-8.7516 Z1.2601
G1 X15.2487 Y-8.7611 Z1.2497
G1 X15.2568 Y-8.7695 Z1.2398
G1 X15.2650 Y-8.7779 Z1.2293
G1 X15.2731 Y-8.7864 Z1.2181
G1 X15.2938 Y-8.8077 Z1.1876
G1 X15.3007 Y-8.8148 Z1.1769
G1 X15.3076 Y-8.8219 Z1.1653
G1 X15.3145 Y-8.8291 Z1.1528
G1 X15.3231 Y-8.8380 Z1.1356
G1 X15.3351 Y-8.8504 Z1.1105
G1 X15.3420 Y-8.8575 Z1.0951
G1 X15.3489 Y-8.8647 Z1.0781
G1 X15.3524 Y-8.8682 Z1.0687
G1 X15.3575 Y-8.8736 Z1.0535
G1 X15.3661 Y-8.8824 Z1.0269
G1 X15.3696 Y-8.8860 Z1.0154
G1 X15.3730 Y-8.8896 Z1.0028
G1 X15.3765 Y-8.8931 Z0.9885
G1 X15.3795 Y-8.8962 Z0.9741
G1 X15.3834 Y-8.9002 Z0.9536
G1 X15.3932 Y-8.9104 Z0.9520
G1 X15.4221 Y-8.9403 Z0.9560 F159.
G1 X15.4474 Y-8.9664 Z0.9767
G1 X15.4646 Y-8.9842 Z1.0104
G1 X15.4707 Y-8.9904 Z1.0513
G0 Z1.8800
G0 X15.4707 Y-8.9904 
G0 Z1.8800
G0 X13.8724 Y-7.3970 
G1 X13.8724 Y-7.3970 Z1.8550 F75.
G1 X13.8777 Y-7.4025 Z1.8167 F25.
G1 X13.8929 Y-7.4179 Z1.7843
G1 X13.9156 Y-7.4411 Z1.7626
G1 X13.9424 Y-7.4685 Z1.7550
G1 X14.2047 Y-7.7364 Z1.7550 F150.
G1 X14.2211 Y-7.7532 Z1.7543
G1 X14.2375 Y-7.7699 Z1.7521
G1 X14.2539 Y-7.7867 Z1.7484
G1 X14.2703 Y-7.8034 Z1.7432
G1 X14.2867 Y-7.8202 Z1.7364
G1 X14.3031 Y-7.8369 Z1.7279
G1 X14.3215 Y-7.8558 Z1.7164
G1 X14.3441 Y-7.8788 Z1.7064
G1 X14.3605 Y-7.8955 Z1.6990
G1 X14.5152 Y-8.0536 Z1.6319
G1 X14.6023 Y-8.1426 Z1.5923
G1 X14.6925 Y-8.2347 Z1.5533
G1 X14.8318 Y-8.3771 Z1.4892
G1 X14.8687 Y-8.4147 Z1.4733
G1 X15.0696 Y-8.6199 Z1.3799
G1 X15.0737 Y-8.6241 Z1.3780
G1 X15.0901 Y-8.6408 Z1.3693
G1 X15.1147 Y-8.6660 Z1.3552
G1 X15.1229 Y-8.6743 Z1.3501
G1 X15.1393 Y-8.6911 Z1.3391
G1 X15.1516 Y-8.7036 Z1.3298
G1 X15.1762 Y-8.7288 Z1.3101
G1 X15.1885 Y-8.7413 Z1.2995
G1 X15.2049 Y-8.7581 Z1.2839
G1 X15.2172 Y-8.7706 Z1.2709
G1 X15.2376 Y-8.7916 Z1.2484
G1 X15.2458 Y-8.7999 Z1.2388
G1 X15.2540 Y-8.8083 Z1.2286
G1 X15.2616 Y-8.8161 Z1.2185
G1 X15.2692 Y-8.8238 Z1.2076
G1 X15.2844 Y-8.8393 Z1.1849
G1 X15.2920 Y-8.8470 Z1.1731
G1 X15.2995 Y-8.8548 Z1.1603
G1 X15.3071 Y-8.8625 Z1.1465
G1 X15.3138 Y-8.8693 Z1.1335
G1 X15.3261 Y-8.8819 Z1.1079
G1 X15.3299 Y-8.8858 Z1.0998
G1 X15.3374 Y-8.8935 Z1.0822
G1 X15.3412 Y-8.8974 Z1.0725
G1 X15.3450 Y-8.9012 Z1.0622
G1 X15.3526 Y-8.9090 Z1.0395
G1 X15.3583 Y-8.9148 Z1.0220
G1 X15.3602 Y-8.9167 Z1.0158
G1 X15.3640 Y-8.9206 Z1.0025
G1 X15.3678 Y-8.9245 Z0.9874
G1 X15.3697 Y-8.9264 Z0.9789
G1 X15.3716 Y-8.9284 Z0.9697
G1 X15.3754 Y-8.9322 Z0.9498
G1 X15.3759 Y-8.9328 Z0.9486
G1 X15.3851 Y-8.9422 Z0.9473
G1 X15.4140 Y-8.9717 Z0.9516 F159.
G1 X15.4392 Y-8.9975 Z0.9724
G1 X15.4563 Y-9.0149 Z1.0060
G1 X15.4624 Y-9.0211 Z1.0467
G0 Z1.8800
G0 X15.4624 Y-9.0211 
G0 Z1.8800
G0 X13.8454 Y-7.4268 
G1 X13.8454 Y-7.4268 Z1.8550 F75.
G1 X13.8507 Y-7.4322 Z1.8167 F25.
G1 X13.8660 Y-7.4476 Z1.7843
G1 X13.8888 Y-7.4706 Z1.7626
G1 X13.9157 Y-7.4978 Z1.7550
G1 X14.1837 Y-7.7685 Z1.7550 F150.
G1 X14.1960 Y-7.7810 Z1.7543
G1 X14.2125 Y-7.7976 Z1.7522
G1 X14.2290 Y-7.8143 Z1.7485
G1 X14.2455 Y-7.8309 Z1.7433
G1 X14.2620 Y-7.8476 Z1.7365
G1 X14.2785 Y-7.8642 Z1.7280
G1 X14.2950 Y-7.8809 Z1.7177
G1 X14.2970 Y-7.8830 Z1.7163
G1 X14.4650 Y-8.0526 Z1.6438
G1 X14.5423 Y-8.1307 Z1.6088
G1 X14.6454 Y-8.2348 Z1.5645
G1 X14.7732 Y-8.3639 Z1.5060
G1 X14.8227 Y-8.4138 Z1.4848
G1 X15.0000 Y-8.5929 Z1.4029
G1 X15.0164 Y-8.6095 Z1.3955
G1 X15.0618 Y-8.6553 Z1.3742
G1 X15.0700 Y-8.6637 Z1.3702
G1 X15.0824 Y-8.6761 Z1.3635
G1 X15.1030 Y-8.6970 Z1.3518
G1 X15.1195 Y-8.7136 Z1.3418
G1 X15.1360 Y-8.7303 Z1.3303
G1 X15.1484 Y-8.7428 Z1.3208
G1 X15.1690 Y-8.7636 Z1.3043
G1 X15.1855 Y-8.7802 Z1.2899
G1 X15.2020 Y-8.7969 Z1.2738
G1 X15.2267 Y-8.8219 Z1.2470
G1 X15.2349 Y-8.8302 Z1.2374
G1 X15.2432 Y-8.8386 Z1.2272
G1 X15.2515 Y-8.8469 Z1.2163
G1 X15.2619 Y-8.8574 Z1.2015
G1 X15.2764 Y-8.8721 Z1.1799
G1 X15.2847 Y-8.8804 Z1.1670
G1 X15.2930 Y-8.8888 Z1.1529
G1 X15.3013 Y-8.8972 Z1.1376
G1 X15.3096 Y-8.9056 Z1.1208
G1 X15.3220 Y-8.9181 Z1.0949
G1 X15.3261 Y-8.9223 Z1.0855
G1 X15.3303 Y-8.9265 Z1.0755
G1 X15.3344 Y-8.9307 Z1.0649
G1 X15.3386 Y-8.9349 Z1.0534
G1 X15.3510 Y-8.9474 Z1.0155
G1 X15.3551 Y-8.9516 Z1.0015
G1 X15.3593 Y-8.9558 Z0.9855
G1 X15.3614 Y-8.9579 Z0.9766
G1 X15.3645 Y-8.9610 Z0.9614
G1 X15.3676 Y-8.9642 Z0.9451
G1 X15.3681 Y-8.9647 Z0.9439
G1 X15.3770 Y-8.9737 Z0.9426
G1 X15.4061 Y-9.0031 Z0.9469 F159.
G1 X15.4314 Y-9.0286 Z0.9677
G1 X15.4486 Y-9.0460 Z1.0014
G1 X15.4547 Y-9.0521 Z1.0420
G0 Z1.8800
G0 X15.4547 Y-9.0521 
G0 Z1.8800
G0 X13.8183 Y-7.4565 
G1 X13.8183 Y-7.4565 Z1.8550 F75.
G1 X13.8237 Y-7.4619 Z1.8167 F25.
G1 X13.8390 Y-7.4772 Z1.7843
G1 X13.8620 Y-7.5001 Z1.7626
G1 X13.8891 Y-7.5271 Z1.7550
G1 X14.1586 Y-7.7963 Z1.7550 F150.
G1 X14.1710 Y-7.8087 Z1.7543
G1 X14.1876 Y-7.8252 Z1.7522
G1 X14.2042 Y-7.8418 Z1.7486
G1 X14.2207 Y-7.8584 Z1.7435
G1 X14.2373 Y-7.8749 Z1.7367
G1 X14.2539 Y-7.8915 Z1.7283
G1 X14.2726 Y-7.9101 Z1.7167
G1 X14.4135 Y-8.0509 Z1.6562
G1 X14.4778 Y-8.1151 Z1.6272
G1 X14.5939 Y-8.2310 Z1.5776
G1 X14.7183 Y-8.3552 Z1.5210
G1 X14.7805 Y-8.4173 Z1.4944
G1 X14.9463 Y-8.5829 Z1.4181
G1 X14.9670 Y-8.6036 Z1.4091
G1 X15.0583 Y-8.6947 Z1.3665
G1 X15.0666 Y-8.7030 Z1.3623
G1 X15.0852 Y-8.7216 Z1.3520
G1 X15.0997 Y-8.7361 Z1.3437
G1 X15.1163 Y-8.7527 Z1.3333
G1 X15.1329 Y-8.7692 Z1.3215
G1 X15.1495 Y-8.7858 Z1.3084
G1 X15.1661 Y-8.8024 Z1.2950
G1 X15.1744 Y-8.8106 Z1.2878
G1 X15.1826 Y-8.8189 Z1.2801
G1 X15.1909 Y-8.8272 Z1.2719
G1 X15.2034 Y-8.8396 Z1.2587
G1 X15.2203 Y-8.8565 Z1.2400
G1 X15.2248 Y-8.8610 Z1.2348
G1 X15.2338 Y-8.8700 Z1.2239
G1 X15.2429 Y-8.8790 Z1.2122
G1 X15.2519 Y-8.8880 Z1.1996
G1 X15.2699 Y-8.9060 Z1.1727
G1 X15.2789 Y-8.9150 Z1.1585
G1 X15.2879 Y-8.9240 Z1.1429
G1 X15.2981 Y-8.9342 Z1.1234
G1 X15.3105 Y-8.9465 Z1.0979
G1 X15.3150 Y-8.9510 Z1.0882
G1 X15.3195 Y-8.9555 Z1.0779
G1 X15.3240 Y-8.9600 Z1.0669
G1 X15.3285 Y-8.9645 Z1.0550
G1 X15.3330 Y-8.9690 Z1.0420
G1 X15.3420 Y-8.9780 Z1.0146
G1 X15.3465 Y-8.9825 Z0.9998
G1 X15.3488 Y-8.9848 Z0.9917
G1 X15.3510 Y-8.9870 Z0.9830
G1 X15.3533 Y-8.9893 Z0.9735
G1 X15.3566 Y-8.9927 Z0.9572
G1 X15.3600 Y-8.9960 Z0.9396
G1 X15.3606 Y-8.9966 Z0.9392
G1 X15.3690 Y-9.0050 Z0.9380
G1 X15.3982 Y-9.0341 Z0.9425 F159.
G1 X15.4236 Y-9.0595 Z0.9633
G1 X15.4408 Y-9.0767 Z0.9969
G1 X15.4469 Y-9.0828 Z1.0375
G0 Z1.8800
G0 X15.4469 Y-9.0828 
G0 Z1.8800
G0 X13.7917 Y-7.4867 
G1 X13.7917 Y-7.4867 Z1.8550 F75.
G1 X13.7971 Y-7.4920 Z1.8167 F25.
G1 X13.8126 Y-7.5072 Z1.7843
G1 X13.8357 Y-7.5300 Z1.7626
G1 X13.8629 Y-7.5569 Z1.7550
G1 X14.1339 Y-7.8245 Z1.7550 F150.
G1 X14.1464 Y-7.8369 Z1.7544
G1 X14.1631 Y-7.8533 Z1.7523
G1 X14.1798 Y-7.8698 Z1.7488
G1 X14.1964 Y-7.8863 Z1.7437
G1 X14.2131 Y-7.9027 Z1.7370
G1 X14.2298 Y-7.9192 Z1.7286
G1 X14.2465 Y-7.9357 Z1.7184
G1 X14.2507 Y-7.9398 Z1.7160
G1 X14.3611 Y-8.0489 Z1.6689
G1 X14.4174 Y-8.1044 Z1.6437
G1 X14.5383 Y-8.2238 Z1.5923
G1 X14.6593 Y-8.3432 Z1.5377
G1 X14.7301 Y-8.4132 Z1.5075
G1 X14.8928 Y-8.5738 Z1.4332
G1 X14.9136 Y-8.5943 Z1.4243
G1 X14.9303 Y-8.6108 Z1.4168
G1 X15.0470 Y-8.7261 Z1.3626
G1 X15.0637 Y-8.7425 Z1.3542
G1 X15.0887 Y-8.7672 Z1.3401
G1 X15.0971 Y-8.7755 Z1.3352
G1 X15.1137 Y-8.7919 Z1.3244
G1 X15.1325 Y-8.8105 Z1.3105
G1 X15.1554 Y-8.8331 Z1.2920
G1 X15.1638 Y-8.8413 Z1.2849
G1 X15.1805 Y-8.8578 Z1.2693
G1 X15.1888 Y-8.8660 Z1.2607
G1 X15.2116 Y-8.8886 Z1.2358
G1 X15.2164 Y-8.8933 Z1.2303
G1 X15.2261 Y-8.9028 Z1.2187
G1 X15.2357 Y-8.9124 Z1.2061
G1 X15.2478 Y-8.9243 Z1.1890
G1 X15.2646 Y-8.9409 Z1.1638
G1 X15.2743 Y-8.9504 Z1.1482
G1 X15.2839 Y-8.9600 Z1.1309
G1 X15.2912 Y-8.9671 Z1.1167
G1 X15.3032 Y-8.9790 Z1.0919
G1 X15.3080 Y-8.9838 Z1.0815
G1 X15.3129 Y-8.9885 Z1.0704
G1 X15.3177 Y-8.9933 Z1.0584
G1 X15.3225 Y-8.9981 Z1.0453
G1 X15.3273 Y-9.0028 Z1.0310
G1 X15.3346 Y-9.0100 Z1.0088
G1 X15.3370 Y-9.0123 Z1.0008
G1 X15.3394 Y-9.0147 Z0.9923
G1 X15.3418 Y-9.0171 Z0.9832
G1 X15.3442 Y-9.0195 Z0.9732
G1 X15.3466 Y-9.0219 Z0.9621
G1 X15.3514 Y-9.0266 Z0.9366
G1 X15.3521 Y-9.0272 Z0.9348
G1 X15.3610 Y-9.0361 Z0.9336
G1 X15.3904 Y-9.0651 Z0.9380 F159.
G1 X15.4159 Y-9.0903 Z0.9589
G1 X15.4332 Y-9.1074 Z0.9925
G1 X15.4393 Y-9.1134 Z1.0331
G0 Z1.8800
G0 X15.4393 Y-9.1134 
G0 Z1.8800
G0 X13.7664 Y-7.5180 
G1 X13.7664 Y-7.5180 Z1.8550 F75.
G1 X13.7718 Y-7.5233 Z1.8167 F25.
G1 X13.7873 Y-7.5384 Z1.7843
G1 X13.8105 Y-7.5611 Z1.7626
G1 X13.8379 Y-7.5878 Z1.7550
G1 X14.1104 Y-7.8539 Z1.7550 F150.
G1 X14.1230 Y-7.8662 Z1.7543
G1 X14.1398 Y-7.8825 Z1.7522
G1 X14.1566 Y-7.8989 Z1.7486
G1 X14.1733 Y-7.9153 Z1.7435
G1 X14.1901 Y-7.9316 Z1.7367
G1 X14.2069 Y-7.9480 Z1.7283
G1 X14.2257 Y-7.9664 Z1.7167
G1 X14.3086 Y-8.0473 Z1.6815
G1 X14.3536 Y-8.0913 Z1.6614
G1 X14.4920 Y-8.2263 Z1.6029
G1 X14.5989 Y-8.3307 Z1.5548
G1 X14.6765 Y-8.4064 Z1.5220
G1 X14.6932 Y-8.4228 Z1.5145
G1 X14.8358 Y-8.5620 Z1.4496
G1 X14.8693 Y-8.5947 Z1.4354
G1 X14.9113 Y-8.6356 Z1.4161
G1 X15.0454 Y-8.7666 Z1.3541
G1 X15.0622 Y-8.7830 Z1.3453
G1 X15.0874 Y-8.8076 Z1.3310
G1 X15.0957 Y-8.8157 Z1.3258
G1 X15.1125 Y-8.8321 Z1.3144
G1 X15.1251 Y-8.8444 Z1.3048
G1 X15.1461 Y-8.8649 Z1.2880
G1 X15.1628 Y-8.8812 Z1.2734
G1 X15.1712 Y-8.8894 Z1.2654
G1 X15.1796 Y-8.8976 Z1.2569
G1 X15.2051 Y-8.9225 Z1.2291
G1 X15.2102 Y-8.9275 Z1.2233
G1 X15.2204 Y-8.9375 Z1.2108
G1 X15.2307 Y-8.9474 Z1.1973
G1 X15.2383 Y-8.9549 Z1.1864
G1 X15.2562 Y-8.9724 Z1.1599
G1 X15.2613 Y-8.9773 Z1.1519
G1 X15.2715 Y-8.9873 Z1.1346
G1 X15.2766 Y-8.9923 Z1.1252
G1 X15.2843 Y-8.9998 Z1.1101
G1 X15.2970 Y-9.0122 Z1.0836
G1 X15.3021 Y-9.0172 Z1.0722
G1 X15.3072 Y-9.0222 Z1.0598
G1 X15.3123 Y-9.0272 Z1.0462
G1 X15.3174 Y-9.0322 Z1.0312
G1 X15.3276 Y-9.0421 Z0.9993
G1 X15.3302 Y-9.0446 Z0.9906
G1 X15.3327 Y-9.0471 Z0.9811
G1 X15.3353 Y-9.0496 Z0.9708
G1 X15.3379 Y-9.0521 Z0.9593
G1 X15.3430 Y-9.0571 Z0.9326
G1 X15.3436 Y-9.0577 Z0.9305
G1 X15.3531 Y-9.0670 Z0.9291
G1 X15.3826 Y-9.0958 Z0.9336 F159.
G1 X15.4083 Y-9.1208 Z0.9545
G1 X15.4257 Y-9.1378 Z0.9881
G1 X15.4318 Y-9.1438 Z1.0286
G0 Z1.8800
G0 X15.4318 Y-9.1438 
G0 Z1.8800
G0 X13.7410 Y-7.5493 
G1 X13.7410 Y-7.5493 Z1.8550 F75.
G1 X13.7465 Y-7.5545 Z1.8167 F25.
G1 X13.7621 Y-7.5696 Z1.7843
G1 X13.7854 Y-7.5921 Z1.7626
G1 X13.8130 Y-7.6187 Z1.7550
G1 X14.0828 Y-7.8791 Z1.7550 F150.
