( MOP:  05-Chambered-02 )
( FILE: G:\Shared drives\AlloyProjectFiles\Customer CAD files\Alloy-Standard-Builds-CAM\t-in\Contours\05-Chambered-02.nc)
G90
(  BEGIN TOOL LIST )
(  TOOL 11 - Downcut PT750 ROUGH - DESC: 0.7500 DIA, 2 FLUTE,  CARBIDE MAT )
(  ENDOF TOOL LIST )
( 05-Chambered-02)
T11
S14000
M3
G0 Z4.0000
G0 X14.2466 Y-18.3596 
G1 X14.2466 Y-18.3596 Z1.7975 F75.
G1 X14.2466 Y-18.3596 Z1.7725 F50.
G1 X14.2466 Y-20.0637 Z1.4720
G1 X14.2973 Y-20.0190 Z1.4601
G1 X14.3856 Y-19.9273 Z1.4377
G1 X14.4585 Y-19.8383 Z1.4174
G1 X14.5207 Y-19.7442 Z1.3975
G17
G3X14.7822Y-18.9547Z1.3975I-1.2616J0.8558 F150.
G1 X14.7795 Y-18.6433 Z1.3975
G1 X14.7669 Y-18.4694 Z1.3975
G3X14.2466Y-16.7092Z1.3975I-6.6149J-0.9985
G1 X14.2466 Y-20.0637 Z1.3975
G3X14.5207Y-19.7442Z1.3975I-0.8591J1.0145
G1 X14.7646 Y-19.9057 Z1.3975
G2X13.9541Y-20.5774Z1.3975I-1.4182J0.8864
G1 X13.9541 Y-15.4013 Z1.3975
G1 X14.0013 Y-15.5067 Z1.3975
G2X14.9486Y-17.8261Z1.3975I-10.4527J-5.6224
G1 X15.0575 Y-18.4330 Z1.3975
G2X14.9816Y-19.4678Z1.3975I-2.3969J-0.3442
G2X14.7646Y-19.9057Z1.3975I-1.4332J0.4374
G1 X15.0085 Y-20.0671 Z1.3975
G3X15.3674Y-18.9774Z1.3975I-1.7407J1.1772
G1 X15.3643 Y-18.6197 Z1.3975
G1 X15.3482 Y-18.3965 Z1.3975
G3X14.9256Y-16.8254Z1.3975I-5.7314J-0.6992
G3X14.2682Y-15.3871Z1.3975I-12.0882J-4.6555
G2X13.7839Y-14.2657Z1.3975I10.7608J5.3129
G2X13.6616Y-13.8819Z1.3975I5.2507J1.8846
G1 X13.6616 Y-20.9681 Z1.3975
G1 X13.7102 Y-20.9599 Z1.3975
G3X14.4470Y-20.6513Z1.3975I-0.5139J2.2612
G3X15.0085Y-20.0671Z1.3975I-1.1737J1.6901
G1 X15.2525 Y-20.2285 Z1.3975
G2X13.7768Y-21.2453Z1.3975I-1.9328J1.2258
G1 X13.3691 Y-21.3139 Z1.3975
G1 X13.3691 Y-11.2639 Z1.3975
G1 X14.0415 Y-11.2532 Z1.3975
G3X14.1859Y-14.4876Z1.3975I3.9476J-1.4443
G1 X14.5352 Y-15.2676 Z1.3975
G2X15.5185Y-17.6900Z1.3975I-10.8401J-5.8112
G1 X15.6388 Y-18.3601 Z1.3975
G2X15.5357Y-19.6573Z1.3975I-2.9870J-0.4153
G2X15.2525Y-20.2285Z1.3975I-1.9213J0.5969
G1 X15.4964 Y-20.3900 Z1.3975
G3X15.9526Y-19.0002Z1.3975I-2.2198J1.4985
G1 X15.9491 Y-18.5961 Z1.3975
G1 X15.9294 Y-18.3236 Z1.3975
G1 X15.8035 Y-17.6220 Z1.3975
G3X14.8021Y-15.1479Z1.3975I-11.7320J-3.3090
G1 X14.4871 Y-14.4456 Z1.3975
G2X14.0998Y-13.1307Z1.3975I4.4742J2.0321
G2X14.3348Y-11.3004Z1.3975I3.7829J0.4446
G3X14.3070Y-11.0670Z1.3975I-0.2330J0.0906
G3X14.0979Y-10.9598Z1.3975I-0.2052J-0.1428
G1 X14.0978 Y-10.9598 Z1.3975
G1 X13.3226 Y-10.9721 Z1.3975
G3X13.0766Y-11.2220Z1.3975I0.0040J-0.2499
G1 X13.0766 Y-21.3435 Z1.3975
G3X13.3791Y-21.6088Z1.3975I0.2540J-0.0155
G3X14.5047Y-21.3018Z1.3975I-0.3504J3.5011
G3X15.4964Y-20.3900Z1.3975I-1.2427J2.3468
G0 Z1.9975
G0 X15.4964 Y-20.3900 
G0 Z1.9975
G0 X14.2466 Y-18.3596 
G1 X14.2466 Y-18.3596 Z1.4350 F75.
G1 X14.2466 Y-18.3596 Z1.4100 F50.
G1 X14.2466 Y-20.0637 Z1.1095
G1 X14.2973 Y-20.0190 Z1.0976
G1 X14.3856 Y-19.9273 Z1.0752
G1 X14.4585 Y-19.8383 Z1.0549
G1 X14.5207 Y-19.7442 Z1.0350
G3X14.7822Y-18.9547Z1.0350I-1.2616J0.8558 F150.
G1 X14.7795 Y-18.6433 Z1.0350
G1 X14.7669 Y-18.4694 Z1.0350
G3X14.2466Y-16.7092Z1.0350I-6.6149J-0.9985
G1 X14.2466 Y-20.0637 Z1.0350
G3X14.5207Y-19.7442Z1.0350I-0.8591J1.0145
G1 X14.7646 Y-19.9057 Z1.0350
G2X13.9541Y-20.5774Z1.0350I-1.4182J0.8864
G1 X13.9541 Y-15.4013 Z1.0350
G1 X14.0013 Y-15.5067 Z1.0350
G2X14.9486Y-17.8261Z1.0350I-10.4527J-5.6224
G1 X15.0575 Y-18.4330 Z1.0350
G2X14.9816Y-19.4678Z1.0350I-2.3969J-0.3442
G2X14.7646Y-19.9057Z1.0350I-1.4332J0.4374
G1 X15.0085 Y-20.0671 Z1.0350
G3X15.3674Y-18.9774Z1.0350I-1.7407J1.1772
G1 X15.3643 Y-18.6197 Z1.0350
G1 X15.3482 Y-18.3965 Z1.0350
G3X14.9256Y-16.8254Z1.0350I-5.7314J-0.6992
G3X14.2682Y-15.3871Z1.0350I-12.0882J-4.6555
G2X13.7839Y-14.2657Z1.0350I10.7608J5.3129
G2X13.6616Y-13.8819Z1.0350I5.2507J1.8846
G1 X13.6616 Y-20.9681 Z1.0350
G1 X13.7102 Y-20.9599 Z1.0350
G3X14.4470Y-20.6513Z1.0350I-0.5139J2.2612
G3X15.0085Y-20.0671Z1.0350I-1.1737J1.6901
G1 X15.2525 Y-20.2285 Z1.0350
G2X13.7768Y-21.2453Z1.0350I-1.9328J1.2258
G1 X13.3691 Y-21.3139 Z1.0350
G1 X13.3691 Y-11.2639 Z1.0350
G1 X14.0415 Y-11.2532 Z1.0350
G3X14.1859Y-14.4876Z1.0350I3.9476J-1.4443
G1 X14.5352 Y-15.2676 Z1.0350
G2X15.5185Y-17.6900Z1.0350I-10.8401J-5.8112
G1 X15.6388 Y-18.3601 Z1.0350
G2X15.5357Y-19.6573Z1.0350I-2.9870J-0.4153
G2X15.2525Y-20.2285Z1.0350I-1.9213J0.5969
G1 X15.4964 Y-20.3900 Z1.0350
G3X15.9526Y-19.0002Z1.0350I-2.2198J1.4985
G1 X15.9491 Y-18.5961 Z1.0350
G1 X15.9294 Y-18.3236 Z1.0350
G1 X15.8035 Y-17.6220 Z1.0350
G3X14.8021Y-15.1479Z1.0350I-11.7320J-3.3090
G1 X14.4871 Y-14.4456 Z1.0350
G2X14.0998Y-13.1307Z1.0350I4.4742J2.0321
G2X14.3348Y-11.3004Z1.0350I3.7829J0.4446
G3X14.3070Y-11.0670Z1.0350I-0.2330J0.0906
G3X14.0979Y-10.9598Z1.0350I-0.2052J-0.1428
G1 X14.0978 Y-10.9598 Z1.0350
G1 X13.3226 Y-10.9721 Z1.0350
G3X13.0766Y-11.2220Z1.0350I0.0040J-0.2499
G1 X13.0766 Y-21.3435 Z1.0350
G3X13.3791Y-21.6088Z1.0350I0.2540J-0.0155
G3X14.5047Y-21.3018Z1.0350I-0.3504J3.5011
G3X15.4964Y-20.3900Z1.0350I-1.2427J2.3468
G0 Z1.9975
G0 X15.4964 Y-20.3900 
G0 Z1.9975
G0 X14.2466 Y-18.3596 
G1 X14.2466 Y-18.3596 Z1.0725 F75.
G1 X14.2466 Y-18.3596 Z1.0475 F50.
G1 X14.2466 Y-20.0637 Z0.7470
G1 X14.2973 Y-20.0190 Z0.7351
G1 X14.3856 Y-19.9273 Z0.7127
G1 X14.4585 Y-19.8383 Z0.6924
G1 X14.5207 Y-19.7442 Z0.6725
G3X14.7822Y-18.9547Z0.6725I-1.2616J0.8558 F150.
G1 X14.7795 Y-18.6433 Z0.6725
G1 X14.7669 Y-18.4694 Z0.6725
G3X14.2466Y-16.7092Z0.6725I-6.6149J-0.9985
G1 X14.2466 Y-20.0637 Z0.6725
G3X14.5207Y-19.7442Z0.6725I-0.8591J1.0145
G1 X14.7646 Y-19.9057 Z0.6725
G2X13.9541Y-20.5774Z0.6725I-1.4182J0.8864
G1 X13.9541 Y-15.4013 Z0.6725
G1 X14.0013 Y-15.5067 Z0.6725
G2X14.9486Y-17.8261Z0.6725I-10.4527J-5.6224
G1 X15.0575 Y-18.4330 Z0.6725
G2X14.9816Y-19.4678Z0.6725I-2.3969J-0.3442
G2X14.7646Y-19.9057Z0.6725I-1.4332J0.4374
G1 X15.0085 Y-20.0671 Z0.6725
G3X15.3674Y-18.9774Z0.6725I-1.7407J1.1772
G1 X15.3643 Y-18.6197 Z0.6725
G1 X15.3482 Y-18.3965 Z0.6725
G3X14.9256Y-16.8254Z0.6725I-5.7314J-0.6992
G3X14.2682Y-15.3871Z0.6725I-12.0882J-4.6555
G2X13.7839Y-14.2657Z0.6725I10.7608J5.3129
G2X13.6616Y-13.8819Z0.6725I5.2507J1.8846
G1 X13.6616 Y-20.9681 Z0.6725
G1 X13.7102 Y-20.9599 Z0.6725
G3X14.4470Y-20.6513Z0.6725I-0.5139J2.2612
G3X15.0085Y-20.0671Z0.6725I-1.1737J1.6901
G1 X15.2525 Y-20.2285 Z0.6725
G2X13.7768Y-21.2453Z0.6725I-1.9328J1.2258
G1 X13.3691 Y-21.3139 Z0.6725
G1 X13.3691 Y-11.2639 Z0.6725
G1 X14.0415 Y-11.2532 Z0.6725
G3X14.1859Y-14.4876Z0.6725I3.9476J-1.4443
G1 X14.5352 Y-15.2676 Z0.6725
G2X15.5185Y-17.6900Z0.6725I-10.8401J-5.8112
G1 X15.6388 Y-18.3601 Z0.6725
G2X15.5357Y-19.6573Z0.6725I-2.9870J-0.4153
G2X15.2525Y-20.2285Z0.6725I-1.9213J0.5969
G1 X15.4964 Y-20.3900 Z0.6725
G3X15.9526Y-19.0002Z0.6725I-2.2198J1.4985
G1 X15.9491 Y-18.5961 Z0.6725
G1 X15.9294 Y-18.3236 Z0.6725
G1 X15.8035 Y-17.6220 Z0.6725
G3X14.8021Y-15.1479Z0.6725I-11.7320J-3.3090
G1 X14.4871 Y-14.4456 Z0.6725
G2X14.0998Y-13.1307Z0.6725I4.4742J2.0321
G2X14.3348Y-11.3004Z0.6725I3.7829J0.4446
G3X14.3070Y-11.0670Z0.6725I-0.2330J0.0906
G3X14.0979Y-10.9598Z0.6725I-0.2052J-0.1428
G1 X14.0978 Y-10.9598 Z0.6725
G1 X13.3226 Y-10.9721 Z0.6725
G3X13.0766Y-11.2220Z0.6725I0.0040J-0.2499
G1 X13.0766 Y-21.3435 Z0.6725
G3X13.3791Y-21.6088Z0.6725I0.2540J-0.0155
G3X14.5047Y-21.3018Z0.6725I-0.3504J3.5011
G3X15.4964Y-20.3900Z0.6725I-1.2427J2.3468
G0 Z1.9975
G0 X15.4964 Y-20.3900 
G0 Z1.9975
G0 X14.2466 Y-18.3596 
G1 X14.2466 Y-18.3596 Z0.7100 F75.
G1 X14.2466 Y-18.3596 Z0.6850 F50.
G1 X14.2466 Y-20.0637 Z0.3845
G1 X14.2973 Y-20.0190 Z0.3726
G1 X14.3856 Y-19.9273 Z0.3502
G1 X14.4585 Y-19.8383 Z0.3299
G1 X14.5207 Y-19.7442 Z0.3100
G3X14.7822Y-18.9547Z0.3100I-1.2616J0.8558 F150.
G1 X14.7795 Y-18.6433 Z0.3100
G1 X14.7669 Y-18.4694 Z0.3100
G3X14.2466Y-16.7092Z0.3100I-6.6149J-0.9985
G1 X14.2466 Y-20.0637 Z0.3100
G3X14.5207Y-19.7442Z0.3100I-0.8591J1.0145
G1 X14.7646 Y-19.9057 Z0.3100
G2X13.9541Y-20.5774Z0.3100I-1.4182J0.8864
G1 X13.9541 Y-15.4013 Z0.3100
G1 X14.0013 Y-15.5067 Z0.3100
G2X14.9486Y-17.8261Z0.3100I-10.4527J-5.6224
G1 X15.0575 Y-18.4330 Z0.3100
G2X14.9816Y-19.4678Z0.3100I-2.3969J-0.3442
G2X14.7646Y-19.9057Z0.3100I-1.4332J0.4374
G1 X15.0085 Y-20.0671 Z0.3100
G3X15.3674Y-18.9774Z0.3100I-1.7407J1.1772
G1 X15.3643 Y-18.6197 Z0.3100
G1 X15.3482 Y-18.3965 Z0.3100
G3X14.9256Y-16.8254Z0.3100I-5.7314J-0.6992
G3X14.2682Y-15.3871Z0.3100I-12.0882J-4.6555
G2X13.7839Y-14.2657Z0.3100I10.7608J5.3129
G2X13.6616Y-13.8819Z0.3100I5.2507J1.8846
G1 X13.6616 Y-20.9681 Z0.3100
G1 X13.7102 Y-20.9599 Z0.3100
G3X14.4470Y-20.6513Z0.3100I-0.5139J2.2612
G3X15.0085Y-20.0671Z0.3100I-1.1737J1.6901
G1 X15.2525 Y-20.2285 Z0.3100
G2X13.7768Y-21.2453Z0.3100I-1.9328J1.2258
G1 X13.3691 Y-21.3139 Z0.3100
G1 X13.3691 Y-11.2639 Z0.3100
G1 X14.0415 Y-11.2532 Z0.3100
G3X14.1859Y-14.4876Z0.3100I3.9476J-1.4443
G1 X14.5352 Y-15.2676 Z0.3100
G2X15.5185Y-17.6900Z0.3100I-10.8401J-5.8112
G1 X15.6388 Y-18.3601 Z0.3100
G2X15.5357Y-19.6573Z0.3100I-2.9870J-0.4153
G2X15.2525Y-20.2285Z0.3100I-1.9213J0.5969
G1 X15.4964 Y-20.3900 Z0.3100
G3X15.9526Y-19.0002Z0.3100I-2.2198J1.4985
G1 X15.9491 Y-18.5961 Z0.3100
G1 X15.9294 Y-18.3236 Z0.3100
G1 X15.8035 Y-17.6220 Z0.3100
G3X14.8021Y-15.1479Z0.3100I-11.7320J-3.3090
G1 X14.4871 Y-14.4456 Z0.3100
G2X14.0998Y-13.1307Z0.3100I4.4742J2.0321
G2X14.3348Y-11.3004Z0.3100I3.7829J0.4446
G3X14.3070Y-11.0670Z0.3100I-0.2330J0.0906
G3X14.0979Y-10.9598Z0.3100I-0.2052J-0.1428
G1 X14.0978 Y-10.9598 Z0.3100
G1 X13.3226 Y-10.9721 Z0.3100
G3X13.0766Y-11.2220Z0.3100I0.0040J-0.2499
G1 X13.0766 Y-21.3435 Z0.3100
G3X13.3791Y-21.6088Z0.3100I0.2540J-0.0155
G3X14.5047Y-21.3018Z0.3100I-0.3504J3.5011
G3X15.4964Y-20.3900Z0.3100I-1.2427J2.3468
G0 Z4.0000
G0 X15.4964 Y-20.3900 
M5
G53 Z
X2Y0
