( MOP:  BellyCarve-back-01 )
( FILE: G:\Shared drives\AlloyProjectFiles\Customer CAD files\Alloy-Standard-Builds-CAM\t-in\Contours\BellyCarve-back-01.nc)
G90
(  BEGIN TOOL LIST )
(  TOOL 11 - Downcut PT750 ROUGH - DESC: 0.7500 DIA, 2 FLUTE,  CARBIDE MAT )
(  ENDOF TOOL LIST )
( BellyCarve-back-01)
T11
S14000
M3
G0 Z4.0000
G0 X16.6276 Y-8.8254 
G1 X16.6276 Y-8.8254 Z1.7575 F75.
G1 X16.6255 Y-8.7608 Z1.7461 F50.
G1 X16.6184 Y-8.6478 Z1.7261
G1 X16.6074 Y-8.5343 Z1.7060
G1 X16.5923 Y-8.4204 Z1.6858
G1 X16.5728 Y-8.3062 Z1.6654
G1 X16.5486 Y-8.1920 Z1.6448
G1 X16.5193 Y-8.0780 Z1.6240
G1 X16.4848 Y-7.9644 Z1.6031
G1 X16.4448 Y-7.8519 Z1.5820
G1 X16.3994 Y-7.7409 Z1.5609
G1 X16.3484 Y-7.6318 Z1.5396
G1 X16.2918 Y-7.5248 Z1.5183
G1 X16.2797 Y-7.5037 Z1.5140
G1 X16.2325 Y-7.4264 Z1.4980
G1 X16.2197 Y-7.4068 Z1.4939
G1 X16.1682 Y-7.3321 Z1.4779
G1 X16.1542 Y-7.3129 Z1.4737
G1 X16.0987 Y-7.2413 Z1.4577
G1 X16.0832 Y-7.2225 Z1.4534
G1 X16.0238 Y-7.1543 Z1.4375
G17
G2X16.3994Y-7.7409Z1.4375I-1.5555J-1.4095 F150.
G2X16.6184Y-8.6478Z1.4375I-2.5720J-1.1010
G2X16.5032Y-9.9664Z1.4375I-4.2390J-0.2940
G2X16.1750Y-10.9681Z1.4375I-6.7508J1.6569
G3X15.8189Y-11.8589Z1.4375I28.1371J-11.7659
G3X15.6625Y-12.4197Z1.4375I2.7236J-1.0615
G3X15.7272Y-13.4384Z1.4375I2.2382J-0.3693
G3X15.9019Y-13.9319Z1.4375I4.2675J1.2329
G3X16.2088Y-14.6259Z1.4375I15.7203J6.5372
G2X16.7037Y-15.7061Z1.4375I-48.7502J-22.9887
G2X17.2996Y-17.4549Z1.4375I-10.0973J-4.4165
G2X17.4873Y-18.8969Z1.4375I-6.2711J-1.5495
G2X17.3637Y-20.0290Z1.4375I-4.4146J-0.0907
G0 Z1.9191
G0 X17.3637 Y-20.0290 
G0 Z1.9191
G0 X17.4410 Y-18.2260 
G1 X17.4410 Y-18.2260 Z1.4450 F75.
G1 X17.4475 Y-18.2748 Z1.4363 F50.
G1 X17.4681 Y-18.4821 Z1.3996
G1 X17.4814 Y-18.6895 Z1.3629
G1 X17.4873 Y-18.8969 Z1.3264
G1 X17.4858 Y-19.1001 Z1.2905
G1 X17.4820 Y-19.2043 Z1.2721
G1 X17.4760 Y-19.3090 Z1.2537
G1 X17.4676 Y-19.4140 Z1.2351
G1 X17.4567 Y-19.5185 Z1.2166
G1 X17.4433 Y-19.6224 Z1.1981
G1 X17.4266 Y-19.7304 Z1.1788
G1 X17.3962 Y-19.8896 Z1.1502
G1 X17.3637 Y-20.0290 Z1.1250
G3X17.4873Y-18.8969Z1.1250I-4.2377J1.0356 F150.
G3X17.2996Y-17.4549Z1.1250I-6.3570J-0.0943
G3X16.6213Y-15.5202Z1.1250I-10.7930J-2.6976
G1 X16.5379 Y-15.3371 Z1.1250
G2X15.9738Y-14.1020Z1.1250I53.1001J25.0014
G2X15.7272Y-13.4384Z1.1250I4.9127J2.2026
G2X15.7358Y-12.1058Z1.1250I2.1889J0.6523
G2X15.9541Y-11.5109Z1.1250I6.5532J-2.0678
G1 X16.1750 Y-10.9681 Z1.1250
G3X16.5032Y-9.9664Z1.1250I-6.4226J2.6586
G3X16.6074Y-8.5343Z1.1250I-4.0745J1.0163
G3X16.2797Y-7.5037Z1.1250I-2.6183J-0.2651
G3X16.0238Y-7.1543Z1.1250I-1.7640J-1.0236
G0 Z2.0049
G0 X16.0238 Y-7.1543 
G0 Z2.0049
G0 X16.6276 Y-8.8254 
G1 X16.6276 Y-8.8254 Z1.1325 F75.
G1 X16.6255 Y-8.7608 Z1.1211 F50.
G1 X16.6184 Y-8.6478 Z1.1011
G1 X16.6074 Y-8.5343 Z1.0810
G1 X16.5923 Y-8.4204 Z1.0608
G1 X16.5728 Y-8.3062 Z1.0404
G1 X16.5486 Y-8.1920 Z1.0198
G1 X16.5193 Y-8.0780 Z0.9990
G1 X16.4848 Y-7.9644 Z0.9781
G1 X16.4448 Y-7.8519 Z0.9570
G1 X16.3994 Y-7.7409 Z0.9359
G1 X16.3484 Y-7.6318 Z0.9146
G1 X16.2918 Y-7.5248 Z0.8933
G1 X16.2797 Y-7.5037 Z0.8890
G1 X16.2325 Y-7.4264 Z0.8730
G1 X16.2197 Y-7.4068 Z0.8689
G1 X16.1682 Y-7.3321 Z0.8529
G1 X16.1542 Y-7.3129 Z0.8487
G1 X16.0987 Y-7.2413 Z0.8327
G1 X16.0832 Y-7.2225 Z0.8284
G1 X16.0238 Y-7.1543 Z0.8125
G2X16.3994Y-7.7409Z0.8125I-1.5555J-1.4095 F150.
G2X16.6184Y-8.6478Z0.8125I-2.5720J-1.1010
G2X16.5032Y-9.9664Z0.8125I-4.2390J-0.2940
G2X16.1750Y-10.9681Z0.8125I-6.7508J1.6569
G3X15.8189Y-11.8589Z0.8125I28.1371J-11.7659
G3X15.6625Y-12.4197Z0.8125I2.7236J-1.0615
G3X15.7272Y-13.4384Z0.8125I2.2382J-0.3693
G3X15.9019Y-13.9319Z0.8125I4.2675J1.2329
G3X16.2088Y-14.6259Z0.8125I15.7203J6.5372
G2X16.7037Y-15.7061Z0.8125I-48.7502J-22.9887
G2X17.2996Y-17.4549Z0.8125I-10.0973J-4.4165
G2X17.4873Y-18.8969Z0.8125I-6.2711J-1.5495
G2X17.3637Y-20.0290Z0.8125I-4.4146J-0.0907
G0 Z1.9191
G0 X17.3637 Y-20.0290 
G0 Z1.9191
G0 X17.4410 Y-18.2260 
G1 X17.4410 Y-18.2260 Z0.8200 F75.
G1 X17.4475 Y-18.2748 Z0.8113 F50.
G1 X17.4681 Y-18.4821 Z0.7746
G1 X17.4814 Y-18.6895 Z0.7379
G1 X17.4873 Y-18.8969 Z0.7014
G1 X17.4858 Y-19.1001 Z0.6655
G1 X17.4820 Y-19.2043 Z0.6471
G1 X17.4760 Y-19.3090 Z0.6287
G1 X17.4676 Y-19.4140 Z0.6101
G1 X17.4567 Y-19.5185 Z0.5916
G1 X17.4433 Y-19.6224 Z0.5731
G1 X17.4266 Y-19.7304 Z0.5538
G1 X17.3962 Y-19.8896 Z0.5252
G1 X17.3637 Y-20.0290 Z0.5000
G3X17.4873Y-18.8969Z0.5000I-4.2377J1.0356 F150.
G3X17.2996Y-17.4549Z0.5000I-6.3570J-0.0943
G3X16.6213Y-15.5202Z0.5000I-10.7930J-2.6976
G1 X16.5379 Y-15.3371 Z0.5000
G2X15.9738Y-14.1020Z0.5000I53.1001J25.0014
G2X15.7272Y-13.4384Z0.5000I4.9127J2.2026
G2X15.7358Y-12.1058Z0.5000I2.1889J0.6523
G2X15.9541Y-11.5109Z0.5000I6.5532J-2.0678
G1 X16.1750 Y-10.9681 Z0.5000
G3X16.5032Y-9.9664Z0.5000I-6.4226J2.6586
G3X16.6074Y-8.5343Z0.5000I-4.0745J1.0163
G3X16.2797Y-7.5037Z0.5000I-2.6183J-0.2651
G3X16.0238Y-7.1543Z0.5000I-1.7640J-1.0236
G0 Z4.0000
G0 X16.0238 Y-7.1543 
M5
G53 Z
X2Y0
