( MOP:  CarveTop-03-front-start )
( FILE: G:\Shared drives\AlloyProjectFiles\Customer CAD files\Alloy-Standard-Builds-CAM\t-in\Contours\CarveTop-03-front-start.nc)
G90
(  BEGIN TOOL LIST )
(  TOOL 12 - Ball PT750 - DESC: 0.7500 DIA, 2 FLUTE,  CARBIDE MAT )
(  ENDOF TOOL LIST )
( CarveTop-03-front-start)
T12
S12000
M3
G0 Z4.0000
G0 X10.6343 Y-14.1150 
G1 X10.6343 Y-14.1150 Z1.8600 F75.
G1 X10.6419 Y-14.1150 Z1.8217 F25.
G1 X10.6636 Y-14.1150 Z1.7893
G1 X10.6960 Y-14.1150 Z1.7676
G1 X10.7343 Y-14.1150 Z1.7600
G1 X12.9374 Y-14.1150 Z1.7600 F75.
G1 X13.0546 Y-14.1150 Z1.7571
G1 X13.1718 Y-14.1150 Z1.7493
G1 X13.2890 Y-14.1150 Z1.7368
G1 X13.3593 Y-14.1150 Z1.7270
G1 X13.4062 Y-14.1150 Z1.7202
G1 X13.4999 Y-14.1150 Z1.7043
G1 X13.5937 Y-14.1150 Z1.6864
G1 X13.6405 Y-14.1150 Z1.6768
G1 X13.7226 Y-14.1150 Z1.6593
G1 X13.8280 Y-14.1150 Z1.6353
G1 X13.8984 Y-14.1150 Z1.6179
G1 X14.0390 Y-14.1150 Z1.5843
G1 X14.0624 Y-14.1150 Z1.5782
G1 X14.2206 Y-14.1150 Z1.5386
G1 X14.2616 Y-14.1150 Z1.5286
G1 X14.3730 Y-14.1150 Z1.5002
G1 X14.4902 Y-14.1150 Z1.4718
G1 X14.5312 Y-14.1150 Z1.4613
G1 X14.6894 Y-14.1150 Z1.4227
G1 X14.7421 Y-14.1150 Z1.4106
G1 X14.7890 Y-14.1150 Z1.3984
G1 X14.8256 Y-14.1150 Z1.3915
G1 X14.8608 Y-14.1150 Z1.3871
G1 X14.8930 Y-14.1150 Z1.3850
G1 X15.5859 Y-14.1150 Z1.3849
G1 X15.6093 Y-14.1150 Z1.3837
G1 X15.6326 Y-14.1150 Z1.3813
G1 X15.6559 Y-14.1150 Z1.3776
G1 X15.6681 Y-14.1150 Z1.3750
G1 X15.9812 Y-14.1150 Z1.3750
G0 Z1.8850
G0 X15.9812 Y-14.1150 
G0 Z1.8850
G0 X10.6343 Y-14.1158 
G1 X10.6343 Y-14.1158 Z1.8600 F75.
G1 X10.6419 Y-14.1157 Z1.8217 F25.
G1 X10.6636 Y-14.1155 Z1.7893
G1 X10.6960 Y-14.1153 Z1.7676
G1 X10.7343 Y-14.1150 Z1.7600
G1 X12.9374 Y-14.0978 Z1.7600 F75.
G1 X13.0545 Y-14.0969 Z1.7571
G1 X13.1717 Y-14.0959 Z1.7493
G1 X13.2889 Y-14.0950 Z1.7368
G1 X13.3592 Y-14.0945 Z1.7270
G1 X13.4061 Y-14.0941 Z1.7202
G1 X13.4998 Y-14.0934 Z1.7043
G1 X13.5936 Y-14.0926 Z1.6863
G1 X13.6405 Y-14.0923 Z1.6768
G1 X13.7342 Y-14.0915 Z1.6565
G1 X13.8280 Y-14.0908 Z1.6351
G1 X13.9334 Y-14.0900 Z1.6091
G1 X14.0389 Y-14.0892 Z1.5838
G1 X14.0916 Y-14.0887 Z1.5701
G1 X14.2498 Y-14.0875 Z1.5306
G1 X14.4022 Y-14.0863 Z1.4917
G1 X14.4842 Y-14.0857 Z1.4718
G1 X14.5545 Y-14.0851 Z1.4536
G1 X14.7478 Y-14.0836 Z1.4066
G1 X14.7830 Y-14.0833 Z1.3976
G1 X14.8152 Y-14.0831 Z1.3914
G1 X14.8489 Y-14.0828 Z1.3871
G1 X14.8826 Y-14.0826 Z1.3850
G1 X15.5623 Y-14.0773 Z1.3850
G1 X15.5857 Y-14.0771 Z1.3843
G1 X15.6092 Y-14.0769 Z1.3823
G1 X15.6314 Y-14.0767 Z1.3792
G1 X15.6530 Y-14.0765 Z1.3750
G1 X15.9643 Y-14.0741 Z1.3750
G0 Z1.8850
G0 X15.9643 Y-14.0741 
G0 Z1.8850
G0 X10.6343 Y-14.1165 
G1 X10.6343 Y-14.1165 Z1.8600 F75.
G1 X10.6419 Y-14.1164 Z1.8217 F25.
G1 X10.6636 Y-14.1161 Z1.7893
G1 X10.6960 Y-14.1156 Z1.7676
G1 X10.7343 Y-14.1150 Z1.7600
G1 X12.9372 Y-14.0805 Z1.7600 F75.
G1 X13.0543 Y-14.0787 Z1.7572
G1 X13.1715 Y-14.0769 Z1.7493
G1 X13.2887 Y-14.0750 Z1.7369
G1 X13.3590 Y-14.0739 Z1.7271
G1 X13.4058 Y-14.0732 Z1.7203
G1 X13.4996 Y-14.0717 Z1.7044
G1 X13.5465 Y-14.0710 Z1.6955
G1 X13.6168 Y-14.0699 Z1.6818
G1 X13.7339 Y-14.0681 Z1.6565
G1 X13.8277 Y-14.0666 Z1.6350
G1 X13.9566 Y-14.0646 Z1.6031
G1 X14.0386 Y-14.0633 Z1.5833
G1 X14.1206 Y-14.0620 Z1.5620
G1 X14.2495 Y-14.0600 Z1.5297
G1 X14.2729 Y-14.0597 Z1.5235
G1 X14.4311 Y-14.0572 Z1.4832
G1 X14.4780 Y-14.0565 Z1.4718
G1 X14.5893 Y-14.0547 Z1.4431
G1 X14.7182 Y-14.0527 Z1.4118
G1 X14.7738 Y-14.0518 Z1.3975
G1 X14.8061 Y-14.0513 Z1.3912
G1 X14.8383 Y-14.0508 Z1.3870
G1 X14.8705 Y-14.0503 Z1.3850
G1 X15.5501 Y-14.0397 Z1.3850
G1 X15.5618 Y-14.0395 Z1.3847
G1 X15.5853 Y-14.0391 Z1.3832
G1 X15.6087 Y-14.0388 Z1.3804
G1 X15.6300 Y-14.0384 Z1.3767
G1 X15.6374 Y-14.0383 Z1.3750
G1 X15.9477 Y-14.0335 Z1.3750
G0 Z1.8850
G0 X15.9477 Y-14.0335 
G0 Z1.8850
G0 X10.6343 Y-14.1173 
G1 X10.6343 Y-14.1173 Z1.8600 F75.
G1 X10.6419 Y-14.1171 Z1.8217 F25.
G1 X10.6636 Y-14.1166 Z1.7893
G1 X10.6960 Y-14.1158 Z1.7676
G1 X10.7343 Y-14.1150 Z1.7600
G1 X12.9368 Y-14.0633 Z1.7600 F75.
G1 X13.0540 Y-14.0606 Z1.7572
G1 X13.1711 Y-14.0578 Z1.7494
G1 X13.2883 Y-14.0551 Z1.7370
G1 X13.3586 Y-14.0534 Z1.7271
G1 X13.4054 Y-14.0523 Z1.7204
G1 X13.4992 Y-14.0501 Z1.7044
G1 X13.5460 Y-14.0490 Z1.6956
G1 X13.6163 Y-14.0474 Z1.6818
G1 X13.7335 Y-14.0446 Z1.6565
G1 X13.8272 Y-14.0424 Z1.6348
G1 X13.9795 Y-14.0389 Z1.5971
G1 X14.0264 Y-14.0378 Z1.5858
G1 X14.1435 Y-14.0350 Z1.5554
G1 X14.2490 Y-14.0325 Z1.5290
G1 X14.3017 Y-14.0313 Z1.5149
G1 X14.4833 Y-14.0270 Z1.4688
G1 X14.6121 Y-14.0240 Z1.4355
G1 X14.7176 Y-14.0215 Z1.4097
G1 X14.7630 Y-14.0205 Z1.3977
G1 X14.7967 Y-14.0197 Z1.3911
G1 X14.8289 Y-14.0189 Z1.3869
G1 X14.8582 Y-14.0183 Z1.3850
G1 X15.5377 Y-14.0023 Z1.3850
G1 X15.5611 Y-14.0018 Z1.3840
G1 X15.5845 Y-14.0012 Z1.3817
G1 X15.6080 Y-14.0007 Z1.3781
G1 X15.6227 Y-14.0003 Z1.3750
G1 X15.9311 Y-13.9931 Z1.3750
G0 Z1.8850
G0 X15.9311 Y-13.9931 
G0 Z1.8850
G0 X10.6343 Y-14.1181 
G1 X10.6343 Y-14.1181 Z1.8600 F75.
G1 X10.6420 Y-14.1178 Z1.8217 F25.
G1 X10.6636 Y-14.1171 Z1.7893
G1 X10.6960 Y-14.1161 Z1.7676
G1 X10.7343 Y-14.1149 Z1.7600
G1 X12.9363 Y-14.0461 Z1.7600 F75.
G1 X13.0535 Y-14.0424 Z1.7572
G1 X13.1706 Y-14.0388 Z1.7494
G1 X13.2877 Y-14.0351 Z1.7371
G1 X13.3932 Y-14.0318 Z1.7223
G1 X13.4049 Y-14.0314 Z1.7205
G1 X13.4986 Y-14.0285 Z1.7045
G1 X13.5454 Y-14.0270 Z1.6957
G1 X13.5923 Y-14.0256 Z1.6865
G1 X13.6508 Y-14.0237 Z1.6743
G1 X13.7328 Y-14.0212 Z1.6565
G1 X13.8265 Y-14.0182 Z1.6348
G1 X14.0139 Y-14.0124 Z1.5883
G1 X14.1779 Y-14.0073 Z1.5459
G1 X14.2482 Y-14.0051 Z1.5282
G1 X14.3302 Y-14.0025 Z1.5063
G1 X14.4708 Y-13.9981 Z1.4705
G1 X14.4942 Y-13.9974 Z1.4643
G1 X14.6464 Y-13.9926 Z1.4250
G1 X14.7050 Y-13.9908 Z1.4107
G1 X14.7548 Y-13.9892 Z1.3974
G1 X14.7870 Y-13.9882 Z1.3911
G1 X14.8178 Y-13.9872 Z1.3870
G1 X14.8485 Y-13.9863 Z1.3850
G1 X15.5249 Y-13.9651 Z1.3849
G1 X15.5366 Y-13.9648 Z1.3846
G1 X15.5601 Y-13.9640 Z1.3828
G1 X15.5835 Y-13.9633 Z1.3798
G1 X15.6083 Y-13.9625 Z1.3750
G1 X15.9147 Y-13.9529 Z1.3750
G0 Z1.8850
G0 X15.9147 Y-13.9529 
G0 Z1.8850
G0 X10.6344 Y-14.1188 
G1 X10.6344 Y-14.1188 Z1.8600 F75.
G1 X10.6420 Y-14.1185 Z1.8217 F25.
G1 X10.6636 Y-14.1177 Z1.7893
G1 X10.6961 Y-14.1164 Z1.7676
G1 X10.7343 Y-14.1149 Z1.7600
G1 X12.9357 Y-14.0289 Z1.7600 F75.
G1 X13.0528 Y-14.0243 Z1.7572
G1 X13.0763 Y-14.0234 Z1.7558
G1 X13.1699 Y-14.0197 Z1.7495
G1 X13.1934 Y-14.0188 Z1.7471
G1 X13.2870 Y-14.0151 Z1.7372
G1 X13.3983 Y-14.0108 Z1.7216
G1 X13.4978 Y-14.0069 Z1.7047
G1 X13.5212 Y-14.0060 Z1.7004
G1 X13.5915 Y-14.0032 Z1.6867
G1 X13.6383 Y-14.0014 Z1.6770
G1 X13.7086 Y-13.9986 Z1.6618
G1 X13.7554 Y-13.9968 Z1.6512
G1 X13.8257 Y-13.9941 Z1.6348
G1 X13.8725 Y-13.9922 Z1.6229
G1 X14.0130 Y-13.9867 Z1.5882
G1 X14.0599 Y-13.9849 Z1.5761
G1 X14.2004 Y-13.9794 Z1.5394
G1 X14.2414 Y-13.9778 Z1.5291
G1 X14.3585 Y-13.9732 Z1.4978
G1 X14.4639 Y-13.9691 Z1.4709
G1 X14.5166 Y-13.9671 Z1.4567
G1 X14.6746 Y-13.9609 Z1.4160
G1 X14.6922 Y-13.9602 Z1.4119
G1 X14.7478 Y-13.9580 Z1.3970
G1 X14.7771 Y-13.9569 Z1.3910
G1 X14.8078 Y-13.9557 Z1.3869
G1 X14.8371 Y-13.9545 Z1.3850
G1 X15.5119 Y-13.9281 Z1.3849
G1 X15.5353 Y-13.9272 Z1.3837
G1 X15.5587 Y-13.9263 Z1.3813
G1 X15.5822 Y-13.9254 Z1.3774
G1 X15.5930 Y-13.9250 Z1.3750
G1 X15.8993 Y-13.9130 Z1.3750
G0 Z1.8850
G0 X15.8993 Y-13.9130 
G0 Z1.8850
G0 X10.6344 Y-14.1196 
G1 X10.6344 Y-14.1196 Z1.8600 F75.
G1 X10.6420 Y-14.1192 Z1.8217 F25.
G1 X10.6637 Y-14.1182 Z1.7893
G1 X10.6961 Y-14.1167 Z1.7676
G1 X10.7343 Y-14.1149 Z1.7600
G1 X12.9350 Y-14.0116 Z1.7600 F75.
G1 X13.0521 Y-14.0061 Z1.7573
G1 X13.0755 Y-14.0050 Z1.7559
G1 X13.1691 Y-14.0007 Z1.7496
G1 X13.1925 Y-13.9996 Z1.7473
G1 X13.2862 Y-13.9952 Z1.7373
G1 X13.3974 Y-13.9899 Z1.7217
G1 X13.4969 Y-13.9853 Z1.7049
G1 X13.5320 Y-13.9836 Z1.6983
G1 X13.5905 Y-13.9809 Z1.6868
G1 X13.6374 Y-13.9787 Z1.6772
G1 X13.7193 Y-13.9748 Z1.6594
G1 X13.8246 Y-13.9699 Z1.6349
G1 X13.9066 Y-13.9660 Z1.6142
G1 X14.0119 Y-13.9611 Z1.5881
G1 X14.2461 Y-13.9501 Z1.5269
G1 X14.3865 Y-13.9435 Z1.4893
G1 X14.4568 Y-13.9402 Z1.4713
G1 X14.5446 Y-13.9361 Z1.4475
G1 X14.6792 Y-13.9298 Z1.4130
G1 X14.6909 Y-13.9292 Z1.4101
G1 X14.7392 Y-13.9270 Z1.3969
G1 X14.7699 Y-13.9255 Z1.3907
G1 X14.7977 Y-13.9242 Z1.3869
G1 X14.8255 Y-13.9229 Z1.3850
G1 X15.4986 Y-13.8913 Z1.3849
G1 X15.5103 Y-13.8908 Z1.3845
G1 X15.5337 Y-13.8897 Z1.3826
G1 X15.5571 Y-13.8886 Z1.3794
G1 X15.5797 Y-13.8875 Z1.3750
G1 X15.8837 Y-13.8733 Z1.3750
G0 Z1.8850
G0 X15.8837 Y-13.8733 
G0 Z1.8850
G0 X10.6344 Y-14.1204 
G1 X10.6344 Y-14.1204 Z1.8600 F75.
G1 X10.6420 Y-14.1199 Z1.8217 F25.
G1 X10.6637 Y-14.1188 Z1.7893
G1 X10.6961 Y-14.1170 Z1.7676
G1 X10.7343 Y-14.1149 Z1.7600
G1 X12.9341 Y-13.9944 Z1.7600 F75.
G1 X13.0511 Y-13.9880 Z1.7573
G1 X13.0745 Y-13.9867 Z1.7559
G1 X13.1682 Y-13.9816 Z1.7497
G1 X13.1799 Y-13.9810 Z1.7486
G1 X13.2910 Y-13.9749 Z1.7367
G1 X13.4022 Y-13.9688 Z1.7210
G1 X13.4958 Y-13.9637 Z1.7051
G1 X13.5192 Y-13.9624 Z1.7008
G1 X13.5894 Y-13.9585 Z1.6871
G1 X13.6362 Y-13.9560 Z1.6775
G1 X13.7298 Y-13.9509 Z1.6569
G1 X13.8234 Y-13.9457 Z1.6351
G1 X13.9287 Y-13.9400 Z1.6083
G1 X14.0106 Y-13.9355 Z1.5880
G1 X14.0574 Y-13.9329 Z1.5757
G1 X14.1042 Y-13.9304 Z1.5631
G1 X14.1979 Y-13.9252 Z1.5387
G1 X14.4143 Y-13.9134 Z1.4808
G1 X14.4553 Y-13.9111 Z1.4703
G1 X14.5723 Y-13.9047 Z1.4384
G1 X14.6893 Y-13.8983 Z1.4083
G1 X14.7010 Y-13.8977 Z1.4049
G1 X14.7303 Y-13.8961 Z1.3969
G1 X14.7595 Y-13.8945 Z1.3909
G1 X14.7888 Y-13.8929 Z1.3869
G1 X14.8151 Y-13.8914 Z1.3850
G1 X15.4850 Y-13.8547 Z1.3849
G1 X15.5084 Y-13.8535 Z1.3838
G1 X15.5318 Y-13.8522 Z1.3812
G1 X15.5552 Y-13.8509 Z1.3773
G1 X15.5655 Y-13.8503 Z1.3750
G1 X15.8683 Y-13.8338 Z1.3750
G0 Z1.8850
G0 X15.8683 Y-13.8338 
G0 Z1.8850
G0 X10.6345 Y-14.1211 
G1 X10.6345 Y-14.1211 Z1.8600 F75.
G1 X10.6421 Y-14.1206 Z1.8217 F25.
G1 X10.6637 Y-14.1193 Z1.7893
G1 X10.6961 Y-14.1173 Z1.7676
G1 X10.7343 Y-14.1149 Z1.7600
G1 X12.9390 Y-13.9769 Z1.7599 F75.
G1 X13.0501 Y-13.9699 Z1.7574
G1 X13.0618 Y-13.9692 Z1.7568
G1 X13.1670 Y-13.9626 Z1.7497
G1 X13.1787 Y-13.9619 Z1.7487
G1 X13.2898 Y-13.9549 Z1.7369
G1 X13.4010 Y-13.9479 Z1.7213
G1 X13.5121 Y-13.9410 Z1.7023
G1 X13.6173 Y-13.9344 Z1.6815
G1 X13.7284 Y-13.9274 Z1.6572
G1 X13.8220 Y-13.9216 Z1.6353
G1 X13.9624 Y-13.9128 Z1.5996
G1 X14.0091 Y-13.9099 Z1.5880
G1 X14.1261 Y-13.9025 Z1.5567
G1 X14.1963 Y-13.8982 Z1.5384
G1 X14.2431 Y-13.8952 Z1.5260
G1 X14.2898 Y-13.8923 Z1.5130
G1 X14.4536 Y-13.8820 Z1.4693
G1 X14.6056 Y-13.8725 Z1.4279
G1 X14.6758 Y-13.8681 Z1.4098
G1 X14.7226 Y-13.8652 Z1.3966
G1 X14.7504 Y-13.8635 Z1.3909
G1 X14.7796 Y-13.8616 Z1.3868
G1 X14.8059 Y-13.8600 Z1.3850
G1 X15.4711 Y-13.8183 Z1.3849
G1 X15.4828 Y-13.8176 Z1.3845
G1 X15.5062 Y-13.8161 Z1.3827
G1 X15.5296 Y-13.8147 Z1.3795
G1 X15.5530 Y-13.8132 Z1.3750
G1 X15.8535 Y-13.7944 Z1.3750
G0 Z1.8850
G0 X15.8535 Y-13.7944 
G0 Z1.8850
G0 X10.6345 Y-14.1219 
G1 X10.6345 Y-14.1219 Z1.8600 F75.
G1 X10.6421 Y-14.1214 Z1.8217 F25.
G1 X10.6638 Y-14.1198 Z1.7893
G1 X10.6961 Y-14.1175 Z1.7676
G1 X10.7343 Y-14.1149 Z1.7600
G1 X12.9378 Y-13.9596 Z1.7600 F75.
G1 X13.0489 Y-13.9518 Z1.7574
G1 X13.0606 Y-13.9510 Z1.7569
G1 X13.1658 Y-13.9436 Z1.7498
G1 X13.1775 Y-13.9427 Z1.7489
G1 X13.2827 Y-13.9353 Z1.7378
G1 X13.2944 Y-13.9345 Z1.7363
G1 X13.3996 Y-13.9271 Z1.7215
G1 X13.5106 Y-13.9193 Z1.7026
G1 X13.6100 Y-13.9123 Z1.6830
G1 X13.6334 Y-13.9106 Z1.6780
G1 X13.7269 Y-13.9040 Z1.6576
G1 X13.8204 Y-13.8974 Z1.6355
G1 X13.9841 Y-13.8859 Z1.5938
G1 X14.0074 Y-13.8843 Z1.5880
G1 X14.1594 Y-13.8736 Z1.5473
G1 X14.2412 Y-13.8678 Z1.5257
G1 X14.3114 Y-13.8629 Z1.5060
G1 X14.4458 Y-13.8534 Z1.4701
G1 X14.4750 Y-13.8513 Z1.4618
G1 X14.6328 Y-13.8402 Z1.4188
G1 X14.6737 Y-13.8373 Z1.4082
G1 X14.7147 Y-13.8344 Z1.3966
G1 X14.7439 Y-13.8324 Z1.3905
G1 X14.7702 Y-13.8305 Z1.3868
G1 X14.7965 Y-13.8287 Z1.3850
G1 X15.4570 Y-13.7821 Z1.3849
G1 X15.4803 Y-13.7805 Z1.3839
G1 X15.5037 Y-13.7789 Z1.3814
G1 X15.5271 Y-13.7772 Z1.3776
G1 X15.5385 Y-13.7764 Z1.3750
G1 X15.8392 Y-13.7552 Z1.3750
G0 Z1.8850
G0 X15.8392 Y-13.7552 
G0 Z1.8850
G0 X10.6346 Y-14.1227 
G1 X10.6346 Y-14.1227 Z1.8600 F75.
G1 X10.6422 Y-14.1221 Z1.8217 F25.
G1 X10.6638 Y-14.1204 Z1.7893
G1 X10.6961 Y-14.1178 Z1.7676
G1 X10.7343 Y-14.1148 Z1.7600
G1 X12.9307 Y-13.9428 Z1.7600 F75.
G1 X12.9541 Y-13.9410 Z1.7596
G1 X13.0475 Y-13.9337 Z1.7574
G1 X13.0592 Y-13.9328 Z1.7569
G1 X13.1702 Y-13.9241 Z1.7495
G1 X13.1877 Y-13.9227 Z1.7478
G1 X13.2870 Y-13.9149 Z1.7373
G1 X13.4039 Y-13.9058 Z1.7209
G1 X13.5032 Y-13.8980 Z1.7039
G1 X13.5148 Y-13.8971 Z1.7018
G1 X13.6200 Y-13.8889 Z1.6810
G1 X13.7251 Y-13.8806 Z1.6579
G1 X13.8186 Y-13.8733 Z1.6358
G1 X14.0289 Y-13.8568 Z1.5822
G1 X14.1808 Y-13.8450 Z1.5410
G1 X14.2392 Y-13.8404 Z1.5255
G1 X14.3443 Y-13.8321 Z1.4960
G1 X14.4261 Y-13.8257 Z1.4741
G1 X14.4495 Y-13.8239 Z1.4677
G1 X14.5021 Y-13.8198 Z1.4526
G1 X14.6598 Y-13.8074 Z1.4099
G1 X14.7065 Y-13.8038 Z1.3967
G1 X14.7357 Y-13.8015 Z1.3904
G1 X14.7620 Y-13.7994 Z1.3867
G1 X14.7868 Y-13.7975 Z1.3850
G1 X15.4425 Y-13.7461 Z1.3850
G1 X15.4542 Y-13.7452 Z1.3847
G1 X15.4776 Y-13.7434 Z1.3830
G1 X15.5010 Y-13.7416 Z1.3800
G1 X15.5243 Y-13.7397 Z1.3755
G1 X15.5263 Y-13.7396 Z1.3750
G1 X15.8249 Y-13.7162 Z1.3750
G0 Z1.8850
G0 X15.8249 Y-13.7162 
G0 Z1.8850
G0 X10.6347 Y-14.1234 
G1 X10.6347 Y-14.1234 Z1.8600 F75.
G1 X10.6422 Y-14.1228 Z1.8217 F25.
G1 X10.6638 Y-14.1209 Z1.7893
G1 X10.6962 Y-14.1181 Z1.7676
G1 X10.7343 Y-14.1148 Z1.7600
G1 X12.9410 Y-13.9247 Z1.7599 F75.
G1 X13.0519 Y-13.9151 Z1.7573
G1 X13.0694 Y-13.9136 Z1.7563
G1 X13.1628 Y-13.9055 Z1.7501
G1 X13.1861 Y-13.9035 Z1.7480
G1 X13.2912 Y-13.8945 Z1.7368
G1 X13.4021 Y-13.8849 Z1.7212
G1 X13.5131 Y-13.8754 Z1.7022
G1 X13.6181 Y-13.8663 Z1.6814
G1 X13.7232 Y-13.8573 Z1.6583
G1 X13.8283 Y-13.8482 Z1.6334
G1 X13.8867 Y-13.8432 Z1.6182
G1 X14.0268 Y-13.8311 Z1.5824
G1 X14.0501 Y-13.8291 Z1.5759
G1 X14.2369 Y-13.8130 Z1.5253
G1 X14.3770 Y-13.8009 Z1.4860
G1 X14.4237 Y-13.7969 Z1.4735
G1 X14.5347 Y-13.7873 Z1.4419
G1 X14.6631 Y-13.7763 Z1.4069
G1 X14.6981 Y-13.7732 Z1.3968
G1 X14.7273 Y-13.7707 Z1.3904
G1 X14.7536 Y-13.7685 Z1.3867
G1 X14.7769 Y-13.7664 Z1.3850
G1 X15.4278 Y-13.7104 Z1.3850
G1 X15.4512 Y-13.7083 Z1.3842
G1 X15.4745 Y-13.7063 Z1.3820
G1 X15.4979 Y-13.7043 Z1.3784
G1 X15.5136 Y-13.7030 Z1.3750
G1 X15.8108 Y-13.6774 Z1.3750
G0 Z1.8850
G0 X15.8108 Y-13.6774 
G0 Z1.8850
G0 X10.6347 Y-14.1242 
G1 X10.6347 Y-14.1242 Z1.8600 F75.
G1 X10.6423 Y-14.1235 Z1.8217 F25.
G1 X10.6639 Y-14.1214 Z1.7893
G1 X10.6962 Y-14.1184 Z1.7676
G1 X10.7343 Y-14.1148 Z1.7600
G1 X12.9394 Y-13.9074 Z1.7599 F75.
G1 X13.0502 Y-13.8970 Z1.7574
G1 X13.0677 Y-13.8953 Z1.7564
G1 X13.1727 Y-13.8855 Z1.7494
G1 X13.2778 Y-13.8756 Z1.7384
G1 X13.3011 Y-13.8734 Z1.7355
G1 X13.4003 Y-13.8641 Z1.7215
G1 X13.5111 Y-13.8536 Z1.7026
G1 X13.6044 Y-13.8449 Z1.6842
G1 X13.6278 Y-13.8427 Z1.6793
G1 X13.7211 Y-13.8339 Z1.6588
G1 X13.8261 Y-13.8240 Z1.6338
G1 X13.9078 Y-13.8163 Z1.6126
G1 X14.0245 Y-13.8054 Z1.5828
G1 X14.0828 Y-13.7999 Z1.5665
G1 X14.1878 Y-13.7900 Z1.5380
G1 X14.2461 Y-13.7845 Z1.5218
G1 X14.4036 Y-13.7697 Z1.4777
G1 X14.4328 Y-13.7669 Z1.4698
G1 X14.5612 Y-13.7549 Z1.4329
G1 X14.6545 Y-13.7461 Z1.4074
G1 X14.6895 Y-13.7428 Z1.3970
G1 X14.7012 Y-13.7417 Z1.3943
G1 X14.7187 Y-13.7401 Z1.3905
G1 X14.7449 Y-13.7376 Z1.3867
G1 X14.7682 Y-13.7354 Z1.3850
G1 X15.4187 Y-13.6742 Z1.3850
G1 X15.4245 Y-13.6737 Z1.3849
G1 X15.4479 Y-13.6715 Z1.3836
G1 X15.4712 Y-13.6693 Z1.3808
G1 X15.4945 Y-13.6671 Z1.3767
G1 X15.5015 Y-13.6664 Z1.3750
G1 X15.7974 Y-13.6386 Z1.3750
G0 Z1.8850
G0 X15.7974 Y-13.6386 
G0 Z1.8850
G0 X10.6348 Y-14.1249 
G1 X10.6348 Y-14.1249 Z1.8600 F75.
G1 X10.6424 Y-14.1242 Z1.8217 F25.
G1 X10.6639 Y-14.1220 Z1.7893
G1 X10.6962 Y-14.1187 Z1.7676
G1 X10.7343 Y-14.1148 Z1.7600
G1 X12.9261 Y-13.8914 Z1.7600 F75.
G1 X12.9494 Y-13.8890 Z1.7597
G1 X13.0426 Y-13.8795 Z1.7576
G1 X13.0660 Y-13.8771 Z1.7565
G1 X13.1709 Y-13.8664 Z1.7495
G1 X13.1825 Y-13.8652 Z1.7484
G1 X13.2875 Y-13.8545 Z1.7373
G1 X13.4040 Y-13.8426 Z1.7210
G1 X13.5148 Y-13.8313 Z1.7019
G1 X13.6197 Y-13.8206 Z1.6811
G1 X13.7247 Y-13.8099 Z1.6580
G1 X13.8121 Y-13.8010 Z1.6372
G1 X13.8354 Y-13.7987 Z1.6314
G1 X13.9287 Y-13.7891 Z1.6070
G1 X14.0219 Y-13.7796 Z1.5832
G1 X14.1035 Y-13.7713 Z1.5603
G1 X14.1852 Y-13.7630 Z1.5381
G1 X14.2318 Y-13.7582 Z1.5253
G1 X14.2784 Y-13.7535 Z1.5118
G1 X14.4358 Y-13.7374 Z1.4676
G1 X14.5932 Y-13.7214 Z1.4223
G1 X14.6515 Y-13.7155 Z1.4063
G1 X14.6865 Y-13.7119 Z1.3959
G1 X14.7098 Y-13.7095 Z1.3907
G1 X14.7360 Y-13.7068 Z1.3867
G1 X14.7593 Y-13.7045 Z1.3850
G1 X15.4093 Y-13.6382 Z1.3849
G1 X15.4209 Y-13.6370 Z1.3846
G1 X15.4443 Y-13.6346 Z1.3827
G1 X15.4676 Y-13.6323 Z1.3795
G1 X15.4899 Y-13.6300 Z1.3750
G1 X15.7846 Y-13.5999 Z1.3750
G0 Z1.8850
G0 X15.7846 Y-13.5999 
G0 Z1.8850
G0 X10.6349 Y-14.1257 
G1 X10.6349 Y-14.1257 Z1.8600 F75.
G1 X10.6425 Y-14.1249 Z1.8217 F25.
G1 X10.6640 Y-14.1225 Z1.7893
G1 X10.6962 Y-14.1190 Z1.7676
G1 X10.7343 Y-14.1148 Z1.7600
G1 X12.9242 Y-13.8742 Z1.7600 F75.
G1 X12.9475 Y-13.8717 Z1.7597
G1 X13.0524 Y-13.8601 Z1.7573
G1 X13.0640 Y-13.8589 Z1.7567
G1 X13.1689 Y-13.8473 Z1.7497
G1 X13.1805 Y-13.8461 Z1.7487
G1 X13.2912 Y-13.8339 Z1.7369
G1 X13.3902 Y-13.8230 Z1.7230
G1 X13.4135 Y-13.8205 Z1.7194
G1 X13.5125 Y-13.8096 Z1.7024
G1 X13.6202 Y-13.7978 Z1.6811
G1 X13.7222 Y-13.7866 Z1.6586
G1 X13.8270 Y-13.7751 Z1.6335
G1 X13.9726 Y-13.7591 Z1.5955
G1 X14.0250 Y-13.7533 Z1.5820
G1 X14.1357 Y-13.7411 Z1.5510
G1 X14.2289 Y-13.7309 Z1.5255
G1 X14.2988 Y-13.7232 Z1.5050
G1 X14.4153 Y-13.7104 Z1.4723
G1 X14.4619 Y-13.7053 Z1.4585
G1 X14.6279 Y-13.6871 Z1.4110
G1 X14.6424 Y-13.6855 Z1.4069
G1 X14.6803 Y-13.6813 Z1.3957
G1 X14.7065 Y-13.6784 Z1.3899
G1 X14.7240 Y-13.6765 Z1.3872
G1 X14.7298 Y-13.6759 Z1.3865
G1 X14.7502 Y-13.6736 Z1.3850
G1 X15.3938 Y-13.6030 Z1.3850
G1 X15.4171 Y-13.6004 Z1.3841
G1 X15.4404 Y-13.5978 Z1.3819
G1 X15.4637 Y-13.5953 Z1.3781
G1 X15.4775 Y-13.5938 Z1.3750
G1 X15.7718 Y-13.5614 Z1.3750
G0 Z1.8850
G0 X15.7718 Y-13.5614 
G0 Z1.8850
G0 X10.6350 Y-14.1265 
G1 X10.6350 Y-14.1265 Z1.8600 F75.
G1 X10.6425 Y-14.1256 Z1.8217 F25.
G1 X10.6641 Y-14.1230 Z1.7893
G1 X10.6963 Y-14.1192 Z1.7676
G1 X10.7343 Y-14.1148 Z1.7600
G1 X12.9397 Y-13.8550 Z1.7599 F75.
G1 X13.0503 Y-13.8420 Z1.7574
G1 X13.0620 Y-13.8407 Z1.7568
G1 X13.1667 Y-13.8283 Z1.7499
G1 X13.1783 Y-13.8269 Z1.7489
G1 X13.2831 Y-13.8146 Z1.7379
G1 X13.2947 Y-13.8132 Z1.7365
G1 X13.4053 Y-13.8002 Z1.7209
G1 X13.5100 Y-13.7879 Z1.7029
G1 X13.6206 Y-13.7749 Z1.6810
G1 X13.7253 Y-13.7625 Z1.6579
G1 X13.8243 Y-13.7509 Z1.6341
G1 X14.0221 Y-13.7276 Z1.5826
G1 X14.1676 Y-13.7104 Z1.5417
G1 X14.2258 Y-13.7036 Z1.5258
G1 X14.3305 Y-13.6913 Z1.4951
G1 X14.4120 Y-13.6817 Z1.4722
G1 X14.4935 Y-13.6721 Z1.4478
G1 X14.6215 Y-13.6570 Z1.4111
G1 X14.6739 Y-13.6508 Z1.3955
G1 X14.6971 Y-13.6481 Z1.3902
G1 X14.7204 Y-13.6453 Z1.3866
G1 X14.7408 Y-13.6429 Z1.3850
G1 X15.3896 Y-13.5665 Z1.3849
G1 X15.4129 Y-13.5638 Z1.3837
G1 X15.4362 Y-13.5611 Z1.3810
G1 X15.4594 Y-13.5583 Z1.3768
G1 X15.4669 Y-13.5574 Z1.3750
G1 X15.7590 Y-13.5230 Z1.3750
G0 Z1.8850
G0 X15.7590 Y-13.5230 
G0 Z1.8850
G0 X10.6351 Y-14.1272 
G1 X10.6351 Y-14.1272 Z1.8600 F75.
G1 X10.6426 Y-14.1263 Z1.8217 F25.
G1 X10.6641 Y-14.1236 Z1.7893
G1 X10.6963 Y-14.1195 Z1.7676
G1 X10.7343 Y-14.1148 Z1.7600
G1 X12.9406 Y-13.8374 Z1.7599 F75.
G1 X13.0481 Y-13.8239 Z1.7574
G1 X13.0597 Y-13.8225 Z1.7569
G1 X13.1760 Y-13.8078 Z1.7491
G1 X13.2923 Y-13.7932 Z1.7368
G1 X13.4027 Y-13.7793 Z1.7213
G1 X13.5132 Y-13.7655 Z1.7024
G1 X13.6178 Y-13.7523 Z1.6817
G1 X13.7225 Y-13.7392 Z1.6586
G1 X13.8271 Y-13.7260 Z1.6334
G1 X14.0248 Y-13.7012 Z1.5815
G1 X14.2225 Y-13.6763 Z1.5261
G1 X14.3620 Y-13.6588 Z1.4852
G1 X14.4085 Y-13.6529 Z1.4721
G1 X14.5131 Y-13.6398 Z1.4406
G1 X14.6410 Y-13.6237 Z1.4034
G1 X14.6643 Y-13.6208 Z1.3963
G1 X14.6701 Y-13.6200 Z1.3947
G1 X14.6905 Y-13.6175 Z1.3901
G1 X14.7137 Y-13.6146 Z1.3866
G1 X14.7341 Y-13.6120 Z1.3850
G1 X15.3736 Y-13.5316 Z1.3850
G1 X15.3852 Y-13.5302 Z1.3847
G1 X15.4084 Y-13.5272 Z1.3831
G1 X15.4317 Y-13.5243 Z1.3800
G1 X15.4550 Y-13.5214 Z1.3755
G1 X15.4568 Y-13.5212 Z1.3750
G1 X15.7474 Y-13.4846 Z1.3750
G0 Z1.8850
G0 X15.7474 Y-13.4846 
G0 Z1.8850
G0 X10.6352 Y-14.1280 
G1 X10.6352 Y-14.1280 Z1.8600 F75.
G1 X10.6427 Y-14.1270 Z1.8217 F25.
G1 X10.6642 Y-14.1241 Z1.7893
G1 X10.6964 Y-14.1198 Z1.7676
G1 X10.7343 Y-14.1147 Z1.7600
G1 X12.9383 Y-13.8202 Z1.7599 F75.
G1 X13.0516 Y-13.8051 Z1.7573
G1 X13.0690 Y-13.8027 Z1.7563
G1 X13.1735 Y-13.7888 Z1.7494
G1 X13.2897 Y-13.7732 Z1.7372
G1 X13.4058 Y-13.7577 Z1.7209
G1 X13.5104 Y-13.7437 Z1.7030
G1 X13.6207 Y-13.7290 Z1.6811
G1 X13.7253 Y-13.7150 Z1.6580
G1 X13.8269 Y-13.7014 Z1.6334
G1 X13.8937 Y-13.6925 Z1.6158
G1 X14.0098 Y-13.6770 Z1.5854
G1 X14.2189 Y-13.6490 Z1.5265
G1 X14.3932 Y-13.6258 Z1.4753
G1 X14.4048 Y-13.6242 Z1.4721
G1 X14.4512 Y-13.6180 Z1.4582
G1 X14.5558 Y-13.6040 Z1.4266
G1 X14.5906 Y-13.5994 Z1.4166
G1 X14.6371 Y-13.5932 Z1.4029
G1 X14.6603 Y-13.5901 Z1.3957
G1 X14.6835 Y-13.5870 Z1.3901
G1 X14.7068 Y-13.5838 Z1.3865
G1 X14.7271 Y-13.5811 Z1.3850
G1 X15.3689 Y-13.4954 Z1.3849
G1 X15.3805 Y-13.4938 Z1.3845
G1 X15.4037 Y-13.4907 Z1.3825
G1 X15.4269 Y-13.4876 Z1.3791
G1 X15.4461 Y-13.4850 Z1.3750
G1 X15.7362 Y-13.4463 Z1.3750
G0 Z1.8850
G0 X15.7362 Y-13.4463 
G0 Z1.8850
G0 X10.6353 Y-14.1287 
G1 X10.6353 Y-14.1287 Z1.8600 F75.
G1 X10.6428 Y-14.1277 Z1.8217 F25.
G1 X10.6643 Y-14.1246 Z1.7893
G1 X10.6964 Y-14.1201 Z1.7676
G1 X10.7343 Y-14.1147 Z1.7600
G1 X12.9388 Y-13.8025 Z1.7599 F75.
G1 X13.0549 Y-13.7861 Z1.7572
G1 X13.1709 Y-13.7697 Z1.7496
G1 X13.1941 Y-13.7664 Z1.7473
G1 X13.2927 Y-13.7524 Z1.7369
G1 X13.4030 Y-13.7368 Z1.7214
G1 X13.5132 Y-13.7212 Z1.7025
G1 X13.6205 Y-13.7060 Z1.6813
G1 X13.7250 Y-13.6912 Z1.6581
G1 X13.8265 Y-13.6769 Z1.6336
G1 X13.9135 Y-13.6645 Z1.6105
G1 X14.0237 Y-13.6489 Z1.5816
G1 X14.0991 Y-13.6382 Z1.5598
G1 X14.2152 Y-13.6218 Z1.5272
G1 X14.2616 Y-13.6152 Z1.5131
G1 X14.4008 Y-13.5955 Z1.4723
G1 X14.5865 Y-13.5692 Z1.4161
G1 X14.6213 Y-13.5643 Z1.4060
G1 X14.6561 Y-13.5594 Z1.3951
G1 X14.6793 Y-13.5561 Z1.3896
G1 X14.6909 Y-13.5544 Z1.3878
G1 X14.7025 Y-13.5528 Z1.3862
G1 X14.7170 Y-13.5508 Z1.3851
G1 X15.3523 Y-13.4608 Z1.3850
G1 X15.3755 Y-13.4575 Z1.3841
G1 X15.3987 Y-13.4542 Z1.3818
G1 X15.4219 Y-13.4509 Z1.3780
G1 X15.4352 Y-13.4491 Z1.3750
G1 X15.7250 Y-13.4080 Z1.3750
G0 Z1.8850
G0 X15.7250 Y-13.4080 
G0 Z1.8850
G0 X10.6354 Y-14.1295 
G1 X10.6354 Y-14.1295 Z1.8600 F75.
G1 X10.6429 Y-14.1284 Z1.8217 F25.
G1 X10.6643 Y-14.1252 Z1.7893
G1 X10.6964 Y-14.1204 Z1.7676
G1 X10.7343 Y-14.1147 Z1.7600
G1 X12.9132 Y-13.7888 Z1.7600 F75.
G1 X12.9595 Y-13.7818 Z1.7595
G1 X13.0522 Y-13.7680 Z1.7573
G1 X13.0754 Y-13.7645 Z1.7559
G1 X13.1681 Y-13.7506 Z1.7498
G1 X13.1797 Y-13.7489 Z1.7488
G1 X13.2898 Y-13.7324 Z1.7373
G1 X13.4057 Y-13.7151 Z1.7210
G1 X13.5158 Y-13.6986 Z1.7021
G1 X13.6230 Y-13.6826 Z1.6808
G1 X13.7013 Y-13.6709 Z1.6634
G1 X13.8230 Y-13.6527 Z1.6345
G1 X13.9331 Y-13.6362 Z1.6052
G1 X14.0142 Y-13.6241 Z1.5840
G1 X14.0258 Y-13.6223 Z1.5808
G1 X14.1185 Y-13.6085 Z1.5540
G1 X14.2170 Y-13.5937 Z1.5262
G1 X14.2923 Y-13.5825 Z1.5032
G1 X14.3967 Y-13.5669 Z1.4726
G1 X14.4198 Y-13.5634 Z1.4656
G1 X14.4604 Y-13.5573 Z1.4528
G1 X14.6227 Y-13.5331 Z1.4037
G1 X14.6516 Y-13.5287 Z1.3947
G1 X14.6690 Y-13.5261 Z1.3906
G1 X14.6748 Y-13.5253 Z1.3893
G1 X14.6922 Y-13.5227 Z1.3866
G1 X14.7096 Y-13.5201 Z1.3851
G1 X15.3470 Y-13.4247 Z1.3850
G1 X15.3702 Y-13.4212 Z1.3839
G1 X15.3934 Y-13.4178 Z1.3813
G1 X15.4166 Y-13.4143 Z1.3772
G1 X15.4258 Y-13.4129 Z1.3750
G1 X15.7138 Y-13.3698 Z1.3750
G0 Z1.8850
G0 X15.7138 Y-13.3698 
G0 Z1.8850
G0 X10.6355 Y-14.1303 
G1 X10.6355 Y-14.1303 Z1.8600 F75.
G1 X10.6430 Y-14.1291 Z1.8217 F25.
G1 X10.6644 Y-14.1257 Z1.7893
G1 X10.6965 Y-14.1206 Z1.7676
G1 X10.7343 Y-14.1147 Z1.7600
G1 X12.9395 Y-13.7672 Z1.7599 F75.
G1 X13.0495 Y-13.7499 Z1.7574
G1 X13.0610 Y-13.7480 Z1.7569
G1 X13.1710 Y-13.7307 Z1.7496
G1 X13.1884 Y-13.7280 Z1.7480
G1 X13.2925 Y-13.7115 Z1.7370
G1 X13.4025 Y-13.6942 Z1.7216
G1 X13.5125 Y-13.6769 Z1.7028
G1 X13.6225 Y-13.6596 Z1.6810
G1 X13.7266 Y-13.6431 Z1.6578
G1 X13.8135 Y-13.6295 Z1.6369
G1 X13.8366 Y-13.6258 Z1.6310
G1 X14.0218 Y-13.5966 Z1.5818
G1 X14.1607 Y-13.5747 Z1.5417
G1 X14.2070 Y-13.5674 Z1.5287
G1 X14.3228 Y-13.5492 Z1.4935
G1 X14.4096 Y-13.5355 Z1.4679
G1 X14.4964 Y-13.5218 Z1.4405
G1 X14.6238 Y-13.5018 Z1.4016
G1 X14.6440 Y-13.4986 Z1.3951
G1 X14.6672 Y-13.4949 Z1.3895
G1 X14.6874 Y-13.4917 Z1.3864
G1 X14.7048 Y-13.4890 Z1.3850
G1 X15.3357 Y-13.3896 Z1.3850
G1 X15.3415 Y-13.3887 Z1.3849
G1 X15.3646 Y-13.3850 Z1.3836
G1 X15.3878 Y-13.3814 Z1.3808
G1 X15.4109 Y-13.3777 Z1.3765
G1 X15.4168 Y-13.3768 Z1.3750
G1 X15.7040 Y-13.3315 Z1.3750
G0 Z1.8850
G0 X15.7040 Y-13.3315 
G0 Z1.8850
G0 X10.6356 Y-14.1310 
G1 X10.6356 Y-14.1310 Z1.8600 F75.
G1 X10.6431 Y-14.1298 Z1.8217 F25.
G1 X10.6645 Y-14.1262 Z1.7893
G1 X10.6965 Y-14.1209 Z1.7676
G1 X10.7343 Y-14.1147 Z1.7600
G1 X12.9396 Y-13.7495 Z1.7599 F75.
G1 X13.0465 Y-13.7318 Z1.7575
G1 X13.0639 Y-13.7289 Z1.7567
G1 X13.1737 Y-13.7107 Z1.7494
G1 X13.2893 Y-13.6916 Z1.7374
G1 X13.4049 Y-13.6724 Z1.7213
G1 X13.5148 Y-13.6542 Z1.7025
G1 X13.6217 Y-13.6365 Z1.6813
G1 X13.7171 Y-13.6207 Z1.6601
G1 X13.8269 Y-13.6025 Z1.6336
G1 X14.0235 Y-13.5700 Z1.5812
G1 X14.2142 Y-13.5384 Z1.5261
G1 X14.3645 Y-13.5135 Z1.4803
G1 X14.4108 Y-13.5058 Z1.4666
G1 X14.5264 Y-13.4867 Z1.4300
G1 X14.6189 Y-13.4714 Z1.4017
G1 X14.6420 Y-13.4675 Z1.3942
G1 X14.6622 Y-13.4642 Z1.3893
G1 X14.6767 Y-13.4618 Z1.3870
G1 X14.6825 Y-13.4608 Z1.3862
G1 X14.6940 Y-13.4589 Z1.3853
G1 X14.6998 Y-13.4580 Z1.3850
G1 X15.3241 Y-13.3546 Z1.3850
G1 X15.3357 Y-13.3527 Z1.3848
G1 X15.3588 Y-13.3488 Z1.3833
G1 X15.3819 Y-13.3450 Z1.3804
G1 X15.4050 Y-13.3412 Z1.3759
G1 X15.4084 Y-13.3406 Z1.3750
G1 X15.6944 Y-13.2933 Z1.3750
G0 Z1.8850
G0 X15.6944 Y-13.2933 
G0 Z1.8850
G0 X10.6357 Y-14.1318 
G1 X10.6357 Y-14.1318 Z1.8600 F75.
G1 X10.6432 Y-14.1305 Z1.8217 F25.
G1 X10.6646 Y-14.1268 Z1.7893
G1 X10.6966 Y-14.1212 Z1.7676
G1 X10.7343 Y-14.1147 Z1.7600
G1 X12.9396 Y-13.7317 Z1.7599 F75.
G1 X13.0435 Y-13.7137 Z1.7575
G1 X13.0666 Y-13.7097 Z1.7565
G1 X13.1705 Y-13.6916 Z1.7497
G1 X13.1820 Y-13.6896 Z1.7487
G1 X13.2859 Y-13.6716 Z1.7378
G1 X13.2975 Y-13.6696 Z1.7364
G1 X13.4072 Y-13.6505 Z1.7210
G1 X13.5169 Y-13.6315 Z1.7022
G1 X13.5977 Y-13.6174 Z1.6862
G1 X13.6439 Y-13.6094 Z1.6765
G1 X13.7276 Y-13.5949 Z1.6578
G1 X13.8286 Y-13.5774 Z1.6332
G1 X14.0191 Y-13.5443 Z1.5824
G1 X14.2154 Y-13.5102 Z1.5254
G1 X14.4059 Y-13.4771 Z1.4672
G1 X14.5560 Y-13.4510 Z1.4195
G1 X14.5906 Y-13.4450 Z1.4090
G1 X14.6368 Y-13.4370 Z1.3943
G1 X14.6484 Y-13.4350 Z1.3914
G1 X14.6599 Y-13.4330 Z1.3887
G1 X14.6714 Y-13.4310 Z1.3868
G1 X14.6772 Y-13.4300 Z1.3861
G1 X14.6888 Y-13.4280 Z1.3851
G1 X14.7061 Y-13.4250 Z1.3850
G1 X15.3180 Y-13.3187 Z1.3850
G1 X15.3296 Y-13.3167 Z1.3847
G1 X15.3527 Y-13.3127 Z1.3831
G1 X15.3758 Y-13.3087 Z1.3800
G1 X15.4004 Y-13.3044 Z1.3750
G1 X15.6856 Y-13.2549 Z1.3750
G0 Z1.8850
G0 X15.6856 Y-13.2549 
G0 Z1.8850
G0 X10.6359 Y-14.1325 
G1 X10.6359 Y-14.1325 Z1.8600 F75.
G1 X10.6434 Y-14.1312 Z1.8217 F25.
G1 X10.6647 Y-14.1273 Z1.7893
G1 X10.6966 Y-14.1215 Z1.7676
G1 X10.7343 Y-14.1146 Z1.7600
G1 X12.9394 Y-13.7140 Z1.7599 F75.
G1 X13.0518 Y-13.6935 Z1.7573
G1 X13.0633 Y-13.6914 Z1.7567
G1 X13.1729 Y-13.6715 Z1.7495
G1 X13.2017 Y-13.6663 Z1.7466
G1 X13.2939 Y-13.6495 Z1.7369
G1 X13.4035 Y-13.6296 Z1.7216
G1 X13.5130 Y-13.6097 Z1.7030
G1 X13.6225 Y-13.5898 Z1.6813
G1 X13.7263 Y-13.5710 Z1.6583
G1 X13.8301 Y-13.5521 Z1.6330
G1 X14.0088 Y-13.5197 Z1.5852
G1 X14.0318 Y-13.5155 Z1.5787
G1 X14.0780 Y-13.5071 Z1.5650
G1 X14.2163 Y-13.4819 Z1.5248
G1 X14.2624 Y-13.4736 Z1.5103
G1 X14.4066 Y-13.4474 Z1.4662
G1 X14.4354 Y-13.4421 Z1.4568
G1 X14.6083 Y-13.4107 Z1.4019
G1 X14.6314 Y-13.4065 Z1.3944
G1 X14.6429 Y-13.4044 Z1.3914
G1 X14.6545 Y-13.4023 Z1.3888
G1 X14.6660 Y-13.4002 Z1.3868
G1 X14.6775 Y-13.3981 Z1.3856
G1 X14.6890 Y-13.3960 Z1.3850
G1 X15.3001 Y-13.2850 Z1.3850
G1 X15.3232 Y-13.2808 Z1.3847
G1 X15.3463 Y-13.2766 Z1.3830
G1 X15.3693 Y-13.2724 Z1.3798
G1 X15.3928 Y-13.2682 Z1.3750
G1 X15.6772 Y-13.2165 Z1.3750
G0 Z1.8850
G0 X15.6772 Y-13.2165 
G0 Z1.8850
G0 X10.6360 Y-14.1333 
G1 X10.6360 Y-14.1333 Z1.8600 F75.
G1 X10.6435 Y-14.1319 Z1.8217 F25.
G1 X10.6648 Y-14.1278 Z1.7893
G1 X10.6967 Y-14.1218 Z1.7676
G1 X10.7343 Y-14.1146 Z1.7600
G1 X12.9390 Y-13.6962 Z1.7599 F75.
G1 X13.0484 Y-13.6754 Z1.7574
G1 X13.0657 Y-13.6721 Z1.7566
G1 X13.1751 Y-13.6514 Z1.7494
G1 X13.2902 Y-13.6295 Z1.7374
G1 X13.4053 Y-13.6077 Z1.7214
G1 X13.5147 Y-13.5869 Z1.7028
G1 X13.6241 Y-13.5662 Z1.6811
G1 X13.7277 Y-13.5465 Z1.6580
G1 X13.8256 Y-13.5279 Z1.6343
G1 X14.0242 Y-13.4902 Z1.5810
G1 X14.1192 Y-13.4722 Z1.5529
G1 X14.2141 Y-13.4542 Z1.5253
G1 X14.2919 Y-13.4394 Z1.5007
G1 X14.4041 Y-13.4181 Z1.4664
G1 X14.4646 Y-13.4067 Z1.4464
G1 X14.6027 Y-13.3804 Z1.4023
G1 X14.6286 Y-13.3755 Z1.3937
G1 X14.6488 Y-13.3717 Z1.3888
G1 X14.6603 Y-13.3695 Z1.3869
G1 X14.6718 Y-13.3673 Z1.3856
G1 X14.6833 Y-13.3651 Z1.3850
G1 X15.2935 Y-13.2493 Z1.3850
G1 X15.3165 Y-13.2450 Z1.3847
G1 X15.3396 Y-13.2406 Z1.3830
G1 X15.3626 Y-13.2362 Z1.3798
G1 X15.3857 Y-13.2318 Z1.3750
G1 X15.6696 Y-13.1780 Z1.3750
G0 Z1.8850
G0 X15.6696 Y-13.1780 
G0 Z1.8850
G0 X10.6362 Y-14.1340 
G1 X10.6362 Y-14.1340 Z1.8600 F75.
G1 X10.6436 Y-14.1325 Z1.8217 F25.
G1 X10.6649 Y-14.1283 Z1.7893
G1 X10.6967 Y-14.1220 Z1.7676
G1 X10.7343 Y-14.1146 Z1.7600
G1 X12.9386 Y-13.6784 Z1.7599 F75.
G1 X13.0507 Y-13.6562 Z1.7574
G1 X13.0679 Y-13.6528 Z1.7564
G1 X13.1714 Y-13.6323 Z1.7497
G1 X13.1944 Y-13.6278 Z1.7474
G1 X13.2863 Y-13.6096 Z1.7379
G1 X13.2978 Y-13.6073 Z1.7365
G1 X13.4070 Y-13.5857 Z1.7212
G1 X13.5191 Y-13.5635 Z1.7021
G1 X13.6255 Y-13.5425 Z1.6810
G1 X13.7232 Y-13.5231 Z1.6592
G1 X13.8266 Y-13.5026 Z1.6341
G1 X14.0221 Y-13.4640 Z1.5816
G1 X14.1600 Y-13.4367 Z1.5408
G1 X14.2146 Y-13.4259 Z1.5249
G1 X14.3324 Y-13.4025 Z1.4877
G1 X14.4014 Y-13.3889 Z1.4666
G1 X14.4934 Y-13.3707 Z1.4360
G1 X14.5969 Y-13.3502 Z1.4030
G1 X14.6256 Y-13.3445 Z1.3933
G1 X14.6428 Y-13.3411 Z1.3889
G1 X14.6543 Y-13.3388 Z1.3870
G1 X14.6658 Y-13.3366 Z1.3856
G1 X14.6773 Y-13.3343 Z1.3850
G1 X15.2981 Y-13.2114 Z1.3850
G1 X15.3096 Y-13.2092 Z1.3847
G1 X15.3326 Y-13.2046 Z1.3830
G1 X15.3556 Y-13.2001 Z1.3798
G1 X15.3788 Y-13.1955 Z1.3750
G1 X15.6624 Y-13.1393 Z1.3750
G0 Z1.8850
G0 X15.6624 Y-13.1393 
G0 Z1.8850
G0 X10.6363 Y-14.1348 
G1 X10.6363 Y-14.1348 Z1.8600 F75.
G1 X10.6438 Y-14.1332 Z1.8217 F25.
G1 X10.6650 Y-14.1289 Z1.7893
G1 X10.6968 Y-14.1223 Z1.7676
G1 X10.7343 Y-14.1146 Z1.7600
G1 X12.9380 Y-13.6606 Z1.7599 F75.
G1 X13.0527 Y-13.6369 Z1.7573
G1 X13.0757 Y-13.6322 Z1.7559
G1 X13.1733 Y-13.6121 Z1.7495
G1 X13.2134 Y-13.6038 Z1.7455
G1 X13.2938 Y-13.5873 Z1.7371
G1 X13.4086 Y-13.5636 Z1.7211
G1 X13.5176 Y-13.5411 Z1.7025
G1 X13.6266 Y-13.5187 Z1.6809
G1 X13.7299 Y-13.4974 Z1.6578
G1 X13.8275 Y-13.4773 Z1.6341
G1 X14.0398 Y-13.4335 Z1.5764
G1 X14.2120 Y-13.3981 Z1.5255
G1 X14.3612 Y-13.3673 Z1.4783
G1 X14.4014 Y-13.3591 Z1.4659
G1 X14.5334 Y-13.3319 Z1.4221
G1 X14.5908 Y-13.3200 Z1.4037
G1 X14.6195 Y-13.3141 Z1.3941
G1 X14.6252 Y-13.3129 Z1.3924
G1 X14.6367 Y-13.3106 Z1.3894
G1 X14.6424 Y-13.3094 Z1.3882
G1 X14.6539 Y-13.3070 Z1.3862
G1 X14.6596 Y-13.3059 Z1.3857
G1 X14.6711 Y-13.3035 Z1.3850
G1 X15.2909 Y-13.1758 Z1.3850
G1 X15.3024 Y-13.1734 Z1.3847
G1 X15.3253 Y-13.1687 Z1.3831
G1 X15.3483 Y-13.1640 Z1.3800
G1 X15.3727 Y-13.1589 Z1.3750
G1 X15.6561 Y-13.1005 Z1.3750
G0 Z1.8850
G0 X15.6561 Y-13.1005 
G0 Z1.8850
G0 X10.6365 Y-14.1355 
G1 X10.6365 Y-14.1355 Z1.8600 F75.
G1 X10.6439 Y-14.1339 Z1.8217 F25.
G1 X10.6651 Y-14.1294 Z1.7893
G1 X10.6968 Y-14.1226 Z1.7676
G1 X10.7343 Y-14.1146 Z1.7600
G1 X12.9387 Y-13.6424 Z1.7599 F75.
G1 X13.0489 Y-13.6188 Z1.7574
G1 X13.0661 Y-13.6151 Z1.7565
G1 X13.1750 Y-13.5918 Z1.7494
G1 X13.2896 Y-13.5673 Z1.7376
G1 X13.3010 Y-13.5648 Z1.7361
G1 X13.4099 Y-13.5415 Z1.7209
G1 X13.5188 Y-13.5182 Z1.7024
G1 X13.6276 Y-13.4949 Z1.6808
G1 X13.7307 Y-13.4728 Z1.6578
G1 X13.8281 Y-13.4519 Z1.6340
G1 X14.0344 Y-13.4077 Z1.5780
G1 X14.2120 Y-13.3697 Z1.5253
G1 X14.4011 Y-13.3292 Z1.4653
G1 X14.5959 Y-13.2875 Z1.4007
G1 X14.6188 Y-13.2825 Z1.3930
G1 X14.6360 Y-13.2789 Z1.3885
G1 X14.6475 Y-13.2764 Z1.3866
G1 X14.6532 Y-13.2752 Z1.3858
G1 X14.6589 Y-13.2740 Z1.3853
G1 X14.6646 Y-13.2727 Z1.3850
G1 X15.2834 Y-13.1402 Z1.3850
G1 X15.2949 Y-13.1377 Z1.3848
G1 X15.3178 Y-13.1328 Z1.3833
G1 X15.3407 Y-13.1279 Z1.3803
G1 X15.3636 Y-13.1230 Z1.3758
G1 X15.3666 Y-13.1224 Z1.3750
G1 X15.6503 Y-13.0616 Z1.3750
G0 Z1.8850
G0 X15.6503 Y-13.0616 
G0 Z1.8850
G0 X10.6366 Y-14.1363 
G1 X10.6366 Y-14.1363 Z1.8600 F75.
G1 X10.6441 Y-14.1346 Z1.8217 F25.
G1 X10.6652 Y-14.1299 Z1.7893
G1 X10.6969 Y-14.1229 Z1.7676
G1 X10.7343 Y-14.1146 Z1.7600
G1 X12.9363 Y-13.6249 Z1.7599 F75.
G1 X13.0507 Y-13.5994 Z1.7574
G1 X13.0679 Y-13.5956 Z1.7564
G1 X13.1708 Y-13.5727 Z1.7497
G1 X13.1823 Y-13.5702 Z1.7488
G1 X13.2909 Y-13.5460 Z1.7375
G1 X13.4053 Y-13.5206 Z1.7217
G1 X13.5197 Y-13.4951 Z1.7023
G1 X13.6284 Y-13.4710 Z1.6808
G1 X13.7314 Y-13.4481 Z1.6579
G1 X13.8343 Y-13.4252 Z1.6326
G1 X14.0231 Y-13.3832 Z1.5816
G1 X14.0745 Y-13.3718 Z1.5661
G1 X14.2118 Y-13.3412 Z1.5254
G1 X14.2690 Y-13.3285 Z1.5068
G1 X14.4006 Y-13.2993 Z1.4651
G1 X14.4406 Y-13.2904 Z1.4513
G1 X14.5922 Y-13.2567 Z1.4008
G1 X14.6150 Y-13.2516 Z1.3929
G1 X14.6293 Y-13.2484 Z1.3892
G1 X14.6465 Y-13.2446 Z1.3860
G1 X14.6579 Y-13.2420 Z1.3850
G1 X15.2814 Y-13.1034 Z1.3850
G1 X15.2871 Y-13.1021 Z1.3849
G1 X15.3100 Y-13.0970 Z1.3836
G1 X15.3329 Y-13.0919 Z1.3808
G1 X15.3557 Y-13.0868 Z1.3765
G1 X15.3615 Y-13.0856 Z1.3750
G1 X15.6452 Y-13.0225 Z1.3750
G0 Z1.8850
G0 X15.6452 Y-13.0225 
G0 Z1.8850
G0 X10.6368 Y-14.1370 
G1 X10.6368 Y-14.1370 Z1.8600 F75.
G1 X10.6442 Y-14.1353 Z1.8217 F25.
G1 X10.6653 Y-14.1304 Z1.7893
G1 X10.6970 Y-14.1231 Z1.7676
G1 X10.7342 Y-14.1146 Z1.7600
G1 X12.9381 Y-13.6063 Z1.7599 F75.
G1 X13.0523 Y-13.5800 Z1.7573
G1 X13.0637 Y-13.5774 Z1.7567
G1 X13.1779 Y-13.5511 Z1.7492
G1 X13.2921 Y-13.5247 Z1.7374
G1 X13.4063 Y-13.4984 Z1.7217
G1 X13.5205 Y-13.4721 Z1.7023
G1 X13.6290 Y-13.4470 Z1.6808
G1 X13.7318 Y-13.4233 Z1.6580
G1 X13.8345 Y-13.3996 Z1.6328
G1 X14.0229 Y-13.3562 Z1.5818
G1 X14.1143 Y-13.3351 Z1.5543
G1 X14.2114 Y-13.3127 Z1.5255
G1 X14.2970 Y-13.2930 Z1.4976
G1 X14.3998 Y-13.2693 Z1.4650
G1 X14.4797 Y-13.2509 Z1.4374
G1 X14.5711 Y-13.2298 Z1.4070
G1 X14.6139 Y-13.2199 Z1.3923
G1 X14.6282 Y-13.2166 Z1.3884
G1 X14.6396 Y-13.2140 Z1.3864
G1 X14.6510 Y-13.2114 Z1.3852
G1 X14.6567 Y-13.2101 Z1.3850
G1 X15.2790 Y-13.0665 Z1.3850
G1 X15.3019 Y-13.0613 Z1.3838
G1 X15.3247 Y-13.0560 Z1.3813
G1 X15.3476 Y-13.0507 Z1.3772
G1 X15.3565 Y-13.0487 Z1.3750
G1 X15.6410 Y-12.9831 Z1.3750
G0 Z1.8850
G0 X15.6410 Y-12.9831 
G0 Z1.8850
G0 X10.6370 Y-14.1378 
G1 X10.6370 Y-14.1378 Z1.8600 F75.
G1 X10.6444 Y-14.1360 Z1.8217 F25.
G1 X10.6655 Y-14.1310 Z1.7893
G1 X10.6970 Y-14.1234 Z1.7676
G1 X10.7342 Y-14.1145 Z1.7600
G1 X12.9227 Y-13.5918 Z1.7600 F75.
G1 X12.9455 Y-13.5864 Z1.7597
G1 X13.0481 Y-13.5619 Z1.7574
G1 X13.0652 Y-13.5578 Z1.7566
G1 X13.1735 Y-13.5320 Z1.7496
G1 X13.1962 Y-13.5265 Z1.7473
G1 X13.2874 Y-13.5047 Z1.7379
G1 X13.2988 Y-13.5020 Z1.7366
G1 X13.4071 Y-13.4761 Z1.7216
G1 X13.5211 Y-13.4489 Z1.7023
G1 X13.6294 Y-13.4231 Z1.6809
G1 X13.7320 Y-13.3986 Z1.6581
G1 X13.8345 Y-13.3741 Z1.6331
G1 X14.0169 Y-13.3305 Z1.5837
G1 X14.0340 Y-13.3264 Z1.5788
G1 X14.1537 Y-13.2978 Z1.5426
G1 X14.2164 Y-13.2829 Z1.5239
G1 X14.3361 Y-13.2543 Z1.4849
G1 X14.3988 Y-13.2393 Z1.4650
G1 X14.5070 Y-13.2134 Z1.4274
G1 X14.5840 Y-13.1951 Z1.4017
G1 X14.6125 Y-13.1883 Z1.3918
G1 X14.6267 Y-13.1849 Z1.3880
G1 X14.6381 Y-13.1821 Z1.3860
G1 X14.6495 Y-13.1794 Z1.3850
G1 X15.2707 Y-13.0310 Z1.3850
G1 X15.2935 Y-13.0256 Z1.3842
G1 X15.3163 Y-13.0202 Z1.3819
G1 X15.3391 Y-13.0147 Z1.3782
G1 X15.3528 Y-13.0115 Z1.3750
G1 X15.6372 Y-12.9435 Z1.3750
G0 Z1.8850
G0 X15.6372 Y-12.9435 
G0 Z1.8850
G0 X10.6372 Y-14.1385 
G1 X10.6372 Y-14.1385 Z1.8600 F75.
G1 X10.6446 Y-14.1367 Z1.8217 F25.
G1 X10.6656 Y-14.1315 Z1.7893
G1 X10.6971 Y-14.1237 Z1.7676
G1 X10.7342 Y-14.1145 Z1.7600
G1 X12.9356 Y-13.5705 Z1.7599 F75.
G1 X13.0551 Y-13.5410 Z1.7572
G1 X13.1688 Y-13.5129 Z1.7499
G1 X13.1859 Y-13.5087 Z1.7484
G1 X13.2826 Y-13.4848 Z1.7385
G1 X13.3053 Y-13.4792 Z1.7358
G1 X13.4077 Y-13.4539 Z1.7216
G1 X13.5215 Y-13.4257 Z1.7024
G1 X13.6296 Y-13.3990 Z1.6811
G1 X13.7348 Y-13.3730 Z1.6576
G1 X13.8343 Y-13.3484 Z1.6334
G1 X14.0277 Y-13.3006 Z1.5808
G1 X14.2155 Y-13.2543 Z1.5242
G1 X14.4003 Y-13.2086 Z1.4641
G1 X14.5454 Y-13.1727 Z1.4138
G1 X14.5795 Y-13.1643 Z1.4023
G1 X14.6080 Y-13.1573 Z1.3923
G1 X14.6250 Y-13.1530 Z1.3878
G1 X14.6364 Y-13.1502 Z1.3858
G1 X14.6449 Y-13.1481 Z1.3850
G1 X15.2735 Y-12.9928 Z1.3849
G1 X15.2849 Y-12.9900 Z1.3845
G1 X15.3076 Y-12.9844 Z1.3825
G1 X15.3304 Y-12.9787 Z1.3791
G1 X15.3495 Y-12.9740 Z1.3750
G1 X15.6347 Y-12.9035 Z1.3750
G0 Z1.8850
G0 X15.6347 Y-12.9035 
G0 Z1.8850
G0 X10.6374 Y-14.1393 
G1 X10.6374 Y-14.1393 Z1.8600 F75.
G1 X10.6447 Y-14.1374 Z1.8217 F25.
G1 X10.6657 Y-14.1320 Z1.7893
G1 X10.6972 Y-14.1240 Z1.7676
G1 X10.7342 Y-14.1145 Z1.7600
G1 X12.9370 Y-13.5519 Z1.7599 F75.
G1 X13.0505 Y-13.5229 Z1.7574
G1 X13.0732 Y-13.5171 Z1.7561
G1 X13.1754 Y-13.4910 Z1.7494
G1 X13.2889 Y-13.4620 Z1.7379
G1 X13.3003 Y-13.4591 Z1.7365
G1 X13.4025 Y-13.4330 Z1.7225
G1 X13.4138 Y-13.4301 Z1.7207
G1 X13.5217 Y-13.4025 Z1.7025
G1 X13.6296 Y-13.3750 Z1.6813
G1 X13.7346 Y-13.3481 Z1.6580
G1 X13.8226 Y-13.3257 Z1.6365
G1 X13.8453 Y-13.3199 Z1.6307
G1 X14.0298 Y-13.2727 Z1.5804
G1 X14.2143 Y-13.2256 Z1.5247
G1 X14.4017 Y-13.1778 Z1.4634
G1 X14.4357 Y-13.1691 Z1.4514
G1 X14.5833 Y-13.1314 Z1.4001
G1 X14.6074 Y-13.1252 Z1.3916
G1 X14.6202 Y-13.1219 Z1.3882
G1 X14.6316 Y-13.1190 Z1.3860
G1 X14.6401 Y-13.1169 Z1.3851
G1 X14.6514 Y-13.1140 Z1.3850
G1 X15.2646 Y-12.9573 Z1.3850
G1 X15.2759 Y-12.9544 Z1.3847
G1 X15.2986 Y-12.9486 Z1.3832
G1 X15.3213 Y-12.9428 Z1.3802
G1 X15.3441 Y-12.9370 Z1.3757
G1 X15.3469 Y-12.9363 Z1.3750
G1 X15.6323 Y-12.8634 Z1.3750
G0 Z1.8850
G0 X15.6323 Y-12.8634 
G0 Z1.8850
G0 X10.6375 Y-14.1400 
G1 X10.6375 Y-14.1400 Z1.8600 F75.
G1 X10.6449 Y-14.1381 Z1.8217 F25.
G1 X10.6659 Y-14.1325 Z1.7893
G1 X10.6972 Y-14.1242 Z1.7676
G1 X10.7342 Y-14.1145 Z1.7600
G1 X12.9367 Y-13.5335 Z1.7599 F75.
G1 X13.0515 Y-13.5033 Z1.7573
G1 X13.0685 Y-13.4988 Z1.7564
G1 X13.1704 Y-13.4719 Z1.7498
G1 X13.1874 Y-13.4674 Z1.7483
G1 X13.2951 Y-13.4390 Z1.7372
G1 X13.4084 Y-13.4091 Z1.7217
G1 X13.5217 Y-13.3792 Z1.7026
G1 X13.6322 Y-13.3501 Z1.6809
G1 X13.7370 Y-13.3225 Z1.6576
G1 X13.8390 Y-13.2956 Z1.6327
G1 X14.0316 Y-13.2448 Z1.5803
G1 X14.2186 Y-13.1954 Z1.5236
G1 X14.2809 Y-13.1790 Z1.5028
G1 X14.3999 Y-13.1476 Z1.4640
G1 X14.4622 Y-13.1312 Z1.4417
G1 X14.5868 Y-13.0983 Z1.3983
G1 X14.6081 Y-13.0927 Z1.3907
G1 X14.6194 Y-13.0897 Z1.3877
G1 X14.6293 Y-13.0871 Z1.3859
G1 X14.6378 Y-13.0849 Z1.3850
G1 X15.2667 Y-12.9190 Z1.3849
G1 X15.2894 Y-12.9130 Z1.3838
G1 X15.3120 Y-12.9070 Z1.3813
G1 X15.3347 Y-12.9010 Z1.3773
G1 X15.3440 Y-12.8986 Z1.3750
G1 X15.6311 Y-12.8229 Z1.3750
G0 Z1.8850
G0 X15.6311 Y-12.8229 
G0 Z1.8850
G0 X10.6377 Y-14.1407 
G1 X10.6377 Y-14.1407 Z1.8600 F75.
G1 X10.6451 Y-14.1387 Z1.8217 F25.
G1 X10.6660 Y-14.1330 Z1.7893
G1 X10.6973 Y-14.1245 Z1.7676
G1 X10.7342 Y-14.1145 Z1.7600
G1 X12.9364 Y-13.5152 Z1.7599 F75.
G1 X13.0523 Y-13.4836 Z1.7573
G1 X13.0862 Y-13.4744 Z1.7552
G1 X13.1767 Y-13.4498 Z1.7494
G1 X13.2897 Y-13.4190 Z1.7379
G1 X13.3123 Y-13.4129 Z1.7350
G1 X13.4085 Y-13.3867 Z1.7218
G1 X13.5244 Y-13.3552 Z1.7023
G1 X13.6332 Y-13.3255 Z1.6809
G1 X13.7378 Y-13.2971 Z1.6577
G1 X13.8381 Y-13.2698 Z1.6333
G1 X14.0247 Y-13.2190 Z1.5826
G1 X14.0360 Y-13.2159 Z1.5793
G1 X14.1265 Y-13.1913 Z1.5517
G1 X14.2169 Y-13.1667 Z1.5244
G1 X14.3187 Y-13.1390 Z1.4905
G1 X14.3979 Y-13.1174 Z1.4646
G1 X14.4996 Y-13.0898 Z1.4282
G1 X14.5816 Y-13.0674 Z1.3996
G1 X14.6056 Y-13.0609 Z1.3909
G1 X14.6198 Y-13.0571 Z1.3872
G1 X14.6283 Y-13.0547 Z1.3856
G1 X14.6353 Y-13.0528 Z1.3850
G1 X15.2629 Y-12.8820 Z1.3850
G1 X15.2798 Y-12.8774 Z1.3843
G1 X15.3025 Y-12.8713 Z1.3823
G1 X15.3251 Y-12.8651 Z1.3788
G1 X15.3426 Y-12.8603 Z1.3750
G1 X15.6304 Y-12.7820 Z1.3750
G0 Z1.8850
G0 X15.6304 Y-12.7820 
G0 Z1.8850
G0 X10.6379 Y-14.1415 
G1 X10.6379 Y-14.1415 Z1.8600 F75.
G1 X10.6453 Y-14.1394 Z1.8217 F25.
G1 X10.6661 Y-14.1336 Z1.7893
G1 X10.6974 Y-14.1248 Z1.7676
G1 X10.7342 Y-14.1145 Z1.7600
G1 X12.9344 Y-13.4972 Z1.7599 F75.
G1 X13.0473 Y-13.4655 Z1.7574
G1 X13.0642 Y-13.4608 Z1.7567
G1 X13.1714 Y-13.4307 Z1.7498
G1 X13.1827 Y-13.4275 Z1.7488
G1 X13.2955 Y-13.3959 Z1.7373
G1 X13.4083 Y-13.3642 Z1.7219
G1 X13.5212 Y-13.3326 Z1.7031
G1 X13.6340 Y-13.3009 Z1.6809
G1 X13.7384 Y-13.2716 Z1.6579
G1 X13.8371 Y-13.2439 Z1.6339
G1 X14.0289 Y-13.1901 Z1.5818
G1 X14.2207 Y-13.1363 Z1.5234
G1 X14.3561 Y-13.0983 Z1.4782
G1 X14.4012 Y-13.0857 Z1.4634
G1 X14.5366 Y-13.0477 Z1.4148
G1 X14.5761 Y-13.0366 Z1.4010
G1 X14.6043 Y-13.0287 Z1.3908
G1 X14.6170 Y-13.0251 Z1.3873
G1 X14.6269 Y-13.0224 Z1.3855
G1 X14.6325 Y-13.0208 Z1.3850
G1 X15.2588 Y-12.8451 Z1.3850
G1 X15.2700 Y-12.8419 Z1.3848
G1 X15.2926 Y-12.8356 Z1.3832
G1 X15.3152 Y-12.8293 Z1.3803
G1 X15.3377 Y-12.8229 Z1.3760
G1 X15.3416 Y-12.8218 Z1.3750
G1 X15.6306 Y-12.7408 Z1.3750
G0 Z1.8850
G0 X15.6306 Y-12.7408 
G0 Z1.8850
G0 X10.6382 Y-14.1422 
G1 X10.6382 Y-14.1422 Z1.8600 F75.
G1 X10.6455 Y-14.1401 Z1.8217 F25.
G1 X10.6663 Y-14.1341 Z1.7893
G1 X10.6975 Y-14.1251 Z1.7676
G1 X10.7342 Y-14.1144 Z1.7600
G1 X12.9352 Y-13.4784 Z1.7599 F75.
G1 X13.0534 Y-13.4442 Z1.7572
G1 X13.1772 Y-13.4084 Z1.7494
G1 X13.2898 Y-13.3759 Z1.7379
G1 X13.3011 Y-13.3726 Z1.7366
G1 X13.4136 Y-13.3401 Z1.7212
G1 X13.5262 Y-13.3076 Z1.7023
G1 X13.6332 Y-13.2766 Z1.6814
G1 X13.7401 Y-13.2457 Z1.6577
G1 X13.8414 Y-13.2165 Z1.6331
G1 X14.0216 Y-13.1644 Z1.5842
G1 X14.0441 Y-13.1579 Z1.5777
G1 X14.2186 Y-13.1075 Z1.5244
G1 X14.4043 Y-13.0538 Z1.4623
G1 X14.6042 Y-12.9960 Z1.3904
G1 X14.6154 Y-12.9928 Z1.3873
G1 X14.6253 Y-12.9899 Z1.3855
G1 X14.6309 Y-12.9883 Z1.3850
G1 X15.2599 Y-12.8065 Z1.3850
G1 X15.2825 Y-12.8000 Z1.3840
G1 X15.3050 Y-12.7935 Z1.3817
G1 X15.3275 Y-12.7870 Z1.3780
G1 X15.3408 Y-12.7831 Z1.3750
G1 X15.6317 Y-12.6991 Z1.3750
G0 Z1.8850
G0 X15.6317 Y-12.6991 
G0 Z1.8850
G0 X10.6384 Y-14.1429 
G1 X10.6384 Y-14.1429 Z1.8600 F75.
G1 X10.6457 Y-14.1408 Z1.8217 F25.
G1 X10.6664 Y-14.1346 Z1.7893
G1 X10.6975 Y-14.1253 Z1.7676
G1 X10.7342 Y-14.1144 Z1.7600
G1 X12.9357 Y-13.4595 Z1.7599 F75.
G1 X13.0481 Y-13.4261 Z1.7574
G1 X13.0649 Y-13.4211 Z1.7566
G1 X13.1716 Y-13.3893 Z1.7498
G1 X13.1828 Y-13.3860 Z1.7489
G1 X13.2952 Y-13.3526 Z1.7374
G1 X13.4131 Y-13.3175 Z1.7214
G1 X13.5254 Y-13.2841 Z1.7026
G1 X13.6364 Y-13.2511 Z1.6809
G1 X13.7417 Y-13.2197 Z1.6577
G1 X13.8399 Y-13.1905 Z1.6339
G1 X14.0365 Y-13.1320 Z1.5804
G1 X14.2218 Y-13.0769 Z1.5237
G1 X14.4072 Y-13.0218 Z1.4616
G1 X14.4521 Y-13.0084 Z1.4450
G1 X14.6051 Y-12.9629 Z1.3898
G1 X14.6150 Y-12.9600 Z1.3870
G1 X14.6234 Y-12.9574 Z1.3855
G1 X14.6290 Y-12.9558 Z1.3850
G1 X15.2608 Y-12.7678 Z1.3850
G1 X15.2720 Y-12.7645 Z1.3846
G1 X15.2945 Y-12.7578 Z1.3830
G1 X15.3170 Y-12.7511 Z1.3799
G1 X15.3394 Y-12.7444 Z1.3755
G1 X15.3414 Y-12.7438 Z1.3750
G1 X15.6332 Y-12.6570 Z1.3750
G0 Z1.8850
G0 X15.6332 Y-12.6570 
G0 Z1.8850
G0 X10.6386 Y-14.1437 
G1 X10.6386 Y-14.1437 Z1.8600 F75.
G1 X10.6459 Y-14.1414 Z1.8217 F25.
G1 X10.6666 Y-14.1351 Z1.7893
G1 X10.6976 Y-14.1256 Z1.7676
G1 X10.7342 Y-14.1144 Z1.7600
G1 X12.9334 Y-13.4414 Z1.7600 F75.
G1 X13.0426 Y-13.4080 Z1.7575
G1 X13.0650 Y-13.4012 Z1.7566
G1 X13.1771 Y-13.3669 Z1.7494
G1 X13.2947 Y-13.3309 Z1.7375
G1 X13.4124 Y-13.2948 Z1.7216
G1 X13.5133 Y-13.2640 Z1.7049
G1 X13.5357 Y-13.2571 Z1.7008
G1 X13.6365 Y-13.2263 Z1.6812
G1 X13.7430 Y-13.1937 Z1.6577
G1 X13.8438 Y-13.1628 Z1.6332
G1 X14.0343 Y-13.1045 Z1.5815
G1 X14.2192 Y-13.0479 Z1.5251
G1 X14.2304 Y-13.0445 Z1.5215
G1 X14.2977 Y-13.0239 Z1.4986
G1 X14.3985 Y-12.9931 Z1.4650
G1 X14.4097 Y-12.9897 Z1.4610
G1 X14.4994 Y-12.9622 Z1.4279
G1 X14.6044 Y-12.9301 Z1.3898
G1 X14.6156 Y-12.9266 Z1.3867
G1 X14.6226 Y-12.9245 Z1.3854
G1 X14.6282 Y-12.9228 Z1.3850
G1 X15.2614 Y-12.7290 Z1.3850
G1 X15.2838 Y-12.7222 Z1.3839
G1 X15.3062 Y-12.7153 Z1.3816
G1 X15.3286 Y-12.7085 Z1.3779
G1 X15.3416 Y-12.7045 Z1.3750
G1 X15.6363 Y-12.6143 Z1.3750
G0 Z1.8850
G0 X15.6363 Y-12.6143 
G0 Z1.8850
G0 X10.6388 Y-14.1444 
G1 X10.6388 Y-14.1444 Z1.8600 F75.
G1 X10.6461 Y-14.1421 Z1.8217 F25.
G1 X10.6668 Y-14.1356 Z1.7893
G1 X10.6977 Y-14.1259 Z1.7676
G1 X10.7342 Y-14.1144 Z1.7600
G1 X12.9252 Y-13.4251 Z1.7600 F75.
G1 X13.0482 Y-13.3865 Z1.7574
G1 X13.0594 Y-13.3829 Z1.7569
G1 X13.1712 Y-13.3478 Z1.7498
G1 X13.1879 Y-13.3425 Z1.7484
G1 X13.2941 Y-13.3091 Z1.7376
G1 X13.4115 Y-13.2722 Z1.7218
G1 X13.5233 Y-13.2370 Z1.7033
G1 X13.6379 Y-13.2010 Z1.6811
G1 X13.7441 Y-13.1676 Z1.6578
G1 X13.8475 Y-13.1350 Z1.6327
G1 X14.0375 Y-13.0752 Z1.5812
G1 X14.2275 Y-13.0155 Z1.5230
G1 X14.3561 Y-12.9750 Z1.4794
G1 X14.4064 Y-12.9592 Z1.4626
G1 X14.5350 Y-12.9187 Z1.4150
G1 X14.5797 Y-12.9047 Z1.3989
G1 X14.6034 Y-12.8972 Z1.3900
G1 X14.6160 Y-12.8933 Z1.3865
G1 X14.6230 Y-12.8911 Z1.3852
G1 X14.6272 Y-12.8897 Z1.3850
G1 X15.2616 Y-12.6902 Z1.3850
G1 X15.2727 Y-12.6867 Z1.3847
G1 X15.2951 Y-12.6796 Z1.3831
G1 X15.3175 Y-12.6726 Z1.3802
G1 X15.3398 Y-12.6656 Z1.3759
G1 X15.3434 Y-12.6644 Z1.3750
G1 X15.6398 Y-12.5712 Z1.3750
G0 Z1.8850
G0 X15.6398 Y-12.5712 
G0 Z1.8850
G0 X10.6390 Y-14.1451 
G1 X10.6390 Y-14.1451 Z1.8600 F75.
G1 X10.6463 Y-14.1428 Z1.8217 F25.
G1 X10.6669 Y-14.1361 Z1.7893
G1 X10.6978 Y-14.1262 Z1.7676
G1 X10.7342 Y-14.1144 Z1.7600
G1 X12.9198 Y-13.4080 Z1.7600 F75.
G1 X12.9421 Y-13.4008 Z1.7598
G1 X13.0536 Y-13.3648 Z1.7572
G1 X13.1762 Y-13.3251 Z1.7495
G1 X13.2989 Y-13.2855 Z1.7371
G1 X13.4160 Y-13.2477 Z1.7213
G1 X13.5275 Y-13.2116 Z1.7028
G1 X13.6390 Y-13.1756 Z1.6811
G1 X13.7449 Y-13.1413 Z1.6580
G1 X13.8341 Y-13.1125 Z1.6364
G1 X13.8564 Y-13.1053 Z1.6308
G1 X14.0349 Y-13.0476 Z1.5824
G1 X14.0516 Y-13.0422 Z1.5775
G1 X14.2300 Y-12.9846 Z1.5227
G1 X14.4084 Y-12.9269 Z1.4622
G1 X14.6063 Y-12.8629 Z1.3890
G1 X14.6147 Y-12.8602 Z1.3867
G1 X14.6217 Y-12.8580 Z1.3853
G1 X14.6258 Y-12.8566 Z1.3850
G1 X15.2614 Y-12.6512 Z1.3850
G1 X15.2837 Y-12.6440 Z1.3842
G1 X15.3060 Y-12.6368 Z1.3820
G1 X15.3283 Y-12.6296 Z1.3786
G1 X15.3454 Y-12.6241 Z1.3750
G1 X15.6443 Y-12.5275 Z1.3750
G0 Z1.8850
G0 X15.6443 Y-12.5275 
G0 Z1.8850
G0 X10.6393 Y-14.1459 
G1 X10.6393 Y-14.1459 Z1.8600 F75.
G1 X10.6465 Y-14.1435 Z1.8217 F25.
G1 X10.6671 Y-14.1366 Z1.7893
G1 X10.6979 Y-14.1264 Z1.7676
G1 X10.7342 Y-14.1144 Z1.7600
G1 X12.9336 Y-13.3845 Z1.7599 F75.
G1 X13.0476 Y-13.3467 Z1.7574
G1 X13.0643 Y-13.3411 Z1.7566
G1 X13.1700 Y-13.3061 Z1.7499
G1 X13.1867 Y-13.3005 Z1.7485
G1 X13.2923 Y-13.2655 Z1.7379
G1 X13.3146 Y-13.2581 Z1.7351
G1 X13.4147 Y-13.2249 Z1.7216
G1 X13.5259 Y-13.1880 Z1.7032
G1 X13.6399 Y-13.1501 Z1.6812
G1 X13.7372 Y-13.1178 Z1.6601
G1 X13.8485 Y-13.0809 Z1.6334
G1 X14.0375 Y-13.0182 Z1.5822
G1 X14.0487 Y-13.0145 Z1.5790
G1 X14.2266 Y-12.9554 Z1.5244
G1 X14.4101 Y-12.8945 Z1.4622
G1 X14.4713 Y-12.8742 Z1.4393
G1 X14.6089 Y-12.8286 Z1.3884
G1 X14.6173 Y-12.8258 Z1.3860
G1 X14.6228 Y-12.8239 Z1.3851
G1 X14.6270 Y-12.8226 Z1.3850
G1 X15.2610 Y-12.6122 Z1.3850
G1 X15.2721 Y-12.6085 Z1.3848
G1 X15.2944 Y-12.6011 Z1.3835
G1 X15.3166 Y-12.5937 Z1.3810
G1 X15.3388 Y-12.5863 Z1.3772
G1 X15.3481 Y-12.5833 Z1.3750
G1 X15.6501 Y-12.4831 Z1.3750
G0 Z1.8850
G0 X15.6501 Y-12.4831 
G0 Z1.8850
G0 X10.6395 Y-14.1466 
G1 X10.6395 Y-14.1466 Z1.8600 F75.
G1 X10.6467 Y-14.1441 Z1.8217 F25.
G1 X10.6673 Y-14.1371 Z1.7893
G1 X10.6980 Y-14.1267 Z1.7676
G1 X10.7342 Y-14.1144 Z1.7600
G1 X12.9334 Y-13.3654 Z1.7599 F75.
G1 X13.0527 Y-13.3248 Z1.7573
G1 X13.1747 Y-13.2833 Z1.7496
G1 X13.2967 Y-13.2417 Z1.7375
G1 X13.4132 Y-13.2020 Z1.7219
G1 X13.5297 Y-13.1624 Z1.7028
G1 X13.6420 Y-13.1241 Z1.6811
G1 X13.7488 Y-13.0878 Z1.6578
G1 X13.8514 Y-13.0528 Z1.6331
G1 X14.0400 Y-12.9886 Z1.5821
G1 X14.0621 Y-12.9810 Z1.5755
G1 X14.2285 Y-12.9244 Z1.5246
G1 X14.2396 Y-12.9206 Z1.5209
G1 X14.4116 Y-12.8620 Z1.4625
G1 X14.5059 Y-12.8299 Z1.4270
G1 X14.6099 Y-12.7945 Z1.3883
G1 X14.6182 Y-12.7917 Z1.3860
G1 X14.6237 Y-12.7898 Z1.3850
G1 X15.2713 Y-12.5693 Z1.3849
G1 X15.2824 Y-12.5655 Z1.3845
G1 X15.3046 Y-12.5579 Z1.3828
G1 X15.3268 Y-12.5504 Z1.3799
G1 X15.3489 Y-12.5428 Z1.3758
G1 X15.3520 Y-12.5418 Z1.3750
G1 X15.6566 Y-12.4381 Z1.3750
G0 Z1.8850
G0 X15.6566 Y-12.4381 
G0 Z1.8850
G0 X10.6398 Y-14.1473 
G1 X10.6398 Y-14.1473 Z1.8600 F75.
G1 X10.6470 Y-14.1448 Z1.8217 F25.
G1 X10.6674 Y-14.1377 Z1.7893
G1 X10.6981 Y-14.1270 Z1.7676
G1 X10.7342 Y-14.1143 Z1.7600
G1 X12.9330 Y-13.3463 Z1.7599 F75.
G1 X13.0464 Y-13.3067 Z1.7575
G1 X13.0630 Y-13.3009 Z1.7567
G1 X13.1792 Y-13.2603 Z1.7493
G1 X13.2953 Y-13.2198 Z1.7377
G1 X13.3894 Y-13.1869 Z1.7252
G1 X13.4198 Y-13.1763 Z1.7210
G1 X13.5277 Y-13.1386 Z1.7033
G1 X13.6383 Y-13.1000 Z1.6822
G1 X13.7489 Y-13.0613 Z1.6581
G1 X13.8540 Y-13.0246 Z1.6329
G1 X14.0421 Y-12.9589 Z1.5822
G1 X14.0587 Y-12.9531 Z1.5773
G1 X14.2302 Y-12.8932 Z1.5248
G1 X14.2468 Y-12.8874 Z1.5194
G1 X14.4183 Y-12.8275 Z1.4608
G1 X14.5510 Y-12.7812 Z1.4106
G1 X14.5842 Y-12.7696 Z1.3984
G1 X14.6063 Y-12.7618 Z1.3899
G1 X14.6105 Y-12.7604 Z1.3884
G1 X14.6188 Y-12.7575 Z1.3860
G1 X14.6243 Y-12.7556 Z1.3850
G1 X15.2701 Y-12.5300 Z1.3850
G1 X15.2923 Y-12.5223 Z1.3842
G1 X15.3144 Y-12.5145 Z1.3822
G1 X15.3365 Y-12.5068 Z1.3790
G1 X15.3571 Y-12.4996 Z1.3750
G1 X15.6646 Y-12.3922 Z1.3750
G0 Z1.8850
G0 X15.6646 Y-12.3922 
G0 Z1.8850
G0 X10.6400 Y-14.1480 
G1 X10.6400 Y-14.1480 Z1.8600 F75.
G1 X10.6472 Y-14.1455 Z1.8217 F25.
G1 X10.6676 Y-14.1382 Z1.7893
G1 X10.6982 Y-14.1272 Z1.7676
G1 X10.7342 Y-14.1143 Z1.7600
G1 X12.9187 Y-13.3321 Z1.7600 F75.
G1 X12.9407 Y-13.3242 Z1.7597
G1 X13.0511 Y-13.2847 Z1.7573
G1 X13.1724 Y-13.2412 Z1.7498
G1 X13.1835 Y-13.2373 Z1.7489
G1 X13.2938 Y-13.1978 Z1.7379
G1 X13.3158 Y-13.1899 Z1.7351
G1 X13.4041 Y-13.1583 Z1.7234
G1 X13.4262 Y-13.1504 Z1.7201
G1 X13.5310 Y-13.1128 Z1.7029
G1 X13.6441 Y-13.0723 Z1.6813
G1 X13.7516 Y-13.0338 Z1.6579
G1 X13.8565 Y-12.9963 Z1.6328
G1 X14.0440 Y-12.9291 Z1.5824
G1 X14.0606 Y-12.9232 Z1.5776
G1 X14.2371 Y-12.8600 Z1.5235
G1 X14.4191 Y-12.7948 Z1.4613
G1 X14.6067 Y-12.7277 Z1.3905
G1 X14.6150 Y-12.7247 Z1.3874
G1 X14.6205 Y-12.7227 Z1.3858
G1 X14.6253 Y-12.7210 Z1.3850
G1 X15.2797 Y-12.4867 Z1.3849
G1 X15.3017 Y-12.4788 Z1.3839
G1 X15.3238 Y-12.4709 Z1.3816
G1 X15.3458 Y-12.4630 Z1.3783
G1 X15.3614 Y-12.4574 Z1.3750
G1 X15.6735 Y-12.3456 Z1.3750
G0 Z1.8850
G0 X15.6735 Y-12.3456 
G0 Z1.8850
G0 X10.6403 Y-14.1488 
G1 X10.6403 Y-14.1488 Z1.8600 F75.
G1 X10.6474 Y-14.1461 Z1.8217 F25.
G1 X10.6678 Y-14.1387 Z1.7893
G1 X10.6983 Y-14.1275 Z1.7676
G1 X10.7342 Y-14.1143 Z1.7600
G1 X12.9235 Y-13.3110 Z1.7600 F75.
G1 X12.9345 Y-13.3070 Z1.7599
G1 X13.0500 Y-13.2646 Z1.7573
G1 X13.0665 Y-13.2585 Z1.7565
G1 X13.1765 Y-13.2182 Z1.7495
G1 X13.2975 Y-13.1738 Z1.7376
G1 X13.4186 Y-13.1294 Z1.7215
G1 X13.5341 Y-13.0870 Z1.7026
G1 X13.6441 Y-13.0466 Z1.6816
G1 X13.7486 Y-13.0082 Z1.6591
G1 X13.8586 Y-12.9679 Z1.6328
G1 X14.0511 Y-12.8972 Z1.5811
G1 X14.2382 Y-12.8286 Z1.5240
G1 X14.2547 Y-12.8226 Z1.5185
G1 X14.4197 Y-12.7620 Z1.4621
G1 X14.4307 Y-12.7580 Z1.4581
G1 X14.4747 Y-12.7418 Z1.4412
G1 X14.6163 Y-12.6899 Z1.3876
G1 X14.6253 Y-12.6866 Z1.3851
G1 X15.2778 Y-12.4471 Z1.3850
G1 X15.2888 Y-12.4431 Z1.3848
G1 X15.3108 Y-12.4350 Z1.3836
G1 X15.3328 Y-12.4270 Z1.3812
G1 X15.3548 Y-12.4189 Z1.3777
G1 X15.3674 Y-12.4143 Z1.3750
G1 X15.6831 Y-12.2984 Z1.3750
G0 Z1.8850
G0 X15.6831 Y-12.2984 
G0 Z1.8850
G0 X10.6406 Y-14.1495 
G1 X10.6406 Y-14.1495 Z1.8600 F75.
G1 X10.6477 Y-14.1468 Z1.8217 F25.
G1 X10.6680 Y-14.1392 Z1.7893
G1 X10.6984 Y-14.1278 Z1.7676
G1 X10.7342 Y-14.1143 Z1.7600
G1 X12.9322 Y-13.2882 Z1.7599 F75.
G1 X13.0488 Y-13.2444 Z1.7574
G1 X13.0597 Y-13.2403 Z1.7569
G1 X13.1749 Y-13.1970 Z1.7497
G1 X13.1914 Y-13.1908 Z1.7482
G1 X13.3011 Y-13.1496 Z1.7372
G1 X13.4108 Y-13.1084 Z1.7227
G1 X13.4327 Y-13.1001 Z1.7193
G1 X13.5205 Y-13.0672 Z1.7051
G1 X13.5424 Y-13.0589 Z1.7012
G1 X13.6466 Y-13.0198 Z1.6814
G1 X13.7399 Y-12.9847 Z1.6614
G1 X13.7618 Y-12.9765 Z1.6564
G1 X13.8605 Y-12.9394 Z1.6329
G1 X14.0525 Y-12.8672 Z1.5815
G1 X14.0689 Y-12.8610 Z1.5766
G1 X14.2445 Y-12.7951 Z1.5230
G1 X14.4255 Y-12.7271 Z1.4612
G1 X14.5297 Y-12.6879 Z1.4214
G1 X14.6188 Y-12.6544 Z1.3875
G1 X14.6270 Y-12.6513 Z1.3852
G1 X14.6284 Y-12.6508 Z1.3850
G1 X15.2866 Y-12.4034 Z1.3850
G1 X15.2976 Y-12.3993 Z1.3847
G1 X15.3195 Y-12.3911 Z1.3834
G1 X15.3414 Y-12.3828 Z1.3809
G1 X15.3634 Y-12.3746 Z1.3774
G1 X15.3745 Y-12.3704 Z1.3750
G1 X15.6944 Y-12.2502 Z1.3750
G0 Z1.8850
G0 X15.6944 Y-12.2502 
G0 Z1.8850
G0 X10.6408 Y-14.1502 
G1 X10.6408 Y-14.1502 Z1.8600 F75.
G1 X10.6479 Y-14.1475 Z1.8217 F25.
G1 X10.6682 Y-14.1397 Z1.7893
G1 X10.6985 Y-14.1280 Z1.7676
G1 X10.7342 Y-14.1143 Z1.7600
G1 X12.9325 Y-13.2684 Z1.7599 F75.
G1 X13.0528 Y-13.2221 Z1.7572
G1 X13.1731 Y-13.1759 Z1.7498
G1 X13.1841 Y-13.1717 Z1.7489
G1 X13.2935 Y-13.1296 Z1.7381
G1 X13.3099 Y-13.1233 Z1.7361
G1 X13.4192 Y-13.0812 Z1.7216
G1 X13.5341 Y-13.0370 Z1.7030
G1 X13.6216 Y-13.0033 Z1.6865
G1 X13.6653 Y-12.9865 Z1.6777
G1 X13.7569 Y-12.9512 Z1.6580
G1 X13.8622 Y-12.9107 Z1.6331
G1 X14.0590 Y-12.8350 Z1.5804
G1 X14.2450 Y-12.7635 Z1.5239
G1 X14.2559 Y-12.7592 Z1.5204
G1 X14.4309 Y-12.6919 Z1.4604
G1 X14.6223 Y-12.6183 Z1.3872
G1 X14.6298 Y-12.6154 Z1.3851
G1 X15.2949 Y-12.3595 Z1.3850
G1 X15.3059 Y-12.3553 Z1.3847
G1 X15.3278 Y-12.3468 Z1.3833
G1 X15.3496 Y-12.3384 Z1.3809
G1 X15.3715 Y-12.3300 Z1.3773
G1 X15.3822 Y-12.3259 Z1.3750
G1 X15.7072 Y-12.2008 Z1.3750
G0 Z1.8850
G0 X15.7072 Y-12.2008 
G0 Z1.8850
G0 X10.6411 Y-14.1509 
G1 X10.6411 Y-14.1509 Z1.8600 F75.
G1 X10.6482 Y-14.1481 Z1.8217 F25.
G1 X10.6684 Y-14.1402 Z1.7893
G1 X10.6986 Y-14.1283 Z1.7676
G1 X10.7342 Y-14.1143 Z1.7600
G1 X12.9313 Y-13.2491 Z1.7599 F75.
G1 X13.0458 Y-13.2040 Z1.7575
G1 X13.0621 Y-13.1976 Z1.7567
G1 X13.1766 Y-13.1525 Z1.7496
G1 X13.3020 Y-13.1031 Z1.7372
G1 X13.4220 Y-13.0559 Z1.7214
G1 X13.5365 Y-13.0108 Z1.7028
G1 X13.6346 Y-12.9722 Z1.6843
G1 X13.6564 Y-12.9636 Z1.6800
G1 X13.7586 Y-12.9234 Z1.6581
G1 X13.8636 Y-12.8820 Z1.6333
G1 X14.0598 Y-12.8047 Z1.5811
G1 X14.2507 Y-12.7296 Z1.5232
G1 X14.2670 Y-12.7232 Z1.5178
G1 X14.4306 Y-12.6588 Z1.4617
G1 X14.4415 Y-12.6545 Z1.4577
G1 X14.5941 Y-12.5944 Z1.3992
G1 X14.6282 Y-12.5809 Z1.3864
G1 X14.6330 Y-12.5791 Z1.3850
G1 X15.3029 Y-12.3153 Z1.3850
G1 X15.3138 Y-12.3110 Z1.3847
G1 X15.3356 Y-12.3024 Z1.3833
G1 X15.3574 Y-12.2938 Z1.3810
G1 X15.3792 Y-12.2852 Z1.3775
G1 X15.3913 Y-12.2805 Z1.3750
G1 X15.7209 Y-12.1507 Z1.3750
G0 Z1.8850
G0 X15.7209 Y-12.1507 
G0 Z1.8850
G0 X10.6414 Y-14.1516 
G1 X10.6414 Y-14.1516 Z1.8600 F75.
G1 X10.6485 Y-14.1488 Z1.8217 F25.
G1 X10.6686 Y-14.1407 Z1.7893
G1 X10.6987 Y-14.1286 Z1.7676
G1 X10.7342 Y-14.1143 Z1.7600
G1 X12.9299 Y-13.2298 Z1.7599 F75.
G1 X13.0495 Y-13.1816 Z1.7573
G1 X13.0821 Y-13.1685 Z1.7555
G1 X13.1799 Y-13.1291 Z1.7493
G1 X13.2995 Y-13.0809 Z1.7376
G1 X13.4190 Y-13.0327 Z1.7219
G1 X13.5386 Y-12.9846 Z1.7027
G1 X13.6514 Y-12.9391 Z1.6814
G1 X13.7343 Y-12.9058 Z1.6638
G1 X13.7778 Y-12.8882 Z1.6541
G1 X13.8647 Y-12.8532 Z1.6336
G1 X14.0604 Y-12.7744 Z1.5819
G1 X14.0821 Y-12.7656 Z1.5755
G1 X14.2560 Y-12.6956 Z1.5227
G1 X14.4408 Y-12.6212 Z1.4595
G1 X14.6311 Y-12.5445 Z1.3866
G1 X14.6365 Y-12.5423 Z1.3850
G1 X15.3104 Y-12.2709 Z1.3850
G1 X15.3213 Y-12.2665 Z1.3847
G1 X15.3430 Y-12.2577 Z1.3835
G1 X15.3648 Y-12.2490 Z1.3812
G1 X15.3865 Y-12.2402 Z1.3779
G1 X15.4010 Y-12.2344 Z1.3750
G1 X15.7349 Y-12.0999 Z1.3750
G0 Z1.8850
G0 X15.7349 Y-12.0999 
G0 Z1.8850
G0 X10.6417 Y-14.1523 
G1 X10.6417 Y-14.1523 Z1.8600 F75.
G1 X10.6487 Y-14.1494 Z1.8217 F25.
G1 X10.6688 Y-14.1412 Z1.7893
G1 X10.6988 Y-14.1288 Z1.7676
G1 X10.7341 Y-14.1142 Z1.7600
G1 X12.9310 Y-13.2093 Z1.7599 F75.
G1 X13.0529 Y-13.1591 Z1.7572
G1 X13.1721 Y-13.1100 Z1.7499
G1 X13.1884 Y-13.1033 Z1.7485
G1 X13.3022 Y-13.0564 Z1.7373
G1 X13.4213 Y-13.0073 Z1.7217
G1 X13.5351 Y-12.9604 Z1.7035
G1 X13.6381 Y-12.9180 Z1.6843
G1 X13.6597 Y-12.9091 Z1.6800
G1 X13.7627 Y-12.8667 Z1.6582
G1 X13.8548 Y-12.8288 Z1.6366
G1 X13.8764 Y-12.8198 Z1.6313
G1 X14.0661 Y-12.7417 Z1.5813
G1 X14.2557 Y-12.6636 Z1.5240
G1 X14.2719 Y-12.6569 Z1.5187
G1 X14.4399 Y-12.5878 Z1.4615
G1 X14.4561 Y-12.5811 Z1.4555
G1 X14.5482 Y-12.5431 Z1.4199
G1 X14.6349 Y-12.5074 Z1.3866
G1 X14.6403 Y-12.5052 Z1.3850
G1 X15.3175 Y-12.2262 Z1.3850
G1 X15.3284 Y-12.2218 Z1.3848
G1 X15.3501 Y-12.2128 Z1.3837
G1 X15.3717 Y-12.2039 Z1.3816
G1 X15.3934 Y-12.1950 Z1.3786
G1 X15.4122 Y-12.1872 Z1.3750
G1 X15.7507 Y-12.0478 Z1.3750
G0 Z1.8850
G0 X15.7507 Y-12.0478 
G0 Z1.8850
G0 X10.6420 Y-14.1530 
G1 X10.6420 Y-14.1530 Z1.8600 F75.
G1 X10.6490 Y-14.1501 Z1.8217 F25.
G1 X10.6690 Y-14.1417 Z1.7893
G1 X10.6989 Y-14.1291 Z1.7676
G1 X10.7341 Y-14.1142 Z1.7600
G1 X12.9293 Y-13.1899 Z1.7599 F75.
G1 X13.0454 Y-13.1410 Z1.7574
G1 X13.0616 Y-13.1341 Z1.7567
G1 X13.1750 Y-13.0864 Z1.7497
G1 X13.1966 Y-13.0773 Z1.7477
G1 X13.2992 Y-13.0341 Z1.7377
G1 X13.4234 Y-12.9818 Z1.7216
G1 X13.5368 Y-12.9340 Z1.7034
G1 X13.6502 Y-12.8863 Z1.6824
G1 X13.7650 Y-12.8380 Z1.6582
G1 X13.8716 Y-12.7930 Z1.6333
G1 X14.0606 Y-12.7135 Z1.5836
G1 X14.0822 Y-12.7044 Z1.5775
G1 X14.2550 Y-12.6316 Z1.5255
G1 X14.2766 Y-12.6225 Z1.5186
G1 X14.4494 Y-12.5497 Z1.4597
G1 X14.6114 Y-12.4815 Z1.3974
G1 X14.6425 Y-12.4684 Z1.3856
G1 X14.6445 Y-12.4676 Z1.3850
G1 X15.3350 Y-12.1768 Z1.3849
G1 X15.3566 Y-12.1677 Z1.3840
G1 X15.3782 Y-12.1586 Z1.3821
G1 X15.3998 Y-12.1495 Z1.3793
G1 X15.4214 Y-12.1404 Z1.3756
G1 X15.4243 Y-12.1392 Z1.3750
G1 X15.7678 Y-11.9946 Z1.3750
G0 Z1.8850
G0 X15.7678 Y-11.9946 
G0 Z1.8850
G0 X10.6423 Y-14.1537 
G1 X10.6423 Y-14.1537 Z1.8600 F75.
G1 X10.6493 Y-14.1507 Z1.8217 F25.
G1 X10.6692 Y-14.1422 Z1.7893
G1 X10.6990 Y-14.1293 Z1.7676
G1 X10.7341 Y-14.1142 Z1.7600
G1 X12.9301 Y-13.1692 Z1.7599 F75.
G1 X13.0485 Y-13.1183 Z1.7574
G1 X13.0592 Y-13.1137 Z1.7568
G1 X13.1776 Y-13.0627 Z1.7495
G1 X13.2961 Y-13.0117 Z1.7381
G1 X13.3176 Y-13.0025 Z1.7355
G1 X13.4198 Y-12.9585 Z1.7222
G1 X13.5329 Y-12.9098 Z1.7043
G1 X13.5544 Y-12.9006 Z1.7005
G1 X13.6540 Y-12.8577 Z1.6820
G1 X13.7643 Y-12.8102 Z1.6588
G1 X13.8666 Y-12.7662 Z1.6352
G1 X13.8773 Y-12.7616 Z1.6325
G1 X14.0711 Y-12.6782 Z1.5818
G1 X14.0926 Y-12.6690 Z1.5755
G1 X14.2649 Y-12.5948 Z1.5239
G1 X14.2810 Y-12.5879 Z1.5187
G1 X14.4478 Y-12.5161 Z1.4619
G1 X14.4653 Y-12.5086 Z1.4555
G1 X14.6477 Y-12.4301 Z1.3856
G1 X14.6497 Y-12.4292 Z1.3850
G1 X15.3413 Y-12.1316 Z1.3850
G1 X15.3628 Y-12.1224 Z1.3844
G1 X15.3843 Y-12.1131 Z1.3828
G1 X15.4059 Y-12.1038 Z1.3804
G1 X15.4274 Y-12.0946 Z1.3770
G1 X15.4374 Y-12.0903 Z1.3750
G1 X15.7849 Y-11.9407 Z1.3750
G0 Z1.8850
G0 X15.7849 Y-11.9407 
G0 Z1.8850
G0 X10.6426 Y-14.1544 
G1 X10.6426 Y-14.1544 Z1.8600 F75.
G1 X10.6496 Y-14.1514 Z1.8217 F25.
G1 X10.6694 Y-14.1427 Z1.7893
G1 X10.6991 Y-14.1296 Z1.7676
G1 X10.7341 Y-14.1142 Z1.7600
G1 X12.9293 Y-13.1491 Z1.7599 F75.
G1 X13.0513 Y-13.0955 Z1.7572
G1 X13.1801 Y-13.0389 Z1.7494
G1 X13.2981 Y-12.9870 Z1.7379
G1 X13.3088 Y-12.9823 Z1.7367
G1 X13.4161 Y-12.9351 Z1.7228
G1 X13.4375 Y-12.9257 Z1.7196
G1 X13.5341 Y-12.8833 Z1.7044
G1 X13.5663 Y-12.8691 Z1.6985
G1 X13.6575 Y-12.8290 Z1.6816
G1 X13.7674 Y-12.7807 Z1.6586
G1 X13.8720 Y-12.7347 Z1.6346
G1 X14.0759 Y-12.6451 Z1.5816
G1 X14.1027 Y-12.6333 Z1.5737
G1 X14.2743 Y-12.5579 Z1.5224
G1 X14.4567 Y-12.4777 Z1.4608
G1 X14.4728 Y-12.4706 Z1.4549
G1 X14.6525 Y-12.3916 Z1.3858
G1 X14.6552 Y-12.3904 Z1.3850
G1 X15.3578 Y-12.0815 Z1.3849
G1 X15.3686 Y-12.0768 Z1.3847
G1 X15.3900 Y-12.0674 Z1.3835
G1 X15.4115 Y-12.0579 Z1.3814
G1 X15.4329 Y-12.0485 Z1.3784
G1 X15.4513 Y-12.0404 Z1.3750
G1 X15.8047 Y-11.8851 Z1.3750
G0 Z1.8850
G0 X15.8047 Y-11.8851 
G0 Z1.8850
G0 X10.6429 Y-14.1551 
G1 X10.6429 Y-14.1551 Z1.8600 F75.
G1 X10.6498 Y-14.1520 Z1.8217 F25.
G1 X10.6696 Y-14.1431 Z1.7893
G1 X10.6992 Y-14.1299 Z1.7676
G1 X10.7341 Y-14.1142 Z1.7600
G1 X12.9284 Y-13.1290 Z1.7599 F75.
G1 X13.0433 Y-13.0774 Z1.7575
G1 X13.0593 Y-13.0702 Z1.7568
G1 X13.1716 Y-13.0198 Z1.7500
G1 X13.1876 Y-13.0126 Z1.7487
G1 X13.2999 Y-12.9622 Z1.7378
G1 X13.4175 Y-12.9094 Z1.7228
G1 X13.4282 Y-12.9046 Z1.7213
G1 X13.5351 Y-12.8566 Z1.7044
G1 X13.5565 Y-12.8470 Z1.7006
G1 X13.6594 Y-12.8008 Z1.6817
G1 X13.7703 Y-12.7510 Z1.6586
G1 X13.8799 Y-12.7018 Z1.6334
G1 X14.0803 Y-12.6118 Z1.5815
G1 X14.2727 Y-12.5254 Z1.5244
G1 X14.2888 Y-12.5182 Z1.5193
G1 X14.4652 Y-12.4390 Z1.4599
G1 X14.4865 Y-12.4294 Z1.4518
G1 X14.6609 Y-12.3511 Z1.3850
G1 X15.3739 Y-12.0310 Z1.3849
G1 X15.3953 Y-12.0214 Z1.3841
G1 X15.4166 Y-12.0118 Z1.3823
G1 X15.4380 Y-12.0022 Z1.3797
G1 X15.4594 Y-11.9926 Z1.3762
G1 X15.4655 Y-11.9899 Z1.3750
G1 X15.8248 Y-11.8286 Z1.3750
G0 Z1.8850
G0 X15.8248 Y-11.8286 
G0 Z1.8850
G0 X10.6432 Y-14.1558 
G1 X10.6432 Y-14.1558 Z1.8600 F75.
G1 X10.6501 Y-14.1527 Z1.8217 F25.
G1 X10.6698 Y-14.1436 Z1.7893
G1 X10.6993 Y-14.1301 Z1.7676
G1 X10.7341 Y-14.1142 Z1.7600
G1 X12.9286 Y-13.1082 Z1.7599 F75.
G1 X13.0458 Y-13.0545 Z1.7574
G1 X13.0671 Y-13.0447 Z1.7563
G1 X13.1736 Y-12.9959 Z1.7499
G1 X13.1843 Y-12.9910 Z1.7490
G1 X13.3014 Y-12.9373 Z1.7377
G1 X13.4186 Y-12.8836 Z1.7228
G1 X13.5411 Y-12.8274 Z1.7037
G1 X13.6610 Y-12.7725 Z1.6817
G1 X13.7622 Y-12.7261 Z1.6609
G1 X13.7808 Y-12.7175 Z1.6568
G1 X13.8820 Y-12.6712 Z1.6336
G1 X14.0791 Y-12.5808 Z1.5829
G1 X14.0951 Y-12.5735 Z1.5784
G1 X14.2815 Y-12.4880 Z1.5234
G1 X14.3028 Y-12.4783 Z1.5164
G1 X14.4733 Y-12.4001 Z1.4591
G1 X14.4839 Y-12.3952 Z1.4552
G1 X14.6370 Y-12.3251 Z1.3965
G1 X14.6677 Y-12.3110 Z1.3850
G1 X15.3787 Y-11.9851 Z1.3850
G1 X15.4001 Y-11.9753 Z1.3845
G1 X15.4214 Y-11.9655 Z1.3833
G1 X15.4427 Y-11.9558 Z1.3812
G1 X15.4640 Y-11.9460 Z1.3783
G1 X15.4825 Y-11.9375 Z1.3750
G1 X15.8458 Y-11.7710 Z1.3750
G0 Z1.8850
G0 X15.8458 Y-11.7710 
G0 Z1.8850
G0 X10.6435 Y-14.1565 
G1 X10.6435 Y-14.1565 Z1.8600 F75.
G1 X10.6504 Y-14.1533 Z1.8217 F25.
G1 X10.6701 Y-14.1441 Z1.7893
G1 X10.6995 Y-14.1304 Z1.7676
G1 X10.7341 Y-14.1142 Z1.7600
G1 X12.9273 Y-13.0880 Z1.7599 F75.
G1 X13.0480 Y-13.0315 Z1.7573
G1 X13.0693 Y-13.0215 Z1.7562
G1 X13.1754 Y-12.9719 Z1.7497
G1 X13.1966 Y-12.9620 Z1.7478
G1 X13.3028 Y-12.9123 Z1.7376
G1 X13.4195 Y-12.8577 Z1.7228
G1 X13.4514 Y-12.8428 Z1.7180
G1 X13.5469 Y-12.7981 Z1.7029
G1 X13.6584 Y-12.7459 Z1.6827
G1 X13.7751 Y-12.6913 Z1.6587
G1 X13.8760 Y-12.6441 Z1.6358
G1 X13.8972 Y-12.6342 Z1.6306
G1 X14.0882 Y-12.5448 Z1.5816
G1 X14.1519 Y-12.5150 Z1.5631
G1 X14.2899 Y-12.4504 Z1.5225
G1 X14.4810 Y-12.3610 Z1.4586
G1 X14.5128 Y-12.3461 Z1.4466
G1 X14.6747 Y-12.2704 Z1.3850
G1 X15.3938 Y-11.9339 Z1.3850
G1 X15.4044 Y-11.9289 Z1.3849
G1 X15.4256 Y-11.9190 Z1.3841
G1 X15.4469 Y-11.9091 Z1.3825
G1 X15.4681 Y-11.8991 Z1.3801
G1 X15.4893 Y-11.8892 Z1.3769
G1 X15.4991 Y-11.8846 Z1.3750
G1 X15.8687 Y-11.7117 Z1.3750
G0 Z1.8850
G0 X15.8687 Y-11.7117 
G0 Z1.8850
G0 X10.6439 Y-14.1572 
G1 X10.6439 Y-14.1572 Z1.8600 F75.
G1 X10.6507 Y-14.1539 Z1.8217 F25.
G1 X10.6703 Y-14.1446 Z1.7893
G1 X10.6996 Y-14.1306 Z1.7676
G1 X10.7341 Y-14.1141 Z1.7600
G1 X12.9126 Y-13.0740 Z1.7600 F75.
G1 X12.9337 Y-13.0639 Z1.7598
G1 X13.0395 Y-13.0134 Z1.7575
G1 X13.0606 Y-13.0033 Z1.7567
G1 X13.1770 Y-12.9478 Z1.7496
G1 X13.3039 Y-12.8872 Z1.7376
G1 X13.4202 Y-12.8316 Z1.7228
G1 X13.4414 Y-12.8215 Z1.7197
G1 X13.5484 Y-12.7704 Z1.7029
G1 X13.6634 Y-12.7155 Z1.6821
G1 X13.7771 Y-12.6612 Z1.6588
G1 X13.8855 Y-12.6095 Z1.6343
G1 X14.0917 Y-12.5110 Z1.5819
G1 X14.1182 Y-12.4984 Z1.5743
G1 X14.2927 Y-12.4151 Z1.5234
G1 X14.3085 Y-12.4075 Z1.5182
G1 X14.4847 Y-12.3234 Z1.4598
G1 X14.4988 Y-12.3166 Z1.4547
G1 X14.6826 Y-12.2289 Z1.3850
G1 X15.4189 Y-11.8773 Z1.3849
G1 X15.4295 Y-11.8723 Z1.3847
G1 X15.4506 Y-11.8622 Z1.3836
G1 X15.4718 Y-11.8521 Z1.3817
G1 X15.4929 Y-11.8420 Z1.3790
G1 X15.5172 Y-11.8304 Z1.3750
G1 X15.8918 Y-11.6516 Z1.3750
G0 Z1.8850
G0 X15.8918 Y-11.6516 
G0 Z1.8850
G0 X10.6442 Y-14.1579 
G1 X10.6442 Y-14.1579 Z1.8600 F75.
G1 X10.6510 Y-14.1546 Z1.8217 F25.
G1 X10.6705 Y-14.1451 Z1.7893
G1 X10.6997 Y-14.1309 Z1.7676
G1 X10.7341 Y-14.1141 Z1.7600
G1 X12.9255 Y-13.0467 Z1.7599 F75.
G1 X13.0466 Y-12.9877 Z1.7574
G1 X13.0730 Y-12.9749 Z1.7559
G1 X13.1783 Y-12.9236 Z1.7496
G1 X13.3047 Y-12.8620 Z1.7375
G1 X13.4206 Y-12.8055 Z1.7229
G1 X13.4312 Y-12.8004 Z1.7214
G1 X13.5497 Y-12.7427 Z1.7030
G1 X13.6656 Y-12.6862 Z1.6821
G1 X13.7788 Y-12.6311 Z1.6590
G1 X13.8842 Y-12.5798 Z1.6354
G1 X14.0949 Y-12.4771 Z1.5823
G1 X14.1160 Y-12.4669 Z1.5764
G1 X14.3056 Y-12.3745 Z1.5212
G1 X14.4891 Y-12.2851 Z1.4608
G1 X14.5046 Y-12.2775 Z1.4553
G1 X14.6603 Y-12.2017 Z1.3964
G1 X14.6908 Y-12.1869 Z1.3851
G1 X15.4329 Y-11.8254 Z1.3850
G1 X15.4540 Y-11.8151 Z1.3844
G1 X15.4750 Y-11.8049 Z1.3831
G1 X15.4961 Y-11.7946 Z1.3811
G1 X15.5172 Y-11.7843 Z1.3783
G1 X15.5373 Y-11.7746 Z1.3750
G1 X15.9169 Y-11.5896 Z1.3750
G0 Z1.8850
G0 X15.9169 Y-11.5896 
G0 Z1.8850
G0 X10.6445 Y-14.1586 
G1 X10.6445 Y-14.1586 Z1.8600 F75.
G1 X10.6514 Y-14.1552 Z1.8217 F25.
G1 X10.6708 Y-14.1456 Z1.7893
G1 X10.6998 Y-14.1311 Z1.7676
G1 X10.7341 Y-14.1141 Z1.7600
G1 X12.9249 Y-13.0257 Z1.7599 F75.
G1 X13.0430 Y-12.9671 Z1.7575
G1 X13.0587 Y-12.9592 Z1.7568
G1 X13.1794 Y-12.8993 Z1.7495
G1 X13.3054 Y-12.8367 Z1.7375
G1 X13.4208 Y-12.7794 Z1.7230
G1 X13.4418 Y-12.7689 Z1.7199
G1 X13.5467 Y-12.7168 Z1.7038
G1 X13.6674 Y-12.6568 Z1.6821
G1 X13.7566 Y-12.6125 Z1.6641
G1 X13.7986 Y-12.5917 Z1.6552
G1 X13.8931 Y-12.5447 Z1.6342
G1 X14.0977 Y-12.4431 Z1.5828
G1 X14.1135 Y-12.4353 Z1.5785
G1 X14.1764 Y-12.4040 Z1.5602
G1 X14.3024 Y-12.3414 Z1.5242
G1 X14.3181 Y-12.3336 Z1.5193
G1 X14.4961 Y-12.2452 Z1.4610
G1 X14.5215 Y-12.2326 Z1.4518
G1 X14.6999 Y-12.1439 Z1.3850
G1 X15.4568 Y-11.7679 Z1.3849
G1 X15.4778 Y-11.7574 Z1.3842
G1 X15.4988 Y-11.7470 Z1.3828
G1 X15.5198 Y-11.7366 Z1.3807
G1 X15.5408 Y-11.7262 Z1.3778
G1 X15.5572 Y-11.7180 Z1.3750
G1 X15.9426 Y-11.5265 Z1.3750
G0 Z1.8850
G0 X15.9426 Y-11.5265 
G0 Z1.8850
G0 X10.6449 Y-14.1593 
G1 X10.6449 Y-14.1593 Z1.8600 F75.
G1 X10.6517 Y-14.1558 Z1.8217 F25.
G1 X10.6710 Y-14.1460 Z1.7893
G1 X10.6999 Y-14.1314 Z1.7676
G1 X10.7341 Y-14.1141 Z1.7600
G1 X12.9242 Y-13.0046 Z1.7599 F75.
G1 X13.0444 Y-12.9437 Z1.7574
G1 X13.0653 Y-12.9332 Z1.7564
G1 X13.1803 Y-12.8749 Z1.7494
G1 X13.3057 Y-12.8114 Z1.7375
G1 X13.4312 Y-12.7478 Z1.7218
G1 X13.5514 Y-12.6869 Z1.7033
G1 X13.6703 Y-12.6267 Z1.6820
G1 X13.7853 Y-12.5684 Z1.6589
G1 X13.8990 Y-12.5108 Z1.6336
G1 X14.1055 Y-12.4062 Z1.5821
G1 X14.1630 Y-12.3771 Z1.5659
G1 X14.3093 Y-12.3030 Z1.5241
G1 X14.3250 Y-12.2950 Z1.5192
G1 X14.4323 Y-12.2407 Z1.4842
G1 X14.5062 Y-12.2033 Z1.4604
G1 X14.5246 Y-12.1939 Z1.4538
G1 X14.6907 Y-12.1098 Z1.3919
G1 X14.7098 Y-12.1001 Z1.3850
G1 X15.4697 Y-11.7151 Z1.3850
G1 X15.4802 Y-11.7098 Z1.3849
G1 X15.5011 Y-11.6993 Z1.3841
G1 X15.5220 Y-11.6887 Z1.3826
G1 X15.5429 Y-11.6781 Z1.3804
G1 X15.5638 Y-11.6675 Z1.3775
G1 X15.5787 Y-11.6599 Z1.3750
G1 X15.9689 Y-11.4623 Z1.3750
G0 Z1.8850
G0 X15.9689 Y-11.4623 
G0 Z1.8850
G0 X10.6452 Y-14.1600 
G1 X10.6452 Y-14.1600 Z1.8600 F75.
G1 X10.6520 Y-14.1565 Z1.8217 F25.
G1 X10.6712 Y-14.1465 Z1.7893
G1 X10.7001 Y-14.1316 Z1.7676
G1 X10.7341 Y-14.1141 Z1.7600
G1 X12.8998 Y-12.9956 Z1.7600 F75.
G1 X12.9415 Y-12.9741 Z1.7596
G1 X13.0456 Y-12.9203 Z1.7574
G1 X13.0664 Y-12.9096 Z1.7563
G1 X13.1757 Y-12.8531 Z1.7498
G1 X13.2955 Y-12.7913 Z1.7386
G1 X13.3111 Y-12.7832 Z1.7370
G1 X13.4308 Y-12.7214 Z1.7220
G1 X13.5454 Y-12.6622 Z1.7045
G1 X13.6703 Y-12.5977 Z1.6825
G1 X13.7875 Y-12.5372 Z1.6590
G1 X13.8994 Y-12.4794 Z1.6344
G1 X14.0452 Y-12.4041 Z1.5982
G1 X14.1076 Y-12.3719 Z1.5829
G1 X14.1285 Y-12.3611 Z1.5772
G1 X14.3159 Y-12.2643 Z1.5241
G1 X14.3367 Y-12.2536 Z1.5176
G1 X14.5192 Y-12.1593 Z1.4589
G1 X14.5393 Y-12.1490 Z1.4516
G1 X14.6893 Y-12.0714 Z1.3960
G1 X14.7200 Y-12.0556 Z1.3850
G1 X15.4925 Y-11.6567 Z1.3850
G1 X15.5029 Y-11.6513 Z1.3848
G1 X15.5237 Y-11.6406 Z1.3840
G1 X15.5445 Y-11.6298 Z1.3825
G1 X15.5653 Y-11.6190 Z1.3804
G1 X15.5862 Y-11.6083 Z1.3776
G1 X15.6017 Y-11.6003 Z1.3750
G1 X15.9956 Y-11.3968 Z1.3750
G0 Z1.8850
G0 X15.9956 Y-11.3968 
G0 Z1.8850
G0 X10.6456 Y-14.1606 
G1 X10.6456 Y-14.1606 Z1.8600 F75.
G1 X10.6523 Y-14.1571 Z1.8217 F25.
G1 X10.6715 Y-14.1470 Z1.7893
G1 X10.7002 Y-14.1319 Z1.7676
G1 X10.7341 Y-14.1141 Z1.7600
G1 X12.9234 Y-12.9617 Z1.7599 F75.
G1 X13.0466 Y-12.8968 Z1.7573
G1 X13.1710 Y-12.8313 Z1.7501
G1 X13.1865 Y-12.8231 Z1.7489
G1 X13.3058 Y-12.7604 Z1.7377
G1 X13.4328 Y-12.6935 Z1.7218
G1 X13.5547 Y-12.6294 Z1.7033
G1 X13.6739 Y-12.5666 Z1.6822
G1 X13.7906 Y-12.5052 Z1.6590
G1 X13.8969 Y-12.4492 Z1.6359
G1 X14.1147 Y-12.3346 Z1.5825
G1 X14.1354 Y-12.3237 Z1.5768
G1 X14.2598 Y-12.2582 Z1.5417
G1 X14.3220 Y-12.2254 Z1.5244
G1 X14.3428 Y-12.2145 Z1.5181
G1 X14.5191 Y-12.1217 Z1.4618
G1 X14.5372 Y-12.1122 Z1.4556
G1 X14.7304 Y-12.0105 Z1.3851
G1 X14.7310 Y-12.0102 Z1.3850
G1 X15.5146 Y-11.5977 Z1.3850
G1 X15.5250 Y-11.5923 Z1.3848
G1 X15.5457 Y-11.5813 Z1.3840
G1 X15.5664 Y-11.5704 Z1.3826
G1 X15.5872 Y-11.5595 Z1.3806
G1 X15.6079 Y-11.5486 Z1.3778
G1 X15.6252 Y-11.5395 Z1.3750
G1 X16.0230 Y-11.3301 Z1.3750
G0 Z1.8850
G0 X16.0230 Y-11.3301 
G0 Z1.8850
G0 X10.6459 Y-14.1613 
G1 X10.6459 Y-14.1613 Z1.8600 F75.
G1 X10.6527 Y-14.1577 Z1.8217 F25.
G1 X10.6718 Y-14.1475 Z1.7893
G1 X10.7003 Y-14.1321 Z1.7676
G1 X10.7341 Y-14.1141 Z1.7600
G1 X12.9234 Y-12.9397 Z1.7599 F75.
G1 X13.0473 Y-12.8732 Z1.7573
G1 X13.1712 Y-12.8068 Z1.7501
G1 X13.1867 Y-12.7985 Z1.7489
G1 X13.2951 Y-12.7403 Z1.7388
G1 X13.3158 Y-12.7292 Z1.7365
G1 X13.4294 Y-12.6683 Z1.7225
G1 X13.5559 Y-12.6004 Z1.7034
G1 X13.6759 Y-12.5360 Z1.6823
G1 X13.7934 Y-12.4730 Z1.6591
G1 X13.9070 Y-12.4121 Z1.6344
G1 X14.1213 Y-12.2972 Z1.5822
G1 X14.3278 Y-12.1864 Z1.5249
G1 X14.3433 Y-12.1781 Z1.5203
G1 X14.4931 Y-12.0977 Z1.4729
G1 X14.5344 Y-12.0756 Z1.4600
G1 X14.5550 Y-12.0645 Z1.4527
G1 X14.7422 Y-11.9641 Z1.3851
G1 X14.7428 Y-11.9638 Z1.3850
G1 X15.5361 Y-11.5383 Z1.3850
G1 X15.5464 Y-11.5327 Z1.3849
G1 X15.5671 Y-11.5217 Z1.3842
G1 X15.5877 Y-11.5106 Z1.3828
G1 X15.6084 Y-11.4995 Z1.3809
G1 X15.6290 Y-11.4884 Z1.3784
G1 X15.6508 Y-11.4767 Z1.3750
G1 X16.0509 Y-11.2621 Z1.3750
G0 Z1.8850
G0 X16.0509 Y-11.2621 
G0 Z1.8850
G0 X10.6463 Y-14.1620 
G1 X10.6463 Y-14.1620 Z1.8600 F75.
G1 X10.6530 Y-14.1583 Z1.8217 F25.
G1 X10.6720 Y-14.1479 Z1.7893
G1 X10.7005 Y-14.1324 Z1.7676
G1 X10.7341 Y-14.1140 Z1.7600
G1 X12.9218 Y-12.9184 Z1.7599 F75.
G1 X13.0375 Y-12.8552 Z1.7575
G1 X13.0581 Y-12.8440 Z1.7567
G1 X13.1712 Y-12.7821 Z1.7501
G1 X13.1866 Y-12.7737 Z1.7489
G1 X13.3049 Y-12.7091 Z1.7379
G1 X13.4334 Y-12.6388 Z1.7221
G1 X13.5568 Y-12.5714 Z1.7035
G1 X13.6789 Y-12.5047 Z1.6822
G1 X13.7985 Y-12.4393 Z1.6587
G1 X13.9116 Y-12.3775 Z1.6343
G1 X14.1275 Y-12.2595 Z1.5821
G1 X14.2715 Y-12.1808 Z1.5426
G1 X14.3435 Y-12.1415 Z1.5226
G1 X14.5389 Y-12.0347 Z1.4617
G1 X14.5569 Y-12.0249 Z1.4557
G1 X14.7008 Y-11.9462 Z1.4040
G1 X14.7368 Y-11.9265 Z1.3916
G1 X14.7548 Y-11.9167 Z1.3850
G1 X15.5672 Y-11.4727 Z1.3849
G1 X15.5878 Y-11.4615 Z1.3844
G1 X15.6083 Y-11.4502 Z1.3832
G1 X15.6289 Y-11.4390 Z1.3815
G1 X15.6495 Y-11.4278 Z1.3791
G1 X15.6700 Y-11.4165 Z1.3762
G1 X15.6767 Y-11.4129 Z1.3750
G1 X16.0793 Y-11.1929 Z1.3750
G0 Z1.8850
G0 X16.0793 Y-11.1929 
G0 Z1.8850
G0 X10.6467 Y-14.1627 
G1 X10.6467 Y-14.1627 Z1.8600 F75.
G1 X10.6533 Y-14.1590 Z1.8217 F25.
G1 X10.6723 Y-14.1484 Z1.7893
G1 X10.7006 Y-14.1326 Z1.7676
G1 X10.7340 Y-14.1140 Z1.7600
G1 X12.9214 Y-12.8964 Z1.7599 F75.
G1 X13.0481 Y-12.8258 Z1.7572
G1 X13.1761 Y-12.7546 Z1.7498
G1 X13.3092 Y-12.6805 Z1.7375
G1 X13.4269 Y-12.6149 Z1.7231
G1 X13.4372 Y-12.6092 Z1.7217
G1 X13.5498 Y-12.5465 Z1.7049
G1 X13.5600 Y-12.5408 Z1.7033
G1 X13.6803 Y-12.4738 Z1.6824
G1 X13.7981 Y-12.4083 Z1.6595
G1 X13.9133 Y-12.3442 Z1.6349
G1 X14.0515 Y-12.2672 Z1.6015
G1 X14.1334 Y-12.2216 Z1.5822
G1 X14.3177 Y-12.1190 Z1.5318
G1 X14.3382 Y-12.1076 Z1.5264
G1 X14.3587 Y-12.0962 Z1.5205
G1 X14.5481 Y-11.9908 Z1.4620
G1 X14.5686 Y-11.9794 Z1.4552
G1 X14.7549 Y-11.8756 Z1.3896
G1 X14.7682 Y-11.8682 Z1.3850
G1 X15.5874 Y-11.4122 Z1.3850
G1 X15.6078 Y-11.4008 Z1.3846
G1 X15.6283 Y-11.3894 Z1.3836
G1 X15.6488 Y-11.3780 Z1.3821
G1 X15.6693 Y-11.3666 Z1.3799
G1 X15.6898 Y-11.3552 Z1.3772
G1 X15.7033 Y-11.3477 Z1.3750
G1 X16.1083 Y-11.1222 Z1.3750
G0 Z1.8850
G0 X16.1083 Y-11.1222 
G0 Z1.8850
G0 X10.6471 Y-14.1633 
G1 X10.6471 Y-14.1633 Z1.8600 F75.
G1 X10.6537 Y-14.1596 Z1.8217 F25.
G1 X10.6725 Y-14.1489 Z1.7893
G1 X10.7008 Y-14.1329 Z1.7676
G1 X10.7340 Y-14.1140 Z1.7600
G1 X12.9207 Y-12.8742 Z1.7599 F75.
G1 X13.0481 Y-12.8020 Z1.7572
G1 X13.1807 Y-12.7268 Z1.7494
G1 X13.3030 Y-12.6575 Z1.7382
G1 X13.4355 Y-12.5823 Z1.7221
G1 X13.5578 Y-12.5130 Z1.7040
G1 X13.6827 Y-12.4422 Z1.6824
G1 X13.7923 Y-12.3800 Z1.6613
G1 X13.9146 Y-12.3107 Z1.6355
G1 X13.9962 Y-12.2644 Z1.6160
G1 X14.1389 Y-12.1835 Z1.5823
G1 X14.2612 Y-12.1142 Z1.5491
G1 X14.3530 Y-12.0622 Z1.5247
G1 X14.3734 Y-12.0506 Z1.5186
G1 X14.5161 Y-11.9697 Z1.4749
G1 X14.5671 Y-11.9408 Z1.4595
G1 X14.5875 Y-11.9292 Z1.4526
G1 X14.7485 Y-11.8379 Z1.3964
G1 X14.7818 Y-11.8190 Z1.3851
G1 X15.6171 Y-11.3454 Z1.3850
G1 X15.6273 Y-11.3397 Z1.3848
G1 X15.6477 Y-11.3281 Z1.3840
G1 X15.6680 Y-11.3165 Z1.3827
G1 X15.6884 Y-11.3050 Z1.3808
G1 X15.7088 Y-11.2934 Z1.3784
G1 X15.7308 Y-11.2810 Z1.3750
G1 X16.1379 Y-11.0501 Z1.3750
G0 Z1.8850
G0 X16.1379 Y-11.0501 
G0 Z1.8850
G0 X10.6474 Y-14.1640 
G1 X10.6474 Y-14.1640 Z1.8600 F75.
G1 X10.6540 Y-14.1602 Z1.8217 F25.
G1 X10.6728 Y-14.1494 Z1.7893
G1 X10.7009 Y-14.1331 Z1.7676
G1 X10.7340 Y-14.1140 Z1.7600
G1 X12.9059 Y-12.8601 Z1.7600 F75.
G1 X12.9262 Y-12.8484 Z1.7598
G1 X13.0479 Y-12.7781 Z1.7572
G1 X13.1799 Y-12.7019 Z1.7495
G1 X13.3017 Y-12.6316 Z1.7384
G1 X13.3220 Y-12.6199 Z1.7361
G1 X13.4336 Y-12.5554 Z1.7225
G1 X13.5605 Y-12.4822 Z1.7038
G1 X13.6848 Y-12.4104 Z1.6825
G1 X13.8040 Y-12.3415 Z1.6597
G1 X13.9207 Y-12.2742 Z1.6351
G1 X14.1440 Y-12.1452 Z1.5826
G1 X14.3571 Y-12.0222 Z1.5259
G1 X14.3749 Y-12.0119 Z1.5208
G1 X14.4383 Y-11.9753 Z1.5015
G1 X14.5703 Y-11.8992 Z1.4622
G1 X14.5893 Y-11.8882 Z1.4560
G1 X14.6930 Y-11.8283 Z1.4200
G1 X14.7967 Y-11.7684 Z1.3850
G1 X15.6460 Y-11.2781 Z1.3849
G1 X15.6663 Y-11.2663 Z1.3844
G1 X15.6866 Y-11.2546 Z1.3834
G1 X15.7069 Y-11.2429 Z1.3817
G1 X15.7272 Y-11.2312 Z1.3795
G1 X15.7475 Y-11.2195 Z1.3768
G1 X15.7582 Y-11.2133 Z1.3750
G1 X16.1673 Y-10.9771 Z1.3750
G0 Z1.8850
G0 X16.1673 Y-10.9771 
G0 Z1.8850
G0 X10.6478 Y-14.1647 
G1 X10.6478 Y-14.1647 Z1.8600 F75.
G1 X10.6544 Y-14.1608 Z1.8217 F25.
G1 X10.6731 Y-14.1498 Z1.7893
G1 X10.7010 Y-14.1334 Z1.7676
G1 X10.7340 Y-14.1140 Z1.7600
G1 X12.9187 Y-12.8298 Z1.7599 F75.
G1 X13.0475 Y-12.7541 Z1.7572
G1 X13.1789 Y-12.6769 Z1.7496
G1 X13.3102 Y-12.5997 Z1.7376
G1 X13.4390 Y-12.5240 Z1.7220
G1 X13.5640 Y-12.4505 Z1.7036
G1 X13.6865 Y-12.3785 Z1.6827
G1 X13.8078 Y-12.3072 Z1.6596
G1 X13.9265 Y-12.2374 Z1.6348
G1 X14.1386 Y-12.1127 Z1.5855
G1 X14.1576 Y-12.1016 Z1.5809
G1 X14.3710 Y-11.9761 Z1.5246
G1 X14.4922 Y-11.9049 Z1.4888
G1 X14.5831 Y-11.8514 Z1.4618
G1 X14.6008 Y-11.8410 Z1.4561
G1 X14.7776 Y-11.7371 Z1.3965
G1 X14.7869 Y-11.7316 Z1.3935
G1 X14.8123 Y-11.7167 Z1.3850
G1 X15.6641 Y-11.2160 Z1.3850
G1 X15.6843 Y-11.2041 Z1.3847
G1 X15.7045 Y-11.1922 Z1.3840
G1 X15.7247 Y-11.1804 Z1.3826
G1 X15.7449 Y-11.1685 Z1.3807
G1 X15.7651 Y-11.1566 Z1.3783
G1 X15.7870 Y-11.1437 Z1.3750
G1 X16.1967 Y-10.9029 Z1.3750
G0 Z1.8850
G0 X16.1967 Y-10.9029 
G0 Z1.8850
G0 X10.6482 Y-14.1653 
G1 X10.6482 Y-14.1653 Z1.8600 F75.
G1 X10.6547 Y-14.1614 Z1.8217 F25.
G1 X10.6733 Y-14.1503 Z1.7893
G1 X10.7012 Y-14.1336 Z1.7676
G1 X10.7340 Y-14.1140 Z1.7600
G1 X12.9187 Y-12.8067 Z1.7599 F75.
G1 X13.0469 Y-12.7300 Z1.7572
G1 X13.1675 Y-12.6578 Z1.7503
G1 X13.1877 Y-12.6458 Z1.7488
G1 X13.3083 Y-12.5736 Z1.7379
G1 X13.4391 Y-12.4953 Z1.7221
G1 X13.5660 Y-12.4194 Z1.7036
G1 X13.6892 Y-12.3456 Z1.6827
G1 X13.8111 Y-12.2727 Z1.6597
G1 X13.9217 Y-12.2065 Z1.6369
G1 X14.0726 Y-12.1162 Z1.6020
G1 X14.1530 Y-12.0681 Z1.5837
G1 X14.1731 Y-12.0561 Z1.5786
G1 X14.3139 Y-11.9718 Z1.5417
G1 X14.3743 Y-11.9357 Z1.5263
G1 X14.3919 Y-11.9252 Z1.5214
G1 X14.5452 Y-11.8334 Z1.4763
G1 X14.5955 Y-11.8033 Z1.4619
G1 X14.6173 Y-11.7903 Z1.4549
G1 X14.7886 Y-11.6878 Z1.3979
G1 X14.7995 Y-11.6813 Z1.3945
G1 X14.8287 Y-11.6638 Z1.3850
G1 X15.7016 Y-11.1414 Z1.3850
G1 X15.7218 Y-11.1294 Z1.3845
G1 X15.7419 Y-11.1174 Z1.3834
G1 X15.7620 Y-11.1053 Z1.3819
G1 X15.7821 Y-11.0933 Z1.3798
G1 X15.8022 Y-11.0813 Z1.3772
G1 X15.8159 Y-11.0731 Z1.3750
G1 X16.2260 Y-10.8277 Z1.3750
G0 Z1.8850
G0 X16.2260 Y-10.8277 
G0 Z1.8850
G0 X10.6486 Y-14.1660 
G1 X10.6486 Y-14.1660 Z1.8600 F75.
G1 X10.6551 Y-14.1620 Z1.8217 F25.
G1 X10.6736 Y-14.1507 Z1.7893
G1 X10.7013 Y-14.1339 Z1.7676
G1 X10.7340 Y-14.1140 Z1.7600
G1 X12.9184 Y-12.7836 Z1.7599 F75.
G1 X13.0460 Y-12.7059 Z1.7573
G1 X13.1761 Y-12.6266 Z1.7498
G1 X13.3112 Y-12.5443 Z1.7376
G1 X13.4363 Y-12.4681 Z1.7227
G1 X13.5664 Y-12.3889 Z1.7038
G1 X13.6915 Y-12.3127 Z1.6828
G1 X13.7366 Y-12.2853 Z1.6743
G1 X13.8116 Y-12.2395 Z1.6603
G1 X13.8567 Y-12.2121 Z1.6510
G1 X13.9267 Y-12.1694 Z1.6368
G1 X14.0168 Y-12.1146 Z1.6161
G1 X14.1569 Y-12.0292 Z1.5844
G1 X14.1770 Y-12.0170 Z1.5794
G1 X14.2370 Y-11.9805 Z1.5637
G1 X14.3871 Y-11.8890 Z1.5254
G1 X14.4072 Y-11.8768 Z1.5197
G1 X14.4772 Y-11.8342 Z1.4993
G1 X14.6073 Y-11.7549 Z1.4622
G1 X14.6248 Y-11.7443 Z1.4567
G1 X14.7074 Y-11.6940 Z1.4294
G1 X14.8425 Y-11.6117 Z1.3860
G1 X14.8463 Y-11.6094 Z1.3850
G1 X15.7283 Y-11.0722 Z1.3850
G1 X15.7383 Y-11.0661 Z1.3848
G1 X15.7583 Y-11.0539 Z1.3841
G1 X15.7783 Y-11.0417 Z1.3830
G1 X15.7984 Y-11.0295 Z1.3812
G1 X15.8184 Y-11.0174 Z1.3790
G1 X15.8384 Y-11.0052 Z1.3762
G1 X15.8455 Y-11.0008 Z1.3750
G1 X16.2548 Y-10.7516 Z1.3750
G0 Z1.8850
G0 X16.2548 Y-10.7516 
G0 Z1.8850
G0 X10.6490 Y-14.1666 
G1 X10.6490 Y-14.1666 Z1.8600 F75.
G1 X10.6555 Y-14.1626 Z1.8217 F25.
G1 X10.6739 Y-14.1512 Z1.7893
G1 X10.7015 Y-14.1341 Z1.7676
G1 X10.7340 Y-14.1139 Z1.7600
G1 X12.9166 Y-12.7611 Z1.7599 F75.
G1 X13.0449 Y-12.6816 Z1.7573
G1 X13.1744 Y-12.6014 Z1.7499
G1 X13.3038 Y-12.5211 Z1.7384
G1 X13.3238 Y-12.5088 Z1.7362
G1 X13.4333 Y-12.4409 Z1.7232
G1 X13.4433 Y-12.4347 Z1.7219
G1 X13.5678 Y-12.3575 Z1.7039
G1 X13.6923 Y-12.2804 Z1.6832
G1 X13.8168 Y-12.2032 Z1.6600
G1 X13.9314 Y-12.1322 Z1.6368
G1 X14.1704 Y-11.9840 Z1.5829
G1 X14.3995 Y-11.8420 Z1.5248
G1 X14.6187 Y-11.7062 Z1.4628
G1 X14.6386 Y-11.6939 Z1.4567
G1 X14.8278 Y-11.5766 Z1.3963
G1 X14.8577 Y-11.5580 Z1.3870
G1 X14.8646 Y-11.5538 Z1.3850
G1 X15.7542 Y-11.0024 Z1.3850
G1 X15.7741 Y-10.9901 Z1.3847
G1 X15.7940 Y-10.9777 Z1.3839
G1 X15.8139 Y-10.9654 Z1.3825
G1 X15.8339 Y-10.9530 Z1.3807
G1 X15.8538 Y-10.9407 Z1.3783
G1 X15.8761 Y-10.9268 Z1.3750
G1 X16.2835 Y-10.6743 Z1.3750
G0 Z1.8850
G0 X16.2835 Y-10.6743 
G0 Z1.8850
G0 X10.6494 Y-14.1673 
G1 X10.6494 Y-14.1673 Z1.8600 F75.
G1 X10.6558 Y-14.1632 Z1.8217 F25.
G1 X10.6742 Y-14.1517 Z1.7893
G1 X10.7016 Y-14.1343 Z1.7676
G1 X10.7340 Y-14.1139 Z1.7600
G1 X12.9159 Y-12.7379 Z1.7599 F75.
G1 X13.0435 Y-12.6574 Z1.7573
G1 X13.1724 Y-12.5761 Z1.7501
G1 X13.1922 Y-12.5636 Z1.7484
G1 X13.3111 Y-12.4886 Z1.7378
G1 X13.4400 Y-12.4073 Z1.7225
G1 X13.5701 Y-12.3253 Z1.7039
G1 X13.6952 Y-12.2463 Z1.6832
G1 X13.8216 Y-12.1666 Z1.6599
G1 X13.9319 Y-12.0971 Z1.6377
G1 X13.9455 Y-12.0885 Z1.6348
G1 X14.1239 Y-11.9760 Z1.5948
G1 X14.1735 Y-11.9447 Z1.5840
G1 X14.3420 Y-11.8384 Z1.5416
G1 X14.4015 Y-11.8009 Z1.5270
G1 X14.4213 Y-11.7884 Z1.5217
G1 X14.5601 Y-11.7009 Z1.4827
G1 X14.6294 Y-11.6571 Z1.4638
G1 X14.6493 Y-11.6446 Z1.4579
G1 X14.7880 Y-11.5571 Z1.4140
G1 X14.8803 Y-11.4989 Z1.3859
G1 X14.8847 Y-11.4962 Z1.3850
G1 X15.7892 Y-10.9257 Z1.3850
G1 X15.8090 Y-10.9132 Z1.3845
G1 X15.8288 Y-10.9007 Z1.3836
G1 X15.8486 Y-10.8882 Z1.3822
G1 X15.8685 Y-10.8757 Z1.3802
G1 X15.8883 Y-10.8632 Z1.3777
G1 X15.9059 Y-10.8521 Z1.3750
G1 X16.3113 Y-10.5964 Z1.3750
G0 Z1.8850
G0 X16.3113 Y-10.5964 
G0 Z1.8850
G0 X10.6498 Y-14.1679 
G1 X10.6498 Y-14.1679 Z1.8600 F75.
G1 X10.6562 Y-14.1638 Z1.8217 F25.
G1 X10.6745 Y-14.1521 Z1.7893
G1 X10.7018 Y-14.1346 Z1.7676
G1 X10.7340 Y-14.1139 Z1.7600
G1 X12.9155 Y-12.7141 Z1.7599 F75.
G1 X13.0419 Y-12.6330 Z1.7574
G1 X13.1800 Y-12.5444 Z1.7495
G1 X13.3131 Y-12.4590 Z1.7376
G1 X13.4438 Y-12.3751 Z1.7222
G1 X13.5720 Y-12.2929 Z1.7039
G1 X13.6830 Y-12.2217 Z1.6857
G1 X13.7027 Y-12.2090 Z1.6824
G1 X13.8235 Y-12.1315 Z1.6603
G1 X13.8901 Y-12.0888 Z1.6469
G1 X13.9394 Y-12.0571 Z1.6372
G1 X14.0479 Y-11.9875 Z1.6130
G1 X14.1761 Y-11.9052 Z1.5851
G1 X14.1959 Y-11.8926 Z1.5804
G1 X14.2846 Y-11.8356 Z1.5581
G1 X14.4129 Y-11.7533 Z1.5269
G1 X14.4326 Y-11.7407 Z1.5216
G1 X14.4918 Y-11.7027 Z1.5051
G1 X14.6496 Y-11.6015 Z1.4623
G1 X14.6989 Y-11.5698 Z1.4469
G1 X14.8863 Y-11.4496 Z1.3900
G1 X14.9011 Y-11.4401 Z1.3858
G1 X14.9048 Y-11.4377 Z1.3850
G1 X15.8233 Y-10.8483 Z1.3849
G1 X15.8430 Y-10.8357 Z1.3844
G1 X15.8627 Y-10.8230 Z1.3834
G1 X15.8824 Y-10.8104 Z1.3818
G1 X15.9022 Y-10.7977 Z1.3798
G1 X15.9219 Y-10.7851 Z1.3772
G1 X15.9359 Y-10.7761 Z1.3750
G1 X16.3392 Y-10.5173 Z1.3750
G0 Z1.8850
G0 X16.3392 Y-10.5173 
G0 Z1.8850
G0 X10.6502 Y-14.1686 
G1 X10.6502 Y-14.1686 Z1.8600 F75.
G1 X10.6566 Y-14.1644 Z1.8217 F25.
G1 X10.6748 Y-14.1526 Z1.7893
G1 X10.7019 Y-14.1348 Z1.7676
G1 X10.7340 Y-14.1139 Z1.7600
G1 X12.9150 Y-12.6903 Z1.7599 F75.
G1 X13.0401 Y-12.6086 Z1.7574
G1 X13.1676 Y-12.5253 Z1.7503
G1 X13.1873 Y-12.5125 Z1.7489
G1 X13.3050 Y-12.4357 Z1.7385
G1 X13.3247 Y-12.4229 Z1.7363
G1 X13.4449 Y-12.3444 Z1.7222
G1 X13.5700 Y-12.2627 Z1.7046
G1 X13.7012 Y-12.1770 Z1.6832
G1 X13.7564 Y-12.1410 Z1.6731
G1 X13.8251 Y-12.0962 Z1.6608
G1 X13.8742 Y-12.0641 Z1.6510
G1 X13.9429 Y-12.0193 Z1.6376
G1 X14.0116 Y-11.9745 Z1.6224
G1 X14.1882 Y-11.8592 Z1.5842
G1 X14.4237 Y-11.7054 Z1.5269
G1 X14.4434 Y-11.6926 Z1.5218
G1 X14.6200 Y-11.5773 Z1.4742
G1 X14.6592 Y-11.5517 Z1.4638
G1 X14.6789 Y-11.5389 Z1.4581
G1 X14.8506 Y-11.4268 Z1.4064
G1 X14.9193 Y-11.3820 Z1.3866
G1 X14.9267 Y-11.3772 Z1.3850
G1 X15.8466 Y-10.7766 Z1.3850
G1 X15.8565 Y-10.7702 Z1.3849
G1 X15.8761 Y-10.7574 Z1.3843
G1 X15.8957 Y-10.7446 Z1.3832
G1 X15.9153 Y-10.7318 Z1.3816
G1 X15.9350 Y-10.7190 Z1.3794
G1 X15.9546 Y-10.7062 Z1.3768
G1 X15.9653 Y-10.6992 Z1.3750
G1 X16.3652 Y-10.4381 Z1.3750
G0 Z1.8850
G0 X16.3652 Y-10.4381 
G0 Z1.8850
G0 X10.6507 Y-14.1692 
G1 X10.6507 Y-14.1692 Z1.8600 F75.
G1 X10.6570 Y-14.1650 Z1.8217 F25.
G1 X10.6751 Y-14.1530 Z1.7893
G1 X10.7021 Y-14.1351 Z1.7676
G1 X10.7340 Y-14.1139 Z1.7600
G1 X12.9135 Y-12.6668 Z1.7599 F75.
G1 X13.0380 Y-12.5841 Z1.7574
G1 X13.0575 Y-12.5712 Z1.7565
G1 X13.1796 Y-12.4902 Z1.7496
G1 X13.3114 Y-12.4026 Z1.7379
G1 X13.4456 Y-12.3135 Z1.7223
G1 X13.5762 Y-12.2268 Z1.7039
G1 X13.7043 Y-12.1417 Z1.6832
G1 X13.8312 Y-12.0575 Z1.6604
G1 X13.9569 Y-11.9740 Z1.6358
G1 X14.1998 Y-11.8128 Z1.5834
G1 X14.3657 Y-11.7026 Z1.5432
G1 X14.4341 Y-11.6572 Z1.5273
G1 X14.4536 Y-11.6442 Z1.5222
G1 X14.5708 Y-11.5665 Z1.4908
G1 X14.6781 Y-11.4952 Z1.4630
G1 X14.6977 Y-11.4822 Z1.4573
G1 X14.7660 Y-11.4368 Z1.4368
G1 X14.9271 Y-11.3299 Z1.3905
G1 X14.9393 Y-11.3218 Z1.3871
G1 X14.9491 Y-11.3153 Z1.3850
G1 X15.8790 Y-10.6979 Z1.3850
G1 X15.8887 Y-10.6914 Z1.3848
G1 X15.9083 Y-10.6784 Z1.3842
G1 X15.9278 Y-10.6655 Z1.3830
G1 X15.9473 Y-10.6525 Z1.3813
G1 X15.9668 Y-10.6395 Z1.3791
G1 X15.9864 Y-10.6266 Z1.3764
G1 X15.9950 Y-10.6209 Z1.3750
G1 X16.3919 Y-10.3573 Z1.3750
G0 Z1.8850
G0 X16.3919 Y-10.3573 
G0 Z1.8850
G0 X10.6511 Y-14.1698 
G1 X10.6511 Y-14.1698 Z1.8600 F75.
G1 X10.6574 Y-14.1656 Z1.8217 F25.
G1 X10.6754 Y-14.1535 Z1.7893
G1 X10.7022 Y-14.1353 Z1.7676
G1 X10.7340 Y-14.1139 Z1.7600
G1 X12.9118 Y-12.6432 Z1.7599 F75.
G1 X13.0357 Y-12.5596 Z1.7575
G1 X13.0502 Y-12.5498 Z1.7569
G1 X13.1716 Y-12.4678 Z1.7501
G1 X13.1911 Y-12.4547 Z1.7486
G1 X13.3076 Y-12.3760 Z1.7384
G1 X13.4436 Y-12.2842 Z1.7228
G1 X13.5771 Y-12.1940 Z1.7041
G1 X13.7058 Y-12.1071 Z1.6835
G1 X13.8345 Y-12.0202 Z1.6606
G1 X13.9619 Y-11.9341 Z1.6359
G1 X14.1137 Y-11.8317 Z1.6032
G1 X14.2011 Y-11.7726 Z1.5850
G1 X14.3079 Y-11.7005 Z1.5593
G1 X14.4439 Y-11.6087 Z1.5278
G1 X14.4633 Y-11.5956 Z1.5228
G1 X14.5022 Y-11.5693 Z1.5124
G1 X14.6867 Y-11.4447 Z1.4651
G1 X14.7158 Y-11.4251 Z1.4569
G1 X14.9113 Y-11.2931 Z1.4011
G1 X14.9610 Y-11.2595 Z1.3876
G1 X14.9732 Y-11.2513 Z1.3850
G1 X15.9104 Y-10.6184 Z1.3850
G1 X15.9201 Y-10.6119 Z1.3848
G1 X15.9395 Y-10.5987 Z1.3841
G1 X15.9589 Y-10.5856 Z1.3829
G1 X15.9784 Y-10.5725 Z1.3812
G1 X15.9978 Y-10.5594 Z1.3789
G1 X16.0172 Y-10.5463 Z1.3761
G1 X16.0237 Y-10.5419 Z1.3750
G1 X16.4161 Y-10.2770 Z1.3750
G0 Z1.8850
G0 X16.4161 Y-10.2770 
G0 Z1.8850
G0 X10.6515 Y-14.1705 
G1 X10.6515 Y-14.1705 Z1.8600 F75.
G1 X10.6578 Y-14.1662 Z1.8217 F25.
G1 X10.6757 Y-14.1539 Z1.7893
G1 X10.7024 Y-14.1355 Z1.7676
G1 X10.7339 Y-14.1139 Z1.7600
G1 X12.8979 Y-12.6279 Z1.7600 F75.
G1 X12.9365 Y-12.6014 Z1.7594
G1 X13.0428 Y-12.5284 Z1.7572
G1 X13.1780 Y-12.4355 Z1.7497
G1 X13.3133 Y-12.3426 Z1.7379
G1 X13.4388 Y-12.2564 Z1.7235
G1 X13.5548 Y-12.1768 Z1.7076
G1 X13.5934 Y-12.1503 Z1.7019
G1 X13.7093 Y-12.0707 Z1.6834
G1 X13.8373 Y-11.9828 Z1.6608
G1 X13.9025 Y-11.9380 Z1.6482
G1 X13.9653 Y-11.8949 Z1.6363
G1 X14.0571 Y-11.8318 Z1.6166
G1 X14.2117 Y-11.7257 Z1.5845
G1 X14.2503 Y-11.6992 Z1.5754
G1 X14.4628 Y-11.5532 Z1.5261
G1 X14.6464 Y-11.4272 Z1.4792
G1 X14.7043 Y-11.3874 Z1.4649
G1 X14.7237 Y-11.3741 Z1.4596
G1 X14.8299 Y-11.3011 Z1.4294
G1 X14.9652 Y-11.2083 Z1.3927
G1 X14.9845 Y-11.1950 Z1.3878
G1 X14.9984 Y-11.1855 Z1.3850
G1 X15.9312 Y-10.5449 Z1.3850
G1 X15.9505 Y-10.5316 Z1.3848
G1 X15.9698 Y-10.5183 Z1.3840
G1 X15.9892 Y-10.5051 Z1.3828
G1 X16.0085 Y-10.4918 Z1.3810
G1 X16.0278 Y-10.4785 Z1.3787
G1 X16.0471 Y-10.4653 Z1.3759
G1 X16.0523 Y-10.4617 Z1.3750
G1 X16.4406 Y-10.1951 Z1.3750
G0 Z1.8850
G0 X16.4406 Y-10.1951 
G0 Z1.8850
G0 X10.6520 Y-14.1711 
G1 X10.6520 Y-14.1711 Z1.8600 F75.
G1 X10.6582 Y-14.1667 Z1.8217 F25.
G1 X10.6760 Y-14.1543 Z1.7893
G1 X10.7026 Y-14.1358 Z1.7676
G1 X10.7339 Y-14.1139 Z1.7600
G1 X12.9102 Y-12.5942 Z1.7599 F75.
G1 X13.0399 Y-12.5037 Z1.7573
G1 X13.1744 Y-12.4097 Z1.7499
G1 X13.3137 Y-12.3125 Z1.7379
G1 X13.4495 Y-12.2177 Z1.7223
G1 X13.5684 Y-12.1347 Z1.7060
G1 X13.5876 Y-12.1213 Z1.7032
G1 X13.6548 Y-12.0743 Z1.6925
G1 X13.7029 Y-12.0407 Z1.6851
G1 X13.8410 Y-11.9443 Z1.6610
G1 X13.8854 Y-11.9133 Z1.6524
G1 X13.9623 Y-11.8596 Z1.6381
G1 X14.2073 Y-11.6885 Z1.5872
G1 X14.2265 Y-11.6751 Z1.5831
G1 X14.3850 Y-11.5644 Z1.5464
G1 X14.4619 Y-11.5107 Z1.5293
G1 X14.4811 Y-11.4973 Z1.5247
G1 X14.5772 Y-11.4302 Z1.5003
G1 X14.7213 Y-11.3296 Z1.4651
G1 X14.7694 Y-11.2960 Z1.4519
G1 X14.9567 Y-11.1652 Z1.4013
G1 X15.0048 Y-11.1317 Z1.3889
G1 X15.0216 Y-11.1199 Z1.3855
G1 X15.0258 Y-11.1170 Z1.3850
G1 X15.9608 Y-10.4641 Z1.3850
G1 X15.9992 Y-10.4373 Z1.3840
G1 X16.0184 Y-10.4239 Z1.3827
G1 X16.0377 Y-10.4104 Z1.3809
G1 X16.0569 Y-10.3970 Z1.3786
G1 X16.0797 Y-10.3811 Z1.3750
G1 X16.4625 Y-10.1138 Z1.3750
G0 Z1.8850
G0 X16.4625 Y-10.1138 
G0 Z1.8850
G0 X10.6524 Y-14.1717 
G1 X10.6524 Y-14.1717 Z1.8600 F75.
G1 X10.6586 Y-14.1673 Z1.8217 F25.
G1 X10.6763 Y-14.1548 Z1.7893
G1 X10.7027 Y-14.1360 Z1.7676
G1 X10.7339 Y-14.1138 Z1.7600
G1 X12.9102 Y-12.5688 Z1.7599 F75.
G1 X13.0368 Y-12.4789 Z1.7574
G1 X13.1706 Y-12.3839 Z1.7502
G1 X13.1897 Y-12.3704 Z1.7487
G1 X13.3139 Y-12.2822 Z1.7379
G1 X13.4501 Y-12.1855 Z1.7224
G1 X13.5815 Y-12.0922 Z1.7045
G1 X13.7152 Y-11.9972 Z1.6835
G1 X13.8466 Y-11.9040 Z1.6608
G1 X13.9756 Y-11.8124 Z1.6366
G1 X14.1452 Y-11.6920 Z1.6014
G1 X14.2217 Y-11.6377 Z1.5861
G1 X14.2408 Y-11.6241 Z1.5819
G1 X14.3268 Y-11.5631 Z1.5620
G1 X14.4797 Y-11.4545 Z1.5283
G1 X14.7090 Y-11.2917 Z1.4723
G1 X14.7281 Y-11.2781 Z1.4679
G1 X14.7520 Y-11.2612 Z1.4618
G1 X14.8810 Y-11.1696 Z1.4269
G1 X15.0148 Y-11.0746 Z1.3927
G1 X15.0291 Y-11.0644 Z1.3892
G1 X15.0482 Y-11.0509 Z1.3857
G1 X15.0530 Y-11.0475 Z1.3850
G1 X15.9894 Y-10.3827 Z1.3850
G1 X16.0085 Y-10.3691 Z1.3847
G1 X16.0277 Y-10.3555 Z1.3839
G1 X16.0468 Y-10.3420 Z1.3826
G1 X16.0659 Y-10.3284 Z1.3808
G1 X16.0850 Y-10.3148 Z1.3784
G1 X16.1067 Y-10.2994 Z1.3750
G1 X16.4845 Y-10.0311 Z1.3750
G0 Z1.8850
G0 X16.4845 Y-10.0311 
G0 Z1.8850
G0 X10.6528 Y-14.1724 
G1 X10.6528 Y-14.1724 Z1.8600 F75.
G1 X10.6590 Y-14.1679 Z1.8217 F25.
G1 X10.6766 Y-14.1552 Z1.7893
G1 X10.7029 Y-14.1362 Z1.7676
G1 X10.7339 Y-14.1138 Z1.7600
G1 X12.9075 Y-12.5450 Z1.7599 F75.
G1 X13.0334 Y-12.4541 Z1.7575
G1 X13.0524 Y-12.4404 Z1.7567
G1 X13.1665 Y-12.3581 Z1.7504
G1 X13.3185 Y-12.2483 Z1.7375
G1 X13.4515 Y-12.1523 Z1.7224
G1 X13.5846 Y-12.0563 Z1.7044
G1 X13.7176 Y-11.9603 Z1.6837
G1 X13.8506 Y-11.8643 Z1.6609
G1 X13.9789 Y-11.7717 Z1.6371
G1 X14.0977 Y-11.6859 Z1.6126
G1 X14.2307 Y-11.5899 Z1.5862
G1 X14.2687 Y-11.5625 Z1.5776
G1 X14.4588 Y-11.4253 Z1.5356
G1 X14.4968 Y-11.3979 Z1.5274
G1 X14.6393 Y-11.2950 Z1.4927
G1 X14.7533 Y-11.2127 Z1.4663
G1 X14.7723 Y-11.1990 Z1.4614
G1 X14.8103 Y-11.1716 Z1.4512
G1 X15.0087 Y-11.0284 Z1.4007
G1 X15.0503 Y-10.9984 Z1.3904
G1 X15.0717 Y-10.9830 Z1.3864
G1 X15.0823 Y-10.9752 Z1.3850
G1 X16.0171 Y-10.3005 Z1.3850
G1 X16.0361 Y-10.2868 Z1.3847
G1 X16.0551 Y-10.2731 Z1.3839
G1 X16.0741 Y-10.2594 Z1.3826
G1 X16.0931 Y-10.2457 Z1.3807
G1 X16.1121 Y-10.2320 Z1.3782
G1 X16.1321 Y-10.2175 Z1.3750
G1 X16.5042 Y-9.9490 Z1.3750
G0 Z1.8850
G0 X16.5042 Y-9.9490 
G0 Z1.8850
G0 X10.6533 Y-14.1730 
G1 X10.6533 Y-14.1730 Z1.8600 F75.
G1 X10.6594 Y-14.1685 Z1.8217 F25.
G1 X10.6769 Y-14.1556 Z1.7893
G1 X10.7031 Y-14.1365 Z1.7676
G1 X10.7339 Y-14.1138 Z1.7600
G1 X12.9070 Y-12.5193 Z1.7599 F75.
G1 X13.0393 Y-12.4223 Z1.7573
G1 X13.1716 Y-12.3252 Z1.7501
G1 X13.1905 Y-12.3114 Z1.7486
G1 X13.3133 Y-12.2212 Z1.7381
G1 X13.4527 Y-12.1190 Z1.7225
G1 X13.5873 Y-12.0202 Z1.7043
G1 X13.7196 Y-11.9232 Z1.6840
G1 X13.8518 Y-11.8261 Z1.6615
G1 X13.9085 Y-11.7845 Z1.6509
G1 X13.9841 Y-11.7290 Z1.6372
G1 X14.0408 Y-11.6874 Z1.6256
G1 X14.2487 Y-11.5349 Z1.5843
G1 X14.3998 Y-11.4240 Z1.5508
G1 X14.5038 Y-11.3478 Z1.5289
G1 X14.5794 Y-11.2923 Z1.5108
G1 X14.7683 Y-11.1536 Z1.4673
G1 X14.9289 Y-11.0358 Z1.4262
G1 X15.0612 Y-10.9387 Z1.3943
G1 X15.0778 Y-10.9266 Z1.3905
G1 X15.0990 Y-10.9110 Z1.3866
G1 X15.1126 Y-10.9010 Z1.3850
G1 X16.0438 Y-10.2178 Z1.3850
G1 X16.0627 Y-10.2039 Z1.3847
G1 X16.0816 Y-10.1900 Z1.3838
G1 X16.1005 Y-10.1762 Z1.3824
G1 X16.1194 Y-10.1623 Z1.3805
G1 X16.1383 Y-10.1484 Z1.3780
G1 X16.1572 Y-10.1346 Z1.3750
G1 X16.5234 Y-9.8659 Z1.3750
G0 Z1.8850
G0 X16.5234 Y-9.8659 
G0 Z1.8850
G0 X10.6537 Y-14.1736 
G1 X10.6537 Y-14.1736 Z1.8600 F75.
G1 X10.6598 Y-14.1690 Z1.8217 F25.
G1 X10.6772 Y-14.1561 Z1.7893
G1 X10.7032 Y-14.1367 Z1.7676
G1 X10.7339 Y-14.1138 Z1.7600
G1 X12.9062 Y-12.4936 Z1.7599 F75.
G1 X13.0354 Y-12.3973 Z1.7574
G1 X13.1763 Y-12.2922 Z1.7498
G1 X13.3078 Y-12.1941 Z1.7387
G1 X13.3266 Y-12.1801 Z1.7367
G1 X13.4534 Y-12.0855 Z1.7226
G1 X13.5896 Y-11.9839 Z1.7043
G1 X13.6648 Y-11.9279 Z1.6927
G1 X13.7235 Y-11.8841 Z1.6839
G1 X13.7775 Y-11.8438 Z1.6747
G1 X13.8573 Y-11.7843 Z1.6614
G1 X13.9912 Y-11.6844 Z1.6371
G1 X14.1720 Y-11.5496 Z1.6010
G1 X14.2472 Y-11.4935 Z1.5867
G1 X14.2660 Y-11.4795 Z1.5826
G1 X14.3411 Y-11.4235 Z1.5660
G1 X14.5196 Y-11.2903 Z1.5285
G1 X14.6981 Y-11.1572 Z1.4871
G1 X14.7826 Y-11.0942 Z1.4684
G1 X14.7920 Y-11.0872 Z1.4663
G1 X14.8672 Y-11.0311 Z1.4473
G1 X15.0269 Y-10.9120 Z1.4088
G1 X15.0926 Y-10.8630 Z1.3933
G1 X15.1020 Y-10.8560 Z1.3913
G1 X15.1243 Y-10.8393 Z1.3873
G1 X15.1419 Y-10.8262 Z1.3852
G1 X15.1466 Y-10.8227 Z1.3850
G1 X16.0696 Y-10.1343 Z1.3850
G1 X16.0884 Y-10.1203 Z1.3847
G1 X16.1072 Y-10.1063 Z1.3838
G1 X16.1259 Y-10.0923 Z1.3824
G1 X16.1447 Y-10.0783 Z1.3804
G1 X16.1635 Y-10.0643 Z1.3778
G1 X16.1798 Y-10.0522 Z1.3750
G1 X16.5404 Y-9.7832 Z1.3750
G0 Z1.8850
G0 X16.5404 Y-9.7832 
G0 Z1.8850
G0 X10.6542 Y-14.1742 
G1 X10.6542 Y-14.1742 Z1.8600 F75.
G1 X10.6603 Y-14.1696 Z1.8217 F25.
G1 X10.6775 Y-14.1565 Z1.7893
G1 X10.7034 Y-14.1369 Z1.7676
G1 X10.7339 Y-14.1138 Z1.7600
G1 X12.9052 Y-12.4679 Z1.7599 F75.
G1 X13.0312 Y-12.3723 Z1.7575
G1 X13.0499 Y-12.3581 Z1.7567
G1 X13.1713 Y-12.2661 Z1.7501
G1 X13.1900 Y-12.2519 Z1.7487
G1 X13.3161 Y-12.1564 Z1.7380
G1 X13.4550 Y-12.0511 Z1.7225
G1 X13.5916 Y-11.9475 Z1.7044
G1 X13.6476 Y-11.9050 Z1.6958
G1 X13.7223 Y-11.8484 Z1.6847
G1 X13.8624 Y-11.7422 Z1.6613
G1 X13.9966 Y-11.6405 Z1.6372
G1 X14.1239 Y-11.5440 Z1.6119
G1 X14.2546 Y-11.4449 Z1.5871
G1 X14.4694 Y-11.2821 Z1.5416
G1 X14.5254 Y-11.2396 Z1.5303
G1 X14.5441 Y-11.2254 Z1.5261
G1 X14.6375 Y-11.1546 Z1.5046
G1 X14.8056 Y-11.0272 Z1.4677
G1 X14.9737 Y-10.8998 Z1.4269
G1 X15.1044 Y-10.8007 Z1.3970
G1 X15.1278 Y-10.7830 Z1.3918
G1 X15.1535 Y-10.7635 Z1.3874
G1 X15.1721 Y-10.7494 Z1.3853
G1 X15.1791 Y-10.7440 Z1.3850
G1 X16.0943 Y-10.0503 Z1.3850
G1 X16.1130 Y-10.0361 Z1.3846
G1 X16.1317 Y-10.0220 Z1.3837
G1 X16.1504 Y-10.0078 Z1.3822
G1 X16.1691 Y-9.9936 Z1.3801
G1 X16.1877 Y-9.9795 Z1.3775
G1 X16.2020 Y-9.9687 Z1.3750
G1 X16.5566 Y-9.6999 Z1.3750
G0 Z1.8850
G0 X16.5566 Y-9.6999 
G0 Z1.8850
G0 X10.6547 Y-14.1748 
G1 X10.6547 Y-14.1748 Z1.8600 F75.
G1 X10.6607 Y-14.1702 Z1.8217 F25.
G1 X10.6779 Y-14.1569 Z1.7893
G1 X10.7036 Y-14.1371 Z1.7676
G1 X10.7339 Y-14.1138 Z1.7600
G1 X12.9038 Y-12.4420 Z1.7599 F75.
G1 X13.0361 Y-12.3401 Z1.7573
G1 X13.1754 Y-12.2328 Z1.7499
G1 X13.3146 Y-12.1255 Z1.7382
G1 X13.4538 Y-12.0182 Z1.7229
G1 X13.5931 Y-11.9109 Z1.7045
G1 X13.7277 Y-11.8072 Z1.6844
G1 X13.8669 Y-11.7000 Z1.6614
G1 X13.9459 Y-11.6392 Z1.6472
G1 X14.0016 Y-11.5962 Z1.6375
G1 X14.0758 Y-11.5390 Z1.6228
G1 X14.2754 Y-11.3853 Z1.5849
G1 X14.4100 Y-11.2816 Z1.5564
G1 X14.5400 Y-11.1814 Z1.5303
G1 X14.7442 Y-11.0241 Z1.4849
G1 X14.8185 Y-10.9669 Z1.4693
G1 X14.8370 Y-10.9526 Z1.4650
G1 X14.9020 Y-10.9025 Z1.4492
G1 X15.1341 Y-10.7237 Z1.3963
G1 X15.1503 Y-10.7112 Z1.3929
G1 X15.1782 Y-10.6897 Z1.3881
G1 X15.1991 Y-10.6736 Z1.3857
G1 X15.2107 Y-10.6647 Z1.3850
G1 X16.1181 Y-9.9656 Z1.3850
G1 X16.1367 Y-9.9513 Z1.3846
G1 X16.1552 Y-9.9370 Z1.3836
G1 X16.1738 Y-9.9227 Z1.3820
G1 X16.1924 Y-9.9084 Z1.3798
G1 X16.2109 Y-9.8941 Z1.3770
G1 X16.2219 Y-9.8856 Z1.3750
G1 X16.5712 Y-9.6165 Z1.3750
G0 Z1.8850
G0 X16.5712 Y-9.6165 
G0 Z1.8850
G0 X10.6551 Y-14.1754 
G1 X10.6551 Y-14.1754 Z1.8600 F75.
G1 X10.6611 Y-14.1707 Z1.8217 F25.
G1 X10.6782 Y-14.1574 Z1.7893
G1 X10.7037 Y-14.1374 Z1.7676
G1 X10.7339 Y-14.1138 Z1.7600
G1 X12.9022 Y-12.4160 Z1.7599 F75.
G1 X13.0314 Y-12.3149 Z1.7575
G1 X13.0498 Y-12.3004 Z1.7566
G1 X13.1698 Y-12.2065 Z1.7502
G1 X13.1883 Y-12.1921 Z1.7488
G1 X13.3174 Y-12.0909 Z1.7379
G1 X13.4558 Y-11.9826 Z1.7228
G1 X13.5942 Y-11.8742 Z1.7047
G1 X13.7326 Y-11.7658 Z1.6841
G1 X13.8157 Y-11.7008 Z1.6705
G1 X13.8687 Y-11.6593 Z1.6619
G1 X13.9080 Y-11.6286 Z1.6549
G1 X14.0002 Y-11.5563 Z1.6389
G1 X14.1940 Y-11.4046 Z1.6018
G1 X14.2770 Y-11.3396 Z1.5866
G1 X14.3509 Y-11.2818 Z1.5711
G1 X14.5608 Y-11.1174 Z1.5289
G1 X14.6830 Y-11.0217 Z1.5019
G1 X14.8399 Y-10.8989 Z1.4691
G1 X15.0060 Y-10.7689 Z1.4304
G1 X15.1721 Y-10.6388 Z1.3941
G1 X15.2043 Y-10.6135 Z1.3887
G1 X15.2297 Y-10.5937 Z1.3858
G1 X15.2436 Y-10.5828 Z1.3850
G1 X16.1409 Y-9.8803 Z1.3850
G1 X16.1593 Y-9.8658 Z1.3845
G1 X16.1778 Y-9.8514 Z1.3834
G1 X16.1962 Y-9.8369 Z1.3817
G1 X16.2147 Y-9.8225 Z1.3794
G1 X16.2332 Y-9.8080 Z1.3765
G1 X16.2413 Y-9.8016 Z1.3750
G1 X16.5844 Y-9.5330 Z1.3750
G0 Z1.8850
G0 X16.5844 Y-9.5330 
G0 Z1.8850
G0 X10.6556 Y-14.1760 
G1 X10.6556 Y-14.1760 Z1.8600 F75.
G1 X10.6616 Y-14.1713 Z1.8217 F25.
G1 X10.6785 Y-14.1578 Z1.7893
G1 X10.7039 Y-14.1376 Z1.7676
G1 X10.7339 Y-14.1138 Z1.7600
G1 X12.9003 Y-12.3900 Z1.7599 F75.
G1 X13.0356 Y-12.2824 Z1.7573
G1 X13.1777 Y-12.1693 Z1.7497
G1 X13.3107 Y-12.0635 Z1.7386
G1 X13.4574 Y-11.9468 Z1.7228
G1 X13.5973 Y-11.8355 Z1.7046
G1 X13.6683 Y-11.7789 Z1.6940
G1 X13.7348 Y-11.7260 Z1.6844
G1 X13.7784 Y-11.6914 Z1.6772
G1 X13.8747 Y-11.6148 Z1.6618
G1 X13.9985 Y-11.5163 Z1.6403
G1 X14.0168 Y-11.5017 Z1.6370
G1 X14.1452 Y-11.3995 Z1.6125
G1 X14.2827 Y-11.2901 Z1.5875
G1 X14.4662 Y-11.1442 Z1.5502
G1 X14.5670 Y-11.0639 Z1.5307
G1 X14.6220 Y-11.0201 Z1.5187
G1 X14.7137 Y-10.9472 Z1.4995
G1 X14.7871 Y-10.8888 Z1.4838
G1 X14.8513 Y-10.8377 Z1.4709
G1 X14.9430 Y-10.7648 Z1.4498
G1 X15.0622 Y-10.6699 Z1.4238
G1 X15.1081 Y-10.6334 Z1.4135
G1 X15.1986 Y-10.5614 Z1.3942
G1 X15.2319 Y-10.5349 Z1.3889
G1 X15.2594 Y-10.5130 Z1.3859
G1 X15.2754 Y-10.5003 Z1.3850
G1 X16.1626 Y-9.7944 Z1.3849
G1 X16.1810 Y-9.7798 Z1.3844
G1 X16.1993 Y-9.7652 Z1.3832
G1 X16.2177 Y-9.7506 Z1.3814
G1 X16.2360 Y-9.7360 Z1.3789
G1 X16.2543 Y-9.7214 Z1.3759
G1 X16.2585 Y-9.7181 Z1.3750
G1 X16.5963 Y-9.4493 Z1.3750
G0 Z1.8850
G0 X16.5963 Y-9.4493 
G0 Z1.8850
G0 X10.6561 Y-14.1766 
G1 X10.6561 Y-14.1766 Z1.8600 F75.
G1 X10.6620 Y-14.1718 Z1.8217 F25.
G1 X10.6789 Y-14.1582 Z1.7893
G1 X10.7041 Y-14.1378 Z1.7676
G1 X10.7339 Y-14.1137 Z1.7600
G1 X12.9005 Y-12.3621 Z1.7599 F75.
G1 X13.0303 Y-12.2571 Z1.7575
G1 X13.0485 Y-12.2423 Z1.7566
G1 X13.1761 Y-12.1392 Z1.7498
G1 X13.3174 Y-12.0250 Z1.7381
G1 X13.4586 Y-11.9108 Z1.7228
G1 X13.5987 Y-11.7975 Z1.7048
G1 X13.6500 Y-11.7561 Z1.6972
G1 X13.7388 Y-11.6842 Z1.6843
G1 X13.8778 Y-11.5719 Z1.6621
G1 X13.9598 Y-11.5056 Z1.6479
G1 X14.0145 Y-11.4614 Z1.6387
G1 X14.0874 Y-11.4024 Z1.6248
G1 X14.1968 Y-11.3140 Z1.6049
G1 X14.2514 Y-11.2698 Z1.5948
G1 X14.2970 Y-11.2330 Z1.5867
G1 X14.4155 Y-11.1372 Z1.5627
G1 X14.5613 Y-11.0193 Z1.5347
G1 X14.5977 Y-10.9898 Z1.5273
G1 X14.7253 Y-10.8867 Z1.5002
G1 X14.8780 Y-10.7633 Z1.4695
G1 X15.0443 Y-10.6288 Z1.4323
G1 X15.2197 Y-10.4870 Z1.3953
G1 X15.2562 Y-10.4575 Z1.3895
G1 X15.2858 Y-10.4336 Z1.3862
G1 X15.3074 Y-10.4161 Z1.3850
G1 X16.1743 Y-9.7152 Z1.3850
G1 X16.1834 Y-9.7078 Z1.3849
G1 X16.2016 Y-9.6931 Z1.3842
G1 X16.2198 Y-9.6784 Z1.3828
G1 X16.2381 Y-9.6636 Z1.3809
G1 X16.2563 Y-9.6489 Z1.3783
G1 X16.2751 Y-9.6337 Z1.3750
G1 X16.6064 Y-9.3658 Z1.3750
G0 Z1.8850
G0 X16.6064 Y-9.3658 
G0 Z1.8850
G0 X10.6566 Y-14.1772 
G1 X10.6566 Y-14.1772 Z1.8600 F75.
G1 X10.6625 Y-14.1724 Z1.8217 F25.
G1 X10.6792 Y-14.1586 Z1.7893
G1 X10.7043 Y-14.1380 Z1.7676
G1 X10.7338 Y-14.1137 Z1.7600
G1 X12.8980 Y-12.3359 Z1.7599 F75.
G1 X13.0338 Y-12.2243 Z1.7573
G1 X13.1697 Y-12.1127 Z1.7502
G1 X13.1878 Y-12.0978 Z1.7488
G1 X13.3191 Y-11.9900 Z1.7380
G1 X13.4606 Y-11.8737 Z1.7228
G1 X13.6009 Y-11.7584 Z1.7048
G1 X13.7401 Y-11.6441 Z1.6847
G1 X13.8828 Y-11.5269 Z1.6621
G1 X13.9393 Y-11.4804 Z1.6524
G1 X14.0118 Y-11.4209 Z1.6403
G1 X14.2019 Y-11.2647 Z1.6053
G1 X14.3015 Y-11.1829 Z1.5878
G1 X14.3559 Y-11.1382 Z1.5769
G1 X14.4283 Y-11.0787 Z1.5630
G1 X14.5189 Y-11.0043 Z1.5452
G1 X14.5913 Y-10.9448 Z1.5317
G1 X14.6728 Y-10.8779 Z1.5146
G1 X14.7634 Y-10.8035 Z1.4964
G1 X14.8267 Y-10.7514 Z1.4834
G1 X14.8901 Y-10.6994 Z1.4710
G1 X14.9716 Y-10.6324 Z1.4528
G1 X15.0441 Y-10.5729 Z1.4377
G1 X15.1346 Y-10.4985 Z1.4182
G1 X15.2455 Y-10.4074 Z1.3954
G1 X15.2818 Y-10.3776 Z1.3897
G1 X15.3146 Y-10.3507 Z1.3863
G1 X15.3384 Y-10.3311 Z1.3850
G1 X16.1941 Y-9.6282 Z1.3850
G1 X16.2031 Y-9.6207 Z1.3848
G1 X16.2212 Y-9.6059 Z1.3840
G1 X16.2393 Y-9.5910 Z1.3825
G1 X16.2574 Y-9.5761 Z1.3804
G1 X16.2756 Y-9.5612 Z1.3776
G1 X16.2889 Y-9.5503 Z1.3750
G1 X16.6158 Y-9.2818 Z1.3750
G0 Z1.8850
G0 X16.6158 Y-9.2818 
G0 Z1.8850
G0 X10.6571 Y-14.1778 
G1 X10.6571 Y-14.1778 Z1.8600 F75.
G1 X10.6629 Y-14.1729 Z1.8217 F25.
G1 X10.6796 Y-14.1590 Z1.7893
G1 X10.7045 Y-14.1382 Z1.7676
G1 X10.7338 Y-14.1137 Z1.7600
G1 X12.8975 Y-12.3077 Z1.7599 F75.
G1 X13.0280 Y-12.1989 Z1.7575
G1 X13.0460 Y-12.1838 Z1.7567
G1 X13.1719 Y-12.0787 Z1.7500
G1 X13.3159 Y-11.9586 Z1.7383
G1 X13.4621 Y-11.8365 Z1.7228
G1 X13.6038 Y-11.7183 Z1.7048
G1 X13.7432 Y-11.6019 Z1.6848
G1 X13.7927 Y-11.5606 Z1.6769
G1 X13.8872 Y-11.4817 Z1.6622
G1 X14.0311 Y-11.3616 Z1.6381
G1 X14.1526 Y-11.2602 Z1.6157
G1 X14.3145 Y-11.1250 Z1.5873
G1 X14.4585 Y-11.0049 Z1.5591
G1 X14.6092 Y-10.8791 Z1.5311
G1 X14.7643 Y-10.7496 Z1.4992
G1 X14.9083 Y-10.6294 Z1.4713
G1 X15.0702 Y-10.4943 Z1.4362
G1 X15.2637 Y-10.3328 Z1.3965
G1 X15.3041 Y-10.2990 Z1.3902
G1 X15.3401 Y-10.2690 Z1.3864
G1 X15.3671 Y-10.2465 Z1.3850
G1 X16.2038 Y-9.5481 Z1.3850
G1 X16.2218 Y-9.5331 Z1.3846
G1 X16.2398 Y-9.5181 Z1.3836
G1 X16.2578 Y-9.5030 Z1.3820
G1 X16.2758 Y-9.4880 Z1.3796
G1 X16.2938 Y-9.4730 Z1.3767
G1 X16.3021 Y-9.4661 Z1.3750
G1 X16.6226 Y-9.1985 Z1.3750
G0 Z1.8850
G0 X16.6226 Y-9.1985 
G0 Z1.8850
G0 X10.6576 Y-14.1784 
