( MOP:  CarveTop-02-front-start )
( FILE: G:\Shared drives\AlloyProjectFiles\Customer CAD files\Alloy-Standard-Builds-CAM\t-in\Contours\CarveTop-02-front-start.nc)
G90
(  BEGIN TOOL LIST )
(  TOOL 11 - Downcut PT750 ROUGH - DESC: 0.7500 DIA, 2 FLUTE,  CARBIDE MAT )
(  ENDOF TOOL LIST )
( CarveTop-02-front-start)
T11
S14000
M3
G0 Z6.0000
G0 X4.6574 Y-21.1922 
G1 X4.6574 Y-21.1922 Z1.8333 F75.
G1 X4.6239 Y-21.1427 Z1.8228 F50.
G1 X4.5400 Y-21.0073 Z1.7947
G1 X4.4617 Y-20.8683 Z1.7666
G1 X4.3891 Y-20.7261 Z1.7384
G1 X4.3225 Y-20.5808 Z1.7102
G1 X4.2620 Y-20.4326 Z1.6820
G1 X4.2079 Y-20.2818 Z1.6538
G1 X4.1603 Y-20.1286 Z1.6255
G1 X4.1195 Y-19.9733 Z1.5972
G1 X4.0856 Y-19.8171 Z1.5690
G1 X4.0586 Y-19.6608 Z1.5410
G1 X4.0380 Y-19.5046 Z1.5132
G1 X4.0231 Y-19.3488 Z1.4856
G1 X4.0135 Y-19.1943 Z1.4583
G17
G2X4.1929Y-17.4737Z1.4583I6.1566J0.2280 F150.
G2X4.8714Y-15.5339Z1.4583I10.6757J-2.6456
G1 X5.3242 Y-14.5512 Z1.4583
G3X5.6687Y-13.7464Z1.4583I-10.7816J5.0915
G3X5.8555Y-12.9778Z1.4583I-2.6533J1.0516
G3X5.7487Y-12.0634Z1.4583I-2.3405J0.1902
G1 X5.6961 Y-11.9054 Z1.4583
G1 X5.6375 Y-11.7472 Z1.4583
G3X5.3016Y-10.9116Z1.4583I-76.8705J-30.4108
G2X5.0014Y-9.9999Z1.4583I6.5304J2.6553
G2X4.8671Y-9.0257Z1.4583I4.4196J1.1057
G2X5.0260Y-7.9262Z1.4583I3.1101J0.1119
G2X5.6398Y-7.0047Z1.4583I1.9920J-0.6618
G2X6.5639Y-6.5677Z1.4583I1.2930J-1.5386
G2X7.2250Y-6.5274Z1.4583I0.4830J-2.4826
G2X8.5486Y-6.9306Z1.4583I-0.1767J-2.9542
G2X8.9212Y-7.1669Z1.4583I-3.4600J-5.8680
G3X9.1361Y-7.2912Z1.4583I0.9791J1.4450
G1 X9.1772 Y-7.3083 Z1.4583
G1 X9.2154 Y-7.3208 Z1.4583
G3X9.2338Y-7.3158Z1.4583I0.0031J0.0250
G3X9.2438Y-7.2969Z1.4583I-0.0155J0.0202
G1 X9.2438 Y-7.2806 Z1.4583
G2X9.8888Y-6.6522Z1.4583I0.6447J-0.0165
G1 X11.5773 Y-6.6522 Z1.4583
G2X12.2223Y-7.2957Z1.4583I0.0000J-0.6450
G1 X12.2258 Y-8.8394 Z1.4583
G3X12.3289Y-9.1864Z1.4583I0.6997J0.0189
G3X12.6489Y-9.4423Z1.4583I0.5265J0.3306
G3X12.9025Y-9.4447Z1.4583I0.1318J0.5207
G3X13.7346Y-8.7862Z1.4583I-0.2414J1.1600
G3X13.8643Y-8.4697Z1.4583I-2.3685J1.1556
G1 X13.9236 Y-8.2864 Z1.4583
G1 X14.0410 Y-7.8870 Z1.4583
G2X14.2719Y-7.3790Z1.4583I1.9279J-0.5696
G2X14.9330Y-6.8547Z1.4583I1.0929J-0.6993
G2X16.2579Y-7.3180Z1.4583I0.3474J-1.1326
G2X16.4742Y-7.7358Z1.4583I-1.4433J-1.0121
G2X16.6538Y-8.6912Z1.4583I-2.9266J-1.0448
G2X16.4499Y-10.2351Z1.4583I-4.8286J-0.1476
G2X16.1634Y-11.0411Z1.4583I-8.1236J2.4338
G1 X15.9315 Y-11.6058 Z1.4583
G3X15.7192Y-12.2326Z1.4583I4.3264J-1.8145
G3X15.7300Y-13.3525Z1.4583I2.0800J-0.5401
G3X15.9117Y-13.8907Z1.4583I4.5980J1.2523
G3X16.3961Y-14.9949Z1.4583I18.2349J7.3422
G2X16.9028Y-16.1462Z1.4583I-16.8332J-8.0957
G2X17.3961Y-17.7859Z1.4583I-10.0748J-3.9250
G2X17.5232Y-19.1091Z1.4583I-5.9184J-1.2360
G2X17.4217Y-19.7767Z1.4583I-2.8460J0.0910
G2X17.2168Y-20.4160Z1.4583I-9.4482J2.6756
G1 X17.2015 Y-20.4510 Z1.4583
G1 X16.7809 Y-21.2507 Z1.4583
G1 X16.7590 Y-21.2838 Z1.4583
G2X16.4021Y-21.7386Z1.4583I-4.7372J3.3497
G2X15.5816Y-22.4082Z1.4583I-2.7672J2.5535
G2X14.4170Y-22.9139Z1.4583I-2.4371J4.0185
G2X13.0315Y-23.1625Z1.4583I-2.0031J7.1786
G2X11.6613Y-23.2168Z1.4583I-1.2490J14.2132
G1 X10.5169 Y-23.2141 Z1.4583
G1 X9.6542 Y-23.2138 Z1.4583
G2X8.1785Y-23.1293Z1.4583I-0.0608J11.8684
G2X6.8409Y-22.8321Z1.4583I0.7681J6.6155
G2X5.3498Y-21.9796Z1.4583I1.4182J4.2107
G2X4.2079Y-20.2818Z1.4583I2.5741J2.9641
G2X4.0135Y-19.1943Z1.4583I3.7026J1.2229
G1 X4.0083 Y-18.9971 Z1.4583
G1 X4.0089 Y-18.9443 Z1.4583
G0 Z1.7917
G0 X4.0089 Y-18.9443 
G0 Z1.7917
G0 X4.6574 Y-21.1922 
G1 X4.6574 Y-21.1922 Z1.5417 F75.
G1 X4.6239 Y-21.1427 Z1.5311 F50.
G1 X4.5400 Y-21.0073 Z1.5030
G1 X4.4617 Y-20.8683 Z1.4749
G1 X4.3891 Y-20.7261 Z1.4468
G1 X4.3225 Y-20.5808 Z1.4186
G1 X4.2620 Y-20.4326 Z1.3903
G1 X4.2079 Y-20.2818 Z1.3621
G1 X4.1603 Y-20.1286 Z1.3338
G1 X4.1195 Y-19.9733 Z1.3055
G1 X4.0856 Y-19.8171 Z1.2773
G1 X4.0586 Y-19.6608 Z1.2493
G1 X4.0380 Y-19.5046 Z1.2216
G1 X4.0231 Y-19.3488 Z1.1940
G1 X4.0135 Y-19.1943 Z1.1667
G2X4.1929Y-17.4737Z1.1667I6.1566J0.2280 F150.
G2X4.8714Y-15.5339Z1.1667I10.6757J-2.6456
G1 X5.3242 Y-14.5512 Z1.1667
G3X5.6687Y-13.7464Z1.1667I-10.7816J5.0915
G3X5.8555Y-12.9778Z1.1667I-2.6533J1.0516
G3X5.7487Y-12.0634Z1.1667I-2.3405J0.1902
G1 X5.6961 Y-11.9054 Z1.1667
G1 X5.6375 Y-11.7472 Z1.1667
G3X5.3016Y-10.9116Z1.1667I-76.8705J-30.4108
G2X5.0014Y-9.9999Z1.1667I6.5304J2.6553
G2X4.8671Y-9.0257Z1.1667I4.4196J1.1057
G2X5.0260Y-7.9262Z1.1667I3.1101J0.1119
G2X5.6398Y-7.0047Z1.1667I1.9920J-0.6618
G2X6.5639Y-6.5677Z1.1667I1.2930J-1.5386
G2X7.2250Y-6.5274Z1.1667I0.4830J-2.4826
G2X8.5486Y-6.9306Z1.1667I-0.1767J-2.9542
G2X8.9212Y-7.1669Z1.1667I-3.4600J-5.8680
G3X9.1361Y-7.2912Z1.1667I0.9791J1.4450
G1 X9.1772 Y-7.3083 Z1.1667
G1 X9.2154 Y-7.3208 Z1.1667
G3X9.2338Y-7.3158Z1.1667I0.0031J0.0250
G3X9.2438Y-7.2969Z1.1667I-0.0155J0.0202
G1 X9.2438 Y-7.2806 Z1.1667
G2X9.8888Y-6.6522Z1.1667I0.6447J-0.0165
G1 X11.5773 Y-6.6522 Z1.1667
G2X12.2223Y-7.2957Z1.1667I0.0000J-0.6450
G1 X12.2258 Y-8.8394 Z1.1667
G3X12.3289Y-9.1864Z1.1667I0.6997J0.0189
G3X12.6489Y-9.4423Z1.1667I0.5265J0.3306
G3X12.9025Y-9.4447Z1.1667I0.1318J0.5207
G3X13.7346Y-8.7862Z1.1667I-0.2414J1.1600
G3X13.8643Y-8.4697Z1.1667I-2.3685J1.1556
G1 X13.9236 Y-8.2864 Z1.1667
G1 X14.0410 Y-7.8870 Z1.1667
G2X14.2719Y-7.3790Z1.1667I1.9279J-0.5696
G2X14.9330Y-6.8547Z1.1667I1.0929J-0.6993
G2X16.2579Y-7.3180Z1.1667I0.3474J-1.1326
G2X16.4742Y-7.7358Z1.1667I-1.4433J-1.0121
G2X16.6538Y-8.6912Z1.1667I-2.9266J-1.0448
G2X16.4499Y-10.2351Z1.1667I-4.8286J-0.1476
G2X16.1634Y-11.0411Z1.1667I-8.1236J2.4338
G1 X15.9315 Y-11.6058 Z1.1667
G3X15.7192Y-12.2326Z1.1667I4.3264J-1.8145
G3X15.7300Y-13.3525Z1.1667I2.0800J-0.5401
G3X15.9117Y-13.8907Z1.1667I4.5980J1.2523
G3X16.3961Y-14.9949Z1.1667I18.2349J7.3422
G2X16.9028Y-16.1462Z1.1667I-16.8332J-8.0957
G2X17.3961Y-17.7859Z1.1667I-10.0748J-3.9250
G2X17.5232Y-19.1091Z1.1667I-5.9184J-1.2360
G2X17.4217Y-19.7767Z1.1667I-2.8460J0.0910
G2X17.2168Y-20.4160Z1.1667I-9.4482J2.6756
G1 X17.2015 Y-20.4510 Z1.1667
G1 X16.7809 Y-21.2507 Z1.1667
G1 X16.7590 Y-21.2838 Z1.1667
G2X16.4021Y-21.7386Z1.1667I-4.7372J3.3497
G2X15.5816Y-22.4082Z1.1667I-2.7672J2.5535
G2X14.4170Y-22.9139Z1.1667I-2.4371J4.0185
G2X13.0315Y-23.1625Z1.1667I-2.0031J7.1786
G2X11.6613Y-23.2168Z1.1667I-1.2490J14.2132
G1 X10.5169 Y-23.2141 Z1.1667
G1 X9.6542 Y-23.2138 Z1.1667
G2X8.1785Y-23.1293Z1.1667I-0.0608J11.8684
G2X6.8409Y-22.8321Z1.1667I0.7681J6.6155
G2X5.3498Y-21.9796Z1.1667I1.4182J4.2107
G2X4.2079Y-20.2818Z1.1667I2.5741J2.9641
G2X4.0135Y-19.1943Z1.1667I3.7026J1.2229
G1 X4.0083 Y-18.9971 Z1.1667
G1 X4.0089 Y-18.9443 Z1.1667
G0 Z1.6345
G0 X4.0089 Y-18.9443 
G0 Z1.6345
G0 X4.6574 Y-21.1922 
G1 X4.6574 Y-21.1922 Z1.2500 F75.
G1 X4.6239 Y-21.1427 Z1.2395 F50.
G1 X4.5400 Y-21.0073 Z1.2114
G1 X4.4617 Y-20.8683 Z1.1832
G1 X4.3891 Y-20.7261 Z1.1551
G1 X4.3225 Y-20.5808 Z1.1269
G1 X4.2620 Y-20.4326 Z1.0987
G1 X4.2079 Y-20.2818 Z1.0704
G1 X4.1603 Y-20.1286 Z1.0421
G1 X4.1195 Y-19.9733 Z1.0138
G1 X4.0856 Y-19.8171 Z0.9856
G1 X4.0586 Y-19.6608 Z0.9577
G1 X4.0380 Y-19.5046 Z0.9299
G1 X4.0231 Y-19.3488 Z0.9023
G1 X4.0135 Y-19.1943 Z0.8750
G2X4.1929Y-17.4737Z0.8750I6.1566J0.2280 F150.
G2X4.8714Y-15.5339Z0.8750I10.6757J-2.6456
G1 X5.3242 Y-14.5512 Z0.8750
G3X5.6687Y-13.7464Z0.8750I-10.7816J5.0915
G3X5.8555Y-12.9778Z0.8750I-2.6533J1.0516
G3X5.7487Y-12.0634Z0.8750I-2.3405J0.1902
G1 X5.6961 Y-11.9054 Z0.8750
G1 X5.6375 Y-11.7472 Z0.8750
G3X5.3016Y-10.9116Z0.8750I-76.8705J-30.4108
G2X5.0014Y-9.9999Z0.8750I6.5304J2.6553
G2X4.8671Y-9.0257Z0.8750I4.4196J1.1057
G2X5.0260Y-7.9262Z0.8750I3.1101J0.1119
G2X5.6398Y-7.0047Z0.8750I1.9920J-0.6618
G2X6.5639Y-6.5677Z0.8750I1.2930J-1.5386
G2X7.2250Y-6.5274Z0.8750I0.4830J-2.4826
G2X8.5486Y-6.9306Z0.8750I-0.1767J-2.9542
G2X8.9212Y-7.1669Z0.8750I-3.4600J-5.8680
G3X9.1361Y-7.2912Z0.8750I0.9791J1.4450
G1 X9.1772 Y-7.3083 Z0.8750
G1 X9.2154 Y-7.3208 Z0.8750
G3X9.2338Y-7.3158Z0.8750I0.0031J0.0250
G3X9.2438Y-7.2969Z0.8750I-0.0155J0.0202
G1 X9.2438 Y-7.2806 Z0.8750
G2X9.8888Y-6.6522Z0.8750I0.6447J-0.0165
G1 X11.5773 Y-6.6522 Z0.8750
G2X12.2223Y-7.2957Z0.8750I0.0000J-0.6450
G1 X12.2258 Y-8.8394 Z0.8750
G3X12.3289Y-9.1864Z0.8750I0.6997J0.0189
G3X12.6489Y-9.4423Z0.8750I0.5265J0.3306
G3X12.9025Y-9.4447Z0.8750I0.1318J0.5207
G3X13.7346Y-8.7862Z0.8750I-0.2414J1.1600
G3X13.8643Y-8.4697Z0.8750I-2.3685J1.1556
G1 X13.9236 Y-8.2864 Z0.8750
G1 X14.0410 Y-7.8870 Z0.8750
G2X14.2719Y-7.3790Z0.8750I1.9279J-0.5696
G2X14.9330Y-6.8547Z0.8750I1.0929J-0.6993
G2X16.2579Y-7.3180Z0.8750I0.3474J-1.1326
G2X16.4742Y-7.7358Z0.8750I-1.4433J-1.0121
G2X16.6538Y-8.6912Z0.8750I-2.9266J-1.0448
G2X16.4499Y-10.2351Z0.8750I-4.8286J-0.1476
G2X16.1634Y-11.0411Z0.8750I-8.1236J2.4338
G1 X15.9315 Y-11.6058 Z0.8750
G3X15.7192Y-12.2326Z0.8750I4.3264J-1.8145
G3X15.7300Y-13.3525Z0.8750I2.0800J-0.5401
G3X15.9117Y-13.8907Z0.8750I4.5980J1.2523
G3X16.3961Y-14.9949Z0.8750I18.2349J7.3422
G2X16.9028Y-16.1462Z0.8750I-16.8332J-8.0957
G2X17.3961Y-17.7859Z0.8750I-10.0748J-3.9250
G2X17.5232Y-19.1091Z0.8750I-5.9184J-1.2360
G2X17.4217Y-19.7767Z0.8750I-2.8460J0.0910
G2X17.2168Y-20.4160Z0.8750I-9.4482J2.6756
G1 X17.2015 Y-20.4510 Z0.8750
G1 X16.7809 Y-21.2507 Z0.8750
G1 X16.7590 Y-21.2838 Z0.8750
G2X16.4021Y-21.7386Z0.8750I-4.7372J3.3497
G2X15.5816Y-22.4082Z0.8750I-2.7672J2.5535
G2X14.4170Y-22.9139Z0.8750I-2.4371J4.0185
G2X13.0315Y-23.1625Z0.8750I-2.0031J7.1786
G2X11.6613Y-23.2168Z0.8750I-1.2490J14.2132
G1 X10.5169 Y-23.2141 Z0.8750
G1 X9.6542 Y-23.2138 Z0.8750
G2X8.1785Y-23.1293Z0.8750I-0.0608J11.8684
G2X6.8409Y-22.8321Z0.8750I0.7681J6.6155
G2X5.3498Y-21.9796Z0.8750I1.4182J4.2107
G2X4.2079Y-20.2818Z0.8750I2.5741J2.9641
G2X4.0135Y-19.1943Z0.8750I3.7026J1.2229
G1 X4.0083 Y-18.9971 Z0.8750
G1 X4.0089 Y-18.9443 Z0.8750
G0 Z6.0000
G0 X4.0089 Y-18.9443 
M5
G53 Z
X2Y0
