( MOP:  DoubleCutCarveTopWithRound-03-front-start )
( FILE: G:\Shared drives\AlloyProjectFiles\Customer CAD files\Alloy-Standard-Builds-CAM\t-in\Contours\DoubleCutCarveTopWithRound-03-front-start.nc)
G90
(  BEGIN TOOL LIST )
(  TOOL 12 - Ball PT750 - DESC: 0.7500 DIA, 2 FLUTE,  CARBIDE MAT )
(  ENDOF TOOL LIST )
( DoubleCutCarveTopWithRound-03-front-start)
T12
S12000
M3
G0 Z4.0000
G0 X10.6343 Y-14.1150 
G1 X10.6343 Y-14.1150 Z1.8600 F75.
G1 X10.6419 Y-14.1150 Z1.8217
G1 X10.6636 Y-14.1150 Z1.7893
G1 X10.6960 Y-14.1150 Z1.7676
G1 X10.7343 Y-14.1150 Z1.7600
G1 X12.9374 Y-14.1150 Z1.7600 F200.
G1 X13.0546 Y-14.1150 Z1.7571
G1 X13.1718 Y-14.1150 Z1.7493
G1 X13.2890 Y-14.1150 Z1.7368
G1 X13.3593 Y-14.1150 Z1.7270
G1 X13.4062 Y-14.1150 Z1.7202
G1 X13.4999 Y-14.1150 Z1.7043
G1 X13.5468 Y-14.1150 Z1.6955
G1 X13.5937 Y-14.1150 Z1.6864
G1 X13.6405 Y-14.1150 Z1.6768
G1 X13.7343 Y-14.1150 Z1.6567
G1 X13.8280 Y-14.1150 Z1.6353
G1 X13.8749 Y-14.1150 Z1.6238
G1 X14.0390 Y-14.1150 Z1.5843
G1 X14.1913 Y-14.1150 Z1.5458
G1 X14.2616 Y-14.1150 Z1.5287
G1 X14.3437 Y-14.1150 Z1.5076
G1 X14.4843 Y-14.1150 Z1.4733
G1 X14.6425 Y-14.1150 Z1.4338
G1 X14.7421 Y-14.1150 Z1.4104
G1 X14.7905 Y-14.1150 Z1.3982
G1 X14.8271 Y-14.1150 Z1.3913
G1 X14.8608 Y-14.1150 Z1.3870
G1 X14.8930 Y-14.1150 Z1.3850
G1 X15.4452 Y-14.1150 Z1.3850
G1 X15.4687 Y-14.1150 Z1.3842
G1 X15.5038 Y-14.1150 Z1.3813
G1 X15.5155 Y-14.1150 Z1.3801
G1 X15.5390 Y-14.1150 Z1.3767
G1 X15.5624 Y-14.1150 Z1.3721
G1 X15.5800 Y-14.1150 Z1.3677
G1 X15.6093 Y-14.1150 Z1.3598
G1 X15.6327 Y-14.1150 Z1.3524
G1 X15.6562 Y-14.1150 Z1.3435
G1 X15.6738 Y-14.1150 Z1.3358
G1 X15.7030 Y-14.1150 Z1.3217
G1 X15.7265 Y-14.1150 Z1.3094
G1 X15.7382 Y-14.1150 Z1.3025
G1 X15.7499 Y-14.1150 Z1.2950
G1 X15.7616 Y-14.1150 Z1.2870
G1 X15.7968 Y-14.1150 Z1.2607
G1 X15.8085 Y-14.1150 Z1.2512
G1 X15.8202 Y-14.1150 Z1.2410
G1 X15.8320 Y-14.1150 Z1.2299
G1 X15.8437 Y-14.1150 Z1.2178
G1 X15.8554 Y-14.1150 Z1.2046
G1 X15.8730 Y-14.1150 Z1.1845
G1 X15.8788 Y-14.1150 Z1.1774
G1 X15.8905 Y-14.1150 Z1.1620
G1 X15.8964 Y-14.1150 Z1.1537
G1 X15.9023 Y-14.1150 Z1.1448
G1 X15.9111 Y-14.1150 Z1.1304
G1 X15.9286 Y-14.1150 Z1.0990
G1 X15.9316 Y-14.1150 Z1.0935
G1 X15.9374 Y-14.1150 Z1.0818
G1 X15.9433 Y-14.1150 Z1.0688
G1 X15.9491 Y-14.1150 Z1.0543
G1 X15.9521 Y-14.1150 Z1.0462
G1 X15.9550 Y-14.1150 Z1.0375
G1 X15.9638 Y-14.1150 Z1.0093
G1 X15.9667 Y-14.1150 Z0.9992
G1 X15.9697 Y-14.1150 Z0.9876
G1 X15.9726 Y-14.1150 Z0.9740
G1 X15.9740 Y-14.1150 Z0.9660
G1 X15.9762 Y-14.1150 Z0.9512
G1 X15.9803 Y-14.1150 Z0.9130
G1 X15.9812 Y-14.1150 Z0.8972
G1 X15.9814 Y-14.1150 Z0.8895
G0 Z1.8850
G0 X15.9814 Y-14.1150 
G0 Z1.8850
G0 X10.6343 Y-14.1158 
G1 X10.6343 Y-14.1158 Z1.8600 F75.
G1 X10.6419 Y-14.1157 Z1.8217
G1 X10.6636 Y-14.1155 Z1.7893
G1 X10.6960 Y-14.1153 Z1.7676
G1 X10.7343 Y-14.1150 Z1.7600
G1 X12.9374 Y-14.0980 Z1.7600 F200.
G1 X13.0545 Y-14.0971 Z1.7571
G1 X13.1717 Y-14.0962 Z1.7493
G1 X13.2889 Y-14.0953 Z1.7368
G1 X13.3592 Y-14.0947 Z1.7270
G1 X13.4061 Y-14.0944 Z1.7202
G1 X13.4998 Y-14.0936 Z1.7043
G1 X13.5936 Y-14.0929 Z1.6864
G1 X13.6405 Y-14.0926 Z1.6768
G1 X13.7108 Y-14.0920 Z1.6617
G1 X13.7576 Y-14.0916 Z1.6512
G1 X13.8280 Y-14.0911 Z1.6351
G1 X13.8983 Y-14.0906 Z1.6177
G1 X14.0389 Y-14.0895 Z1.5837
G1 X14.2147 Y-14.0881 Z1.5392
G1 X14.2557 Y-14.0878 Z1.5292
G1 X14.3729 Y-14.0869 Z1.4990
G1 X14.4842 Y-14.0860 Z1.4718
G1 X14.5311 Y-14.0857 Z1.4597
G1 X14.6717 Y-14.0846 Z1.4249
G1 X14.7186 Y-14.0842 Z1.4138
G1 X14.7815 Y-14.0837 Z1.3979
G1 X14.8152 Y-14.0835 Z1.3914
G1 X14.8504 Y-14.0832 Z1.3870
G1 X14.8826 Y-14.0830 Z1.3850
G1 X15.4334 Y-14.0787 Z1.3850
G1 X15.4451 Y-14.0786 Z1.3846
G1 X15.4627 Y-14.0785 Z1.3836
G1 X15.4920 Y-14.0783 Z1.3810
G1 X15.5154 Y-14.0781 Z1.3782
G1 X15.5388 Y-14.0779 Z1.3740
G1 X15.5623 Y-14.0777 Z1.3685
G1 X15.5974 Y-14.0774 Z1.3589
G1 X15.6092 Y-14.0774 Z1.3553
G1 X15.6326 Y-14.0772 Z1.3469
G1 X15.6560 Y-14.0770 Z1.3368
G1 X15.6912 Y-14.0767 Z1.3199
G1 X15.7029 Y-14.0766 Z1.3138
G1 X15.7146 Y-14.0765 Z1.3072
G1 X15.7263 Y-14.0765 Z1.3001
G1 X15.7381 Y-14.0764 Z1.2924
G1 X15.7542 Y-14.0762 Z1.2809
G1 X15.7791 Y-14.0760 Z1.2621
G1 X15.7849 Y-14.0760 Z1.2575
G1 X15.7966 Y-14.0759 Z1.2478
G1 X15.8084 Y-14.0758 Z1.2372
G1 X15.8201 Y-14.0757 Z1.2257
G1 X15.8347 Y-14.0756 Z1.2099
G1 X15.8552 Y-14.0755 Z1.1864
G1 X15.8670 Y-14.0754 Z1.1720
G1 X15.8787 Y-14.0753 Z1.1559
G1 X15.8845 Y-14.0752 Z1.1472
G1 X15.8904 Y-14.0752 Z1.1379
G1 X15.8992 Y-14.0751 Z1.1227
G1 X15.9138 Y-14.0750 Z1.0962
G1 X15.9197 Y-14.0750 Z1.0846
G1 X15.9256 Y-14.0749 Z1.0719
G1 X15.9314 Y-14.0749 Z1.0576
G1 X15.9343 Y-14.0748 Z1.0497
G1 X15.9387 Y-14.0748 Z1.0367
G1 X15.9490 Y-14.0747 Z1.0033
G1 X15.9519 Y-14.0747 Z0.9923
G1 X15.9548 Y-14.0747 Z0.9795
G1 X15.9578 Y-14.0747 Z0.9637
G1 X15.9600 Y-14.0746 Z0.9480
G1 X15.9614 Y-14.0746 Z0.9346
G1 X15.9629 Y-14.0746 Z0.9230
G1 X15.9640 Y-14.0746 Z0.9112
G1 X15.9647 Y-14.0746 Z0.8982
G1 X15.9649 Y-14.0746 Z0.8918
G0 Z1.8850
G0 X15.9649 Y-14.0746 
G0 Z1.8850
G0 X10.6343 Y-14.1165 
G1 X10.6343 Y-14.1165 Z1.8600 F75.
G1 X10.6419 Y-14.1164 Z1.8217
G1 X10.6636 Y-14.1161 Z1.7893
G1 X10.6960 Y-14.1156 Z1.7676
G1 X10.7343 Y-14.1150 Z1.7600
G1 X12.9372 Y-14.0810 Z1.7600 F200.
G1 X13.0543 Y-14.0791 Z1.7572
G1 X13.1715 Y-14.0773 Z1.7493
G1 X13.2887 Y-14.0755 Z1.7369
G1 X13.3590 Y-14.0744 Z1.7270
G1 X13.4059 Y-14.0737 Z1.7203
G1 X13.4996 Y-14.0723 Z1.7044
G1 X13.5933 Y-14.0708 Z1.6864
G1 X13.6402 Y-14.0701 Z1.6768
G1 X13.6871 Y-14.0694 Z1.6667
G1 X13.7427 Y-14.0685 Z1.6544
G1 X13.8277 Y-14.0672 Z1.6350
G1 X13.9214 Y-14.0658 Z1.6117
G1 X14.0386 Y-14.0640 Z1.5833
G1 X14.0855 Y-14.0632 Z1.5711
G1 X14.2495 Y-14.0607 Z1.5297
G1 X14.4018 Y-14.0583 Z1.4905
G1 X14.4839 Y-14.0571 Z1.4703
G1 X14.5659 Y-14.0558 Z1.4491
G1 X14.6830 Y-14.0540 Z1.4202
G1 X14.7270 Y-14.0533 Z1.4096
G1 X14.7739 Y-14.0526 Z1.3975
G1 X14.8061 Y-14.0521 Z1.3913
G1 X14.8383 Y-14.0516 Z1.3871
G1 X14.8705 Y-14.0511 Z1.3850
G1 X15.4212 Y-14.0426 Z1.3849
G1 X15.4447 Y-14.0422 Z1.3839
G1 X15.4798 Y-14.0417 Z1.3808
G1 X15.4915 Y-14.0415 Z1.3795
G1 X15.5150 Y-14.0412 Z1.3758
G1 X15.5384 Y-14.0408 Z1.3708
G1 X15.5736 Y-14.0403 Z1.3615
G1 X15.5853 Y-14.0401 Z1.3581
G1 X15.6087 Y-14.0397 Z1.3503
G1 X15.6322 Y-14.0394 Z1.3409
G1 X15.6497 Y-14.0391 Z1.3327
G1 X15.6790 Y-14.0386 Z1.3184
G1 X15.6907 Y-14.0384 Z1.3121
G1 X15.7025 Y-14.0383 Z1.3054
G1 X15.7142 Y-14.0381 Z1.2981
G1 X15.7259 Y-14.0379 Z1.2902
G1 X15.7376 Y-14.0377 Z1.2817
G1 X15.7610 Y-14.0374 Z1.2639
G1 X15.7728 Y-14.0372 Z1.2546
G1 X15.7845 Y-14.0370 Z1.2445
G1 X15.7962 Y-14.0368 Z1.2337
G1 X15.8079 Y-14.0366 Z1.2218
G1 X15.8196 Y-14.0365 Z1.2089
G1 X15.8372 Y-14.0362 Z1.1888
G1 X15.8431 Y-14.0361 Z1.1818
G1 X15.8548 Y-14.0359 Z1.1668
G1 X15.8665 Y-14.0357 Z1.1501
G1 X15.8724 Y-14.0356 Z1.1410
G1 X15.8811 Y-14.0355 Z1.1260
G1 X15.8958 Y-14.0353 Z1.0996
G1 X15.9017 Y-14.0352 Z1.0883
G1 X15.9075 Y-14.0351 Z1.0759
G1 X15.9134 Y-14.0350 Z1.0621
G1 X15.9192 Y-14.0349 Z1.0465
G1 X15.9251 Y-14.0348 Z1.0282
G1 X15.9309 Y-14.0347 Z1.0092
G1 X15.9339 Y-14.0347 Z0.9989
G1 X15.9368 Y-14.0346 Z0.9873
G1 X15.9397 Y-14.0346 Z0.9734
G1 X15.9412 Y-14.0346 Z0.9652
G1 X15.9434 Y-14.0345 Z0.9500
G1 X15.9449 Y-14.0345 Z0.9365
G1 X15.9463 Y-14.0345 Z0.9254
G1 X15.9478 Y-14.0345 Z0.9098
G1 X15.9485 Y-14.0345 Z0.8952
G0 Z1.8850
G0 X15.9485 Y-14.0345 
G0 Z1.8850
G0 X10.6343 Y-14.1173 
G1 X10.6343 Y-14.1173 Z1.8600 F75.
G1 X10.6419 Y-14.1171 Z1.8217
G1 X10.6636 Y-14.1166 Z1.7893
G1 X10.6960 Y-14.1158 Z1.7676
G1 X10.7343 Y-14.1150 Z1.7600
G1 X12.9368 Y-14.0639 Z1.7600 F200.
G1 X13.0540 Y-14.0612 Z1.7572
G1 X13.1711 Y-14.0585 Z1.7494
G1 X13.2883 Y-14.0558 Z1.7370
G1 X13.3937 Y-14.0534 Z1.7222
G1 X13.4055 Y-14.0531 Z1.7204
G1 X13.4992 Y-14.0509 Z1.7044
G1 X13.5929 Y-14.0487 Z1.6864
G1 X13.6398 Y-14.0477 Z1.6768
G1 X13.7335 Y-14.0455 Z1.6565
G1 X13.8272 Y-14.0433 Z1.6349
G1 X13.9444 Y-14.0406 Z1.6057
G1 X14.0381 Y-14.0384 Z1.5829
G1 X14.1084 Y-14.0368 Z1.5645
G1 X14.2490 Y-14.0336 Z1.5290
G1 X14.2724 Y-14.0330 Z1.5227
G1 X14.4247 Y-14.0295 Z1.4835
G1 X14.4599 Y-14.0287 Z1.4748
G1 X14.4833 Y-14.0281 Z1.4689
G1 X14.5946 Y-14.0255 Z1.4400
G1 X14.7176 Y-14.0227 Z1.4098
G1 X14.7645 Y-14.0216 Z1.3975
G1 X14.7967 Y-14.0209 Z1.3911
G1 X14.8289 Y-14.0201 Z1.3870
G1 X14.8597 Y-14.0194 Z1.3850
G1 X15.4088 Y-14.0067 Z1.3849
G1 X15.4205 Y-14.0064 Z1.3845
G1 X15.4381 Y-14.0060 Z1.3833
G1 X15.4674 Y-14.0053 Z1.3806
G1 X15.4908 Y-14.0048 Z1.3775
G1 X15.5143 Y-14.0042 Z1.3731
G1 X15.5318 Y-14.0038 Z1.3688
G1 X15.5611 Y-14.0032 Z1.3609
G1 X15.5846 Y-14.0026 Z1.3537
G1 X15.6080 Y-14.0021 Z1.3449
G1 X15.6314 Y-14.0015 Z1.3344
G1 X15.6607 Y-14.0009 Z1.3201
G1 X15.6666 Y-14.0007 Z1.3171
G1 X15.6783 Y-14.0004 Z1.3107
G1 X15.6900 Y-14.0002 Z1.3038
G1 X15.7017 Y-13.9999 Z1.2964
G1 X15.7134 Y-13.9996 Z1.2883
G1 X15.7251 Y-13.9994 Z1.2797
G1 X15.7486 Y-13.9988 Z1.2618
G1 X15.7603 Y-13.9985 Z1.2523
G1 X15.7720 Y-13.9983 Z1.2420
G1 X15.7837 Y-13.9980 Z1.2308
G1 X15.7954 Y-13.9977 Z1.2186
G1 X15.8072 Y-13.9975 Z1.2054
G1 X15.8247 Y-13.9971 Z1.1850
G1 X15.8306 Y-13.9969 Z1.1778
G1 X15.8423 Y-13.9966 Z1.1623
G1 X15.8482 Y-13.9965 Z1.1538
G1 X15.8540 Y-13.9964 Z1.1448
G1 X15.8628 Y-13.9962 Z1.1302
G1 X15.8775 Y-13.9958 Z1.1038
G1 X15.8833 Y-13.9957 Z1.0928
G1 X15.8892 Y-13.9956 Z1.0808
G1 X15.8950 Y-13.9954 Z1.0675
G1 X15.9009 Y-13.9953 Z1.0526
G1 X15.9038 Y-13.9952 Z1.0443
G1 X15.9155 Y-13.9950 Z1.0066
G1 X15.9185 Y-13.9949 Z0.9959
G1 X15.9214 Y-13.9948 Z0.9837
G1 X15.9243 Y-13.9947 Z0.9690
G1 X15.9265 Y-13.9947 Z0.9550
G1 X15.9302 Y-13.9946 Z0.9250
G1 X15.9316 Y-13.9946 Z0.9089
G1 X15.9324 Y-13.9946 Z0.8928
G0 Z1.8850
G0 X15.9324 Y-13.9946 
G0 Z1.8850
G0 X10.6343 Y-14.1180 
G1 X10.6343 Y-14.1180 Z1.8600 F75.
G1 X10.6420 Y-14.1178 Z1.8217
G1 X10.6636 Y-14.1171 Z1.7893
G1 X10.6960 Y-14.1161 Z1.7676
G1 X10.7343 Y-14.1149 Z1.7600
G1 X12.9364 Y-14.0469 Z1.7600 F200.
G1 X13.0535 Y-14.0433 Z1.7572
G1 X13.1706 Y-14.0397 Z1.7494
G1 X13.2878 Y-14.0361 Z1.7371
G1 X13.3932 Y-14.0328 Z1.7223
G1 X13.4049 Y-14.0325 Z1.7205
G1 X13.4986 Y-14.0296 Z1.7045
G1 X13.5455 Y-14.0281 Z1.6957
G1 X13.6157 Y-14.0259 Z1.6819
G1 X13.7329 Y-14.0223 Z1.6565
G1 X13.8266 Y-14.0194 Z1.6348
G1 X13.9671 Y-14.0151 Z1.5997
G1 X14.0140 Y-14.0136 Z1.5884
G1 X14.1311 Y-14.0100 Z1.5579
G1 X14.2482 Y-14.0064 Z1.5282
G1 X14.2951 Y-14.0050 Z1.5156
G1 X14.4591 Y-13.9999 Z1.4736
G1 X14.6231 Y-13.9948 Z1.4310
G1 X14.7109 Y-13.9921 Z1.4092
G1 X14.7548 Y-13.9908 Z1.3976
G1 X14.7871 Y-13.9898 Z1.3911
G1 X14.8193 Y-13.9888 Z1.3869
G1 X14.8485 Y-13.9879 Z1.3850
G1 X15.3961 Y-13.9710 Z1.3849
G1 X15.4196 Y-13.9702 Z1.3837
G1 X15.4547 Y-13.9691 Z1.3805
G1 X15.4664 Y-13.9688 Z1.3791
G1 X15.4898 Y-13.9681 Z1.3753
G1 X15.5133 Y-13.9673 Z1.3700
G1 X15.5484 Y-13.9663 Z1.3605
G1 X15.5601 Y-13.9659 Z1.3570
G1 X15.5835 Y-13.9652 Z1.3488
G1 X15.6070 Y-13.9644 Z1.3390
G1 X15.6421 Y-13.9634 Z1.3220
G1 X15.6538 Y-13.9630 Z1.3160
G1 X15.6655 Y-13.9626 Z1.3095
G1 X15.6773 Y-13.9623 Z1.3025
G1 X15.6890 Y-13.9619 Z1.2949
G1 X15.7007 Y-13.9615 Z1.2867
G1 X15.7358 Y-13.9605 Z1.2599
G1 X15.7475 Y-13.9601 Z1.2502
G1 X15.7592 Y-13.9597 Z1.2397
G1 X15.7710 Y-13.9594 Z1.2283
G1 X15.7856 Y-13.9589 Z1.2126
G1 X15.8061 Y-13.9583 Z1.1889
G1 X15.8178 Y-13.9579 Z1.1745
G1 X15.8295 Y-13.9576 Z1.1586
G1 X15.8354 Y-13.9574 Z1.1499
G1 X15.8412 Y-13.9572 Z1.1406
G1 X15.8500 Y-13.9569 Z1.1254
G1 X15.8647 Y-13.9565 Z1.0987
G1 X15.8705 Y-13.9563 Z1.0872
G1 X15.8764 Y-13.9561 Z1.0746
G1 X15.8822 Y-13.9559 Z1.0605
G1 X15.8852 Y-13.9559 Z1.0527
G1 X15.8881 Y-13.9558 Z1.0444
G1 X15.8998 Y-13.9554 Z1.0064
G1 X15.9027 Y-13.9553 Z0.9957
G1 X15.9057 Y-13.9552 Z0.9833
G1 X15.9086 Y-13.9551 Z0.9684
G1 X15.9108 Y-13.9551 Z0.9540
G1 X15.9144 Y-13.9549 Z0.9214
G1 X15.9155 Y-13.9549 Z0.9085
G1 X15.9161 Y-13.9549 Z0.8980
G1 X15.9163 Y-13.9549 Z0.8913
G0 Z1.8850
G0 X15.9163 Y-13.9549 
G0 Z1.8850
G0 X10.6344 Y-14.1188 
G1 X10.6344 Y-14.1188 Z1.8600 F75.
G1 X10.6420 Y-14.1185 Z1.8217
G1 X10.6636 Y-14.1177 Z1.7893
G1 X10.6961 Y-14.1164 Z1.7676
G1 X10.7343 Y-14.1149 Z1.7600
G1 X12.9358 Y-14.0299 Z1.7600 F200.
G1 X13.0529 Y-14.0254 Z1.7572
G1 X13.0763 Y-14.0245 Z1.7558
G1 X13.1700 Y-14.0209 Z1.7495
G1 X13.1934 Y-14.0200 Z1.7471
G1 X13.2871 Y-14.0164 Z1.7372
G1 X13.3983 Y-14.0121 Z1.7216
G1 X13.4979 Y-14.0082 Z1.7047
G1 X13.5447 Y-14.0064 Z1.6958
G1 X13.5915 Y-14.0046 Z1.6866
G1 X13.6501 Y-14.0023 Z1.6745
G1 X13.7321 Y-13.9992 Z1.6566
G1 X13.8257 Y-13.9956 Z1.6348
G1 X14.0131 Y-13.9883 Z1.5882
G1 X14.1653 Y-13.9824 Z1.5484
G1 X14.2473 Y-13.9793 Z1.5276
G1 X14.3234 Y-13.9763 Z1.5071
G1 X14.4581 Y-13.9711 Z1.4725
G1 X14.4815 Y-13.9702 Z1.4661
G1 X14.6572 Y-13.9634 Z1.4205
G1 X14.7040 Y-13.9616 Z1.4088
G1 X14.7464 Y-13.9600 Z1.3974
G1 X14.7786 Y-13.9588 Z1.3909
G1 X14.8094 Y-13.9576 Z1.3869
G1 X14.8372 Y-13.9565 Z1.3850
G1 X15.3773 Y-13.9356 Z1.3850
G1 X15.3949 Y-13.9350 Z1.3844
G1 X15.4125 Y-13.9343 Z1.3832
G1 X15.4417 Y-13.9332 Z1.3805
G1 X15.4651 Y-13.9322 Z1.3772
G1 X15.4886 Y-13.9313 Z1.3726
G1 X15.5061 Y-13.9307 Z1.3682
G1 X15.5354 Y-13.9295 Z1.3602
G1 X15.5588 Y-13.9286 Z1.3527
G1 X15.5822 Y-13.9277 Z1.3437
G1 X15.5940 Y-13.9273 Z1.3385
G1 X15.6291 Y-13.9259 Z1.3213
G1 X15.6408 Y-13.9255 Z1.3152
G1 X15.6525 Y-13.9250 Z1.3086
G1 X15.6642 Y-13.9246 Z1.3015
G1 X15.6759 Y-13.9241 Z1.2938
G1 X15.6876 Y-13.9237 Z1.2854
G1 X15.7228 Y-13.9223 Z1.2583
G1 X15.7345 Y-13.9218 Z1.2485
G1 X15.7462 Y-13.9214 Z1.2378
G1 X15.7579 Y-13.9209 Z1.2262
G1 X15.7696 Y-13.9205 Z1.2136
G1 X15.7930 Y-13.9196 Z1.1863
G1 X15.8047 Y-13.9191 Z1.1716
G1 X15.8164 Y-13.9187 Z1.1553
G1 X15.8223 Y-13.9185 Z1.1464
G1 X15.8282 Y-13.9182 Z1.1368
G1 X15.8340 Y-13.9180 Z1.1266
G1 X15.8516 Y-13.9173 Z1.0943
G1 X15.8574 Y-13.9171 Z1.0823
G1 X15.8633 Y-13.9169 Z1.0691
G1 X15.8691 Y-13.9166 Z1.0542
G1 X15.8721 Y-13.9165 Z1.0460
G1 X15.8750 Y-13.9164 Z1.0370
G1 X15.8838 Y-13.9161 Z1.0081
G1 X15.8867 Y-13.9160 Z0.9976
G1 X15.8896 Y-13.9159 Z0.9855
G1 X15.8926 Y-13.9157 Z0.9711
G1 X15.8948 Y-13.9157 Z0.9575
G1 X15.8962 Y-13.9156 Z0.9458
G1 X15.8995 Y-13.9155 Z0.9112
G1 X15.9002 Y-13.9154 Z0.8979
G1 X15.9004 Y-13.9154 Z0.8912
G0 Z1.8850
G0 X15.9004 Y-13.9154 
G0 Z1.8850
G0 X10.6344 Y-14.1195 
G1 X10.6344 Y-14.1195 Z1.8600 F75.
G1 X10.6420 Y-14.1192 Z1.8217
G1 X10.6637 Y-14.1182 Z1.7893
G1 X10.6961 Y-14.1167 Z1.7676
G1 X10.7343 Y-14.1149 Z1.7600
G1 X12.9351 Y-14.0129 Z1.7600 F200.
G1 X13.0521 Y-14.0075 Z1.7573
G1 X13.0755 Y-14.0064 Z1.7559
G1 X13.1692 Y-14.0021 Z1.7496
G1 X13.1926 Y-14.0010 Z1.7472
G1 X13.2862 Y-13.9966 Z1.7373
G1 X13.4033 Y-13.9912 Z1.7208
G1 X13.4970 Y-13.9869 Z1.7048
G1 X13.5204 Y-13.9858 Z1.7006
G1 X13.5906 Y-13.9825 Z1.6868
G1 X13.6374 Y-13.9804 Z1.6772
G1 X13.7311 Y-13.9760 Z1.6568
G1 X13.8247 Y-13.9717 Z1.6349
G1 X13.8716 Y-13.9695 Z1.6231
G1 X14.0354 Y-13.9619 Z1.5821
G1 X14.1876 Y-13.9549 Z1.5420
G1 X14.2403 Y-13.9524 Z1.5286
G1 X14.3515 Y-13.9473 Z1.4985
G1 X14.4627 Y-13.9421 Z1.4698
G1 X14.5037 Y-13.9402 Z1.4585
G1 X14.6851 Y-13.9318 Z1.4116
G1 X14.7407 Y-13.9292 Z1.3966
G1 X14.7685 Y-13.9279 Z1.3910
G1 X14.7993 Y-13.9265 Z1.3869
G1 X14.8271 Y-13.9252 Z1.3850
G1 X15.3699 Y-13.9001 Z1.3849
G1 X15.3934 Y-13.8990 Z1.3837
G1 X15.4285 Y-13.8973 Z1.3804
G1 X15.4402 Y-13.8968 Z1.3790
G1 X15.4636 Y-13.8957 Z1.3750
G1 X15.4899 Y-13.8945 Z1.3689
G1 X15.5221 Y-13.8930 Z1.3601
G1 X15.5338 Y-13.8925 Z1.3565
G1 X15.5572 Y-13.8914 Z1.3482
G1 X15.5807 Y-13.8903 Z1.3382
G1 X15.6158 Y-13.8887 Z1.3210
G1 X15.6275 Y-13.8881 Z1.3148
G1 X15.6392 Y-13.8876 Z1.3082
G1 X15.6509 Y-13.8870 Z1.3010
G1 X15.6626 Y-13.8865 Z1.2932
G1 X15.6772 Y-13.8858 Z1.2826
G1 X15.7036 Y-13.8846 Z1.2622
G1 X15.7094 Y-13.8843 Z1.2575
G1 X15.7211 Y-13.8838 Z1.2475
G1 X15.7328 Y-13.8832 Z1.2366
G1 X15.7445 Y-13.8827 Z1.2248
G1 X15.7592 Y-13.8820 Z1.2085
G1 X15.7797 Y-13.8811 Z1.1844
G1 X15.7914 Y-13.8805 Z1.1694
G1 X15.8031 Y-13.8800 Z1.1527
G1 X15.8089 Y-13.8797 Z1.1435
G1 X15.8148 Y-13.8794 Z1.1337
G1 X15.8323 Y-13.8786 Z1.1017
G1 X15.8382 Y-13.8784 Z1.0904
G1 X15.8440 Y-13.8781 Z1.0780
G1 X15.8499 Y-13.8778 Z1.0643
G1 X15.8558 Y-13.8775 Z1.0487
G1 X15.8601 Y-13.8773 Z1.0352
G1 X15.8675 Y-13.8770 Z1.0111
G1 X15.8704 Y-13.8769 Z1.0009
G1 X15.8733 Y-13.8767 Z0.9894
G1 X15.8762 Y-13.8766 Z0.9758
G1 X15.8777 Y-13.8765 Z0.9678
G1 X15.8799 Y-13.8764 Z0.9531
G1 X15.8836 Y-13.8763 Z0.9217
G1 X15.8847 Y-13.8762 Z0.9087
G1 X15.8854 Y-13.8762 Z0.8914
G0 Z1.8850
G0 X15.8854 Y-13.8762 
G0 Z1.8850
G0 X10.6344 Y-14.1203 
G1 X10.6344 Y-14.1203 Z1.8600 F75.
G1 X10.6420 Y-14.1199 Z1.8217
G1 X10.6637 Y-14.1187 Z1.7893
G1 X10.6961 Y-14.1170 Z1.7676
G1 X10.7343 Y-14.1149 Z1.7600
G1 X12.9342 Y-13.9959 Z1.7600 F200.
G1 X13.0512 Y-13.9896 Z1.7573
G1 X13.0746 Y-13.9883 Z1.7559
G1 X13.1682 Y-13.9833 Z1.7496
G1 X13.1799 Y-13.9826 Z1.7486
G1 X13.2911 Y-13.9766 Z1.7367
G1 X13.4023 Y-13.9706 Z1.7210
G1 X13.4959 Y-13.9655 Z1.7050
G1 X13.5193 Y-13.9643 Z1.7008
G1 X13.6188 Y-13.9589 Z1.6813
G1 X13.7299 Y-13.9529 Z1.6569
G1 X13.8235 Y-13.9478 Z1.6351
G1 X13.8937 Y-13.9440 Z1.6172
G1 X14.0108 Y-13.9377 Z1.5880
G1 X14.0342 Y-13.9364 Z1.5820
G1 X14.0576 Y-13.9352 Z1.5757
G1 X14.2448 Y-13.9250 Z1.5265
G1 X14.3794 Y-13.9177 Z1.4900
G1 X14.4554 Y-13.9136 Z1.4704
G1 X14.5256 Y-13.9098 Z1.4510
G1 X14.6895 Y-13.9010 Z1.4084
G1 X14.7319 Y-13.8987 Z1.3967
G1 X14.7611 Y-13.8971 Z1.3907
G1 X14.7889 Y-13.8956 Z1.3869
G1 X14.8167 Y-13.8941 Z1.3850
G1 X15.3506 Y-13.8652 Z1.3850
G1 X15.3681 Y-13.8643 Z1.3845
G1 X15.3857 Y-13.8633 Z1.3832
G1 X15.4150 Y-13.8617 Z1.3805
G1 X15.4384 Y-13.8605 Z1.3773
G1 X15.4618 Y-13.8592 Z1.3726
G1 X15.4793 Y-13.8583 Z1.3682
G1 X15.5086 Y-13.8567 Z1.3600
G1 X15.5320 Y-13.8554 Z1.3525
G1 X15.5554 Y-13.8541 Z1.3433
G1 X15.5671 Y-13.8535 Z1.3380
G1 X15.6022 Y-13.8516 Z1.3208
G1 X15.6139 Y-13.8510 Z1.3146
G1 X15.6256 Y-13.8503 Z1.3079
G1 X15.6373 Y-13.8497 Z1.3006
G1 X15.6490 Y-13.8491 Z1.2928
G1 X15.6636 Y-13.8483 Z1.2821
G1 X15.6899 Y-13.8469 Z1.2617
G1 X15.6958 Y-13.8465 Z1.2570
G1 X15.7075 Y-13.8459 Z1.2469
G1 X15.7192 Y-13.8453 Z1.2360
G1 X15.7309 Y-13.8447 Z1.2241
G1 X15.7426 Y-13.8440 Z1.2111
G1 X15.7660 Y-13.8428 Z1.1834
G1 X15.7777 Y-13.8421 Z1.1683
G1 X15.7894 Y-13.8415 Z1.1514
G1 X15.7953 Y-13.8412 Z1.1421
G1 X15.8040 Y-13.8407 Z1.1269
G1 X15.8187 Y-13.8399 Z1.0999
G1 X15.8245 Y-13.8396 Z1.0883
G1 X15.8304 Y-13.8393 Z1.0756
G1 X15.8362 Y-13.8390 Z1.0615
G1 X15.8391 Y-13.8388 Z1.0537
G1 X15.8421 Y-13.8386 Z1.0453
G1 X15.8479 Y-13.8383 Z1.0265
G1 X15.8538 Y-13.8380 Z1.0069
G1 X15.8567 Y-13.8378 Z0.9961
G1 X15.8596 Y-13.8377 Z0.9837
G1 X15.8625 Y-13.8375 Z0.9687
G1 X15.8647 Y-13.8374 Z0.9542
G1 X15.8662 Y-13.8373 Z0.9414
G1 X15.8684 Y-13.8372 Z0.9253
G1 X15.8699 Y-13.8371 Z0.9091
G1 X15.8706 Y-13.8371 Z0.8927
G0 Z1.8850
G0 X15.8706 Y-13.8371 
G0 Z1.8850
G0 X10.6345 Y-14.1210 
G1 X10.6345 Y-14.1210 Z1.8600 F75.
G1 X10.6421 Y-14.1206 Z1.8217
G1 X10.6637 Y-14.1192 Z1.7893
G1 X10.6961 Y-14.1172 Z1.7676
G1 X10.7343 Y-14.1149 Z1.7600
G1 X12.9391 Y-13.9786 Z1.7599 F200.
G1 X13.0502 Y-13.9717 Z1.7573
G1 X13.0619 Y-13.9710 Z1.7568
G1 X13.1672 Y-13.9645 Z1.7497
G1 X13.1788 Y-13.9637 Z1.7487
G1 X13.2900 Y-13.9569 Z1.7369
G1 X13.4011 Y-13.9500 Z1.7212
G1 X13.5122 Y-13.9431 Z1.7022
G1 X13.6116 Y-13.9370 Z1.6827
G1 X13.7257 Y-13.9299 Z1.6578
G1 X13.8221 Y-13.9240 Z1.6353
G1 X13.9157 Y-13.9182 Z1.6114
G1 X14.0093 Y-13.9124 Z1.5880
G1 X14.0561 Y-13.9095 Z1.5756
G1 X14.0912 Y-13.9073 Z1.5662
G1 X14.1964 Y-13.9008 Z1.5384
G1 X14.2900 Y-13.8950 Z1.5133
G1 X14.4070 Y-13.8878 Z1.4816
G1 X14.4538 Y-13.8849 Z1.4694
G1 X14.5415 Y-13.8795 Z1.4450
G1 X14.6643 Y-13.8719 Z1.4129
G1 X14.6994 Y-13.8697 Z1.4034
G1 X14.7228 Y-13.8683 Z1.3969
G1 X14.7520 Y-13.8665 Z1.3907
G1 X14.7813 Y-13.8647 Z1.3867
G1 X14.8061 Y-13.8631 Z1.3850
G1 X15.3427 Y-13.8299 Z1.3849
G1 X15.3690 Y-13.8283 Z1.3835
G1 X15.4012 Y-13.8263 Z1.3806
G1 X15.4129 Y-13.8256 Z1.3792
G1 X15.4363 Y-13.8242 Z1.3753
G1 X15.4596 Y-13.8227 Z1.3700
G1 X15.4947 Y-13.8205 Z1.3603
G1 X15.5064 Y-13.8198 Z1.3567
G1 X15.5298 Y-13.8184 Z1.3484
G1 X15.5532 Y-13.8169 Z1.3383
G1 X15.5883 Y-13.8148 Z1.3209
G1 X15.6000 Y-13.8140 Z1.3147
G1 X15.6117 Y-13.8133 Z1.3079
G1 X15.6234 Y-13.8126 Z1.3006
G1 X15.6351 Y-13.8119 Z1.2927
G1 X15.6512 Y-13.8109 Z1.2809
G1 X15.6760 Y-13.8093 Z1.2615
G1 X15.6819 Y-13.8090 Z1.2567
G1 X15.6936 Y-13.8082 Z1.2466
G1 X15.7053 Y-13.8075 Z1.2357
G1 X15.7170 Y-13.8068 Z1.2237
G1 X15.7287 Y-13.8061 Z1.2106
G1 X15.7521 Y-13.8046 Z1.1829
G1 X15.7638 Y-13.8039 Z1.1676
G1 X15.7696 Y-13.8035 Z1.1594
G1 X15.7755 Y-13.8032 Z1.1506
G1 X15.7813 Y-13.8028 Z1.1412
G1 X15.7901 Y-13.8023 Z1.1259
G1 X15.8047 Y-13.8014 Z1.0988
G1 X15.8105 Y-13.8010 Z1.0871
G1 X15.8164 Y-13.8007 Z1.0743
G1 X15.8222 Y-13.8003 Z1.0599
G1 X15.8252 Y-13.8001 Z1.0519
G1 X15.8281 Y-13.7999 Z1.0434
G1 X15.8383 Y-13.7993 Z1.0097
G1 X15.8427 Y-13.7990 Z0.9935
G1 X15.8456 Y-13.7988 Z0.9805
G1 X15.8486 Y-13.7987 Z0.9646
G1 X15.8507 Y-13.7985 Z0.9486
G1 X15.8515 Y-13.7985 Z0.9416
G1 X15.8537 Y-13.7983 Z0.9256
G1 X15.8551 Y-13.7983 Z0.9095
G1 X15.8559 Y-13.7982 Z0.8938
G0 Z1.8850
G0 X15.8559 Y-13.7982 
G0 Z1.8850
G0 X10.6345 Y-14.1218 
G1 X10.6345 Y-14.1218 Z1.8600 F75.
G1 X10.6421 Y-14.1213 Z1.8217
G1 X10.6638 Y-14.1198 Z1.7893
G1 X10.6961 Y-14.1175 Z1.7676
G1 X10.7343 Y-14.1149 Z1.7600
G1 X12.9380 Y-13.9615 Z1.7600 F200.
G1 X13.0490 Y-13.9538 Z1.7574
G1 X13.0607 Y-13.9530 Z1.7569
G1 X13.1659 Y-13.9457 Z1.7498
G1 X13.1776 Y-13.9449 Z1.7489
G1 X13.2828 Y-13.9375 Z1.7377
G1 X13.2945 Y-13.9367 Z1.7363
G1 X13.3997 Y-13.9294 Z1.7215
G1 X13.5108 Y-13.9217 Z1.7025
G1 X13.6102 Y-13.9148 Z1.6830
G1 X13.6335 Y-13.9131 Z1.6780
G1 X13.7271 Y-13.9066 Z1.6575
G1 X13.8206 Y-13.9001 Z1.6355
G1 X13.9375 Y-13.8920 Z1.6056
G1 X14.0076 Y-13.8871 Z1.5881
G1 X14.1245 Y-13.8790 Z1.5567
G1 X14.1947 Y-13.8741 Z1.5382
G1 X14.2414 Y-13.8708 Z1.5257
G1 X14.2765 Y-13.8684 Z1.5158
G1 X14.4519 Y-13.8562 Z1.4685
G1 X14.5629 Y-13.8485 Z1.4375
G1 X14.6740 Y-13.8407 Z1.4083
G1 X14.7149 Y-13.8379 Z1.3968
G1 X14.7441 Y-13.8358 Z1.3906
G1 X14.7719 Y-13.8339 Z1.3868
G1 X14.7967 Y-13.8322 Z1.3850
G1 X15.3287 Y-13.7952 Z1.3850
G1 X15.3403 Y-13.7944 Z1.3846
G1 X15.3579 Y-13.7931 Z1.3834
G1 X15.3871 Y-13.7911 Z1.3808
G1 X15.4105 Y-13.7895 Z1.3777
G1 X15.4339 Y-13.7879 Z1.3732
G1 X15.4514 Y-13.7866 Z1.3688
G1 X15.4806 Y-13.7846 Z1.3607
G1 X15.5040 Y-13.7830 Z1.3532
G1 X15.5274 Y-13.7813 Z1.3441
G1 X15.5391 Y-13.7805 Z1.3388
G1 X15.5683 Y-13.7785 Z1.3244
G1 X15.5858 Y-13.7773 Z1.3152
G1 X15.5975 Y-13.7765 Z1.3085
G1 X15.6092 Y-13.7757 Z1.3013
G1 X15.6209 Y-13.7748 Z1.2934
G1 X15.6326 Y-13.7740 Z1.2849
G1 X15.6618 Y-13.7720 Z1.2620
G1 X15.6677 Y-13.7716 Z1.2573
G1 X15.6794 Y-13.7708 Z1.2471
G1 X15.6911 Y-13.7700 Z1.2361
G1 X15.7028 Y-13.7691 Z1.2241
G1 X15.7144 Y-13.7683 Z1.2109
G1 X15.7378 Y-13.7667 Z1.1830
G1 X15.7495 Y-13.7659 Z1.1676
G1 X15.7554 Y-13.7655 Z1.1593
G1 X15.7612 Y-13.7651 Z1.1504
G1 X15.7670 Y-13.7647 Z1.1410
G1 X15.7758 Y-13.7641 Z1.1256
G1 X15.7904 Y-13.7630 Z1.0984
G1 X15.7963 Y-13.7626 Z1.0866
G1 X15.8021 Y-13.7622 Z1.0737
G1 X15.8080 Y-13.7618 Z1.0592
G1 X15.8109 Y-13.7616 Z1.0512
G1 X15.8153 Y-13.7613 Z1.0380
G1 X15.8255 Y-13.7606 Z1.0036
G1 X15.8284 Y-13.7604 Z0.9922
G1 X15.8313 Y-13.7602 Z0.9790
G1 X15.8343 Y-13.7600 Z0.9626
G1 X15.8357 Y-13.7599 Z0.9520
G1 X15.8394 Y-13.7596 Z0.9225
G1 X15.8405 Y-13.7596 Z0.9099
G1 X15.8412 Y-13.7595 Z0.8948
G0 Z1.8850
G0 X15.8412 Y-13.7595 
G0 Z1.8850
G0 X10.6346 Y-14.1226 
G1 X10.6346 Y-14.1226 Z1.8600 F75.
G1 X10.6422 Y-14.1220 Z1.8217
G1 X10.6638 Y-14.1203 Z1.7893
G1 X10.6961 Y-14.1178 Z1.7676
G1 X10.7343 Y-14.1148 Z1.7600
G1 X12.9309 Y-13.9450 Z1.7600 F200.
G1 X12.9542 Y-13.9432 Z1.7596
G1 X13.0477 Y-13.9359 Z1.7574
G1 X13.0594 Y-13.9350 Z1.7569
G1 X13.1704 Y-13.9264 Z1.7495
G1 X13.1879 Y-13.9251 Z1.7478
G1 X13.2872 Y-13.9174 Z1.7373
G1 X13.4041 Y-13.9084 Z1.7208
G1 X13.5092 Y-13.9002 Z1.7028
G1 X13.6202 Y-13.8916 Z1.6809
G1 X13.7254 Y-13.8835 Z1.6579
G1 X13.8188 Y-13.8763 Z1.6358
G1 X13.9707 Y-13.8645 Z1.5969
G1 X14.0058 Y-13.8618 Z1.5882
G1 X14.1460 Y-13.8510 Z1.5503
G1 X14.2395 Y-13.8437 Z1.5255
G1 X14.3096 Y-13.8383 Z1.5057
G1 X14.4439 Y-13.8279 Z1.4694
G1 X14.4731 Y-13.8257 Z1.4610
G1 X14.5841 Y-13.8171 Z1.4301
G1 X14.6659 Y-13.8108 Z1.4085
G1 X14.7068 Y-13.8076 Z1.3968
G1 X14.7331 Y-13.8056 Z1.3911
G1 X14.7623 Y-13.8033 Z1.3868
G1 X14.7871 Y-13.8014 Z1.3850
G1 X15.3144 Y-13.7606 Z1.3850
G1 X15.3377 Y-13.7588 Z1.3841
G1 X15.3728 Y-13.7561 Z1.3810
G1 X15.3845 Y-13.7552 Z1.3797
G1 X15.4078 Y-13.7534 Z1.3760
G1 X15.4312 Y-13.7516 Z1.3708
G1 X15.4663 Y-13.7489 Z1.3612
G1 X15.4779 Y-13.7480 Z1.3577
G1 X15.5013 Y-13.7462 Z1.3494
G1 X15.5247 Y-13.7443 Z1.3395
G1 X15.5364 Y-13.7434 Z1.3339
G1 X15.5597 Y-13.7416 Z1.3222
G1 X15.5714 Y-13.7407 Z1.3160
G1 X15.5831 Y-13.7398 Z1.3093
G1 X15.5948 Y-13.7389 Z1.3021
G1 X15.6061 Y-13.7380 Z1.2946
G1 X15.6175 Y-13.7372 Z1.2864
G1 X15.6515 Y-13.7345 Z1.2597
G1 X15.6628 Y-13.7337 Z1.2501
G1 X15.6741 Y-13.7328 Z1.2396
G1 X15.6855 Y-13.7319 Z1.2282
G1 X15.6996 Y-13.7308 Z1.2126
G1 X15.7195 Y-13.7293 Z1.1890
G1 X15.7308 Y-13.7284 Z1.1747
G1 X15.7422 Y-13.7275 Z1.1588
G1 X15.7478 Y-13.7271 Z1.1502
G1 X15.7535 Y-13.7266 Z1.1410
G1 X15.7620 Y-13.7260 Z1.1260
G1 X15.7762 Y-13.7249 Z1.0994
G1 X15.7818 Y-13.7245 Z1.0880
G1 X15.7875 Y-13.7240 Z1.0756
G1 X15.7932 Y-13.7236 Z1.0616
G1 X15.7988 Y-13.7231 Z1.0458
G1 X15.8045 Y-13.7227 Z1.0274
G1 X15.8102 Y-13.7223 Z1.0082
G1 X15.8130 Y-13.7220 Z0.9978
G1 X15.8158 Y-13.7218 Z0.9859
G1 X15.8187 Y-13.7216 Z0.9716
G1 X15.8208 Y-13.7214 Z0.9583
G1 X15.8222 Y-13.7213 Z0.9469
G1 X15.8254 Y-13.7211 Z0.9165
G1 X15.8265 Y-13.7210 Z0.9000
G1 X15.8266 Y-13.7210 Z0.8948
G0 Z1.8850
G0 X15.8266 Y-13.7210 
G0 Z1.8850
G0 X10.6347 Y-14.1233 
G1 X10.6347 Y-14.1233 Z1.8600 F75.
G1 X10.6422 Y-14.1227 Z1.8217
G1 X10.6638 Y-14.1208 Z1.7893
G1 X10.6962 Y-14.1181 Z1.7676
G1 X10.7343 Y-14.1148 Z1.7600
G1 X12.9353 Y-13.9275 Z1.7600 F200.
G1 X13.0462 Y-13.9181 Z1.7575
G1 X13.0638 Y-13.9166 Z1.7567
G1 X13.1630 Y-13.9081 Z1.7500
G1 X13.1864 Y-13.9061 Z1.7480
G1 X13.2915 Y-13.8972 Z1.7368
G1 X13.4024 Y-13.8877 Z1.7211
G1 X13.5133 Y-13.8783 Z1.7021
G1 X13.6301 Y-13.8684 Z1.6788
G1 X13.7235 Y-13.8604 Z1.6583
G1 X13.8286 Y-13.8515 Z1.6333
G1 X14.0037 Y-13.8366 Z1.5883
G1 X14.0971 Y-13.8286 Z1.5632
G1 X14.1672 Y-13.8226 Z1.5440
G1 X14.2373 Y-13.8167 Z1.5253
G1 X14.3307 Y-13.8087 Z1.4989
G1 X14.4241 Y-13.8008 Z1.4736
G1 X14.4474 Y-13.7988 Z1.4671
G1 X14.4941 Y-13.7948 Z1.4536
G1 X14.6109 Y-13.7849 Z1.4212
G1 X14.6576 Y-13.7809 Z1.4088
G1 X14.7014 Y-13.7772 Z1.3962
G1 X14.7277 Y-13.7749 Z1.3905
G1 X14.7539 Y-13.7727 Z1.3867
G1 X14.7788 Y-13.7706 Z1.3850
G1 X15.2998 Y-13.7262 Z1.3850
G1 X15.3115 Y-13.7253 Z1.3848
G1 X15.3348 Y-13.7233 Z1.3834
G1 X15.3582 Y-13.7213 Z1.3813
G1 X15.3816 Y-13.7193 Z1.3785
G1 X15.4049 Y-13.7173 Z1.3742
G1 X15.4283 Y-13.7153 Z1.3684
G1 X15.4575 Y-13.7128 Z1.3602
G1 X15.4750 Y-13.7113 Z1.3546
G1 X15.4983 Y-13.7094 Z1.3456
G1 X15.5217 Y-13.7074 Z1.3349
G1 X15.5509 Y-13.7049 Z1.3201
G1 X15.5567 Y-13.7044 Z1.3170
G1 X15.5684 Y-13.7034 Z1.3104
G1 X15.5801 Y-13.7024 Z1.3032
G1 X15.5917 Y-13.7014 Z1.2955
G1 X15.6027 Y-13.7005 Z1.2877
G1 X15.6136 Y-13.6995 Z1.2793
G1 X15.6355 Y-13.6977 Z1.2620
G1 X15.6464 Y-13.6967 Z1.2528
G1 X15.6574 Y-13.6958 Z1.2429
G1 X15.6683 Y-13.6949 Z1.2322
G1 X15.6793 Y-13.6940 Z1.2206
G1 X15.6902 Y-13.6930 Z1.2080
G1 X15.7066 Y-13.6916 Z1.1884
G1 X15.7121 Y-13.6912 Z1.1816
G1 X15.7230 Y-13.6902 Z1.1671
G1 X15.7340 Y-13.6893 Z1.1509
G1 X15.7394 Y-13.6888 Z1.1420
G1 X15.7476 Y-13.6881 Z1.1276
G1 X15.7613 Y-13.6870 Z1.1020
G1 X15.7668 Y-13.6865 Z1.0912
G1 X15.7722 Y-13.6860 Z1.0794
G1 X15.7777 Y-13.6856 Z1.0664
G1 X15.7832 Y-13.6851 Z1.0518
G1 X15.7859 Y-13.6849 Z1.0437
G1 X15.7955 Y-13.6841 Z1.0119
G1 X15.7996 Y-13.6837 Z0.9969
G1 X15.8023 Y-13.6835 Z0.9853
G1 X15.8051 Y-13.6832 Z0.9715
G1 X15.8064 Y-13.6831 Z0.9632
G1 X15.8085 Y-13.6830 Z0.9477
G1 X15.8119 Y-13.6827 Z0.9110
G1 X15.8126 Y-13.6826 Z0.8983
G1 X15.8128 Y-13.6826 Z0.8923
G0 Z1.8850
G0 X15.8128 Y-13.6826 
G0 Z1.8850
G0 X10.6347 Y-14.1241 
G1 X10.6347 Y-14.1241 Z1.8600 F75.
G1 X10.6423 Y-14.1234 Z1.8217
G1 X10.6639 Y-14.1214 Z1.7893
G1 X10.6962 Y-14.1184 Z1.7676
G1 X10.7343 Y-14.1148 Z1.7600
G1 X12.9396 Y-13.9100 Z1.7599 F200.
G1 X13.0505 Y-13.8997 Z1.7573
G1 X13.0680 Y-13.8980 Z1.7564
G1 X13.1730 Y-13.8883 Z1.7493
G1 X13.2780 Y-13.8785 Z1.7383
G1 X13.3014 Y-13.8764 Z1.7354
G1 X13.4005 Y-13.8671 Z1.7215
G1 X13.5114 Y-13.8568 Z1.7025
G1 X13.6047 Y-13.8482 Z1.6841
G1 X13.6398 Y-13.8449 Z1.6767
G1 X13.7214 Y-13.8373 Z1.6588
G1 X13.8264 Y-13.8276 Z1.6337
G1 X14.0306 Y-13.8086 Z1.5810
G1 X14.2348 Y-13.7896 Z1.5253
G1 X14.3632 Y-13.7777 Z1.4889
G1 X14.4215 Y-13.7723 Z1.4731
G1 X14.4449 Y-13.7701 Z1.4665
G1 X14.5149 Y-13.7636 Z1.4461
G1 X14.6316 Y-13.7528 Z1.4138
G1 X14.6549 Y-13.7506 Z1.4075
G1 X14.6928 Y-13.7471 Z1.3965
G1 X14.7220 Y-13.7444 Z1.3901
G1 X14.7468 Y-13.7421 Z1.3866
G1 X14.7687 Y-13.7400 Z1.3850
G1 X15.2967 Y-13.6910 Z1.3849
G1 X15.3083 Y-13.6899 Z1.3845
G1 X15.3259 Y-13.6883 Z1.3832
G1 X15.3550 Y-13.6856 Z1.3805
G1 X15.3784 Y-13.6834 Z1.3771
G1 X15.4017 Y-13.6812 Z1.3723
G1 X15.4192 Y-13.6796 Z1.3677
G1 X15.4484 Y-13.6769 Z1.3594
G1 X15.4717 Y-13.6747 Z1.3515
G1 X15.4950 Y-13.6726 Z1.3419
G1 X15.5111 Y-13.6711 Z1.3342
G1 X15.5417 Y-13.6682 Z1.3186
G1 X15.5534 Y-13.6672 Z1.3121
G1 X15.5651 Y-13.6661 Z1.3050
G1 X15.5767 Y-13.6650 Z1.2974
G1 X15.5884 Y-13.6639 Z1.2891
G1 X15.5990 Y-13.6629 Z1.2810
G1 X15.6202 Y-13.6609 Z1.2641
G1 X15.6309 Y-13.6600 Z1.2553
G1 X15.6415 Y-13.6590 Z1.2458
G1 X15.6521 Y-13.6580 Z1.2356
G1 X15.6627 Y-13.6570 Z1.2245
G1 X15.6733 Y-13.6560 Z1.2125
G1 X15.6945 Y-13.6540 Z1.1869
G1 X15.7052 Y-13.6531 Z1.1732
G1 X15.7158 Y-13.6521 Z1.1582
G1 X15.7264 Y-13.6511 Z1.1414
G1 X15.7343 Y-13.6503 Z1.1273
G1 X15.7476 Y-13.6491 Z1.1024
G1 X15.7529 Y-13.6486 Z1.0920
G1 X15.7582 Y-13.6481 Z1.0806
G1 X15.7635 Y-13.6476 Z1.0681
G1 X15.7688 Y-13.6471 Z1.0542
G1 X15.7742 Y-13.6466 Z1.0382
G1 X15.7821 Y-13.6459 Z1.0113
G1 X15.7848 Y-13.6457 Z1.0018
G1 X15.7887 Y-13.6453 Z0.9854
G1 X15.7914 Y-13.6450 Z0.9720
G1 X15.7927 Y-13.6449 Z0.9640
G1 X15.7947 Y-13.6447 Z0.9493
G1 X15.7984 Y-13.6444 Z0.9116
G1 X15.7992 Y-13.6443 Z0.8951
G1 X15.7992 Y-13.6443 Z0.8760
G1 X15.7994 Y-13.6443 Z0.8760
G0 Z1.8850
G0 X15.7994 Y-13.6443 
G0 Z1.8850
G0 X10.6348 Y-14.1248 
G1 X10.6348 Y-14.1248 Z1.8600 F75.
G1 X10.6424 Y-14.1241 Z1.8217
G1 X10.6639 Y-14.1219 Z1.7893
G1 X10.6962 Y-14.1186 Z1.7676
G1 X10.7343 Y-14.1148 Z1.7600
G1 X12.9263 Y-13.8941 Z1.7600 F200.
G1 X12.9497 Y-13.8917 Z1.7597
G1 X13.0429 Y-13.8824 Z1.7575
G1 X13.0662 Y-13.8800 Z1.7565
G1 X13.1712 Y-13.8694 Z1.7495
G1 X13.1828 Y-13.8683 Z1.7484
G1 X13.2878 Y-13.8577 Z1.7373
G1 X13.4044 Y-13.8460 Z1.7209
G1 X13.5152 Y-13.8348 Z1.7018
G1 X13.6201 Y-13.8242 Z1.6810
G1 X13.7192 Y-13.8143 Z1.6593
G1 X13.8125 Y-13.8049 Z1.6371
G1 X13.8358 Y-13.8025 Z1.6313
G1 X13.8824 Y-13.7978 Z1.6190
G1 X14.0224 Y-13.7837 Z1.5831
G1 X14.0690 Y-13.7790 Z1.5700
G1 X14.2206 Y-13.7638 Z1.5285
G1 X14.3955 Y-13.7462 Z1.4790
G1 X14.4188 Y-13.7438 Z1.4726
G1 X14.5470 Y-13.7309 Z1.4355
G1 X14.6520 Y-13.7204 Z1.4063
G1 X14.6870 Y-13.7168 Z1.3961
G1 X14.7132 Y-13.7142 Z1.3903
G1 X14.7365 Y-13.7118 Z1.3868
G1 X14.7598 Y-13.7095 Z1.3850
G1 X15.2816 Y-13.6570 Z1.3850
G1 X15.3049 Y-13.6546 Z1.3840
G1 X15.3399 Y-13.6511 Z1.3809
G1 X15.3516 Y-13.6499 Z1.3795
G1 X15.3749 Y-13.6476 Z1.3756
G1 X15.3982 Y-13.6452 Z1.3703
G1 X15.4332 Y-13.6417 Z1.3605
G1 X15.4448 Y-13.6405 Z1.3569
G1 X15.4682 Y-13.6382 Z1.3484
G1 X15.4915 Y-13.6358 Z1.3381
G1 X15.5265 Y-13.6323 Z1.3204
G1 X15.5381 Y-13.6311 Z1.3140
G1 X15.5498 Y-13.6300 Z1.3071
G1 X15.5614 Y-13.6288 Z1.2996
G1 X15.5731 Y-13.6276 Z1.2915
G1 X15.5873 Y-13.6262 Z1.2807
G1 X15.6158 Y-13.6233 Z1.2578
G1 X15.6261 Y-13.6223 Z1.2488
G1 X15.6364 Y-13.6212 Z1.2391
G1 X15.6468 Y-13.6202 Z1.2286
G1 X15.6571 Y-13.6192 Z1.2172
G1 X15.6803 Y-13.6168 Z1.1893
G1 X15.6881 Y-13.6160 Z1.1796
G1 X15.6984 Y-13.6150 Z1.1655
G1 X15.7088 Y-13.6140 Z1.1499
G1 X15.7139 Y-13.6134 Z1.1414
G1 X15.7217 Y-13.6126 Z1.1276
G1 X15.7346 Y-13.6113 Z1.1031
G1 X15.7398 Y-13.6108 Z1.0929
G1 X15.7449 Y-13.6103 Z1.0819
G1 X15.7501 Y-13.6098 Z1.0697
G1 X15.7553 Y-13.6093 Z1.0563
G1 X15.7604 Y-13.6087 Z1.0409
G1 X15.7708 Y-13.6077 Z1.0057
G1 X15.7733 Y-13.6074 Z0.9958
G1 X15.7759 Y-13.6072 Z0.9845
G1 X15.7785 Y-13.6069 Z0.9712
G1 X15.7798 Y-13.6068 Z0.9633
G1 X15.7817 Y-13.6066 Z0.9486
G1 X15.7853 Y-13.6062 Z0.9100
G1 X15.7859 Y-13.6062 Z0.8973
G1 X15.7861 Y-13.6062 Z0.8906
G1 X15.7861 Y-13.6062 Z0.8760
G1 X15.7866 Y-13.6061 Z0.8760
G0 Z1.8850
G0 X15.7866 Y-13.6061 
G0 Z1.8850
G0 X10.6349 Y-14.1256 
G1 X10.6349 Y-14.1256 Z1.8600 F75.
G1 X10.6424 Y-14.1247 Z1.8217
G1 X10.6640 Y-14.1224 Z1.7893
G1 X10.6962 Y-14.1189 Z1.7676
G1 X10.7343 Y-14.1148 Z1.7600
G1 X12.9246 Y-13.8772 Z1.7600 F200.
G1 X12.9479 Y-13.8746 Z1.7597
G1 X13.0527 Y-13.8633 Z1.7573
G1 X13.0644 Y-13.8620 Z1.7566
G1 X13.1692 Y-13.8506 Z1.7497
G1 X13.1809 Y-13.8494 Z1.7486
G1 X13.2915 Y-13.8374 Z1.7369
G1 X13.3906 Y-13.8266 Z1.7230
G1 X13.4139 Y-13.8241 Z1.7193
G1 X13.5129 Y-13.8133 Z1.7023
G1 X13.6119 Y-13.8026 Z1.6828
G1 X13.6236 Y-13.8013 Z1.6803
G1 X13.7168 Y-13.7912 Z1.6598
G1 X13.8275 Y-13.7792 Z1.6334
G1 X13.9148 Y-13.7697 Z1.6105
G1 X14.0255 Y-13.7577 Z1.5820
G1 X14.0896 Y-13.7508 Z1.5639
G1 X14.2294 Y-13.7356 Z1.5254
G1 X14.2644 Y-13.7318 Z1.5152
G1 X14.4391 Y-13.7129 Z1.4656
G1 X14.5673 Y-13.6990 Z1.4282
G1 X14.6488 Y-13.6901 Z1.4053
G1 X14.6779 Y-13.6869 Z1.3966
G1 X14.6838 Y-13.6863 Z1.3951
G1 X14.7056 Y-13.6839 Z1.3903
G1 X14.7304 Y-13.6813 Z1.3866
G1 X14.7508 Y-13.6790 Z1.3851
G1 X15.2663 Y-13.6231 Z1.3850
G1 X15.2779 Y-13.6219 Z1.3848
G1 X15.3012 Y-13.6193 Z1.3834
G1 X15.3245 Y-13.6168 Z1.3813
G1 X15.3478 Y-13.6143 Z1.3785
G1 X15.3711 Y-13.6117 Z1.3741
G1 X15.3944 Y-13.6092 Z1.3683
G1 X15.4177 Y-13.6067 Z1.3616
G1 X15.4410 Y-13.6042 Z1.3542
G1 X15.4643 Y-13.6016 Z1.3451
G1 X15.4876 Y-13.5991 Z1.3342
G1 X15.5109 Y-13.5966 Z1.3223
G1 X15.5226 Y-13.5953 Z1.3161
G1 X15.5342 Y-13.5940 Z1.3093
G1 X15.5459 Y-13.5928 Z1.3020
G1 X15.5576 Y-13.5915 Z1.2941
G1 X15.5692 Y-13.5903 Z1.2855
G1 X15.6010 Y-13.5868 Z1.2601
G1 X15.6110 Y-13.5857 Z1.2515
G1 X15.6211 Y-13.5846 Z1.2422
G1 X15.6312 Y-13.5835 Z1.2322
G1 X15.6412 Y-13.5824 Z1.2214
G1 X15.6513 Y-13.5814 Z1.2097
G1 X15.6714 Y-13.5792 Z1.1852
G1 X15.6815 Y-13.5781 Z1.1721
G1 X15.6915 Y-13.5770 Z1.1576
G1 X15.7016 Y-13.5759 Z1.1414
G1 X15.7091 Y-13.5751 Z1.1280
G1 X15.7242 Y-13.5734 Z1.0993
G1 X15.7318 Y-13.5726 Z1.0836
G1 X15.7368 Y-13.5721 Z1.0720
G1 X15.7418 Y-13.5715 Z1.0591
G1 X15.7469 Y-13.5710 Z1.0445
G1 X15.7519 Y-13.5704 Z1.0278
G1 X15.7594 Y-13.5696 Z1.0015
G1 X15.7620 Y-13.5693 Z0.9913
G1 X15.7645 Y-13.5691 Z0.9796
G1 X15.7670 Y-13.5688 Z0.9655
G1 X15.7689 Y-13.5686 Z0.9520
G1 X15.7720 Y-13.5683 Z0.9198
G1 X15.7730 Y-13.5682 Z0.9077
G1 X15.7736 Y-13.5681 Z0.8923
G1 X15.7736 Y-13.5681 Z0.8760
G1 X15.7739 Y-13.5680 Z0.8760
G0 Z1.8850
G0 X15.7739 Y-13.5680 
G0 Z1.8850
G0 X10.6350 Y-14.1263 
G1 X10.6350 Y-14.1263 Z1.8600 F75.
G1 X10.6425 Y-14.1254 Z1.8217
G1 X10.6641 Y-14.1229 Z1.7893
G1 X10.6963 Y-14.1192 Z1.7676
G1 X10.7343 Y-14.1148 Z1.7600
G1 X12.9401 Y-13.8582 Z1.7599 F200.
G1 X13.0507 Y-13.8454 Z1.7573
G1 X13.0623 Y-13.8440 Z1.7568
G1 X13.1671 Y-13.8318 Z1.7498
G1 X13.1787 Y-13.8305 Z1.7489
G1 X13.2835 Y-13.8183 Z1.7378
G1 X13.2951 Y-13.8169 Z1.7364
G1 X13.4057 Y-13.8041 Z1.7208
G1 X13.5105 Y-13.7919 Z1.7028
G1 X13.6211 Y-13.7790 Z1.6809
G1 X13.7258 Y-13.7668 Z1.6577
G1 X13.8277 Y-13.7550 Z1.6333
G1 X13.9470 Y-13.7411 Z1.6020
G1 X14.0227 Y-13.7323 Z1.5825
G1 X14.1216 Y-13.7208 Z1.5546
G1 X14.2264 Y-13.7086 Z1.5257
G1 X14.2904 Y-13.7012 Z1.5068
G1 X14.4126 Y-13.6870 Z1.4722
G1 X14.4592 Y-13.6816 Z1.4583
G1 X14.5989 Y-13.6653 Z1.4176
G1 X14.6454 Y-13.6599 Z1.4045
G1 X14.6745 Y-13.6565 Z1.3957
G1 X14.6920 Y-13.6545 Z1.3916
G1 X14.7036 Y-13.6531 Z1.3894
G1 X14.7211 Y-13.6511 Z1.3867
G1 X14.7444 Y-13.6484 Z1.3850
G1 X15.2624 Y-13.5881 Z1.3850
G1 X15.2740 Y-13.5868 Z1.3846
G1 X15.2915 Y-13.5848 Z1.3834
G1 X15.3206 Y-13.5814 Z1.3807
G1 X15.3438 Y-13.5787 Z1.3774
G1 X15.3671 Y-13.5760 Z1.3727
G1 X15.3846 Y-13.5739 Z1.3681
G1 X15.4137 Y-13.5705 Z1.3598
G1 X15.4370 Y-13.5678 Z1.3519
G1 X15.4602 Y-13.5651 Z1.3422
G1 X15.4748 Y-13.5634 Z1.3352
G1 X15.5068 Y-13.5597 Z1.3187
G1 X15.5184 Y-13.5584 Z1.3121
G1 X15.5301 Y-13.5570 Z1.3049
G1 X15.5417 Y-13.5556 Z1.2972
G1 X15.5534 Y-13.5543 Z1.2888
G1 X15.5650 Y-13.5529 Z1.2797
G1 X15.5864 Y-13.5504 Z1.2624
G1 X15.5962 Y-13.5493 Z1.2541
G1 X15.6060 Y-13.5482 Z1.2452
G1 X15.6158 Y-13.5470 Z1.2356
G1 X15.6256 Y-13.5459 Z1.2253
G1 X15.6379 Y-13.5445 Z1.2112
G1 X15.6599 Y-13.5419 Z1.1843
G1 X15.6648 Y-13.5413 Z1.1780
G1 X15.6746 Y-13.5402 Z1.1645
G1 X15.6844 Y-13.5390 Z1.1495
G1 X15.6942 Y-13.5379 Z1.1328
G1 X15.7139 Y-13.5356 Z1.0954
G1 X15.7188 Y-13.5351 Z1.0851
G1 X15.7237 Y-13.5345 Z1.0739
G1 X15.7286 Y-13.5339 Z1.0616
G1 X15.7335 Y-13.5333 Z1.0477
G1 X15.7384 Y-13.5328 Z1.0318
G1 X15.7457 Y-13.5319 Z1.0065
G1 X15.7482 Y-13.5316 Z0.9971
G1 X15.7518 Y-13.5312 Z0.9808
G1 X15.7543 Y-13.5309 Z0.9674
G1 X15.7561 Y-13.5307 Z0.9547
G1 X15.7580 Y-13.5305 Z0.9374
G1 X15.7604 Y-13.5302 Z0.9112
G1 X15.7612 Y-13.5301 Z0.8960
G1 X15.7613 Y-13.5301 Z0.8877
G0 Z1.8850
G0 X15.7613 Y-13.5301 
G0 Z1.8850
G0 X10.6350 Y-14.1271 
G1 X10.6350 Y-14.1271 Z1.8600 F75.
G1 X10.6426 Y-14.1261 Z1.8217
G1 X10.6641 Y-14.1235 Z1.7893
G1 X10.6963 Y-14.1195 Z1.7676
G1 X10.7343 Y-14.1148 Z1.7600
G1 X12.9381 Y-13.8412 Z1.7599 F200.
G1 X13.0486 Y-13.8275 Z1.7574
G1 X13.0602 Y-13.8260 Z1.7569
G1 X13.1707 Y-13.8123 Z1.7496
G1 X13.1881 Y-13.8102 Z1.7479
G1 X13.2928 Y-13.7972 Z1.7368
G1 X13.4033 Y-13.7834 Z1.7212
G1 X13.5137 Y-13.7697 Z1.7023
G1 X13.6184 Y-13.7567 Z1.6816
G1 X13.7231 Y-13.7437 Z1.6584
G1 X13.8277 Y-13.7308 Z1.6333
G1 X13.9673 Y-13.7134 Z1.5966
G1 X14.0254 Y-13.7062 Z1.5815
G1 X14.1534 Y-13.6903 Z1.5453
G1 X14.2231 Y-13.6817 Z1.5261
G1 X14.3162 Y-13.6701 Z1.4985
G1 X14.4092 Y-13.6586 Z1.4721
G1 X14.4906 Y-13.6485 Z1.4476
G1 X14.6302 Y-13.6311 Z1.4072
G1 X14.6709 Y-13.6261 Z1.3950
G1 X14.6941 Y-13.6232 Z1.3897
G1 X14.7116 Y-13.6210 Z1.3870
G1 X14.7174 Y-13.6203 Z1.3864
G1 X14.7348 Y-13.6181 Z1.3850
G1 X15.2465 Y-13.5546 Z1.3850
G1 X15.2698 Y-13.5517 Z1.3843
G1 X15.3047 Y-13.5474 Z1.3813
G1 X15.3163 Y-13.5460 Z1.3800
G1 X15.3396 Y-13.5431 Z1.3764
G1 X15.3628 Y-13.5402 Z1.3712
G1 X15.3977 Y-13.5359 Z1.3614
G1 X15.4093 Y-13.5344 Z1.3579
G1 X15.4326 Y-13.5315 Z1.3495
G1 X15.4559 Y-13.5286 Z1.3394
G1 X15.4675 Y-13.5272 Z1.3336
G1 X15.4907 Y-13.5243 Z1.3216
G1 X15.5024 Y-13.5229 Z1.3152
G1 X15.5140 Y-13.5214 Z1.3083
G1 X15.5256 Y-13.5200 Z1.3009
G1 X15.5373 Y-13.5185 Z1.2928
G1 X15.5518 Y-13.5167 Z1.2817
G1 X15.5769 Y-13.5136 Z1.2614
G1 X15.5817 Y-13.5130 Z1.2574
G1 X15.5913 Y-13.5118 Z1.2489
G1 X15.6008 Y-13.5107 Z1.2398
G1 X15.6104 Y-13.5095 Z1.2300
G1 X15.6199 Y-13.5083 Z1.2195
G1 X15.6294 Y-13.5071 Z1.2082
G1 X15.6485 Y-13.5047 Z1.1847
G1 X15.6581 Y-13.5035 Z1.1721
G1 X15.6676 Y-13.5024 Z1.1582
G1 X15.6772 Y-13.5012 Z1.1428
G1 X15.6820 Y-13.5006 Z1.1345
G1 X15.6987 Y-13.4985 Z1.1027
G1 X15.7058 Y-13.4976 Z1.0881
G1 X15.7106 Y-13.4970 Z1.0773
G1 X15.7154 Y-13.4964 Z1.0656
G1 X15.7202 Y-13.4958 Z1.0525
G1 X15.7249 Y-13.4952 Z1.0376
G1 X15.7345 Y-13.4941 Z1.0044
G1 X15.7369 Y-13.4938 Z0.9950
G1 X15.7405 Y-13.4933 Z0.9785
G1 X15.7428 Y-13.4930 Z0.9648
G1 X15.7446 Y-13.4928 Z0.9517
G1 X15.7482 Y-13.4924 Z0.9138
G1 X15.7491 Y-13.4922 Z0.8978
G1 X15.7493 Y-13.4922 Z0.8922
G1 X15.7493 Y-13.4922 Z0.8760
G1 X15.7496 Y-13.4922 Z0.8760
G0 Z1.8850
G0 X15.7496 Y-13.4922 
G0 Z1.8850
G0 X10.6351 Y-14.1278 
G1 X10.6351 Y-14.1278 Z1.8600 F75.
G1 X10.6427 Y-14.1268 Z1.8217
G1 X10.6642 Y-14.1240 Z1.7893
G1 X10.6963 Y-14.1197 Z1.7676
G1 X10.7343 Y-14.1147 Z1.7600
G1 X12.9301 Y-13.8249 Z1.7600 F200.
G1 X12.9649 Y-13.8203 Z1.7593
G1 X13.0521 Y-13.8088 Z1.7573
G1 X13.0695 Y-13.8065 Z1.7563
G1 X13.1741 Y-13.7927 Z1.7493
G1 X13.2902 Y-13.7774 Z1.7371
G1 X13.4006 Y-13.7628 Z1.7217
G1 X13.5110 Y-13.7483 Z1.7029
G1 X13.6214 Y-13.7337 Z1.6810
G1 X13.7259 Y-13.7199 Z1.6578
G1 X13.8247 Y-13.7069 Z1.6340
G1 X14.0222 Y-13.6808 Z1.5822
G1 X14.1848 Y-13.6593 Z1.5361
G1 X14.2197 Y-13.6547 Z1.5265
G1 X14.3475 Y-13.6379 Z1.4886
G1 X14.4056 Y-13.6302 Z1.4721
G1 X14.4520 Y-13.6241 Z1.4582
G1 X14.5218 Y-13.6149 Z1.4370
G1 X14.6307 Y-13.6005 Z1.4052
G1 X14.6612 Y-13.5965 Z1.3958
G1 X14.6844 Y-13.5934 Z1.3903
G1 X14.7062 Y-13.5905 Z1.3868
G1 X14.7280 Y-13.5877 Z1.3850
G1 X15.2421 Y-13.5198 Z1.3850
G1 X15.2653 Y-13.5167 Z1.3839
G1 X15.3002 Y-13.5121 Z1.3807
G1 X15.3118 Y-13.5106 Z1.3793
G1 X15.3350 Y-13.5075 Z1.3753
G1 X15.3612 Y-13.5041 Z1.3689
G1 X15.3931 Y-13.4999 Z1.3597
G1 X15.4047 Y-13.4983 Z1.3559
G1 X15.4280 Y-13.4953 Z1.3471
G1 X15.4512 Y-13.4922 Z1.3365
G1 X15.4860 Y-13.4876 Z1.3184
G1 X15.4977 Y-13.4861 Z1.3118
G1 X15.5093 Y-13.4845 Z1.3046
G1 X15.5209 Y-13.4830 Z1.2968
G1 X15.5325 Y-13.4815 Z1.2884
G1 X15.5441 Y-13.4799 Z1.2793
G1 X15.5674 Y-13.4769 Z1.2604
G1 X15.5767 Y-13.4756 Z1.2523
G1 X15.5860 Y-13.4744 Z1.2437
G1 X15.5953 Y-13.4732 Z1.2345
G1 X15.6046 Y-13.4720 Z1.2245
G1 X15.6162 Y-13.4704 Z1.2111
G1 X15.6372 Y-13.4677 Z1.1853
G1 X15.6418 Y-13.4670 Z1.1793
G1 X15.6511 Y-13.4658 Z1.1664
G1 X15.6605 Y-13.4646 Z1.1523
G1 X15.6698 Y-13.4634 Z1.1366
G1 X15.6791 Y-13.4621 Z1.1192
G1 X15.6884 Y-13.4609 Z1.1012
G1 X15.6930 Y-13.4603 Z1.0918
G1 X15.6977 Y-13.4597 Z1.0816
G1 X15.7023 Y-13.4591 Z1.0706
G1 X15.7070 Y-13.4584 Z1.0584
G1 X15.7117 Y-13.4578 Z1.0448
G1 X15.7163 Y-13.4572 Z1.0292
G1 X15.7233 Y-13.4563 Z1.0047
G1 X15.7256 Y-13.4560 Z0.9956
G1 X15.7291 Y-13.4555 Z0.9797
G1 X15.7314 Y-13.4552 Z0.9666
G1 X15.7326 Y-13.4551 Z0.9588
G1 X15.7343 Y-13.4548 Z0.9439
G1 X15.7373 Y-13.4544 Z0.9115
G1 X15.7380 Y-13.4544 Z0.8975
G1 X15.7381 Y-13.4543 Z0.8920
G1 X15.7381 Y-13.4543 Z0.8760
G1 X15.7386 Y-13.4543 Z0.8760
G0 Z1.8850
G0 X15.7386 Y-13.4543 
G0 Z1.8850
G0 X10.6352 Y-14.1286 
G1 X10.6352 Y-14.1286 Z1.8600 F75.
G1 X10.6428 Y-14.1275 Z1.8217
G1 X10.6643 Y-14.1245 Z1.7893
G1 X10.6964 Y-14.1200 Z1.7676
G1 X10.7343 Y-14.1147 Z1.7600
G1 X12.9394 Y-13.8064 Z1.7599 F200.
G1 X13.0554 Y-13.7901 Z1.7572
G1 X13.1715 Y-13.7739 Z1.7495
G1 X13.1947 Y-13.7707 Z1.7473
G1 X13.2934 Y-13.7569 Z1.7368
G1 X13.4036 Y-13.7414 Z1.7213
G1 X13.5139 Y-13.7260 Z1.7024
G1 X13.6125 Y-13.7122 Z1.6828
G1 X13.7170 Y-13.6976 Z1.6599
G1 X13.8214 Y-13.6830 Z1.6348
G1 X14.0245 Y-13.6546 Z1.5813
G1 X14.2160 Y-13.6278 Z1.5270
G1 X14.3785 Y-13.6051 Z1.4788
G1 X14.4017 Y-13.6019 Z1.4722
G1 X14.4481 Y-13.5954 Z1.4583
G1 X14.5584 Y-13.5800 Z1.4247
G1 X14.6222 Y-13.5710 Z1.4060
G1 X14.6570 Y-13.5662 Z1.3951
G1 X14.6803 Y-13.5629 Z1.3898
G1 X14.6977 Y-13.5605 Z1.3870
G1 X14.7035 Y-13.5597 Z1.3863
G1 X14.7209 Y-13.5572 Z1.3850
G1 X15.2373 Y-13.4850 Z1.3849
G1 X15.2606 Y-13.4818 Z1.3836
G1 X15.2896 Y-13.4777 Z1.3809
G1 X15.3070 Y-13.4753 Z1.3786
G1 X15.3302 Y-13.4720 Z1.3743
G1 X15.3534 Y-13.4688 Z1.3685
G1 X15.3766 Y-13.4655 Z1.3618
G1 X15.3882 Y-13.4639 Z1.3582
G1 X15.3998 Y-13.4623 Z1.3543
G1 X15.4230 Y-13.4590 Z1.3450
G1 X15.4346 Y-13.4574 Z1.3397
G1 X15.4462 Y-13.4558 Z1.3339
G1 X15.4695 Y-13.4526 Z1.3218
G1 X15.4811 Y-13.4509 Z1.3155
G1 X15.4927 Y-13.4493 Z1.3086
G1 X15.5043 Y-13.4477 Z1.3011
G1 X15.5159 Y-13.4461 Z1.2929
G1 X15.5304 Y-13.4440 Z1.2818
G1 X15.5565 Y-13.4404 Z1.2605
G1 X15.5623 Y-13.4396 Z1.2555
G1 X15.5714 Y-13.4383 Z1.2473
G1 X15.5805 Y-13.4370 Z1.2386
G1 X15.5895 Y-13.4358 Z1.2292
G1 X15.5986 Y-13.4345 Z1.2191
G1 X15.6077 Y-13.4332 Z1.2082
G1 X15.6258 Y-13.4307 Z1.1859
G1 X15.6349 Y-13.4294 Z1.1739
G1 X15.6440 Y-13.4281 Z1.1608
G1 X15.6531 Y-13.4269 Z1.1465
G1 X15.6622 Y-13.4256 Z1.1305
G1 X15.6803 Y-13.4231 Z1.0954
G1 X15.6849 Y-13.4224 Z1.0857
G1 X15.6894 Y-13.4218 Z1.0753
G1 X15.6939 Y-13.4212 Z1.0639
G1 X15.6985 Y-13.4205 Z1.0512
G1 X15.7030 Y-13.4199 Z1.0369
G1 X15.7121 Y-13.4186 Z1.0052
G1 X15.7144 Y-13.4183 Z0.9963
G1 X15.7166 Y-13.4180 Z0.9864
G1 X15.7189 Y-13.4177 Z0.9750
G1 X15.7212 Y-13.4174 Z0.9611
G1 X15.7229 Y-13.4171 Z0.9475
G1 X15.7257 Y-13.4167 Z0.9183
G1 X15.7268 Y-13.4166 Z0.9011
G1 X15.7271 Y-13.4165 Z0.8919
G1 X15.7271 Y-13.4165 Z0.8760
G1 X15.7275 Y-13.4165 Z0.8760
G0 Z1.8850
G0 X15.7275 Y-13.4165 
G0 Z1.8850
G0 X10.6354 Y-14.1293 
G1 X10.6354 Y-14.1293 Z1.8600 F75.
G1 X10.6429 Y-14.1282 Z1.8217
G1 X10.6643 Y-14.1250 Z1.7893
G1 X10.6964 Y-14.1203 Z1.7676
G1 X10.7343 Y-14.1147 Z1.7600
G1 X12.9398 Y-13.7889 Z1.7599 F200.
G1 X13.0529 Y-13.7722 Z1.7573
G1 X13.0761 Y-13.7688 Z1.7559
G1 X13.1688 Y-13.7551 Z1.7498
G1 X13.1804 Y-13.7534 Z1.7488
G1 X13.2847 Y-13.7380 Z1.7378
G1 X13.2963 Y-13.7362 Z1.7364
G1 X13.4065 Y-13.7200 Z1.7209
G1 X13.5166 Y-13.7037 Z1.7020
G1 X13.6238 Y-13.6879 Z1.6806
G1 X13.7253 Y-13.6729 Z1.6581
G1 X13.8296 Y-13.6575 Z1.6328
G1 X13.8876 Y-13.6489 Z1.6173
G1 X14.0209 Y-13.6292 Z1.5822
G1 X14.0730 Y-13.6215 Z1.5671
G1 X14.2180 Y-13.6001 Z1.5260
G1 X14.2469 Y-13.5958 Z1.5171
G1 X14.4208 Y-13.5701 Z1.4655
G1 X14.5947 Y-13.5444 Z1.4125
G1 X14.6179 Y-13.5410 Z1.4057
G1 X14.6527 Y-13.5359 Z1.3947
G1 X14.6701 Y-13.5333 Z1.3905
G1 X14.6759 Y-13.5325 Z1.3894
G1 X14.6933 Y-13.5299 Z1.3866
G1 X14.7107 Y-13.5273 Z1.3852
G1 X14.7223 Y-13.5256 Z1.3850
G1 X15.2207 Y-13.4520 Z1.3850
G1 X15.2323 Y-13.4503 Z1.3848
G1 X15.2497 Y-13.4477 Z1.3837
G1 X15.2787 Y-13.4434 Z1.3811
G1 X15.3019 Y-13.4400 Z1.3780
G1 X15.3251 Y-13.4366 Z1.3735
G1 X15.3425 Y-13.4340 Z1.3690
G1 X15.3715 Y-13.4297 Z1.3606
G1 X15.3946 Y-13.4263 Z1.3529
G1 X15.4178 Y-13.4229 Z1.3433
G1 X15.4294 Y-13.4211 Z1.3378
G1 X15.4642 Y-13.4160 Z1.3198
G1 X15.4758 Y-13.4143 Z1.3132
G1 X15.4874 Y-13.4126 Z1.3061
G1 X15.4990 Y-13.4109 Z1.2984
G1 X15.5106 Y-13.4092 Z1.2900
G1 X15.5222 Y-13.4074 Z1.2809
G1 X15.5454 Y-13.4040 Z1.2620
G1 X15.5569 Y-13.4023 Z1.2519
G1 X15.5658 Y-13.4010 Z1.2435
G1 X15.5747 Y-13.3997 Z1.2346
G1 X15.5836 Y-13.3984 Z1.2251
G1 X15.5925 Y-13.3970 Z1.2148
G1 X15.6148 Y-13.3938 Z1.1873
G1 X15.6192 Y-13.3931 Z1.1816
G1 X15.6281 Y-13.3918 Z1.1695
G1 X15.6370 Y-13.3905 Z1.1562
G1 X15.6459 Y-13.3892 Z1.1415
G1 X15.6504 Y-13.3885 Z1.1336
G1 X15.6682 Y-13.3859 Z1.0992
G1 X15.6726 Y-13.3852 Z1.0899
G1 X15.6771 Y-13.3846 Z1.0800
G1 X15.6815 Y-13.3839 Z1.0692
G1 X15.6860 Y-13.3832 Z1.0573
G1 X15.6904 Y-13.3826 Z1.0441
G1 X15.7016 Y-13.3809 Z1.0054
G1 X15.7038 Y-13.3806 Z0.9967
G1 X15.7060 Y-13.3803 Z0.9870
G1 X15.7094 Y-13.3798 Z0.9695
G1 X15.7116 Y-13.3795 Z0.9541
G1 X15.7127 Y-13.3793 Z0.9440
G1 X15.7158 Y-13.3788 Z0.9090
G1 X15.7165 Y-13.3787 Z0.8923
G0 Z1.8850
G0 X15.7165 Y-13.3787 
G0 Z1.8850
G0 X10.6355 Y-14.1301 
G1 X10.6355 Y-14.1301 Z1.8600 F75.
G1 X10.6430 Y-14.1289 Z1.8217
G1 X10.6644 Y-14.1256 Z1.7893
G1 X10.6965 Y-14.1206 Z1.7676
G1 X10.7343 Y-14.1147 Z1.7600
G1 X12.9401 Y-13.7714 Z1.7599 F200.
G1 X13.0502 Y-13.7543 Z1.7574
G1 X13.0617 Y-13.7525 Z1.7568
G1 X13.1717 Y-13.7354 Z1.7496
G1 X13.1891 Y-13.7327 Z1.7479
G1 X13.2933 Y-13.7165 Z1.7369
G1 X13.4033 Y-13.6993 Z1.7214
G1 X13.5162 Y-13.6818 Z1.7021
G1 X13.6233 Y-13.6651 Z1.6808
G1 X13.7275 Y-13.6489 Z1.6576
G1 X13.8144 Y-13.6354 Z1.6366
G1 X13.8376 Y-13.6318 Z1.6307
G1 X13.9302 Y-13.6174 Z1.6060
G1 X14.0228 Y-13.6029 Z1.5816
G1 X14.1039 Y-13.5903 Z1.5580
G1 X14.2139 Y-13.5732 Z1.5268
G1 X14.2776 Y-13.5633 Z1.5073
G1 X14.4049 Y-13.5435 Z1.4695
G1 X14.4570 Y-13.5354 Z1.4531
G1 X14.6249 Y-13.5092 Z1.4018
G1 X14.6481 Y-13.5056 Z1.3945
G1 X14.6713 Y-13.5020 Z1.3891
G1 X14.6828 Y-13.5002 Z1.3872
G1 X14.6944 Y-13.4984 Z1.3859
G1 X14.7060 Y-13.4966 Z1.3850
G1 X15.2155 Y-13.4173 Z1.3850
G1 X15.2271 Y-13.4155 Z1.3846
G1 X15.2444 Y-13.4128 Z1.3835
G1 X15.2734 Y-13.4083 Z1.3807
G1 X15.2966 Y-13.4047 Z1.3774
G1 X15.3197 Y-13.4011 Z1.3726
G1 X15.3371 Y-13.3984 Z1.3680
G1 X15.3660 Y-13.3939 Z1.3595
G1 X15.3892 Y-13.3903 Z1.3515
G1 X15.4123 Y-13.3867 Z1.3417
G1 X15.4268 Y-13.3845 Z1.3345
G1 X15.4587 Y-13.3795 Z1.3178
G1 X15.4702 Y-13.3777 Z1.3110
G1 X15.4818 Y-13.3759 Z1.3037
G1 X15.4934 Y-13.3741 Z1.2958
G1 X15.5050 Y-13.3723 Z1.2872
G1 X15.5281 Y-13.3687 Z1.2684
G1 X15.5397 Y-13.3669 Z1.2588
G1 X15.5513 Y-13.3651 Z1.2485
G1 X15.5601 Y-13.3637 Z1.2400
G1 X15.5689 Y-13.3623 Z1.2309
G1 X15.5777 Y-13.3610 Z1.2212
G1 X15.5865 Y-13.3596 Z1.2107
G1 X15.6041 Y-13.3569 Z1.1889
G1 X15.6129 Y-13.3555 Z1.1774
G1 X15.6217 Y-13.3541 Z1.1650
G1 X15.6305 Y-13.3528 Z1.1514
G1 X15.6393 Y-13.3514 Z1.1364
G1 X15.6569 Y-13.3486 Z1.1025
G1 X15.6613 Y-13.3480 Z1.0936
G1 X15.6657 Y-13.3473 Z1.0841
G1 X15.6701 Y-13.3466 Z1.0737
G1 X15.6745 Y-13.3459 Z1.0625
G1 X15.6789 Y-13.3452 Z1.0499
G1 X15.6833 Y-13.3445 Z1.0357
G1 X15.6921 Y-13.3432 Z1.0047
G1 X15.6944 Y-13.3428 Z0.9960
G1 X15.6966 Y-13.3425 Z0.9862
G1 X15.6999 Y-13.3420 Z0.9687
G1 X15.7021 Y-13.3416 Z0.9532
G1 X15.7032 Y-13.3415 Z0.9429
G1 X15.7059 Y-13.3410 Z0.9120
G1 X15.7067 Y-13.3409 Z0.8952
G0 Z1.8850
G0 X15.7067 Y-13.3409 
G0 Z1.8850
G0 X10.6356 Y-14.1308 
G1 X10.6356 Y-14.1308 Z1.8600 F75.
G1 X10.6431 Y-14.1296 Z1.8217
G1 X10.6645 Y-14.1261 Z1.7893
G1 X10.6965 Y-14.1209 Z1.7676
G1 X10.7343 Y-14.1147 Z1.7600
G1 X12.9374 Y-13.7544 Z1.7600 F200.
G1 X13.0473 Y-13.7364 Z1.7574
G1 X13.0646 Y-13.7336 Z1.7566
G1 X13.1745 Y-13.7156 Z1.7493
G1 X13.2902 Y-13.6967 Z1.7373
G1 X13.4058 Y-13.6778 Z1.7211
G1 X13.5157 Y-13.6598 Z1.7023
G1 X13.6140 Y-13.6438 Z1.6828
G1 X13.6949 Y-13.6305 Z1.6650
G1 X13.7412 Y-13.6229 Z1.6543
G1 X13.8279 Y-13.6088 Z1.6334
G1 X13.9494 Y-13.5889 Z1.6009
G1 X14.0246 Y-13.5766 Z1.5810
G1 X14.1344 Y-13.5586 Z1.5490
G1 X14.2154 Y-13.5454 Z1.5260
G1 X14.3079 Y-13.5303 Z1.4975
G1 X14.4120 Y-13.5133 Z1.4665
G1 X14.4698 Y-13.5038 Z1.4479
G1 X14.6202 Y-13.4792 Z1.4017
G1 X14.6433 Y-13.4754 Z1.3943
G1 X14.6664 Y-13.4716 Z1.3889
G1 X14.6780 Y-13.4698 Z1.3870
G1 X14.6895 Y-13.4679 Z1.3857
G1 X14.7011 Y-13.4660 Z1.3850
G1 X15.2100 Y-13.3828 Z1.3849
G1 X15.2215 Y-13.3809 Z1.3845
G1 X15.2678 Y-13.3733 Z1.3804
G1 X15.2909 Y-13.3695 Z1.3769
G1 X15.3141 Y-13.3657 Z1.3719
G1 X15.3329 Y-13.3627 Z1.3666
G1 X15.3603 Y-13.3582 Z1.3585
G1 X15.3835 Y-13.3544 Z1.3502
G1 X15.4066 Y-13.3506 Z1.3401
G1 X15.4182 Y-13.3487 Z1.3343
G1 X15.4413 Y-13.3449 Z1.3222
G1 X15.4528 Y-13.3430 Z1.3159
G1 X15.4644 Y-13.3411 Z1.3090
G1 X15.4760 Y-13.3393 Z1.3015
G1 X15.4875 Y-13.3374 Z1.2934
G1 X15.4991 Y-13.3355 Z1.2846
G1 X15.5280 Y-13.3307 Z1.2609
G1 X15.5338 Y-13.3298 Z1.2559
G1 X15.5454 Y-13.3279 Z1.2452
G1 X15.5541 Y-13.3265 Z1.2366
G1 X15.5628 Y-13.3251 Z1.2274
G1 X15.5715 Y-13.3236 Z1.2175
G1 X15.5802 Y-13.3222 Z1.2068
G1 X15.5977 Y-13.3194 Z1.1851
G1 X15.6064 Y-13.3179 Z1.1734
G1 X15.6151 Y-13.3165 Z1.1607
G1 X15.6238 Y-13.3151 Z1.1468
G1 X15.6325 Y-13.3137 Z1.1314
G1 X15.6500 Y-13.3108 Z1.0974
G1 X15.6543 Y-13.3101 Z1.0882
G1 X15.6587 Y-13.3094 Z1.0783
G1 X15.6630 Y-13.3087 Z1.0676
G1 X15.6674 Y-13.3080 Z1.0557
G1 X15.6717 Y-13.3072 Z1.0425
G1 X15.6826 Y-13.3055 Z1.0043
G1 X15.6848 Y-13.3051 Z0.9956
G1 X15.6870 Y-13.3048 Z0.9859
G1 X15.6903 Y-13.3042 Z0.9684
G1 X15.6924 Y-13.3039 Z0.9530
G1 X15.6957 Y-13.3033 Z0.9198
G1 X15.6968 Y-13.3031 Z0.9047
G1 X15.6972 Y-13.3031 Z0.8939
G0 Z1.8850
G0 X15.6972 Y-13.3031 
G0 Z1.8850
G0 X10.6357 Y-14.1316 
G1 X10.6357 Y-14.1316 Z1.8600 F75.
G1 X10.6432 Y-14.1303 Z1.8217
G1 X10.6646 Y-14.1266 Z1.7893
G1 X10.6966 Y-14.1211 Z1.7676
G1 X10.7343 Y-14.1147 Z1.7600
G1 X12.9346 Y-13.7374 Z1.7600 F200.
G1 X13.0559 Y-13.7166 Z1.7572
G1 X13.1714 Y-13.6968 Z1.7496
G1 X13.1829 Y-13.6948 Z1.7486
G1 X13.2869 Y-13.6770 Z1.7377
G1 X13.2984 Y-13.6750 Z1.7363
G1 X13.4081 Y-13.6562 Z1.7208
G1 X13.5179 Y-13.6374 Z1.7020
G1 X13.6247 Y-13.6190 Z1.6807
G1 X13.7287 Y-13.6012 Z1.6575
G1 X13.8297 Y-13.5839 Z1.6330
G1 X14.0145 Y-13.5522 Z1.5837
G1 X14.0376 Y-13.5482 Z1.5771
G1 X14.1647 Y-13.5265 Z1.5400
G1 X14.2167 Y-13.5175 Z1.5252
G1 X14.3379 Y-13.4968 Z1.4878
G1 X14.4072 Y-13.4849 Z1.4672
G1 X14.4881 Y-13.4710 Z1.4410
G1 X14.6036 Y-13.4512 Z1.4054
G1 X14.6382 Y-13.4453 Z1.3942
G1 X14.6498 Y-13.4433 Z1.3914
G1 X14.6613 Y-13.4413 Z1.3888
G1 X14.6729 Y-13.4393 Z1.3869
G1 X14.6844 Y-13.4373 Z1.3857
G1 X14.6960 Y-13.4354 Z1.3850
G1 X15.1926 Y-13.3502 Z1.3850
G1 X15.2042 Y-13.3482 Z1.3849
G1 X15.2157 Y-13.3462 Z1.3844
G1 X15.2619 Y-13.3383 Z1.3802
G1 X15.2850 Y-13.3344 Z1.3766
G1 X15.3081 Y-13.3304 Z1.3715
G1 X15.3543 Y-13.3225 Z1.3580
G1 X15.3774 Y-13.3185 Z1.3495
G1 X15.4005 Y-13.3145 Z1.3393
G1 X15.4352 Y-13.3086 Z1.3212
G1 X15.4467 Y-13.3066 Z1.3148
G1 X15.4583 Y-13.3046 Z1.3078
G1 X15.4698 Y-13.3027 Z1.3002
G1 X15.4814 Y-13.3007 Z1.2919
G1 X15.4929 Y-13.2987 Z1.2830
G1 X15.5160 Y-13.2947 Z1.2639
G1 X15.5276 Y-13.2928 Z1.2540
G1 X15.5391 Y-13.2908 Z1.2431
G1 X15.5478 Y-13.2893 Z1.2344
G1 X15.5564 Y-13.2878 Z1.2251
G1 X15.5651 Y-13.2863 Z1.2150
G1 X15.5910 Y-13.2819 Z1.1826
G1 X15.5996 Y-13.2804 Z1.1708
G1 X15.6082 Y-13.2789 Z1.1579
G1 X15.6169 Y-13.2775 Z1.1438
G1 X15.6255 Y-13.2760 Z1.1281
G1 X15.6428 Y-13.2730 Z1.0940
G1 X15.6471 Y-13.2723 Z1.0846
G1 X15.6514 Y-13.2715 Z1.0744
G1 X15.6557 Y-13.2708 Z1.0633
G1 X15.6601 Y-13.2701 Z1.0511
G1 X15.6644 Y-13.2693 Z1.0373
G1 X15.6730 Y-13.2678 Z1.0067
G1 X15.6752 Y-13.2675 Z0.9983
G1 X15.6773 Y-13.2671 Z0.9890
G1 X15.6806 Y-13.2665 Z0.9725
G1 X15.6827 Y-13.2662 Z0.9585
G1 X15.6844 Y-13.2659 Z0.9445
G1 X15.6873 Y-13.2654 Z0.9107
G1 X15.6881 Y-13.2652 Z0.8916
G0 Z1.8850
G0 X15.6881 Y-13.2652 
G0 Z1.8850
G0 X10.6358 Y-14.1323 
G1 X10.6358 Y-14.1323 Z1.8600 F75.
G1 X10.6433 Y-14.1310 Z1.8217
G1 X10.6647 Y-14.1271 Z1.7893
G1 X10.6966 Y-14.1214 Z1.7676
G1 X10.7343 Y-14.1146 Z1.7600
G1 X12.9374 Y-13.7194 Z1.7599 F200.
G1 X13.0527 Y-13.6987 Z1.7573
G1 X13.0642 Y-13.6966 Z1.7567
G1 X13.1681 Y-13.6780 Z1.7499
G1 X13.1854 Y-13.6749 Z1.7483
G1 X13.2892 Y-13.6562 Z1.7375
G1 X13.4045 Y-13.6355 Z1.7215
G1 X13.5141 Y-13.6159 Z1.7028
G1 X13.6237 Y-13.5962 Z1.6810
G1 X13.7275 Y-13.5776 Z1.6579
G1 X13.8255 Y-13.5600 Z1.6341
G1 X14.0245 Y-13.5243 Z1.5808
G1 X14.2062 Y-13.4917 Z1.5279
G1 X14.3792 Y-13.4607 Z1.4747
G1 X14.4080 Y-13.4555 Z1.4660
G1 X14.5118 Y-13.4369 Z1.4324
G1 X14.6099 Y-13.4193 Z1.4019
G1 X14.6329 Y-13.4151 Z1.3943
G1 X14.6445 Y-13.4131 Z1.3912
G1 X14.6560 Y-13.4110 Z1.3887
G1 X14.6676 Y-13.4089 Z1.3868
G1 X14.6733 Y-13.4079 Z1.3861
G1 X14.6791 Y-13.4069 Z1.3856
G1 X14.6906 Y-13.4048 Z1.3850
G1 X15.1866 Y-13.3158 Z1.3850
G1 X15.1981 Y-13.3137 Z1.3849
G1 X15.2097 Y-13.3117 Z1.3843
G1 X15.2558 Y-13.3034 Z1.3800
G1 X15.2789 Y-13.2992 Z1.3764
G1 X15.3020 Y-13.2951 Z1.3712
G1 X15.3481 Y-13.2868 Z1.3576
G1 X15.3712 Y-13.2827 Z1.3490
G1 X15.3942 Y-13.2785 Z1.3387
G1 X15.4288 Y-13.2723 Z1.3206
G1 X15.4404 Y-13.2703 Z1.3141
G1 X15.4519 Y-13.2682 Z1.3070
G1 X15.4634 Y-13.2661 Z1.2993
G1 X15.4750 Y-13.2641 Z1.2910
G1 X15.4865 Y-13.2620 Z1.2819
G1 X15.5096 Y-13.2578 Z1.2629
G1 X15.5211 Y-13.2558 Z1.2528
G1 X15.5326 Y-13.2537 Z1.2419
G1 X15.5412 Y-13.2522 Z1.2331
G1 X15.5498 Y-13.2506 Z1.2238
G1 X15.5583 Y-13.2491 Z1.2137
G1 X15.5840 Y-13.2445 Z1.1814
G1 X15.5926 Y-13.2429 Z1.1695
G1 X15.6012 Y-13.2414 Z1.1566
G1 X15.6097 Y-13.2399 Z1.1425
G1 X15.6183 Y-13.2383 Z1.1267
G1 X15.6354 Y-13.2353 Z1.0927
G1 X15.6397 Y-13.2345 Z1.0833
G1 X15.6440 Y-13.2337 Z1.0731
G1 X15.6483 Y-13.2330 Z1.0619
G1 X15.6526 Y-13.2322 Z1.0496
G1 X15.6569 Y-13.2314 Z1.0357
G1 X15.6654 Y-13.2299 Z1.0052
G1 X15.6676 Y-13.2295 Z0.9967
G1 X15.6697 Y-13.2291 Z0.9873
G1 X15.6729 Y-13.2285 Z0.9704
G1 X15.6751 Y-13.2281 Z0.9558
G1 X15.6761 Y-13.2280 Z0.9465
G1 X15.6794 Y-13.2274 Z0.9100
G1 X15.6800 Y-13.2273 Z0.8958
G1 X15.6802 Y-13.2272 Z0.8887
G0 Z1.8850
G0 X15.6802 Y-13.2272 
G0 Z1.8850
G0 X10.6360 Y-14.1331 
G1 X10.6360 Y-14.1331 Z1.8600 F75.
G1 X10.6435 Y-14.1316 Z1.8217
G1 X10.6648 Y-14.1277 Z1.7893
G1 X10.6967 Y-14.1217 Z1.7676
G1 X10.7343 Y-14.1146 Z1.7600
G1 X12.9227 Y-13.7045 Z1.7600 F200.
G1 X12.9458 Y-13.7002 Z1.7598
G1 X13.0494 Y-13.6808 Z1.7574
G1 X13.0609 Y-13.6786 Z1.7569
G1 X13.1761 Y-13.6570 Z1.7493
G1 X13.2913 Y-13.6354 Z1.7372
G1 X13.4065 Y-13.6138 Z1.7212
G1 X13.5188 Y-13.5928 Z1.7020
G1 X13.6253 Y-13.5728 Z1.6808
G1 X13.7290 Y-13.5534 Z1.6577
G1 X13.8269 Y-13.5351 Z1.6338
G1 X14.0256 Y-13.4978 Z1.5805
G1 X14.0515 Y-13.4930 Z1.5728
G1 X14.2157 Y-13.4622 Z1.5248
G1 X14.2358 Y-13.4584 Z1.5184
G1 X14.4028 Y-13.4271 Z1.4669
G1 X14.5353 Y-13.4023 Z1.4239
G1 X14.6044 Y-13.3894 Z1.4023
G1 X14.6274 Y-13.3850 Z1.3947
G1 X14.6332 Y-13.3840 Z1.3929
G1 X14.6505 Y-13.3807 Z1.3887
G1 X14.6620 Y-13.3786 Z1.3868
G1 X14.6735 Y-13.3764 Z1.3856
G1 X14.6850 Y-13.3743 Z1.3850
G1 X15.1803 Y-13.2814 Z1.3850
G1 X15.2033 Y-13.2771 Z1.3843
G1 X15.2494 Y-13.2685 Z1.3799
G1 X15.2725 Y-13.2642 Z1.3762
G1 X15.2955 Y-13.2598 Z1.3709
G1 X15.3416 Y-13.2512 Z1.3573
G1 X15.3646 Y-13.2469 Z1.3487
G1 X15.3876 Y-13.2426 Z1.3382
G1 X15.4222 Y-13.2361 Z1.3201
G1 X15.4337 Y-13.2339 Z1.3135
G1 X15.4452 Y-13.2318 Z1.3064
G1 X15.4567 Y-13.2296 Z1.2986
G1 X15.4683 Y-13.2275 Z1.2902
G1 X15.4798 Y-13.2253 Z1.2811
G1 X15.5028 Y-13.2210 Z1.2621
G1 X15.5143 Y-13.2188 Z1.2519
G1 X15.5259 Y-13.2167 Z1.2409
G1 X15.5344 Y-13.2151 Z1.2321
G1 X15.5429 Y-13.2135 Z1.2228
G1 X15.5514 Y-13.2119 Z1.2127
G1 X15.5769 Y-13.2071 Z1.1804
G1 X15.5854 Y-13.2055 Z1.1686
G1 X15.5939 Y-13.2039 Z1.1557
G1 X15.6024 Y-13.2023 Z1.1415
G1 X15.6109 Y-13.2007 Z1.1257
G1 X15.6279 Y-13.1975 Z1.0918
G1 X15.6322 Y-13.1967 Z1.0824
G1 X15.6364 Y-13.1960 Z1.0721
G1 X15.6407 Y-13.1952 Z1.0610
G1 X15.6449 Y-13.1944 Z1.0486
G1 X15.6492 Y-13.1936 Z1.0346
G1 X15.6577 Y-13.1920 Z1.0042
G1 X15.6598 Y-13.1916 Z0.9957
G1 X15.6620 Y-13.1912 Z0.9862
G1 X15.6651 Y-13.1906 Z0.9691
G1 X15.6673 Y-13.1902 Z0.9542
G1 X15.6683 Y-13.1900 Z0.9445
G1 X15.6713 Y-13.1894 Z0.9118
G1 X15.6721 Y-13.1893 Z0.8955
G1 X15.6722 Y-13.1893 Z0.8880
G0 Z1.8850
G0 X15.6722 Y-13.1893 
G0 Z1.8850
G0 X10.6361 Y-14.1338 
G1 X10.6361 Y-14.1338 Z1.8600 F75.
G1 X10.6436 Y-14.1323 Z1.8217
G1 X10.6649 Y-14.1282 Z1.7893
G1 X10.6967 Y-14.1220 Z1.7676
G1 X10.7343 Y-14.1146 Z1.7600
G1 X12.9367 Y-13.6842 Z1.7600 F200.
G1 X13.0518 Y-13.6618 Z1.7573
G1 X13.0690 Y-13.6584 Z1.7564
G1 X13.1725 Y-13.6382 Z1.7496
G1 X13.1955 Y-13.6337 Z1.7473
G1 X13.2875 Y-13.6157 Z1.7377
G1 X13.3105 Y-13.6112 Z1.7347
G1 X13.4083 Y-13.5921 Z1.7210
G1 X13.5176 Y-13.5707 Z1.7024
G1 X13.6268 Y-13.5494 Z1.6806
G1 X13.7303 Y-13.5292 Z1.6575
G1 X13.8166 Y-13.5123 Z1.6365
G1 X13.8396 Y-13.5078 Z1.6306
G1 X14.0236 Y-13.4719 Z1.5812
G1 X14.0926 Y-13.4584 Z1.5606
G1 X14.2163 Y-13.4342 Z1.5245
G1 X14.2766 Y-13.4224 Z1.5053
G1 X14.3917 Y-13.3999 Z1.4698
G1 X14.4147 Y-13.3955 Z1.4623
G1 X14.4492 Y-13.3887 Z1.4508
G1 X14.5584 Y-13.3674 Z1.4154
G1 X14.5929 Y-13.3606 Z1.4046
G1 X14.6274 Y-13.3539 Z1.3933
G1 X14.6447 Y-13.3505 Z1.3889
G1 X14.6619 Y-13.3471 Z1.3861
G1 X14.6734 Y-13.3449 Z1.3850
G1 X15.1737 Y-13.2471 Z1.3850
G1 X15.1967 Y-13.2426 Z1.3843
G1 X15.2427 Y-13.2336 Z1.3799
G1 X15.2657 Y-13.2291 Z1.3762
G1 X15.2888 Y-13.2247 Z1.3709
G1 X15.3348 Y-13.2157 Z1.3573
G1 X15.3578 Y-13.2112 Z1.3486
G1 X15.3808 Y-13.2067 Z1.3382
G1 X15.4153 Y-13.1999 Z1.3200
G1 X15.4268 Y-13.1977 Z1.3135
G1 X15.4383 Y-13.1954 Z1.3063
G1 X15.4498 Y-13.1932 Z1.2986
G1 X15.4613 Y-13.1909 Z1.2902
G1 X15.4728 Y-13.1887 Z1.2811
G1 X15.4958 Y-13.1842 Z1.2620
G1 X15.5073 Y-13.1820 Z1.2519
G1 X15.5188 Y-13.1797 Z1.2409
G1 X15.5272 Y-13.1781 Z1.2322
G1 X15.5357 Y-13.1764 Z1.2228
G1 X15.5441 Y-13.1747 Z1.2128
G1 X15.5695 Y-13.1698 Z1.1807
G1 X15.5780 Y-13.1681 Z1.1690
G1 X15.5864 Y-13.1665 Z1.1562
G1 X15.5949 Y-13.1648 Z1.1421
G1 X15.6033 Y-13.1632 Z1.1265
G1 X15.6202 Y-13.1599 Z1.0928
G1 X15.6245 Y-13.1591 Z1.0835
G1 X15.6287 Y-13.1582 Z1.0734
G1 X15.6329 Y-13.1574 Z1.0624
G1 X15.6372 Y-13.1566 Z1.0503
G1 X15.6414 Y-13.1557 Z1.0366
G1 X15.6498 Y-13.1541 Z1.0065
G1 X15.6519 Y-13.1537 Z0.9983
G1 X15.6541 Y-13.1533 Z0.9891
G1 X15.6572 Y-13.1526 Z0.9729
G1 X15.6593 Y-13.1522 Z0.9593
G1 X15.6609 Y-13.1519 Z0.9459
G1 X15.6641 Y-13.1513 Z0.9095
G1 X15.6648 Y-13.1512 Z0.8947
G0 Z1.8850
G0 X15.6648 Y-13.1512 
G0 Z1.8850
G0 X10.6363 Y-14.1345 
G1 X10.6363 Y-14.1345 Z1.8600 F75.
G1 X10.6437 Y-14.1330 Z1.8217
G1 X10.6650 Y-14.1287 Z1.7893
G1 X10.6968 Y-14.1222 Z1.7676
G1 X10.7343 Y-14.1146 Z1.7600
G1 X12.9391 Y-13.6661 Z1.7599 F200.
G1 X13.0539 Y-13.6427 Z1.7572
G1 X13.1688 Y-13.6193 Z1.7498
G1 X13.1860 Y-13.6158 Z1.7483
G1 X13.2951 Y-13.5937 Z1.7369
G1 X13.4042 Y-13.5715 Z1.7217
G1 X13.5190 Y-13.5481 Z1.7022
G1 X13.6224 Y-13.5271 Z1.6817
G1 X13.7315 Y-13.5049 Z1.6574
G1 X13.8233 Y-13.4862 Z1.6351
G1 X13.8348 Y-13.4839 Z1.6321
G1 X14.0243 Y-13.4453 Z1.5810
G1 X14.1334 Y-13.4231 Z1.5486
G1 X14.2138 Y-13.4068 Z1.5251
G1 X14.3056 Y-13.3881 Z1.4958
G1 X14.4033 Y-13.3682 Z1.4656
G1 X14.4779 Y-13.3530 Z1.4405
G1 X14.5956 Y-13.3291 Z1.4023
G1 X14.6214 Y-13.3238 Z1.3937
G1 X14.6387 Y-13.3203 Z1.3893
G1 X14.6559 Y-13.3168 Z1.3862
G1 X14.6674 Y-13.3145 Z1.3851
G1 X14.6846 Y-13.3110 Z1.3850
G1 X15.1669 Y-13.2129 Z1.3850
G1 X15.1784 Y-13.2105 Z1.3849
G1 X15.1899 Y-13.2082 Z1.3844
G1 X15.2358 Y-13.1989 Z1.3801
G1 X15.2588 Y-13.1942 Z1.3764
G1 X15.2817 Y-13.1895 Z1.3712
G1 X15.3277 Y-13.1802 Z1.3577
G1 X15.3506 Y-13.1755 Z1.3492
G1 X15.3736 Y-13.1708 Z1.3388
G1 X15.4081 Y-13.1638 Z1.3207
G1 X15.4195 Y-13.1615 Z1.3143
G1 X15.4310 Y-13.1591 Z1.3072
G1 X15.4425 Y-13.1568 Z1.2995
G1 X15.4540 Y-13.1545 Z1.2912
G1 X15.4655 Y-13.1521 Z1.2822
G1 X15.4884 Y-13.1475 Z1.2632
G1 X15.4999 Y-13.1451 Z1.2532
G1 X15.5114 Y-13.1428 Z1.2422
G1 X15.5198 Y-13.1411 Z1.2336
G1 X15.5282 Y-13.1394 Z1.2244
G1 X15.5367 Y-13.1377 Z1.2146
G1 X15.5619 Y-13.1325 Z1.1828
G1 X15.5703 Y-13.1308 Z1.1712
G1 X15.5787 Y-13.1291 Z1.1587
G1 X15.5871 Y-13.1274 Z1.1449
G1 X15.5955 Y-13.1257 Z1.1297
G1 X15.6124 Y-13.1222 Z1.0965
G1 X15.6166 Y-13.1214 Z1.0874
G1 X15.6208 Y-13.1205 Z1.0777
G1 X15.6250 Y-13.1197 Z1.0672
G1 X15.6292 Y-13.1188 Z1.0556
G1 X15.6334 Y-13.1180 Z1.0427
G1 X15.6439 Y-13.1158 Z1.0056
G1 X15.6460 Y-13.1154 Z0.9973
G1 X15.6481 Y-13.1150 Z0.9880
G1 X15.6513 Y-13.1143 Z0.9716
G1 X15.6534 Y-13.1139 Z0.9577
G1 X15.6550 Y-13.1136 Z0.9437
G1 X15.6579 Y-13.1130 Z0.9104
G1 X15.6586 Y-13.1128 Z0.8917
G0 Z1.8850
G0 X15.6586 Y-13.1128 
G0 Z1.8850
G0 X10.6364 Y-14.1353 
G1 X10.6364 Y-14.1353 Z1.8600 F75.
G1 X10.6439 Y-14.1337 Z1.8217
G1 X10.6651 Y-14.1292 Z1.7893
G1 X10.6968 Y-14.1225 Z1.7676
G1 X10.7343 Y-14.1146 Z1.7600
G1 X12.9384 Y-13.6484 Z1.7599 F200.
G1 X13.0502 Y-13.6248 Z1.7574
G1 X13.0617 Y-13.6224 Z1.7568
G1 X13.1649 Y-13.6006 Z1.7501
G1 X13.1878 Y-13.5957 Z1.7482
G1 X13.2910 Y-13.5739 Z1.7374
G1 X13.4056 Y-13.5496 Z1.7216
G1 X13.5203 Y-13.5254 Z1.7021
G1 X13.6278 Y-13.5027 Z1.6807
G1 X13.7324 Y-13.4805 Z1.6573
G1 X13.8327 Y-13.4593 Z1.6329
G1 X14.0362 Y-13.4163 Z1.5776
G1 X14.1623 Y-13.3896 Z1.5400
G1 X14.2139 Y-13.3787 Z1.5248
G1 X14.3458 Y-13.3508 Z1.4828
G1 X14.4031 Y-13.3387 Z1.4650
G1 X14.5063 Y-13.3169 Z1.4303
G1 X14.5866 Y-13.2999 Z1.4043
G1 X14.6209 Y-13.2926 Z1.3926
G1 X14.6324 Y-13.2902 Z1.3897
G1 X14.6381 Y-13.2890 Z1.3884
G1 X14.6496 Y-13.2866 Z1.3864
G1 X14.6553 Y-13.2853 Z1.3858
G1 X14.6668 Y-13.2829 Z1.3850
G1 X15.1713 Y-13.1762 Z1.3849
G1 X15.1827 Y-13.1738 Z1.3844
G1 X15.2286 Y-13.1641 Z1.3803
G1 X15.2515 Y-13.1593 Z1.3767
G1 X15.2745 Y-13.1544 Z1.3716
G1 X15.3203 Y-13.1447 Z1.3582
G1 X15.3433 Y-13.1399 Z1.3498
G1 X15.3662 Y-13.1350 Z1.3396
G1 X15.4006 Y-13.1277 Z1.3216
G1 X15.4120 Y-13.1253 Z1.3152
G1 X15.4235 Y-13.1229 Z1.3082
G1 X15.4350 Y-13.1205 Z1.3007
G1 X15.4464 Y-13.1180 Z1.2924
G1 X15.4579 Y-13.1156 Z1.2835
G1 X15.4808 Y-13.1108 Z1.2645
G1 X15.4923 Y-13.1083 Z1.2546
G1 X15.5038 Y-13.1059 Z1.2439
G1 X15.5123 Y-13.1041 Z1.2352
G1 X15.5208 Y-13.1023 Z1.2260
G1 X15.5294 Y-13.1005 Z1.2161
G1 X15.5550 Y-13.0951 Z1.1839
G1 X15.5635 Y-13.0933 Z1.1722
G1 X15.5721 Y-13.0915 Z1.1596
G1 X15.5806 Y-13.0897 Z1.1457
G1 X15.5891 Y-13.0879 Z1.1303
G1 X15.6062 Y-13.0843 Z1.0965
G1 X15.6105 Y-13.0834 Z1.0874
G1 X15.6147 Y-13.0825 Z1.0775
G1 X15.6190 Y-13.0816 Z1.0667
G1 X15.6233 Y-13.0806 Z1.0549
G1 X15.6275 Y-13.0797 Z1.0417
G1 X15.6382 Y-13.0775 Z1.0038
G1 X15.6404 Y-13.0770 Z0.9951
G1 X15.6425 Y-13.0766 Z0.9855
G1 X15.6457 Y-13.0759 Z0.9680
G1 X15.6478 Y-13.0755 Z0.9527
G1 X15.6489 Y-13.0752 Z0.9425
G1 X15.6516 Y-13.0747 Z0.9120
G1 X15.6524 Y-13.0745 Z0.8959
G1 X15.6525 Y-13.0745 Z0.8890
G0 Z1.8850
G0 X15.6525 Y-13.0745 
G0 Z1.8850
G0 X10.6366 Y-14.1360 
G1 X10.6366 Y-14.1360 Z1.8600 F75.
G1 X10.6440 Y-14.1344 Z1.8217
G1 X10.6652 Y-14.1297 Z1.7893
G1 X10.6969 Y-14.1228 Z1.7676
G1 X10.7343 Y-14.1146 Z1.7600
G1 X12.9376 Y-13.6308 Z1.7599 F200.
G1 X13.0521 Y-13.6057 Z1.7573
G1 X13.0693 Y-13.6019 Z1.7563
G1 X13.1723 Y-13.5793 Z1.7496
G1 X13.1837 Y-13.5768 Z1.7486
G1 X13.2867 Y-13.5542 Z1.7379
G1 X13.2982 Y-13.5516 Z1.7366
G1 X13.4012 Y-13.5290 Z1.7223
G1 X13.4126 Y-13.5265 Z1.7205
G1 X13.5214 Y-13.5026 Z1.7020
G1 X13.6187 Y-13.4813 Z1.6828
G1 X13.6416 Y-13.4762 Z1.6778
G1 X13.7331 Y-13.4561 Z1.6573
G1 X13.8247 Y-13.4360 Z1.6350
G1 X13.8476 Y-13.4310 Z1.6290
G1 X14.0307 Y-13.3908 Z1.5793
G1 X14.2139 Y-13.3506 Z1.5247
G1 X14.3741 Y-13.3154 Z1.4735
G1 X14.4027 Y-13.3091 Z1.4645
G1 X14.5344 Y-13.2802 Z1.4201
G1 X14.5859 Y-13.2689 Z1.4034
G1 X14.6145 Y-13.2626 Z1.3937
G1 X14.6202 Y-13.2614 Z1.3919
G1 X14.6345 Y-13.2582 Z1.3882
G1 X14.6431 Y-13.2563 Z1.3867
G1 X14.6488 Y-13.2551 Z1.3859
G1 X14.6603 Y-13.2526 Z1.3850
G1 X15.1639 Y-13.1420 Z1.3849
G1 X15.1753 Y-13.1395 Z1.3845
G1 X15.1868 Y-13.1370 Z1.3838
G1 X15.2211 Y-13.1294 Z1.3805
G1 X15.2440 Y-13.1244 Z1.3771
G1 X15.2669 Y-13.1194 Z1.3721
G1 X15.2784 Y-13.1169 Z1.3690
G1 X15.3127 Y-13.1093 Z1.3588
G1 X15.3356 Y-13.1043 Z1.3506
G1 X15.3585 Y-13.0993 Z1.3405
G1 X15.3699 Y-13.0968 Z1.3347
G1 X15.3928 Y-13.0917 Z1.3226
G1 X15.4043 Y-13.0892 Z1.3163
G1 X15.4157 Y-13.0867 Z1.3094
G1 X15.4272 Y-13.0842 Z1.3020
G1 X15.4386 Y-13.0817 Z1.2939
G1 X15.4501 Y-13.0792 Z1.2851
G1 X15.4787 Y-13.0729 Z1.2615
G1 X15.4844 Y-13.0716 Z1.2566
G1 X15.4958 Y-13.0691 Z1.2460
G1 X15.5045 Y-13.0672 Z1.2374
G1 X15.5132 Y-13.0653 Z1.2282
G1 X15.5219 Y-13.0634 Z1.2183
G1 X15.5306 Y-13.0615 Z1.2077
G1 X15.5479 Y-13.0577 Z1.1859
G1 X15.5566 Y-13.0558 Z1.1742
G1 X15.5653 Y-13.0539 Z1.1616
G1 X15.5740 Y-13.0520 Z1.1477
G1 X15.5826 Y-13.0501 Z1.1323
G1 X15.6000 Y-13.0463 Z1.0982
G1 X15.6043 Y-13.0453 Z1.0890
G1 X15.6087 Y-13.0444 Z1.0791
G1 X15.6130 Y-13.0434 Z1.0684
G1 X15.6173 Y-13.0424 Z1.0566
G1 X15.6217 Y-13.0415 Z1.0434
G1 X15.6325 Y-13.0391 Z1.0052
G1 X15.6347 Y-13.0386 Z0.9966
G1 X15.6369 Y-13.0382 Z0.9870
G1 X15.6401 Y-13.0374 Z0.9698
G1 X15.6423 Y-13.0370 Z0.9547
G1 X15.6434 Y-13.0367 Z0.9449
G1 X15.6464 Y-13.0361 Z0.9109
G1 X15.6472 Y-13.0359 Z0.8923
G0 Z1.8850
G0 X15.6472 Y-13.0359 
G0 Z1.8850
G0 X10.6367 Y-14.1368 
G1 X10.6367 Y-14.1368 Z1.8600 F75.
G1 X10.6442 Y-14.1351 Z1.8217
G1 X10.6653 Y-14.1303 Z1.7893
G1 X10.6969 Y-14.1231 Z1.7676
G1 X10.7342 Y-14.1146 Z1.7600
G1 X12.9281 Y-13.6151 Z1.7600 F200.
G1 X12.9510 Y-13.6099 Z1.7596
G1 X13.0538 Y-13.5865 Z1.7572
G1 X13.1738 Y-13.5592 Z1.7495
G1 X13.2023 Y-13.5527 Z1.7467
G1 X13.2938 Y-13.5318 Z1.7372
G1 X13.4080 Y-13.5058 Z1.7214
G1 X13.5166 Y-13.4811 Z1.7030
G1 X13.6137 Y-13.4590 Z1.6839
G1 X13.6365 Y-13.4538 Z1.6791
G1 X13.7337 Y-13.4317 Z1.6574
G1 X13.8194 Y-13.4122 Z1.6365
G1 X13.8422 Y-13.4070 Z1.6306
G1 X14.0250 Y-13.3654 Z1.5811
G1 X14.2136 Y-13.3224 Z1.5247
G1 X14.4021 Y-13.2795 Z1.4643
G1 X14.4250 Y-13.2743 Z1.4564
G1 X14.5621 Y-13.2431 Z1.4101
G1 X14.5849 Y-13.2379 Z1.4027
G1 X14.6135 Y-13.2314 Z1.3929
G1 X14.6306 Y-13.2275 Z1.3883
G1 X14.6449 Y-13.2242 Z1.3858
G1 X14.6535 Y-13.2223 Z1.3851
G1 X15.1563 Y-13.1078 Z1.3850
G1 X15.1677 Y-13.1052 Z1.3847
G1 X15.1848 Y-13.1013 Z1.3835
G1 X15.2134 Y-13.0948 Z1.3808
G1 X15.2362 Y-13.0896 Z1.3776
G1 X15.2591 Y-13.0844 Z1.3729
G1 X15.2762 Y-13.0805 Z1.3683
G1 X15.3048 Y-13.0740 Z1.3599
G1 X15.3277 Y-13.0688 Z1.3520
G1 X15.3505 Y-13.0636 Z1.3423
G1 X15.3648 Y-13.0604 Z1.3352
G1 X15.3962 Y-13.0532 Z1.3185
G1 X15.4076 Y-13.0506 Z1.3119
G1 X15.4191 Y-13.0480 Z1.3047
G1 X15.4305 Y-13.0454 Z1.2968
G1 X15.4419 Y-13.0428 Z1.2884
G1 X15.4533 Y-13.0402 Z1.2792
G1 X15.4762 Y-13.0350 Z1.2602
G1 X15.4876 Y-13.0324 Z1.2499
G1 X15.4965 Y-13.0304 Z1.2414
G1 X15.5053 Y-13.0284 Z1.2323
G1 X15.5141 Y-13.0264 Z1.2226
G1 X15.5229 Y-13.0243 Z1.2121
G1 X15.5406 Y-13.0203 Z1.1899
G1 X15.5494 Y-13.0183 Z1.1784
G1 X15.5583 Y-13.0163 Z1.1659
G1 X15.5671 Y-13.0143 Z1.1522
G1 X15.5759 Y-13.0123 Z1.1370
G1 X15.5848 Y-13.0103 Z1.1201
G1 X15.5936 Y-13.0083 Z1.1027
G1 X15.5980 Y-13.0073 Z1.0937
G1 X15.6024 Y-13.0063 Z1.0840
G1 X15.6068 Y-13.0052 Z1.0735
G1 X15.6113 Y-13.0042 Z1.0620
G1 X15.6157 Y-13.0032 Z1.0492
G1 X15.6201 Y-13.0022 Z1.0347
G1 X15.6289 Y-13.0002 Z1.0031
G1 X15.6311 Y-12.9997 Z0.9941
G1 X15.6344 Y-12.9990 Z0.9783
G1 X15.6366 Y-12.9985 Z0.9653
G1 X15.6388 Y-12.9980 Z0.9483
G1 X15.6422 Y-12.9972 Z0.9111
G1 X15.6430 Y-12.9970 Z0.8921
G0 Z1.8850
G0 X15.6430 Y-12.9970 
G0 Z1.8850
G0 X10.6369 Y-14.1375 
G1 X10.6369 Y-14.1375 Z1.8600 F75.
G1 X10.6443 Y-14.1357 Z1.8217
G1 X10.6654 Y-14.1308 Z1.7893
G1 X10.6970 Y-14.1233 Z1.7676
G1 X10.7342 Y-14.1145 Z1.7600
G1 X12.9356 Y-13.5955 Z1.7600 F200.
G1 X13.0497 Y-13.5686 Z1.7574
G1 X13.0611 Y-13.5659 Z1.7569
G1 X13.1751 Y-13.5390 Z1.7494
G1 X13.2892 Y-13.5121 Z1.7377
G1 X13.3120 Y-13.5067 Z1.7347
G1 X13.4032 Y-13.4852 Z1.7222
G1 X13.4261 Y-13.4798 Z1.7185
G1 X13.5173 Y-13.4583 Z1.7030
G1 X13.6200 Y-13.4341 Z1.6828
G1 X13.6542 Y-13.4260 Z1.6753
G1 X13.7340 Y-13.4072 Z1.6576
G1 X13.8367 Y-13.3830 Z1.6324
G1 X14.0192 Y-13.3400 Z1.5829
G1 X14.2131 Y-13.2942 Z1.5249
G1 X14.2701 Y-13.2808 Z1.5063
G1 X14.4013 Y-13.2499 Z1.4643
G1 X14.4554 Y-13.2371 Z1.4453
G1 X14.6123 Y-13.2001 Z1.3922
G1 X14.6265 Y-13.1968 Z1.3884
G1 X14.6408 Y-13.1934 Z1.3859
G1 X14.6493 Y-13.1914 Z1.3851
G1 X15.1484 Y-13.0737 Z1.3850
G1 X15.1598 Y-13.0710 Z1.3848
G1 X15.1826 Y-13.0656 Z1.3834
G1 X15.2054 Y-13.0603 Z1.3813
G1 X15.2282 Y-13.0549 Z1.3783
G1 X15.2510 Y-13.0495 Z1.3739
G1 X15.2681 Y-13.0455 Z1.3695
G1 X15.2966 Y-13.0387 Z1.3612
G1 X15.3194 Y-13.0334 Z1.3536
G1 X15.3423 Y-13.0280 Z1.3442
G1 X15.3537 Y-13.0253 Z1.3389
G1 X15.3651 Y-13.0226 Z1.3330
G1 X15.3879 Y-13.0172 Z1.3209
G1 X15.3993 Y-13.0145 Z1.3145
G1 X15.4107 Y-13.0119 Z1.3075
G1 X15.4221 Y-13.0092 Z1.2999
G1 X15.4335 Y-13.0065 Z1.2917
G1 X15.4449 Y-13.0038 Z1.2828
G1 X15.4677 Y-12.9984 Z1.2639
G1 X15.4791 Y-12.9957 Z1.2540
G1 X15.4881 Y-12.9936 Z1.2456
G1 X15.4971 Y-12.9915 Z1.2366
G1 X15.5061 Y-12.9894 Z1.2270
G1 X15.5151 Y-12.9872 Z1.2166
G1 X15.5376 Y-12.9819 Z1.1886
G1 X15.5421 Y-12.9809 Z1.1828
G1 X15.5511 Y-12.9788 Z1.1704
G1 X15.5600 Y-12.9766 Z1.1568
G1 X15.5690 Y-12.9745 Z1.1419
G1 X15.5735 Y-12.9735 Z1.1338
G1 X15.5915 Y-12.9692 Z1.0985
G1 X15.5960 Y-12.9682 Z1.0890
G1 X15.6005 Y-12.9671 Z1.0787
G1 X15.6050 Y-12.9660 Z1.0676
G1 X15.6095 Y-12.9650 Z1.0552
G1 X15.6140 Y-12.9639 Z1.0413
G1 X15.6230 Y-12.9618 Z1.0096
G1 X15.6252 Y-12.9613 Z1.0011
G1 X15.6275 Y-12.9607 Z0.9917
G1 X15.6308 Y-12.9599 Z0.9750
G1 X15.6331 Y-12.9594 Z0.9609
G1 X15.6348 Y-12.9590 Z0.9471
G1 X15.6379 Y-12.9583 Z0.9124
G1 X15.6387 Y-12.9581 Z0.8953
G0 Z1.8850
G0 X15.6387 Y-12.9581 
G0 Z1.8850
G0 X10.6371 Y-14.1382 
G1 X10.6371 Y-14.1382 Z1.8600 F75.
G1 X10.6445 Y-14.1364 Z1.8217
G1 X10.6655 Y-14.1313 Z1.7893
G1 X10.6971 Y-14.1236 Z1.7676
G1 X10.7342 Y-14.1145 Z1.7600
G1 X12.9372 Y-13.5771 Z1.7599 F200.
G1 X13.0511 Y-13.5493 Z1.7573
G1 X13.0681 Y-13.5451 Z1.7564
G1 X13.1706 Y-13.5202 Z1.7498
G1 X13.1820 Y-13.5174 Z1.7488
G1 X13.2958 Y-13.4896 Z1.7370
G1 X13.4097 Y-13.4618 Z1.7213
G1 X13.5178 Y-13.4354 Z1.7030
G1 X13.6260 Y-13.4091 Z1.6817
G1 X13.7342 Y-13.3827 Z1.6577
G1 X13.8366 Y-13.3577 Z1.6327
G1 X14.0302 Y-13.3105 Z1.5801
G1 X14.1269 Y-13.2868 Z1.5508
G1 X14.2180 Y-13.2646 Z1.5235
G1 X14.3091 Y-13.2424 Z1.4935
G1 X14.4002 Y-13.2202 Z1.4644
G1 X14.4685 Y-13.2035 Z1.4403
G1 X14.5823 Y-13.1757 Z1.4017
G1 X14.6108 Y-13.1688 Z1.3917
G1 X14.6250 Y-13.1653 Z1.3880
G1 X14.6364 Y-13.1626 Z1.3860
G1 X14.6478 Y-13.1598 Z1.3850
G1 X15.1516 Y-13.0369 Z1.3849
G1 X15.1772 Y-13.0306 Z1.3835
G1 X15.2085 Y-13.0230 Z1.3805
G1 X15.2199 Y-13.0202 Z1.3790
G1 X15.2426 Y-13.0147 Z1.3749
G1 X15.2654 Y-13.0091 Z1.3692
G1 X15.2996 Y-13.0008 Z1.3591
G1 X15.3110 Y-12.9980 Z1.3552
G1 X15.3337 Y-12.9924 Z1.3463
G1 X15.3565 Y-12.9869 Z1.3354
G1 X15.3850 Y-12.9799 Z1.3203
G1 X15.3906 Y-12.9785 Z1.3172
G1 X15.4020 Y-12.9758 Z1.3104
G1 X15.4134 Y-12.9730 Z1.3031
G1 X15.4248 Y-12.9702 Z1.2951
G1 X15.4362 Y-12.9674 Z1.2865
G1 X15.4646 Y-12.9605 Z1.2631
G1 X15.4703 Y-12.9591 Z1.2582
G1 X15.4795 Y-12.9569 Z1.2499
G1 X15.4887 Y-12.9546 Z1.2411
G1 X15.4978 Y-12.9524 Z1.2317
G1 X15.5070 Y-12.9502 Z1.2216
G1 X15.5161 Y-12.9479 Z1.2107
G1 X15.5345 Y-12.9435 Z1.1878
G1 X15.5436 Y-12.9412 Z1.1757
G1 X15.5528 Y-12.9390 Z1.1626
G1 X15.5619 Y-12.9368 Z1.1481
G1 X15.5711 Y-12.9345 Z1.1319
G1 X15.5894 Y-12.9301 Z1.0961
G1 X15.5940 Y-12.9289 Z1.0863
G1 X15.5986 Y-12.9278 Z1.0756
G1 X15.6032 Y-12.9267 Z1.0640
G1 X15.6077 Y-12.9256 Z1.0511
G1 X15.6123 Y-12.9245 Z1.0364
G1 X15.6215 Y-12.9222 Z1.0039
G1 X15.6238 Y-12.9217 Z0.9947
G1 X15.6272 Y-12.9208 Z0.9785
G1 X15.6295 Y-12.9203 Z0.9652
G1 X15.6312 Y-12.9199 Z0.9525
G1 X15.6346 Y-12.9190 Z0.9163
G1 X15.6356 Y-12.9188 Z0.8999
G1 X15.6359 Y-12.9187 Z0.8871
G0 Z1.8850
G0 X15.6359 Y-12.9187 
G0 Z1.8850
G0 X10.6373 Y-14.1390 
G1 X10.6373 Y-14.1390 Z1.8600 F75.
G1 X10.6447 Y-14.1371 Z1.8217
G1 X10.6657 Y-14.1318 Z1.7893
G1 X10.6971 Y-14.1239 Z1.7676
G1 X10.7342 Y-14.1145 Z1.7600
G1 X12.9373 Y-13.5590 Z1.7599 F200.
G1 X13.0523 Y-13.5300 Z1.7573
G1 X13.0750 Y-13.5243 Z1.7560
G1 X13.1773 Y-13.4985 Z1.7493
G1 X13.2966 Y-13.4684 Z1.7370
G1 X13.4102 Y-13.4397 Z1.7213
G1 X13.5239 Y-13.4111 Z1.7020
G1 X13.6318 Y-13.3839 Z1.6807
G1 X13.7341 Y-13.3581 Z1.6580
G1 X13.8364 Y-13.3323 Z1.6330
G1 X14.0295 Y-13.2836 Z1.5805
G1 X14.1659 Y-13.2492 Z1.5392
G1 X14.2170 Y-13.2363 Z1.5238
G1 X14.3477 Y-13.2034 Z1.4809
G1 X14.4017 Y-13.1898 Z1.4636
G1 X14.4841 Y-13.1690 Z1.4345
G1 X14.5977 Y-13.1403 Z1.3955
G1 X14.6090 Y-13.1375 Z1.3915
G1 X14.6233 Y-13.1339 Z1.3877
G1 X14.6346 Y-13.1310 Z1.3858
G1 X14.6431 Y-13.1289 Z1.3850
G1 X15.1431 Y-13.0028 Z1.3850
G1 X15.1658 Y-12.9971 Z1.3841
G1 X15.1999 Y-12.9885 Z1.3810
G1 X15.2113 Y-12.9856 Z1.3797
G1 X15.2340 Y-12.9799 Z1.3759
G1 X15.2567 Y-12.9741 Z1.3705
G1 X15.2908 Y-12.9655 Z1.3607
G1 X15.3022 Y-12.9627 Z1.3571
G1 X15.3249 Y-12.9570 Z1.3486
G1 X15.3476 Y-12.9512 Z1.3383
G1 X15.3817 Y-12.9426 Z1.3205
G1 X15.3931 Y-12.9398 Z1.3141
G1 X15.4045 Y-12.9369 Z1.3072
G1 X15.4158 Y-12.9340 Z1.2997
G1 X15.4272 Y-12.9312 Z1.2915
G1 X15.4386 Y-12.9283 Z1.2827
G1 X15.4613 Y-12.9226 Z1.2640
G1 X15.4706 Y-12.9202 Z1.2560
G1 X15.4800 Y-12.9179 Z1.2475
G1 X15.4893 Y-12.9155 Z1.2384
G1 X15.4986 Y-12.9132 Z1.2285
G1 X15.5080 Y-12.9108 Z1.2180
G1 X15.5173 Y-12.9084 Z1.2066
G1 X15.5360 Y-12.9037 Z1.1831
G1 X15.5453 Y-12.9014 Z1.1704
G1 X15.5546 Y-12.8990 Z1.1564
G1 X15.5640 Y-12.8967 Z1.1409
G1 X15.5710 Y-12.8949 Z1.1281
G1 X15.5873 Y-12.8908 Z1.0960
G1 X15.5920 Y-12.8896 Z1.0860
G1 X15.5967 Y-12.8884 Z1.0751
G1 X15.6013 Y-12.8873 Z1.0632
G1 X15.6060 Y-12.8861 Z1.0499
G1 X15.6107 Y-12.8849 Z1.0346
G1 X15.6177 Y-12.8831 Z1.0100
G1 X15.6200 Y-12.8825 Z1.0012
G1 X15.6223 Y-12.8820 Z0.9915
G1 X15.6258 Y-12.8811 Z0.9742
G1 X15.6282 Y-12.8805 Z0.9594
G1 X15.6299 Y-12.8800 Z0.9444
G1 X15.6328 Y-12.8793 Z0.9114
G1 X15.6336 Y-12.8791 Z0.8970
G1 X15.6337 Y-12.8791 Z0.8908
G0 Z1.8850
G0 X15.6337 Y-12.8791 
G0 Z1.8850
G0 X10.6375 Y-14.1397 
G1 X10.6375 Y-14.1397 Z1.8600 F75.
G1 X10.6448 Y-14.1378 Z1.8217
G1 X10.6658 Y-14.1323 Z1.7893
G1 X10.6972 Y-14.1241 Z1.7676
G1 X10.7342 Y-14.1145 Z1.7600
G1 X12.9372 Y-13.5409 Z1.7599 F200.
G1 X13.0477 Y-13.5121 Z1.7574
G1 X13.0647 Y-13.5077 Z1.7566
G1 X13.1725 Y-13.4796 Z1.7497
G1 X13.1838 Y-13.4767 Z1.7487
G1 X13.2972 Y-13.4471 Z1.7369
G1 X13.4106 Y-13.4176 Z1.7213
G1 X13.5240 Y-13.3881 Z1.7022
G1 X13.6318 Y-13.3600 Z1.6809
G1 X13.7367 Y-13.3327 Z1.6576
G1 X13.8302 Y-13.3084 Z1.6349
G1 X13.8416 Y-13.3054 Z1.6319
G1 X14.0230 Y-13.2582 Z1.5826
G1 X14.0457 Y-13.2523 Z1.5759
G1 X14.2201 Y-13.2069 Z1.5229
G1 X14.3859 Y-13.1637 Z1.4684
G1 X14.4086 Y-13.1578 Z1.4608
G1 X14.5107 Y-13.1312 Z1.4248
G1 X14.5900 Y-13.1105 Z1.3975
G1 X14.6071 Y-13.1061 Z1.3914
G1 X14.6212 Y-13.1024 Z1.3876
G1 X14.6312 Y-13.0998 Z1.3857
G1 X14.6382 Y-13.0980 Z1.3851
G1 X15.1457 Y-12.9658 Z1.3849
G1 X15.1571 Y-12.9629 Z1.3845
G1 X15.1741 Y-12.9584 Z1.3832
G1 X15.2024 Y-12.9511 Z1.3805
G1 X15.2251 Y-12.9452 Z1.3771
G1 X15.2478 Y-12.9393 Z1.3723
G1 X15.2648 Y-12.9348 Z1.3677
G1 X15.2932 Y-12.9274 Z1.3593
G1 X15.3158 Y-12.9215 Z1.3514
G1 X15.3385 Y-12.9156 Z1.3417
G1 X15.3527 Y-12.9119 Z1.3347
G1 X15.3839 Y-12.9038 Z1.3182
G1 X15.3952 Y-12.9009 Z1.3116
G1 X15.4066 Y-12.8979 Z1.3045
G1 X15.4179 Y-12.8950 Z1.2967
G1 X15.4293 Y-12.8920 Z1.2884
G1 X15.4406 Y-12.8891 Z1.2793
G1 X15.4615 Y-12.8836 Z1.2621
G1 X15.4710 Y-12.8811 Z1.2538
G1 X15.4805 Y-12.8787 Z1.2450
G1 X15.4900 Y-12.8762 Z1.2355
G1 X15.4995 Y-12.8737 Z1.2252
G1 X15.5114 Y-12.8706 Z1.2112
G1 X15.5329 Y-12.8650 Z1.1844
G1 X15.5376 Y-12.8638 Z1.1781
G1 X15.5472 Y-12.8613 Z1.1646
G1 X15.5567 Y-12.8588 Z1.1497
G1 X15.5662 Y-12.8563 Z1.1331
G1 X15.5852 Y-12.8514 Z1.0958
G1 X15.5900 Y-12.8502 Z1.0856
G1 X15.5948 Y-12.8489 Z1.0744
G1 X15.5995 Y-12.8477 Z1.0622
G1 X15.6043 Y-12.8464 Z1.0485
G1 X15.6091 Y-12.8452 Z1.0327
G1 X15.6162 Y-12.8433 Z1.0075
G1 X15.6186 Y-12.8427 Z0.9983
G1 X15.6210 Y-12.8421 Z0.9880
G1 X15.6233 Y-12.8415 Z0.9761
G1 X15.6257 Y-12.8409 Z0.9614
G1 X15.6275 Y-12.8404 Z0.9469
G1 X15.6308 Y-12.8395 Z0.9099
G1 X15.6315 Y-12.8393 Z0.8924
G0 Z1.8850
G0 X15.6315 Y-12.8393 
G0 Z1.8850
G0 X10.6377 Y-14.1404 
G1 X10.6377 Y-14.1404 Z1.8600 F75.
G1 X10.6450 Y-14.1384 Z1.8217
G1 X10.6659 Y-14.1328 Z1.7893
G1 X10.6973 Y-14.1244 Z1.7676
G1 X10.7342 Y-14.1145 Z1.7600
G1 X12.9355 Y-13.5231 Z1.7599 F200.
G1 X13.0543 Y-13.4912 Z1.7572
G1 X13.1732 Y-13.4593 Z1.7496
G1 X13.2014 Y-13.4517 Z1.7469
G1 X13.2976 Y-13.4258 Z1.7369
G1 X13.4108 Y-13.3954 Z1.7214
G1 X13.5240 Y-13.3650 Z1.7023
G1 X13.6315 Y-13.3362 Z1.6812
G1 X13.7220 Y-13.3118 Z1.6611
G1 X13.7447 Y-13.3058 Z1.6559
G1 X13.8352 Y-13.2814 Z1.6339
G1 X14.0276 Y-13.2297 Z1.5816
G1 X14.2200 Y-13.1781 Z1.5232
G1 X14.4011 Y-13.1294 Z1.4634
G1 X14.4520 Y-13.1157 Z1.4452
G1 X14.5369 Y-13.0929 Z1.4152
G1 X14.5822 Y-13.0808 Z1.3995
G1 X14.6048 Y-13.0747 Z1.3914
G1 X14.6190 Y-13.0709 Z1.3876
G1 X14.6303 Y-13.0679 Z1.3856
G1 X14.6374 Y-13.0660 Z1.3850
G1 X15.1367 Y-12.9318 Z1.3850
G1 X15.1481 Y-12.9288 Z1.3848
G1 X15.1650 Y-12.9242 Z1.3838
G1 X15.1933 Y-12.9166 Z1.3812
G1 X15.2160 Y-12.9105 Z1.3784
G1 X15.2386 Y-12.9044 Z1.3740
G1 X15.2556 Y-12.8999 Z1.3698
G1 X15.2839 Y-12.8923 Z1.3616
G1 X15.3065 Y-12.8862 Z1.3541
G1 X15.3291 Y-12.8801 Z1.3450
G1 X15.3518 Y-12.8740 Z1.3341
G1 X15.3744 Y-12.8680 Z1.3222
G1 X15.3857 Y-12.8649 Z1.3160
G1 X15.3970 Y-12.8619 Z1.3092
G1 X15.4084 Y-12.8588 Z1.3019
G1 X15.4197 Y-12.8558 Z1.2940
G1 X15.4310 Y-12.8527 Z1.2854
G1 X15.4620 Y-12.8444 Z1.2599
G1 X15.4718 Y-12.8418 Z1.2512
G1 X15.4816 Y-12.8391 Z1.2418
G1 X15.4915 Y-12.8365 Z1.2317
G1 X15.5013 Y-12.8339 Z1.2209
G1 X15.5111 Y-12.8312 Z1.2092
G1 X15.5308 Y-12.8259 Z1.1849
G1 X15.5406 Y-12.8233 Z1.1718
G1 X15.5504 Y-12.8207 Z1.1574
G1 X15.5603 Y-12.8180 Z1.1413
G1 X15.5676 Y-12.8160 Z1.1280
G1 X15.5824 Y-12.8121 Z1.0995
G1 X15.5898 Y-12.8101 Z1.0839
G1 X15.5947 Y-12.8088 Z1.0724
G1 X15.5996 Y-12.8075 Z1.0597
G1 X15.6045 Y-12.8061 Z1.0453
G1 X15.6094 Y-12.8048 Z1.0288
G1 X15.6168 Y-12.8028 Z1.0027
G1 X15.6193 Y-12.8022 Z0.9928
G1 X15.6217 Y-12.8015 Z0.9815
G1 X15.6242 Y-12.8009 Z0.9679
G1 X15.6260 Y-12.8004 Z0.9552
G1 X15.6279 Y-12.7999 Z0.9377
G1 X15.6303 Y-12.7992 Z0.9096
G1 X15.6309 Y-12.7990 Z0.8970
G1 X15.6311 Y-12.7990 Z0.8904
G0 Z1.8850
G0 X15.6311 Y-12.7990 
G0 Z1.8850
G0 X10.6379 Y-14.1412 
G1 X10.6379 Y-14.1412 Z1.8600 F75.
G1 X10.6452 Y-14.1391 Z1.8217
G1 X10.6661 Y-14.1333 Z1.7893
G1 X10.6973 Y-14.1247 Z1.7676
G1 X10.7342 Y-14.1145 Z1.7600
G1 X12.9365 Y-13.5046 Z1.7599 F200.
G1 X13.0494 Y-13.4733 Z1.7574
G1 X13.0607 Y-13.4702 Z1.7569
G1 X13.1737 Y-13.4389 Z1.7496
G1 X13.1963 Y-13.4327 Z1.7474
G1 X13.2979 Y-13.4045 Z1.7370
G1 X13.3995 Y-13.3764 Z1.7231
G1 X13.4221 Y-13.3701 Z1.7196
G1 X13.5238 Y-13.3420 Z1.7025
G1 X13.6339 Y-13.3115 Z1.6809
G1 X13.7383 Y-13.2825 Z1.6578
G1 X13.8400 Y-13.2544 Z1.6329
G1 X14.0320 Y-13.2012 Z1.5807
G1 X14.2183 Y-13.1496 Z1.5240
G1 X14.2917 Y-13.1293 Z1.4995
G1 X14.3990 Y-13.0996 Z1.4642
G1 X14.4611 Y-13.0824 Z1.4417
G1 X14.5515 Y-13.0573 Z1.4097
G1 X14.5797 Y-13.0495 Z1.3999
G1 X14.6051 Y-13.0425 Z1.3907
G1 X14.6164 Y-13.0394 Z1.3876
G1 X14.6277 Y-13.0362 Z1.3856
G1 X14.6348 Y-13.0343 Z1.3850
G1 X15.1388 Y-12.8947 Z1.3850
G1 X15.1614 Y-12.8885 Z1.3840
G1 X15.1952 Y-12.8791 Z1.3808
G1 X15.2065 Y-12.8759 Z1.3795
G1 X15.2291 Y-12.8697 Z1.3756
G1 X15.2517 Y-12.8634 Z1.3703
G1 X15.2856 Y-12.8540 Z1.3604
G1 X15.2969 Y-12.8509 Z1.3568
G1 X15.3195 Y-12.8447 Z1.3483
G1 X15.3421 Y-12.8384 Z1.3381
G1 X15.3759 Y-12.8290 Z1.3206
G1 X15.3872 Y-12.8259 Z1.3143
G1 X15.3985 Y-12.8228 Z1.3075
G1 X15.4098 Y-12.8196 Z1.3001
G1 X15.4211 Y-12.8165 Z1.2922
G1 X15.4350 Y-12.8127 Z1.2815
G1 X15.4631 Y-12.8049 Z1.2585
G1 X15.4733 Y-12.8021 Z1.2495
G1 X15.4835 Y-12.7992 Z1.2397
G1 X15.4938 Y-12.7964 Z1.2291
G1 X15.5040 Y-12.7936 Z1.2177
G1 X15.5296 Y-12.7865 Z1.1864
G1 X15.5347 Y-12.7851 Z1.1798
G1 X15.5449 Y-12.7822 Z1.1656
G1 X15.5551 Y-12.7794 Z1.1499
G1 X15.5602 Y-12.7780 Z1.1413
G1 X15.5679 Y-12.7759 Z1.1274
G1 X15.5807 Y-12.7723 Z1.1027
G1 X15.5858 Y-12.7709 Z1.0924
G1 X15.5909 Y-12.7695 Z1.0812
G1 X15.5960 Y-12.7681 Z1.0689
G1 X15.6011 Y-12.7667 Z1.0552
G1 X15.6063 Y-12.7652 Z1.0395
G1 X15.6165 Y-12.7624 Z1.0037
G1 X15.6190 Y-12.7617 Z0.9935
G1 X15.6216 Y-12.7610 Z0.9817
G1 X15.6242 Y-12.7603 Z0.9677
G1 X15.6261 Y-12.7598 Z0.9543
G1 X15.6280 Y-12.7592 Z0.9356
G1 X15.6302 Y-12.7586 Z0.9099
G1 X15.6309 Y-12.7584 Z0.8969
G1 X15.6310 Y-12.7584 Z0.8897
G0 Z1.8850
G0 X15.6310 Y-12.7584 
G0 Z1.8850
G0 X10.6381 Y-14.1419 
G1 X10.6381 Y-14.1419 Z1.8600 F75.
G1 X10.6454 Y-14.1398 Z1.8217
G1 X10.6662 Y-14.1338 Z1.7893
G1 X10.6974 Y-14.1249 Z1.7676
G1 X10.7342 Y-14.1145 Z1.7600
G1 X12.9204 Y-13.4908 Z1.7600 F200.
G1 X12.9430 Y-13.4844 Z1.7598
G1 X13.0500 Y-13.4538 Z1.7574
G1 X13.0669 Y-13.4490 Z1.7565
G1 X13.1740 Y-13.4185 Z1.7496
G1 X13.1909 Y-13.4137 Z1.7480
G1 X13.2980 Y-13.3831 Z1.7370
G1 X13.4050 Y-13.3526 Z1.7224
G1 X13.4163 Y-13.3494 Z1.7207
G1 X13.5262 Y-13.3180 Z1.7022
G1 X13.6304 Y-13.2883 Z1.6818
G1 X13.7403 Y-13.2569 Z1.6576
G1 X13.8389 Y-13.2288 Z1.6336
G1 X14.0361 Y-13.1726 Z1.5799
G1 X14.2220 Y-13.1195 Z1.5232
G1 X14.3291 Y-13.0890 Z1.4873
G1 X14.4024 Y-13.0681 Z1.4631
G1 X14.4869 Y-13.0440 Z1.4324
G1 X14.5883 Y-13.0150 Z1.3964
G1 X14.6052 Y-13.0102 Z1.3903
G1 X14.6165 Y-13.0070 Z1.3872
G1 X14.6249 Y-13.0046 Z1.3856
G1 X14.6320 Y-13.0026 Z1.3850
G1 X15.1405 Y-12.8575 Z1.3849
G1 X15.1518 Y-12.8543 Z1.3845
G1 X15.1694 Y-12.8493 Z1.3831
G1 X15.1968 Y-12.8414 Z1.3805
G1 X15.2194 Y-12.8350 Z1.3772
G1 X15.2419 Y-12.8286 Z1.3724
G1 X15.2588 Y-12.8238 Z1.3679
G1 X15.2870 Y-12.8157 Z1.3598
G1 X15.3095 Y-12.8093 Z1.3521
G1 X15.3321 Y-12.8029 Z1.3427
G1 X15.3433 Y-12.7997 Z1.3374
G1 X15.3771 Y-12.7900 Z1.3199
G1 X15.3884 Y-12.7868 Z1.3136
G1 X15.3997 Y-12.7836 Z1.3067
G1 X15.4109 Y-12.7804 Z1.2993
G1 X15.4222 Y-12.7772 Z1.2913
G1 X15.4355 Y-12.7734 Z1.2810
G1 X15.4594 Y-12.7665 Z1.2616
G1 X15.4647 Y-12.7650 Z1.2570
G1 X15.4754 Y-12.7620 Z1.2475
G1 X15.4860 Y-12.7590 Z1.2372
G1 X15.4966 Y-12.7559 Z1.2260
G1 X15.5099 Y-12.7521 Z1.2105
G1 X15.5285 Y-12.7468 Z1.1876
G1 X15.5392 Y-12.7438 Z1.1736
G1 X15.5498 Y-12.7408 Z1.1582
G1 X15.5551 Y-12.7392 Z1.1498
G1 X15.5604 Y-12.7377 Z1.1409
G1 X15.5684 Y-12.7354 Z1.1263
G1 X15.5817 Y-12.7317 Z1.1006
G1 X15.5870 Y-12.7301 Z1.0897
G1 X15.5923 Y-12.7286 Z1.0778
G1 X15.5976 Y-12.7271 Z1.0646
G1 X15.6030 Y-12.7256 Z1.0497
G1 X15.6069 Y-12.7245 Z1.0370
G1 X15.6162 Y-12.7218 Z1.0044
G1 X15.6189 Y-12.7210 Z0.9938
G1 X15.6216 Y-12.7203 Z0.9816
G1 X15.6242 Y-12.7195 Z0.9668
G1 X15.6262 Y-12.7190 Z0.9526
G1 X15.6295 Y-12.7180 Z0.9228
G1 X15.6309 Y-12.7176 Z0.9062
G1 X15.6314 Y-12.7175 Z0.8939
G0 Z1.8850
G0 X15.6314 Y-12.7175 
G0 Z1.8850
G0 X10.6383 Y-14.1426 
G1 X10.6383 Y-14.1426 Z1.8600 F75.
G1 X10.6456 Y-14.1405 Z1.8217
G1 X10.6664 Y-14.1344 Z1.7893
G1 X10.6975 Y-14.1252 Z1.7676
G1 X10.7342 Y-14.1144 Z1.7600
G1 X12.9352 Y-13.4682 Z1.7599 F200.
G1 X13.0505 Y-13.4343 Z1.7574
G1 X13.0730 Y-13.4277 Z1.7561
G1 X13.1742 Y-13.3980 Z1.7496
G1 X13.2079 Y-13.3881 Z1.7463
G1 X13.2979 Y-13.3617 Z1.7371
G1 X13.4103 Y-13.3287 Z1.7218
G1 X13.5227 Y-13.2957 Z1.7030
G1 X13.6352 Y-13.2626 Z1.6811
G1 X13.7420 Y-13.2313 Z1.6575
G1 X13.8432 Y-13.2016 Z1.6329
G1 X14.0343 Y-13.1454 Z1.5809
G1 X14.2255 Y-13.0893 Z1.5224
G1 X14.4054 Y-13.0365 Z1.4621
G1 X14.5122 Y-13.0051 Z1.4232
G1 X14.5797 Y-12.9853 Z1.3992
G1 X14.6050 Y-12.9779 Z1.3901
G1 X14.6162 Y-12.9746 Z1.3869
G1 X14.6247 Y-12.9721 Z1.3854
G1 X14.6303 Y-12.9704 Z1.3850
G1 X15.1363 Y-12.8219 Z1.3850
G1 X15.1419 Y-12.8202 Z1.3849
G1 X15.1672 Y-12.8128 Z1.3833
G1 X15.1981 Y-12.8037 Z1.3803
G1 X15.2094 Y-12.8004 Z1.3788
G1 X15.2318 Y-12.7938 Z1.3747
G1 X15.2571 Y-12.7864 Z1.3684
G1 X15.2881 Y-12.7773 Z1.3594
G1 X15.2993 Y-12.7740 Z1.3558
G1 X15.3218 Y-12.7674 Z1.3472
G1 X15.3443 Y-12.7608 Z1.3369
G1 X15.3780 Y-12.7509 Z1.3194
G1 X15.3893 Y-12.7476 Z1.3130
G1 X15.4005 Y-12.7443 Z1.3062
G1 X15.4117 Y-12.7410 Z1.2987
G1 X15.4228 Y-12.7377 Z1.2908
G1 X15.4366 Y-12.7337 Z1.2801
G1 X15.4559 Y-12.7280 Z1.2644
G1 X15.4670 Y-12.7248 Z1.2550
G1 X15.4780 Y-12.7215 Z1.2449
G1 X15.4891 Y-12.7183 Z1.2339
G1 X15.5001 Y-12.7150 Z1.2220
G1 X15.5112 Y-12.7118 Z1.2092
G1 X15.5333 Y-12.7053 Z1.1823
G1 X15.5443 Y-12.7021 Z1.1674
G1 X15.5554 Y-12.6988 Z1.1509
G1 X15.5609 Y-12.6972 Z1.1418
G1 X15.5692 Y-12.6948 Z1.1270
G1 X15.5830 Y-12.6907 Z1.1008
G1 X15.5885 Y-12.6891 Z1.0896
G1 X15.5940 Y-12.6875 Z1.0774
G1 X15.5995 Y-12.6858 Z1.0639
G1 X15.6051 Y-12.6842 Z1.0485
G1 X15.6092 Y-12.6830 Z1.0354
G1 X15.6189 Y-12.6802 Z1.0019
G1 X15.6216 Y-12.6794 Z0.9907
G1 X15.6244 Y-12.6786 Z0.9776
G1 X15.6272 Y-12.6777 Z0.9613
G1 X15.6292 Y-12.6771 Z0.9446
G1 X15.6323 Y-12.6762 Z0.9101
G1 X15.6330 Y-12.6760 Z0.8961
G0 Z1.8850
G0 X15.6330 Y-12.6760 
G0 Z1.8850
G0 X10.6385 Y-14.1433 
G1 X10.6385 Y-14.1433 Z1.8600 F75.
G1 X10.6458 Y-14.1411 Z1.8217
G1 X10.6665 Y-14.1349 Z1.7893
G1 X10.6976 Y-14.1255 Z1.7676
G1 X10.7342 Y-14.1144 Z1.7600
G1 X12.9358 Y-13.4495 Z1.7599 F200.
G1 X13.0508 Y-13.4147 Z1.7573
G1 X13.0676 Y-13.4097 Z1.7564
G1 X13.1742 Y-13.3775 Z1.7496
G1 X13.2022 Y-13.3690 Z1.7469
G1 X13.2920 Y-13.3419 Z1.7378
G1 X13.3144 Y-13.3351 Z1.7349
G1 X13.4154 Y-13.3046 Z1.7211
G1 X13.5276 Y-13.2707 Z1.7023
G1 X13.6369 Y-13.2377 Z1.6809
G1 X13.7407 Y-13.2064 Z1.6581
G1 X13.8417 Y-13.1759 Z1.6337
G1 X14.0380 Y-13.1166 Z1.5803
G1 X14.2119 Y-13.0641 Z1.5270
G1 X14.2343 Y-13.0573 Z1.5198
G1 X14.4082 Y-13.0048 Z1.4613
G1 X14.5484 Y-12.9624 Z1.4101
G1 X14.6045 Y-12.9455 Z1.3899
G1 X14.6157 Y-12.9421 Z1.3868
G1 X14.6241 Y-12.9395 Z1.3853
G1 X14.6283 Y-12.9383 Z1.3850
G1 X15.1318 Y-12.7862 Z1.3850
G1 X15.1542 Y-12.7795 Z1.3843
G1 X15.1766 Y-12.7727 Z1.3824
G1 X15.1991 Y-12.7659 Z1.3802
G1 X15.2215 Y-12.7591 Z1.3768
G1 X15.2439 Y-12.7523 Z1.3719
G1 X15.2608 Y-12.7473 Z1.3673
G1 X15.2888 Y-12.7388 Z1.3592
G1 X15.3113 Y-12.7320 Z1.3514
G1 X15.3337 Y-12.7252 Z1.3419
G1 X15.3491 Y-12.7206 Z1.3344
G1 X15.3786 Y-12.7117 Z1.3191
G1 X15.3898 Y-12.7083 Z1.3128
G1 X15.4010 Y-12.7049 Z1.3061
G1 X15.4122 Y-12.7015 Z1.2988
G1 X15.4234 Y-12.6981 Z1.2909
G1 X15.4375 Y-12.6939 Z1.2802
G1 X15.4571 Y-12.6880 Z1.2645
G1 X15.4683 Y-12.6846 Z1.2552
G1 X15.4795 Y-12.6812 Z1.2451
G1 X15.4907 Y-12.6778 Z1.2342
G1 X15.5020 Y-12.6744 Z1.2223
G1 X15.5118 Y-12.6715 Z1.2110
G1 X15.5300 Y-12.6659 Z1.1889
G1 X15.5356 Y-12.6643 Z1.1819
G1 X15.5468 Y-12.6609 Z1.1668
G1 X15.5581 Y-12.6575 Z1.1499
G1 X15.5637 Y-12.6558 Z1.1407
G1 X15.5721 Y-12.6532 Z1.1255
G1 X15.5861 Y-12.6490 Z1.0988
G1 X15.5917 Y-12.6473 Z1.0873
G1 X15.5973 Y-12.6456 Z1.0747
G1 X15.6029 Y-12.6439 Z1.0606
G1 X15.6057 Y-12.6431 Z1.0528
G1 X15.6085 Y-12.6422 Z1.0445
G1 X15.6198 Y-12.6388 Z1.0065
G1 X15.6226 Y-12.6380 Z0.9957
G1 X15.6254 Y-12.6371 Z0.9834
G1 X15.6282 Y-12.6363 Z0.9685
G1 X15.6303 Y-12.6357 Z0.9542
G1 X15.6324 Y-12.6350 Z0.9338
G1 X15.6345 Y-12.6344 Z0.9100
G1 X15.6352 Y-12.6342 Z0.8955
G0 Z1.8850
G0 X15.6352 Y-12.6342 
G0 Z1.8850
G0 X10.6387 Y-14.1441 
G1 X10.6387 Y-14.1441 Z1.8600 F75.
G1 X10.6460 Y-14.1418 Z1.8217
G1 X10.6667 Y-14.1354 Z1.7893
G1 X10.6977 Y-14.1258 Z1.7676
G1 X10.7342 Y-14.1144 Z1.7600
G1 X12.9348 Y-13.4312 Z1.7599 F200.
G1 X13.0509 Y-13.3951 Z1.7573
G1 X13.0621 Y-13.3917 Z1.7568
G1 X13.1740 Y-13.3569 Z1.7496
G1 X13.1964 Y-13.3500 Z1.7475
G1 X13.2971 Y-13.3187 Z1.7373
G1 X13.4146 Y-13.2822 Z1.7213
G1 X13.5266 Y-13.2475 Z1.7027
G1 X13.6385 Y-13.2127 Z1.6809
G1 X13.7420 Y-13.1806 Z1.6581
G1 X13.8455 Y-13.1484 Z1.6331
G1 X14.0358 Y-13.0894 Z1.5813
G1 X14.2260 Y-13.0303 Z1.5231
G1 X14.4107 Y-12.9730 Z1.4609
G1 X14.4723 Y-12.9538 Z1.4380
G1 X14.6052 Y-12.9126 Z1.3895
G1 X14.6149 Y-12.9095 Z1.3868
G1 X14.6233 Y-12.9069 Z1.3853
G1 X14.6275 Y-12.9056 Z1.3850
G1 X15.1326 Y-12.7488 Z1.3850
G1 X15.1438 Y-12.7454 Z1.3848
G1 X15.1605 Y-12.7401 Z1.3838
G1 X15.1885 Y-12.7315 Z1.3813
G1 X15.2109 Y-12.7245 Z1.3785
G1 X15.2333 Y-12.7176 Z1.3744
G1 X15.2585 Y-12.7097 Z1.3680
G1 X15.2893 Y-12.7002 Z1.3592
G1 X15.3004 Y-12.6967 Z1.3556
G1 X15.3228 Y-12.6898 Z1.3472
G1 X15.3452 Y-12.6828 Z1.3371
G1 X15.3788 Y-12.6724 Z1.3200
G1 X15.3900 Y-12.6689 Z1.3139
G1 X15.4012 Y-12.6654 Z1.3073
G1 X15.4124 Y-12.6620 Z1.3001
G1 X15.4236 Y-12.6585 Z1.2923
G1 X15.4389 Y-12.6537 Z1.2807
G1 X15.4627 Y-12.6463 Z1.2617
G1 X15.4683 Y-12.6446 Z1.2570
G1 X15.4795 Y-12.6411 Z1.2471
G1 X15.4907 Y-12.6376 Z1.2364
G1 X15.5019 Y-12.6342 Z1.2247
G1 X15.5159 Y-12.6298 Z1.2086
G1 X15.5355 Y-12.6237 Z1.1848
G1 X15.5467 Y-12.6203 Z1.1700
G1 X15.5579 Y-12.6168 Z1.1536
G1 X15.5635 Y-12.6151 Z1.1446
G1 X15.5718 Y-12.6125 Z1.1299
G1 X15.5858 Y-12.6081 Z1.1034
G1 X15.5914 Y-12.6064 Z1.0924
G1 X15.5970 Y-12.6046 Z1.0803
G1 X15.6026 Y-12.6029 Z1.0671
G1 X15.6082 Y-12.6012 Z1.0523
G1 X15.6110 Y-12.6003 Z1.0442
G1 X15.6222 Y-12.5968 Z1.0071
G1 X15.6250 Y-12.5959 Z0.9967
G1 X15.6278 Y-12.5951 Z0.9848
G1 X15.6306 Y-12.5942 Z0.9706
G1 X15.6327 Y-12.5936 Z0.9573
G1 X15.6341 Y-12.5931 Z0.9459
G1 X15.6372 Y-12.5921 Z0.9160
G1 X15.6381 Y-12.5919 Z0.9030
G1 X15.6385 Y-12.5918 Z0.8934
G0 Z1.8850
G0 X15.6385 Y-12.5918 
G0 Z1.8850
G0 X10.6389 Y-14.1448 
G1 X10.6389 Y-14.1448 Z1.8600 F75.
G1 X10.6462 Y-14.1425 Z1.8217
G1 X10.6668 Y-14.1359 Z1.7893
G1 X10.6977 Y-14.1260 Z1.7676
G1 X10.7342 Y-14.1144 Z1.7600
G1 X12.9350 Y-13.4124 Z1.7599 F200.
G1 X13.0509 Y-13.3755 Z1.7573
G1 X13.0788 Y-13.3666 Z1.7557
G1 X13.1793 Y-13.3345 Z1.7492
G1 X13.2909 Y-13.2989 Z1.7380
G1 X13.3076 Y-13.2936 Z1.7359
G1 X13.4137 Y-13.2597 Z1.7216
G1 X13.5254 Y-13.2241 Z1.7031
G1 X13.6370 Y-13.1885 Z1.6815
G1 X13.7459 Y-13.1538 Z1.6575
G1 X13.8491 Y-13.1209 Z1.6325
G1 X14.0389 Y-13.0603 Z1.5810
G1 X14.2176 Y-13.0034 Z1.5264
G1 X14.2399 Y-12.9962 Z1.5191
G1 X14.3069 Y-12.9749 Z1.4963
G1 X14.4074 Y-12.9428 Z1.4625
G1 X14.5078 Y-12.9108 Z1.4251
G1 X14.6069 Y-12.8792 Z1.3889
G1 X14.6153 Y-12.8765 Z1.3865
G1 X14.6223 Y-12.8743 Z1.3853
G1 X14.6265 Y-12.8729 Z1.3850
G1 X15.1331 Y-12.7114 Z1.3850
G1 X15.1554 Y-12.7042 Z1.3842
G1 X15.2000 Y-12.6900 Z1.3802
G1 X15.2224 Y-12.6829 Z1.3768
G1 X15.2447 Y-12.6757 Z1.3721
G1 X15.2614 Y-12.6704 Z1.3677
G1 X15.2894 Y-12.6615 Z1.3598
G1 X15.3117 Y-12.6544 Z1.3523
G1 X15.3340 Y-12.6473 Z1.3433
G1 X15.3452 Y-12.6437 Z1.3381
G1 X15.3787 Y-12.6330 Z1.3212
G1 X15.4010 Y-12.6259 Z1.3086
G1 X15.4122 Y-12.6223 Z1.3016
G1 X15.4233 Y-12.6188 Z1.2940
G1 X15.4345 Y-12.6152 Z1.2858
G1 X15.4680 Y-12.6045 Z1.2590
G1 X15.4792 Y-12.6010 Z1.2493
G1 X15.4903 Y-12.5974 Z1.2388
G1 X15.5015 Y-12.5938 Z1.2275
G1 X15.5154 Y-12.5894 Z1.2122
G1 X15.5350 Y-12.5832 Z1.1890
G1 X15.5461 Y-12.5796 Z1.1751
G1 X15.5573 Y-12.5760 Z1.1596
G1 X15.5629 Y-12.5743 Z1.1512
G1 X15.5685 Y-12.5725 Z1.1423
G1 X15.5768 Y-12.5698 Z1.1278
G1 X15.5908 Y-12.5653 Z1.1019
G1 X15.5964 Y-12.5636 Z1.0910
G1 X15.6020 Y-12.5618 Z1.0790
G1 X15.6076 Y-12.5600 Z1.0659
G1 X15.6131 Y-12.5582 Z1.0510
G1 X15.6173 Y-12.5569 Z1.0384
G1 X15.6271 Y-12.5538 Z1.0056
G1 X15.6299 Y-12.5529 Z0.9950
G1 X15.6327 Y-12.5520 Z0.9829
G1 X15.6355 Y-12.5511 Z0.9684
G1 X15.6376 Y-12.5504 Z0.9545
G1 X15.6397 Y-12.5498 Z0.9348
G1 X15.6417 Y-12.5491 Z0.9121
G1 X15.6426 Y-12.5488 Z0.8953
G0 Z1.8850
G0 X15.6426 Y-12.5488 
G0 Z1.8850
G0 X10.6392 Y-14.1455 
G1 X10.6392 Y-14.1455 Z1.8600 F75.
G1 X10.6464 Y-14.1431 Z1.8217
G1 X10.6670 Y-14.1364 Z1.7893
G1 X10.6978 Y-14.1263 Z1.7676
G1 X10.7342 Y-14.1144 Z1.7600
G1 X12.9337 Y-13.3941 Z1.7599 F200.
G1 X13.0507 Y-13.3558 Z1.7573
G1 X13.0729 Y-13.3485 Z1.7561
G1 X13.1732 Y-13.3157 Z1.7497
G1 X13.1843 Y-13.3120 Z1.7488
G1 X13.2957 Y-13.2755 Z1.7375
G1 X13.4126 Y-13.2373 Z1.7218
G1 X13.5295 Y-13.1990 Z1.7025
G1 X13.6409 Y-13.1625 Z1.6809
G1 X13.7467 Y-13.1278 Z1.6577
G1 X13.8414 Y-13.0968 Z1.6349
G1 X13.8525 Y-13.0932 Z1.6320
G1 X14.0418 Y-13.0312 Z1.5807
G1 X14.2311 Y-12.9692 Z1.5227
G1 X14.3648 Y-12.9254 Z1.4773
G1 X14.4093 Y-12.9108 Z1.4623
G1 X14.5430 Y-12.8671 Z1.4125
G1 X14.6070 Y-12.8461 Z1.3890
G1 X14.6168 Y-12.8429 Z1.3862
G1 X14.6223 Y-12.8411 Z1.3852
G1 X14.6265 Y-12.8397 Z1.3850
G1 X15.1332 Y-12.6738 Z1.3850
G1 X15.1444 Y-12.6701 Z1.3848
G1 X15.1666 Y-12.6628 Z1.3835
G1 X15.2000 Y-12.6519 Z1.3804
G1 X15.2112 Y-12.6482 Z1.3790
G1 X15.2335 Y-12.6410 Z1.3751
G1 X15.2557 Y-12.6337 Z1.3699
G1 X15.2891 Y-12.6227 Z1.3604
G1 X15.3003 Y-12.6191 Z1.3570
G1 X15.3226 Y-12.6118 Z1.3489
G1 X15.3448 Y-12.6045 Z1.3393
G1 X15.3560 Y-12.6008 Z1.3338
G1 X15.3782 Y-12.5935 Z1.3225
G1 X15.3894 Y-12.5899 Z1.3166
G1 X15.4116 Y-12.5826 Z1.3035
G1 X15.4228 Y-12.5790 Z1.2962
G1 X15.4339 Y-12.5753 Z1.2884
G1 X15.4451 Y-12.5717 Z1.2800
G1 X15.4673 Y-12.5644 Z1.2626
G1 X15.4785 Y-12.5607 Z1.2534
G1 X15.4896 Y-12.5571 Z1.2435
G1 X15.5007 Y-12.5534 Z1.2328
G1 X15.5119 Y-12.5498 Z1.2211
G1 X15.5230 Y-12.5461 Z1.2084
G1 X15.5397 Y-12.5407 Z1.1886
G1 X15.5453 Y-12.5388 Z1.1818
G1 X15.5564 Y-12.5352 Z1.1672
G1 X15.5676 Y-12.5315 Z1.1509
G1 X15.5731 Y-12.5297 Z1.1420
G1 X15.5815 Y-12.5270 Z1.1274
G1 X15.5954 Y-12.5224 Z1.1016
G1 X15.6010 Y-12.5206 Z1.0907
G1 X15.6065 Y-12.5188 Z1.0788
G1 X15.6121 Y-12.5170 Z1.0657
G1 X15.6177 Y-12.5151 Z1.0508
G1 X15.6225 Y-12.5135 Z1.0359
G1 X15.6316 Y-12.5106 Z1.0055
G1 X15.6344 Y-12.5097 Z0.9950
G1 X15.6372 Y-12.5087 Z0.9829
G1 X15.6400 Y-12.5078 Z0.9684
G1 X15.6420 Y-12.5071 Z0.9546
G1 X15.6462 Y-12.5058 Z0.9155
G1 X15.6471 Y-12.5055 Z0.9028
G1 X15.6474 Y-12.5054 Z0.8934
G0 Z1.8850
G0 X15.6474 Y-12.5054 
G0 Z1.8850
G0 X10.6394 Y-14.1462 
G1 X10.6394 Y-14.1462 Z1.8600 F75.
G1 X10.6466 Y-14.1438 Z1.8217
G1 X10.6672 Y-14.1369 Z1.7893
G1 X10.6979 Y-14.1266 Z1.7676
G1 X10.7342 Y-14.1144 Z1.7600
G1 X12.9336 Y-13.3752 Z1.7599 F200.
G1 X13.0503 Y-13.3360 Z1.7573
G1 X13.0669 Y-13.3304 Z1.7565
G1 X13.1780 Y-13.2931 Z1.7494
G1 X13.3002 Y-13.2521 Z1.7370
G1 X13.4168 Y-13.2129 Z1.7213
G1 X13.5307 Y-13.1746 Z1.7025
G1 X13.6418 Y-13.1373 Z1.6810
G1 X13.7334 Y-13.1065 Z1.6610
G1 X13.7557 Y-13.0990 Z1.6560
G1 X13.8528 Y-13.0663 Z1.6325
G1 X14.0445 Y-13.0019 Z1.5806
G1 X14.2333 Y-12.9385 Z1.5227
G1 X14.3999 Y-12.8825 Z1.4659
G1 X14.4221 Y-12.8750 Z1.4580
G1 X14.6068 Y-12.8130 Z1.3891
G1 X14.6179 Y-12.8092 Z1.3860
G1 X14.6235 Y-12.8074 Z1.3850
G1 X15.1386 Y-12.6342 Z1.3850
G1 X15.1553 Y-12.6287 Z1.3845
G1 X15.1720 Y-12.6231 Z1.3832
G1 X15.1997 Y-12.6137 Z1.3806
G1 X15.2219 Y-12.6063 Z1.3776
G1 X15.2442 Y-12.5988 Z1.3732
G1 X15.2608 Y-12.5932 Z1.3690
G1 X15.2886 Y-12.5839 Z1.3612
G1 X15.3108 Y-12.5764 Z1.3542
G1 X15.3330 Y-12.5689 Z1.3458
G1 X15.3580 Y-12.5605 Z1.3345
G1 X15.3886 Y-12.5503 Z1.3192
G1 X15.3997 Y-12.5465 Z1.3132
G1 X15.4108 Y-12.5428 Z1.3067
G1 X15.4219 Y-12.5391 Z1.2997
G1 X15.4330 Y-12.5353 Z1.2922
G1 X15.4483 Y-12.5302 Z1.2809
G1 X15.4719 Y-12.5223 Z1.2624
G1 X15.4774 Y-12.5204 Z1.2580
G1 X15.4885 Y-12.5167 Z1.2484
G1 X15.4997 Y-12.5129 Z1.2382
G1 X15.5108 Y-12.5092 Z1.2270
G1 X15.5246 Y-12.5045 Z1.2117
G1 X15.5441 Y-12.4980 Z1.1887
G1 X15.5552 Y-12.4943 Z1.1748
G1 X15.5663 Y-12.4905 Z1.1595
G1 X15.5719 Y-12.4887 Z1.1511
G1 X15.5774 Y-12.4868 Z1.1423
G1 X15.5857 Y-12.4840 Z1.1281
G1 X15.5996 Y-12.4793 Z1.1031
G1 X15.6052 Y-12.4775 Z1.0926
G1 X15.6107 Y-12.4756 Z1.0813
G1 X15.6163 Y-12.4737 Z1.0688
G1 X15.6218 Y-12.4719 Z1.0548
G1 X15.6246 Y-12.4709 Z1.0471
G1 X15.6288 Y-12.4695 Z1.0344
G1 X15.6385 Y-12.4663 Z1.0023
G1 X15.6427 Y-12.4649 Z0.9859
G1 X15.6455 Y-12.4639 Z0.9725
G1 X15.6468 Y-12.4635 Z0.9646
G1 X15.6489 Y-12.4628 Z0.9499
G1 X15.6527 Y-12.4615 Z0.9109
G1 X15.6534 Y-12.4613 Z0.8986
G1 X15.6536 Y-12.4612 Z0.8929
G0 Z1.8850
G0 X15.6536 Y-12.4612 
G0 Z1.8850
G0 X10.6397 Y-14.1469 
G1 X10.6397 Y-14.1469 Z1.8600 F75.
G1 X10.6468 Y-14.1445 Z1.8217
G1 X10.6673 Y-14.1374 Z1.7893
G1 X10.6980 Y-14.1268 Z1.7676
G1 X10.7342 Y-14.1143 Z1.7600
G1 X12.9334 Y-13.3564 Z1.7599 F200.
G1 X13.0497 Y-13.3163 Z1.7574
G1 X13.0608 Y-13.3124 Z1.7568
G1 X13.1716 Y-13.2743 Z1.7499
G1 X13.1882 Y-13.2685 Z1.7484
G1 X13.2935 Y-13.2323 Z1.7379
G1 X13.3046 Y-13.2284 Z1.7365
G1 X13.4153 Y-13.1903 Z1.7217
G1 X13.5317 Y-13.1502 Z1.7025
G1 X13.6425 Y-13.1120 Z1.6811
G1 X13.7477 Y-13.0757 Z1.6583
G1 X13.8530 Y-13.0394 Z1.6330
G1 X14.0469 Y-12.9726 Z1.5805
G1 X14.2352 Y-12.9077 Z1.5227
G1 X14.4125 Y-12.8466 Z1.4624
G1 X14.4346 Y-12.8389 Z1.4542
G1 X14.4789 Y-12.8237 Z1.4374
G1 X14.6105 Y-12.7783 Z1.3882
G1 X14.6174 Y-12.7759 Z1.3862
G1 X14.6230 Y-12.7740 Z1.3851
G1 X14.6341 Y-12.7702 Z1.3850
G1 X15.1437 Y-12.5946 Z1.3849
G1 X15.1659 Y-12.5869 Z1.3839
G1 X15.1991 Y-12.5755 Z1.3809
G1 X15.2102 Y-12.5716 Z1.3797
G1 X15.2323 Y-12.5640 Z1.3762
G1 X15.2545 Y-12.5564 Z1.3715
G1 X15.2766 Y-12.5487 Z1.3656
G1 X15.2988 Y-12.5411 Z1.3594
G1 X15.3210 Y-12.5335 Z1.3521
G1 X15.3431 Y-12.5258 Z1.3433
G1 X15.3597 Y-12.5201 Z1.3357
G1 X15.3874 Y-12.5105 Z1.3220
G1 X15.4096 Y-12.5029 Z1.3100
G1 X15.4207 Y-12.4991 Z1.3033
G1 X15.4318 Y-12.4953 Z1.2961
G1 X15.4428 Y-12.4915 Z1.2883
G1 X15.4539 Y-12.4876 Z1.2799
G1 X15.4761 Y-12.4800 Z1.2626
G1 X15.4871 Y-12.4762 Z1.2535
G1 X15.4982 Y-12.4724 Z1.2438
G1 X15.5093 Y-12.4685 Z1.2335
G1 X15.5204 Y-12.4647 Z1.2223
G1 X15.5315 Y-12.4609 Z1.2101
G1 X15.5536 Y-12.4533 Z1.1846
G1 X15.5647 Y-12.4494 Z1.1707
G1 X15.5758 Y-12.4456 Z1.1553
G1 X15.5813 Y-12.4437 Z1.1470
G1 X15.5869 Y-12.4418 Z1.1382
G1 X15.5952 Y-12.4389 Z1.1237
G1 X15.6090 Y-12.4342 Z1.0987
G1 X15.6146 Y-12.4323 Z1.0879
G1 X15.6201 Y-12.4304 Z1.0761
G1 X15.6256 Y-12.4284 Z1.0631
G1 X15.6312 Y-12.4265 Z1.0485
G1 X15.6353 Y-12.4251 Z1.0360
G1 X15.6450 Y-12.4218 Z1.0042
G1 X15.6478 Y-12.4208 Z0.9939
G1 X15.6506 Y-12.4199 Z0.9821
G1 X15.6533 Y-12.4189 Z0.9679
G1 X15.6554 Y-12.4182 Z0.9544
G1 X15.6575 Y-12.4175 Z0.9356
G1 X15.6599 Y-12.4166 Z0.9095
G1 X15.6606 Y-12.4164 Z0.8957
G0 Z1.8850
G0 X15.6606 Y-12.4164 
G0 Z1.8850
G0 X10.6399 Y-14.1476 
G1 X10.6399 Y-14.1476 Z1.8600 F75.
G1 X10.6471 Y-14.1451 Z1.8217
G1 X10.6675 Y-14.1379 Z1.7893
G1 X10.6981 Y-14.1271 Z1.7676
G1 X10.7342 Y-14.1143 Z1.7600
G1 X12.9330 Y-13.3374 Z1.7599 F200.
G1 X13.0545 Y-13.2945 Z1.7572
G1 X13.1761 Y-13.2516 Z1.7496
G1 X13.2976 Y-13.2086 Z1.7375
G1 X13.4137 Y-13.1676 Z1.7220
G1 X13.5186 Y-13.1305 Z1.7049
G1 X13.5407 Y-13.1227 Z1.7010
G1 X13.6291 Y-13.0915 Z1.6840
G1 X13.6512 Y-13.0837 Z1.6795
G1 X13.7507 Y-13.0485 Z1.6579
G1 X13.8556 Y-13.0115 Z1.6328
G1 X14.0490 Y-12.9431 Z1.5806
G1 X14.2368 Y-12.8768 Z1.5231
G1 X14.4136 Y-12.8143 Z1.4629
G1 X14.4302 Y-12.8085 Z1.4568
G1 X14.5352 Y-12.7714 Z1.4169
G1 X14.6125 Y-12.7440 Z1.3880
G1 X14.6208 Y-12.7411 Z1.3856
G1 X14.6236 Y-12.7401 Z1.3851
G1 X15.1429 Y-12.5566 Z1.3850
G1 X15.1539 Y-12.5527 Z1.3847
G1 X15.1760 Y-12.5449 Z1.3834
G1 X15.1981 Y-12.5371 Z1.3814
G1 X15.2202 Y-12.5293 Z1.3789
G1 X15.2423 Y-12.5215 Z1.3751
G1 X15.2644 Y-12.5137 Z1.3701
G1 X15.2976 Y-12.5020 Z1.3610
G1 X15.3086 Y-12.4981 Z1.3577
G1 X15.3307 Y-12.4903 Z1.3501
G1 X15.3528 Y-12.4825 Z1.3410
G1 X15.3694 Y-12.4766 Z1.3331
G1 X15.3970 Y-12.4669 Z1.3193
G1 X15.4191 Y-12.4590 Z1.3071
G1 X15.4412 Y-12.4512 Z1.2932
G1 X15.4523 Y-12.4473 Z1.2855
G1 X15.4854 Y-12.4356 Z1.2604
G1 X15.4965 Y-12.4317 Z1.2514
G1 X15.5075 Y-12.4278 Z1.2417
G1 X15.5186 Y-12.4239 Z1.2312
G1 X15.5296 Y-12.4200 Z1.2199
G1 X15.5407 Y-12.4161 Z1.2076
G1 X15.5572 Y-12.4102 Z1.1885
G1 X15.5627 Y-12.4083 Z1.1820
G1 X15.5738 Y-12.4044 Z1.1679
G1 X15.5848 Y-12.4005 Z1.1523
G1 X15.5904 Y-12.3985 Z1.1438
G1 X15.5987 Y-12.3956 Z1.1300
G1 X15.6180 Y-12.3888 Z1.0950
G1 X15.6235 Y-12.3868 Z1.0840
G1 X15.6290 Y-12.3849 Z1.0719
G1 X15.6346 Y-12.3829 Z1.0584
G1 X15.6401 Y-12.3810 Z1.0431
G1 X15.6511 Y-12.3771 Z1.0083
G1 X15.6539 Y-12.3761 Z0.9988
