( MOP:  Elbow-carve-front-03 )
( FILE: G:\Shared drives\AlloyProjectFiles\Customer CAD files\Alloy-Standard-Builds-CAM\t-in\Contours\Elbow-carve-front-03.nc)
G90
(  BEGIN TOOL LIST )
(  TOOL 12 - Ball PT750 - DESC: 0.7500 DIA, 2 FLUTE,  CARBIDE MAT )
(  ENDOF TOOL LIST )
( Elbow-carve-front-03)
T12
S12000
M3
G0 Z4.0000
G0 X4.4359 Y-17.5641 
G1 X4.4359 Y-17.5641 Z1.8363 F75.
G1 X4.4359 Y-17.5641 Z1.8113 F25.
G1 X4.4202 Y-17.5635 Z1.7506
G1 X4.3771 Y-17.5620 Z1.7052
G1 X4.3644 Y-17.5616 Z1.6973 F150.
G1 X4.3517 Y-17.5611 Z1.6887
G1 X4.3390 Y-17.5607 Z1.6792
G1 X4.3264 Y-17.5602 Z1.6689
G1 X4.3137 Y-17.5598 Z1.6577
G1 X4.3010 Y-17.5593 Z1.6453
G1 X4.2883 Y-17.5589 Z1.6316
G1 X4.2757 Y-17.5584 Z1.6165
G1 X4.2691 Y-17.5582 Z1.6080
G1 X4.2626 Y-17.5580 Z1.5989
G1 X4.2561 Y-17.5577 Z1.5893
G1 X4.2495 Y-17.5575 Z1.5790
G1 X4.2430 Y-17.5573 Z1.5678
G1 X4.2364 Y-17.5570 Z1.5557
G1 X4.2299 Y-17.5568 Z1.5424
G1 X4.2226 Y-17.5566 Z1.5260
G1 X4.1984 Y-17.5557 Z1.5408
G1 X4.1743 Y-17.5548 Z1.5538
G1 X4.1743 Y-17.5548 Z1.5788
G0 Z2.0102
G0 X4.1743 Y-17.5548 
G0 Z2.0102
G0 X4.6905 Y-17.6107 
G1 X4.6905 Y-17.6107 Z1.9102 F75.
G1 X4.6905 Y-17.6107 Z1.8852 F25.
G1 X4.6812 Y-17.6105 Z1.8379
G1 X4.6548 Y-17.6097 Z1.7977
G1 X4.6151 Y-17.6086 Z1.7704
G1 X4.5681 Y-17.6073 Z1.7602
G1 X4.5555 Y-17.6069 Z1.7600 F150.
G1 X4.5429 Y-17.6066 Z1.7594
G1 X4.5177 Y-17.6058 Z1.7570
G1 X4.4925 Y-17.6051 Z1.7529
G1 X4.4673 Y-17.6044 Z1.7469
G1 X4.4421 Y-17.6037 Z1.7391
G1 X4.4295 Y-17.6034 Z1.7344
G1 X4.4169 Y-17.6030 Z1.7292
G1 X4.4043 Y-17.6026 Z1.7235
G1 X4.3917 Y-17.6023 Z1.7172
G1 X4.3791 Y-17.6019 Z1.7103
G1 X4.3665 Y-17.6016 Z1.7028
G1 X4.3472 Y-17.6010 Z1.6898
G1 X4.3375 Y-17.6008 Z1.6826
G1 X4.3278 Y-17.6005 Z1.6749
G1 X4.3181 Y-17.6002 Z1.6667
G1 X4.3084 Y-17.5999 Z1.6578
G1 X4.2987 Y-17.5997 Z1.6484
G1 X4.2890 Y-17.5994 Z1.6382
G1 X4.2793 Y-17.5991 Z1.6272
G1 X4.2696 Y-17.5988 Z1.6152
G1 X4.2599 Y-17.5986 Z1.6022
G1 X4.2502 Y-17.5983 Z1.5878
G1 X4.2405 Y-17.5980 Z1.5719
G1 X4.2357 Y-17.5979 Z1.5632
G1 X4.2308 Y-17.5977 Z1.5539
G1 X4.2260 Y-17.5976 Z1.5440
G1 X4.2211 Y-17.5975 Z1.5332
G1 X4.2163 Y-17.5973 Z1.5213
G1 X4.2115 Y-17.5972 Z1.5082
G1 X4.2107 Y-17.5972 Z1.5072
G1 X4.1878 Y-17.5965 Z1.5233
G1 X4.1650 Y-17.5959 Z1.5375
G1 X4.1650 Y-17.5959 Z1.5625
G0 Z2.0154
G0 X4.1650 Y-17.5959 
G0 Z2.0154
G0 X4.7986 Y-17.6506 
G1 X4.7986 Y-17.6506 Z1.9152 F75.
G1 X4.7986 Y-17.6506 Z1.8902 F25.
G1 X4.7897 Y-17.6505 Z1.8439
G1 X4.7643 Y-17.6499 Z1.8041
G1 X4.7259 Y-17.6491 Z1.7767
G1 X4.6801 Y-17.6481 Z1.7654
G1 X4.5490 Y-17.6454 Z1.7585 F150.
G1 X4.5326 Y-17.6450 Z1.7574
G1 X4.5163 Y-17.6447 Z1.7556
G1 X4.4999 Y-17.6443 Z1.7531
G1 X4.4835 Y-17.6440 Z1.7499
G1 X4.4671 Y-17.6436 Z1.7459
G1 X4.4507 Y-17.6433 Z1.7410
G1 X4.4343 Y-17.6429 Z1.7354
G1 X4.4179 Y-17.6426 Z1.7288
G1 X4.4046 Y-17.6423 Z1.7228
G1 X4.3912 Y-17.6420 Z1.7161
G1 X4.3778 Y-17.6417 Z1.7088
G1 X4.3644 Y-17.6414 Z1.7007
G1 X4.3510 Y-17.6412 Z1.6918
G1 X4.3377 Y-17.6409 Z1.6820
G1 X4.3243 Y-17.6406 Z1.6713
G1 X4.3109 Y-17.6403 Z1.6595
G1 X4.2975 Y-17.6400 Z1.6465
G1 X4.2841 Y-17.6397 Z1.6321
G1 X4.2708 Y-17.6395 Z1.6160
G1 X4.2641 Y-17.6393 Z1.6073
G1 X4.2574 Y-17.6392 Z1.5979
G1 X4.2507 Y-17.6390 Z1.5879
G1 X4.2440 Y-17.6389 Z1.5772
G1 X4.2373 Y-17.6388 Z1.5656
G1 X4.2306 Y-17.6386 Z1.5529
G1 X4.2239 Y-17.6385 Z1.5388
G1 X4.2173 Y-17.6383 Z1.5230
G1 X4.2139 Y-17.6383 Z1.5143
G1 X4.2106 Y-17.6382 Z1.5049
G1 X4.2072 Y-17.6381 Z1.4945
G1 X4.2039 Y-17.6380 Z1.4829
G1 X4.2034 Y-17.6380 Z1.4817
G1 X4.1795 Y-17.6375 Z1.5010
G1 X4.1676 Y-17.6373 Z1.5100
G1 X4.1557 Y-17.6370 Z1.5184
G1 X4.1557 Y-17.6370 Z1.5434
G0 Z2.0132
G0 X4.1557 Y-17.6370 
G0 Z2.0132
G0 X4.7917 Y-17.6874 
G1 X4.7917 Y-17.6874 Z1.9131 F75.
G1 X4.7917 Y-17.6874 Z1.8881 F25.
G1 X4.7826 Y-17.6873 Z1.8413
G1 X4.7567 Y-17.6869 Z1.8014
G1 X4.7177 Y-17.6864 Z1.7740
G1 X4.6714 Y-17.6857 Z1.7632
G1 X4.6550 Y-17.6855 Z1.7626 F150.
G1 X4.6386 Y-17.6852 Z1.7613
G1 X4.6252 Y-17.6851 Z1.7598
G1 X4.6058 Y-17.6848 Z1.7592
G1 X4.5730 Y-17.6843 Z1.7571
G1 X4.5402 Y-17.6839 Z1.7537
G1 X4.5074 Y-17.6834 Z1.7492
G1 X4.4910 Y-17.6832 Z1.7463
G1 X4.4746 Y-17.6829 Z1.7426
G1 X4.4582 Y-17.6827 Z1.7381
G1 X4.4418 Y-17.6825 Z1.7327
G1 X4.4254 Y-17.6822 Z1.7265
G1 X4.4090 Y-17.6820 Z1.7194
G1 X4.3961 Y-17.6818 Z1.7131
G1 X4.3831 Y-17.6816 Z1.7061
G1 X4.3702 Y-17.6815 Z1.6985
G1 X4.3572 Y-17.6813 Z1.6901
G1 X4.3443 Y-17.6811 Z1.6809
G1 X4.3314 Y-17.6809 Z1.6708
G1 X4.3184 Y-17.6807 Z1.6598
G1 X4.3055 Y-17.6805 Z1.6476
G1 X4.2926 Y-17.6804 Z1.6342
G1 X4.2796 Y-17.6802 Z1.6193
G1 X4.2667 Y-17.6800 Z1.6026
G1 X4.2602 Y-17.6799 Z1.5935
G1 X4.2537 Y-17.6798 Z1.5837
G1 X4.2473 Y-17.6797 Z1.5732
G1 X4.2408 Y-17.6796 Z1.5619
G1 X4.2343 Y-17.6795 Z1.5495
G1 X4.2279 Y-17.6794 Z1.5359
G1 X4.2214 Y-17.6794 Z1.5205
G1 X4.2182 Y-17.6793 Z1.5120
G1 X4.2149 Y-17.6793 Z1.5028
G1 X4.2117 Y-17.6792 Z1.4928
G1 X4.2085 Y-17.6792 Z1.4816
G1 X4.2052 Y-17.6791 Z1.4687
G1 X4.2020 Y-17.6791 Z1.4534
G1 X4.1980 Y-17.6790 Z1.4557
G1 X4.1826 Y-17.6788 Z1.4663
G1 X4.1466 Y-17.6783 Z1.4956
G1 X4.1466 Y-17.6783 Z1.5206
G0 Z2.0105
G0 X4.1466 Y-17.6783 
G0 Z2.0105
G0 X4.8134 Y-17.7245 
G1 X4.8134 Y-17.7245 Z1.9100 F75.
G1 X4.8134 Y-17.7245 Z1.8850 F25.
G1 X4.8036 Y-17.7244 Z1.8366
G1 X4.7759 Y-17.7242 Z1.7958
G1 X4.7345 Y-17.7239 Z1.7688
G1 X4.6859 Y-17.7236 Z1.7600
G1 X4.6688 Y-17.7234 Z1.7604 F150.
G1 X4.6517 Y-17.7233 Z1.7600
G1 X4.6345 Y-17.7232 Z1.7588
G1 X4.5832 Y-17.7228 Z1.7537
G1 X4.5490 Y-17.7226 Z1.7487
G1 X4.5148 Y-17.7223 Z1.7421
G1 X4.4805 Y-17.7221 Z1.7344
G1 X4.4634 Y-17.7220 Z1.7299
G1 X4.4463 Y-17.7219 Z1.7244
G1 X4.4292 Y-17.7217 Z1.7179
G1 X4.4121 Y-17.7216 Z1.7105
G1 X4.4002 Y-17.7215 Z1.7046
G1 X4.3884 Y-17.7215 Z1.6983
G1 X4.3765 Y-17.7214 Z1.6913
G1 X4.3646 Y-17.7213 Z1.6837
G1 X4.3527 Y-17.7212 Z1.6754
G1 X4.3409 Y-17.7211 Z1.6663
G1 X4.3290 Y-17.7210 Z1.6565
G1 X4.3171 Y-17.7210 Z1.6457
G1 X4.3053 Y-17.7209 Z1.6339
G1 X4.2934 Y-17.7208 Z1.6209
G1 X4.2815 Y-17.7207 Z1.6066
G1 X4.2696 Y-17.7206 Z1.5905
G1 X4.2637 Y-17.7206 Z1.5817
G1 X4.2578 Y-17.7205 Z1.5723
G1 X4.2518 Y-17.7205 Z1.5622
G1 X4.2459 Y-17.7205 Z1.5513
G1 X4.2400 Y-17.7204 Z1.5394
G1 X4.2340 Y-17.7204 Z1.5263
G1 X4.2281 Y-17.7203 Z1.5115
G1 X4.2251 Y-17.7203 Z1.5033
G1 X4.2221 Y-17.7203 Z1.4944
G1 X4.2082 Y-17.7202 Z1.4667
G1 X4.2016 Y-17.7201 Z1.4532
G1 X4.1950 Y-17.7201 Z1.4381
G1 X4.1945 Y-17.7201 Z1.4375
G1 X4.1875 Y-17.7200 Z1.4403
G1 X4.1734 Y-17.7199 Z1.4469
G1 X4.1585 Y-17.7198 Z1.4555
G1 X4.1418 Y-17.7197 Z1.4670
G1 X4.1383 Y-17.7197 Z1.4698
G1 X4.1383 Y-17.7197 Z1.4948
G0 Z2.0101
G0 X4.1383 Y-17.7197 
G0 Z2.0101
G0 X4.8495 Y-17.7612 
G1 X4.8495 Y-17.7612 Z1.9100 F75.
G1 X4.8495 Y-17.7612 Z1.8850 F25.
G1 X4.8402 Y-17.7612 Z1.8378
G1 X4.8138 Y-17.7612 Z1.7976
G1 X4.7741 Y-17.7612 Z1.7703
G1 X4.7271 Y-17.7612 Z1.7601
G1 X4.6941 Y-17.7612 Z1.7594 F150.
G1 X4.6570 Y-17.7612 Z1.7573
G1 X4.6447 Y-17.7612 Z1.7570
G1 X4.6282 Y-17.7612 Z1.7559
G1 X4.6118 Y-17.7612 Z1.7541
G1 X4.5788 Y-17.7612 Z1.7493
G1 X4.5623 Y-17.7612 Z1.7463
G1 X4.5459 Y-17.7612 Z1.7427
G1 X4.5294 Y-17.7612 Z1.7383
G1 X4.5129 Y-17.7612 Z1.7331
G1 X4.4800 Y-17.7612 Z1.7218
G1 X4.4629 Y-17.7612 Z1.7151
G1 X4.4457 Y-17.7612 Z1.7092
G1 X4.4285 Y-17.7612 Z1.7024
G1 X4.4116 Y-17.7612 Z1.6945
G1 X4.3947 Y-17.7612 Z1.6856
G1 X4.3778 Y-17.7612 Z1.6753
G1 X4.3609 Y-17.7612 Z1.6637
G1 X4.3440 Y-17.7612 Z1.6505
G1 X4.3271 Y-17.7612 Z1.6355
G1 X4.3187 Y-17.7612 Z1.6271
G1 X4.3102 Y-17.7612 Z1.6182
G1 X4.3018 Y-17.7612 Z1.6086
G1 X4.2924 Y-17.7612 Z1.5973
G1 X4.2789 Y-17.7612 Z1.5825
G1 X4.2688 Y-17.7612 Z1.5704
G1 X4.2453 Y-17.7612 Z1.5401
G1 X4.2386 Y-17.7612 Z1.5307
G1 X4.2319 Y-17.7612 Z1.5208
G1 X4.2251 Y-17.7612 Z1.5101
G1 X4.2184 Y-17.7612 Z1.4986
G1 X4.2117 Y-17.7612 Z1.4861
G1 X4.1982 Y-17.7612 Z1.4594
G1 X4.1915 Y-17.7612 Z1.4452
G1 X4.1842 Y-17.7612 Z1.4279
G1 X4.1774 Y-17.7612 Z1.4298
G1 X4.1622 Y-17.7612 Z1.4345
G1 X4.1469 Y-17.7612 Z1.4404
G1 X4.1334 Y-17.7612 Z1.4467
G1 X4.1300 Y-17.7612 Z1.4487
G1 X4.1300 Y-17.7612 Z1.4737
G0 Z2.0101
G0 X4.1300 Y-17.7612 
G0 Z2.0101
G0 X4.8910 Y-17.7974 
G1 X4.8910 Y-17.7974 Z1.9101 F75.
G1 X4.8910 Y-17.7974 Z1.8851 F25.
G1 X4.8816 Y-17.7975 Z1.8376
G1 X4.8549 Y-17.7976 Z1.7973
G1 X4.8149 Y-17.7979 Z1.7701
G1 X4.7676 Y-17.7983 Z1.7601
G1 X4.7474 Y-17.7984 Z1.7598 F150.
G1 X4.7272 Y-17.7986 Z1.7591
G1 X4.6490 Y-17.7991 Z1.7541
G1 X4.6263 Y-17.7993 Z1.7532
G1 X4.6061 Y-17.7994 Z1.7512
G1 X4.5657 Y-17.7997 Z1.7452
G1 X4.5455 Y-17.7998 Z1.7413
G1 X4.5254 Y-17.8000 Z1.7362
G1 X4.5052 Y-17.8001 Z1.7300
G1 X4.4850 Y-17.8003 Z1.7232
G1 X4.4648 Y-17.8004 Z1.7159
G1 X4.4446 Y-17.8005 Z1.7073
G1 X4.4278 Y-17.8007 Z1.6990
G1 X4.4130 Y-17.8008 Z1.6909
G1 X4.3857 Y-17.8010 Z1.6752
G1 X4.3773 Y-17.8010 Z1.6700
G1 X4.3604 Y-17.8011 Z1.6588
G1 X4.3436 Y-17.8013 Z1.6462
G1 X4.3310 Y-17.8013 Z1.6358
G1 X4.3099 Y-17.8015 Z1.6177
G1 X4.2931 Y-17.8016 Z1.6022
G1 X4.2847 Y-17.8017 Z1.5937
G1 X4.2763 Y-17.8017 Z1.5847
G1 X4.2678 Y-17.8018 Z1.5750
G1 X4.2594 Y-17.8019 Z1.5648
G1 X4.2426 Y-17.8020 Z1.5432
G1 X4.2342 Y-17.8020 Z1.5320
G1 X4.2258 Y-17.8021 Z1.5199
G1 X4.2173 Y-17.8021 Z1.5068
G1 X4.2089 Y-17.8022 Z1.4923
G1 X4.2005 Y-17.8023 Z1.4762
G1 X4.1879 Y-17.8024 Z1.4511
G1 X4.1837 Y-17.8024 Z1.4421
G1 X4.1795 Y-17.8024 Z1.4324
G1 X4.1753 Y-17.8024 Z1.4219
G1 X4.1746 Y-17.8025 Z1.4207
G1 X4.1614 Y-17.8025 Z1.4235
G1 X4.1382 Y-17.8027 Z1.4294
G1 X4.1216 Y-17.8028 Z1.4345
G1 X4.1216 Y-17.8028 Z1.4595
G0 Z2.0101
G0 X4.1216 Y-17.8028 
G0 Z2.0101
G0 X4.9308 Y-17.8330 
G1 X4.9308 Y-17.8330 Z1.9101 F75.
G1 X4.9308 Y-17.8330 Z1.8851 F25.
G1 X4.9214 Y-17.8332 Z1.8377
G1 X4.8948 Y-17.8335 Z1.7974
G1 X4.8548 Y-17.8341 Z1.7702
G1 X4.8075 Y-17.8348 Z1.7601
G1 X4.7859 Y-17.8351 Z1.7598 F150.
G1 X4.7588 Y-17.8355 Z1.7586
G1 X4.6449 Y-17.8371 Z1.7511
G1 X4.6341 Y-17.8372 Z1.7507
G1 X4.6124 Y-17.8375 Z1.7494
G1 X4.5880 Y-17.8379 Z1.7465
G1 X4.5582 Y-17.8383 Z1.7418
G1 X4.5474 Y-17.8384 Z1.7398
G1 X4.5257 Y-17.8387 Z1.7348
G1 X4.5040 Y-17.8391 Z1.7285
G1 X4.4715 Y-17.8395 Z1.7174
G1 X4.4606 Y-17.8397 Z1.7134
G1 X4.4423 Y-17.8399 Z1.7058
G1 X4.4240 Y-17.8402 Z1.6972
G1 X4.4056 Y-17.8404 Z1.6873
G1 X4.3781 Y-17.8408 Z1.6715
G1 X4.3690 Y-17.8410 Z1.6659
G1 X4.3506 Y-17.8412 Z1.6535
G1 X4.3323 Y-17.8415 Z1.6396
G1 X4.3231 Y-17.8416 Z1.6320
G1 X4.2956 Y-17.8420 Z1.6081
G1 X4.2865 Y-17.8421 Z1.5996
G1 X4.2773 Y-17.8423 Z1.5904
G1 X4.2681 Y-17.8424 Z1.5806
G1 X4.2590 Y-17.8425 Z1.5701
G1 X4.2498 Y-17.8426 Z1.5588
G1 X4.2315 Y-17.8429 Z1.5353
G1 X4.2223 Y-17.8430 Z1.5227
G1 X4.2131 Y-17.8432 Z1.5089
G1 X4.2040 Y-17.8433 Z1.4936
G1 X4.1994 Y-17.8434 Z1.4853
G1 X4.1948 Y-17.8434 Z1.4765
G1 X4.1810 Y-17.8436 Z1.4488
G1 X4.1765 Y-17.8437 Z1.4390
G1 X4.1719 Y-17.8437 Z1.4285
G1 X4.1666 Y-17.8438 Z1.4152
G1 X4.1451 Y-17.8441 Z1.4185
G1 X4.1204 Y-17.8445 Z1.4235
G1 X4.1138 Y-17.8446 Z1.4251
G1 X4.1138 Y-17.8446 Z1.4501
G0 Z2.0101
G0 X4.1138 Y-17.8446 
G0 Z2.0101
G0 X4.9700 Y-17.8681 
G1 X4.9700 Y-17.8681 Z1.9101 F75.
G1 X4.9700 Y-17.8681 Z1.8851 F25.
G1 X4.9607 Y-17.8683 Z1.8377
G1 X4.9341 Y-17.8689 Z1.7974
G1 X4.8941 Y-17.8697 Z1.7701
G1 X4.8469 Y-17.8707 Z1.7601
G1 X4.8237 Y-17.8712 Z1.7598 F150.
G1 X4.8006 Y-17.8717 Z1.7588
G1 X4.6328 Y-17.8753 Z1.7471
G1 X4.6155 Y-17.8756 Z1.7464
G1 X4.5923 Y-17.8761 Z1.7442
G1 X4.5808 Y-17.8764 Z1.7427
G1 X4.5461 Y-17.8771 Z1.7371
G1 X4.5229 Y-17.8776 Z1.7322
G1 X4.4998 Y-17.8781 Z1.7257
G1 X4.4766 Y-17.8786 Z1.7179
G1 X4.4568 Y-17.8790 Z1.7110
G1 X4.4370 Y-17.8794 Z1.7030
G1 X4.4172 Y-17.8798 Z1.6938
G1 X4.3974 Y-17.8803 Z1.6832
G1 X4.3777 Y-17.8807 Z1.6719
G1 X4.3579 Y-17.8811 Z1.6599
G1 X4.3381 Y-17.8815 Z1.6461
G1 X4.3282 Y-17.8817 Z1.6385
G1 X4.3146 Y-17.8820 Z1.6272
G1 X4.2886 Y-17.8826 Z1.6043
G1 X4.2787 Y-17.8828 Z1.5949
G1 X4.2688 Y-17.8830 Z1.5849
G1 X4.2589 Y-17.8832 Z1.5741
G1 X4.2490 Y-17.8834 Z1.5624
G1 X4.2242 Y-17.8839 Z1.5305
G1 X4.2193 Y-17.8840 Z1.5238
G1 X4.2094 Y-17.8842 Z1.5095
G1 X4.1995 Y-17.8844 Z1.4936
G1 X4.1945 Y-17.8845 Z1.4849
G1 X4.1871 Y-17.8847 Z1.4709
G1 X4.1747 Y-17.8850 Z1.4461
G1 X4.1698 Y-17.8851 Z1.4357
G1 X4.1649 Y-17.8852 Z1.4244
G1 X4.1592 Y-17.8853 Z1.4103
G1 X4.1064 Y-17.8864 Z1.4180
G1 X4.1064 Y-17.8864 Z1.4430
G0 Z2.0101
G0 X4.1064 Y-17.8864 
G0 Z2.0101
G0 X5.0087 Y-17.9027 
G1 X5.0087 Y-17.9027 Z1.9101 F75.
G1 X5.0087 Y-17.9027 Z1.8851 F25.
G1 X4.9994 Y-17.9029 Z1.8377
G1 X4.9728 Y-17.9037 Z1.7974
G1 X4.9329 Y-17.9048 Z1.7701
G1 X4.8856 Y-17.9062 Z1.7601
G1 X4.8622 Y-17.9068 Z1.7598 F150.
G1 X4.8388 Y-17.9075 Z1.7587
G1 X4.8154 Y-17.9081 Z1.7569
G1 X4.7626 Y-17.9096 Z1.7522
G1 X4.6250 Y-17.9135 Z1.7432
G1 X4.6162 Y-17.9138 Z1.7429
G1 X4.6045 Y-17.9141 Z1.7423
G1 X4.5811 Y-17.9148 Z1.7399
G1 X4.5459 Y-17.9158 Z1.7345
G1 X4.5342 Y-17.9161 Z1.7324
G1 X4.5108 Y-17.9168 Z1.7271
G1 X4.4884 Y-17.9174 Z1.7206
G1 X4.4547 Y-17.9183 Z1.7088
G1 X4.4435 Y-17.9187 Z1.7045
G1 X4.4211 Y-17.9193 Z1.6948
G1 X4.3987 Y-17.9199 Z1.6834
G1 X4.3650 Y-17.9209 Z1.6639
G1 X4.3538 Y-17.9212 Z1.6570
G1 X4.3426 Y-17.9215 Z1.6495
G1 X4.3314 Y-17.9218 Z1.6415
G1 X4.3202 Y-17.9221 Z1.6329
G1 X4.3062 Y-17.9225 Z1.6211
G1 X4.2866 Y-17.9231 Z1.6039
G1 X4.2754 Y-17.9234 Z1.5937
G1 X4.2641 Y-17.9237 Z1.5826
G1 X4.2529 Y-17.9240 Z1.5706
G1 X4.2417 Y-17.9244 Z1.5574
G1 X4.2193 Y-17.9250 Z1.5286
G1 X4.2081 Y-17.9253 Z1.5134
G1 X4.1969 Y-17.9256 Z1.4964
G1 X4.1913 Y-17.9258 Z1.4871
G1 X4.1857 Y-17.9259 Z1.4772
G1 X4.1773 Y-17.9262 Z1.4609
G1 X4.1633 Y-17.9266 Z1.4326
G1 X4.1576 Y-17.9267 Z1.4199
G1 X4.1520 Y-17.9269 Z1.4059
G1 X4.1513 Y-17.9269 Z1.4055
G1 X4.0990 Y-17.9284 Z1.4130
G1 X4.0990 Y-17.9284 Z1.4380
G0 Z2.0101
G0 X4.0990 Y-17.9284 
G0 Z2.0101
G0 X5.0469 Y-17.9367 
G1 X5.0469 Y-17.9367 Z1.9101 F75.
G1 X5.0469 Y-17.9367 Z1.8851 F25.
G1 X5.0375 Y-17.9371 Z1.8377
G1 X5.0109 Y-17.9380 Z1.7973
G1 X4.9711 Y-17.9394 Z1.7701
G1 X4.9238 Y-17.9411 Z1.7601
G1 X4.9004 Y-17.9419 Z1.7597 F150.
G1 X4.8770 Y-17.9427 Z1.7587
G1 X4.8536 Y-17.9436 Z1.7569
G1 X4.7511 Y-17.9472 Z1.7476
G1 X4.6208 Y-17.9518 Z1.7392
G1 X4.5959 Y-17.9527 Z1.7380
G1 X4.5725 Y-17.9535 Z1.7354
G1 X4.5374 Y-17.9547 Z1.7297
G1 X4.5256 Y-17.9551 Z1.7275
G1 X4.5022 Y-17.9560 Z1.7219
G1 X4.4788 Y-17.9568 Z1.7148
G1 X4.4437 Y-17.9580 Z1.7023
G1 X4.4320 Y-17.9585 Z1.6977
G1 X4.4085 Y-17.9593 Z1.6872
G1 X4.3851 Y-17.9601 Z1.6748
G1 X4.3558 Y-17.9611 Z1.6577
G1 X4.3500 Y-17.9613 Z1.6541
G1 X4.3383 Y-17.9618 Z1.6464
G1 X4.3266 Y-17.9622 Z1.6382
G1 X4.3148 Y-17.9626 Z1.6293
G1 X4.3002 Y-17.9631 Z1.6172
G1 X4.2797 Y-17.9638 Z1.5992
G1 X4.2680 Y-17.9642 Z1.5885
G1 X4.2563 Y-17.9647 Z1.5769
G1 X4.2446 Y-17.9651 Z1.5643
G1 X4.2329 Y-17.9655 Z1.5505
G1 X4.2094 Y-17.9663 Z1.5203
G1 X4.1977 Y-17.9667 Z1.5040
G1 X4.1919 Y-17.9669 Z1.4951
G1 X4.1860 Y-17.9671 Z1.4856
G1 X4.1802 Y-17.9673 Z1.4756
G1 X4.1716 Y-17.9676 Z1.4594
G1 X4.1598 Y-17.9681 Z1.4358
G1 X4.1525 Y-17.9683 Z1.4202
G1 X4.1489 Y-17.9684 Z1.4117
G1 X4.1452 Y-17.9686 Z1.4026
G1 X4.1446 Y-17.9686 Z1.4018
G1 X4.1098 Y-17.9698 Z1.4054
G1 X4.0916 Y-17.9705 Z1.4080
G1 X4.0916 Y-17.9705 Z1.4330
G0 Z2.0101
G0 X4.0916 Y-17.9705 
G0 Z2.0101
G0 X5.0845 Y-17.9703 
G1 X5.0845 Y-17.9703 Z1.9100 F75.
G1 X5.0845 Y-17.9703 Z1.8850 F25.
G1 X5.0751 Y-17.9707 Z1.8377
G1 X5.0486 Y-17.9718 Z1.7973
G1 X5.0087 Y-17.9735 Z1.7701
G1 X4.9615 Y-17.9755 Z1.7601
G1 X4.9381 Y-17.9765 Z1.7597 F150.
G1 X4.9147 Y-17.9775 Z1.7586
G1 X4.8912 Y-17.9785 Z1.7568
G1 X4.8210 Y-17.9815 Z1.7502
G1 X4.7361 Y-17.9851 Z1.7427
G1 X4.6073 Y-17.9905 Z1.7341
G1 X4.5985 Y-17.9909 Z1.7337
G1 X4.5868 Y-17.9914 Z1.7329
G1 X4.5634 Y-17.9924 Z1.7302
G1 X4.5283 Y-17.9939 Z1.7244
G1 X4.5166 Y-17.9944 Z1.7221
G1 X4.4932 Y-17.9954 Z1.7164
G1 X4.4668 Y-17.9965 Z1.7081
G1 X4.4346 Y-17.9978 Z1.6965
G1 X4.4229 Y-17.9983 Z1.6919
G1 X4.3995 Y-17.9993 Z1.6812
G1 X4.3878 Y-17.9998 Z1.6752
G1 X4.3761 Y-18.0003 Z1.6687
G1 X4.3527 Y-18.0013 Z1.6550
G1 X4.3410 Y-18.0018 Z1.6479
G1 X4.3292 Y-18.0023 Z1.6401
G1 X4.3175 Y-18.0028 Z1.6318
G1 X4.3058 Y-18.0033 Z1.6229
G1 X4.2912 Y-18.0039 Z1.6106
G1 X4.2707 Y-18.0048 Z1.5926
G1 X4.2590 Y-18.0053 Z1.5818
G1 X4.2473 Y-18.0058 Z1.5701
G1 X4.2356 Y-18.0063 Z1.5574
G1 X4.2239 Y-18.0068 Z1.5434
G1 X4.2031 Y-18.0076 Z1.5162
G1 X4.1940 Y-18.0080 Z1.5037
G1 X4.1850 Y-18.0084 Z1.4899
G1 X4.1759 Y-18.0088 Z1.4749
G1 X4.1668 Y-18.0092 Z1.4581
G1 X4.1532 Y-18.0098 Z1.4305
G1 X4.1487 Y-18.0100 Z1.4209
G1 X4.1442 Y-18.0101 Z1.4106
G1 X4.1396 Y-18.0103 Z1.3994
G1 X4.1386 Y-18.0104 Z1.3980
G1 X4.0850 Y-18.0127 Z1.4036
G1 X4.0850 Y-18.0127 Z1.4286
G0 Z2.0100
G0 X4.0850 Y-18.0127 
G0 Z2.0100
G0 X5.1215 Y-18.0034 
G1 X5.1215 Y-18.0034 Z1.9100 F75.
G1 X5.1215 Y-18.0034 Z1.8850 F25.
G1 X5.1122 Y-18.0038 Z1.8376
G1 X5.0856 Y-18.0051 Z1.7973
G1 X5.0458 Y-18.0071 Z1.7701
G1 X4.9986 Y-18.0094 Z1.7600
G1 X4.9752 Y-18.0106 Z1.7597 F150.
G1 X4.9518 Y-18.0118 Z1.7586
G1 X4.9284 Y-18.0129 Z1.7567
G1 X4.8113 Y-18.0187 Z1.7457
G1 X4.7236 Y-18.0230 Z1.7379
G1 X4.6270 Y-18.0278 Z1.7314
G1 X4.6007 Y-18.0291 Z1.7292
G1 X4.5773 Y-18.0303 Z1.7277
G1 X4.5509 Y-18.0316 Z1.7244
G1 X4.5187 Y-18.0332 Z1.7189
G1 X4.5070 Y-18.0338 Z1.7165
G1 X4.4836 Y-18.0349 Z1.7107
G1 X4.4602 Y-18.0361 Z1.7033
G1 X4.4251 Y-18.0378 Z1.6906
G1 X4.4134 Y-18.0384 Z1.6859
G1 X4.3900 Y-18.0395 Z1.6750
G1 X4.3783 Y-18.0401 Z1.6689
G1 X4.3578 Y-18.0411 Z1.6572
G1 X4.3432 Y-18.0419 Z1.6485
G1 X4.3315 Y-18.0424 Z1.6412
G1 X4.3198 Y-18.0430 Z1.6333
G1 X4.3080 Y-18.0436 Z1.6247
G1 X4.2963 Y-18.0442 Z1.6154
G1 X4.2846 Y-18.0447 Z1.6054
G1 X4.2612 Y-18.0459 Z1.5844
G1 X4.2495 Y-18.0465 Z1.5732
G1 X4.2351 Y-18.0472 Z1.5581
G1 X4.2206 Y-18.0479 Z1.5412
G1 X4.2062 Y-18.0486 Z1.5225
G1 X4.1918 Y-18.0493 Z1.5032
G1 X4.1846 Y-18.0497 Z1.4929
G1 X4.1773 Y-18.0501 Z1.4817
G1 X4.1701 Y-18.0504 Z1.4697
G1 X4.1629 Y-18.0508 Z1.4566
G1 X4.1557 Y-18.0511 Z1.4423
G1 X4.1448 Y-18.0517 Z1.4202
G1 X4.1376 Y-18.0520 Z1.4041
G1 X4.1340 Y-18.0522 Z1.3953
G1 X4.1334 Y-18.0522 Z1.3942
G1 X4.0786 Y-18.0549 Z1.3998
G1 X4.0786 Y-18.0549 Z1.4248
G0 Z2.0100
G0 X4.0786 Y-18.0549 
G0 Z2.0100
G0 X5.1581 Y-18.0360 
G1 X5.1581 Y-18.0360 Z1.9100 F75.
G1 X5.1581 Y-18.0360 Z1.8850 F25.
G1 X5.1487 Y-18.0365 Z1.8376
G1 X5.1222 Y-18.0380 Z1.7973
G1 X5.0824 Y-18.0402 Z1.7701
G1 X5.0352 Y-18.0429 Z1.7600
G1 X5.0118 Y-18.0442 Z1.7597 F150.
G1 X4.9884 Y-18.0455 Z1.7585
G1 X4.9650 Y-18.0469 Z1.7567
G1 X4.8480 Y-18.0535 Z1.7455
G1 X4.7076 Y-18.0614 Z1.7329
G1 X4.6403 Y-18.0652 Z1.7283
G1 X4.5935 Y-18.0679 Z1.7242
G1 X4.5672 Y-18.0694 Z1.7225
G1 X4.5438 Y-18.0707 Z1.7194
G1 X4.5087 Y-18.0727 Z1.7133
G1 X4.4970 Y-18.0733 Z1.7109
G1 X4.4736 Y-18.0747 Z1.7048
G1 X4.4502 Y-18.0760 Z1.6971
G1 X4.4210 Y-18.0776 Z1.6862
G1 X4.4151 Y-18.0780 Z1.6838
G1 X4.4034 Y-18.0786 Z1.6788
G1 X4.3800 Y-18.0799 Z1.6675
G1 X4.3683 Y-18.0806 Z1.6611
G1 X4.3361 Y-18.0824 Z1.6419
G1 X4.3215 Y-18.0833 Z1.6326
G1 X4.3098 Y-18.0839 Z1.6244
G1 X4.2981 Y-18.0846 Z1.6156
G1 X4.2864 Y-18.0852 Z1.6061
G1 X4.2765 Y-18.0858 Z1.5975
G1 X4.2568 Y-18.0869 Z1.5798
G1 X4.2469 Y-18.0875 Z1.5705
G1 X4.2370 Y-18.0880 Z1.5606
G1 X4.2271 Y-18.0886 Z1.5500
G1 X4.2172 Y-18.0891 Z1.5385
G1 X4.2073 Y-18.0897 Z1.5261
G1 X4.1876 Y-18.0908 Z1.4999
G1 X4.1777 Y-18.0914 Z1.4859
G1 X4.1678 Y-18.0919 Z1.4704
G1 X4.1629 Y-18.0922 Z1.4620
G1 X4.1579 Y-18.0925 Z1.4531
G1 X4.1505 Y-18.0929 Z1.4386
G1 X4.1381 Y-18.0936 Z1.4134
G1 X4.1332 Y-18.0939 Z1.4026
G1 X4.1283 Y-18.0942 Z1.3909
G1 X4.1274 Y-18.0942 Z1.3907
G1 X4.0722 Y-18.0973 Z1.3961
G1 X4.0722 Y-18.0973 Z1.4211
G0 Z2.0100
G0 X4.0722 Y-18.0973 
G0 Z2.0100
G0 X5.1941 Y-18.0681 
G1 X5.1941 Y-18.0681 Z1.9100 F75.
G1 X5.1941 Y-18.0681 Z1.8850 F25.
G1 X5.1848 Y-18.0687 Z1.8376
G1 X5.1582 Y-18.0704 Z1.7973
G1 X5.1184 Y-18.0729 Z1.7701
G1 X5.0713 Y-18.0759 Z1.7600
G1 X5.0479 Y-18.0774 Z1.7596 F150.
G1 X5.0245 Y-18.0789 Z1.7585
G1 X4.9953 Y-18.0807 Z1.7560
G1 X4.8374 Y-18.0908 Z1.7409
G1 X4.6971 Y-18.0997 Z1.7282
G1 X4.6503 Y-18.1027 Z1.7249
G1 X4.5567 Y-18.1086 Z1.7166
G1 X4.5334 Y-18.1101 Z1.7131
G1 X4.5041 Y-18.1120 Z1.7078
G1 X4.4866 Y-18.1131 Z1.7039
G1 X4.4632 Y-18.1146 Z1.6974
G1 X4.4456 Y-18.1157 Z1.6915
G1 X4.4164 Y-18.1176 Z1.6806
G1 X4.3930 Y-18.1191 Z1.6707
G1 X4.3696 Y-18.1206 Z1.6591
G1 X4.3535 Y-18.1216 Z1.6499
G1 X4.3228 Y-18.1235 Z1.6313
G1 X4.3104 Y-18.1243 Z1.6230
G1 X4.2979 Y-18.1251 Z1.6140
G1 X4.2854 Y-18.1259 Z1.6042
G1 X4.2729 Y-18.1267 Z1.5937
G1 X4.2479 Y-18.1283 Z1.5712
G1 X4.2355 Y-18.1291 Z1.5593
G1 X4.2230 Y-18.1299 Z1.5462
G1 X4.2105 Y-18.1307 Z1.5318
G1 X4.1996 Y-18.1314 Z1.5180
G1 X4.1793 Y-18.1327 Z1.4911
G1 X4.1730 Y-18.1331 Z1.4822
G1 X4.1668 Y-18.1335 Z1.4728
G1 X4.1606 Y-18.1339 Z1.4628
G1 X4.1543 Y-18.1342 Z1.4520
G1 X4.1481 Y-18.1346 Z1.4404
G1 X4.1356 Y-18.1354 Z1.4152
G1 X4.1293 Y-18.1358 Z1.4022
G1 X4.1231 Y-18.1362 Z1.3877
G1 X4.1226 Y-18.1363 Z1.3871
G1 X4.0659 Y-18.1399 Z1.3924
G1 X4.0659 Y-18.1399 Z1.4174
G0 Z2.0100
G0 X4.0659 Y-18.1399 
G0 Z2.0100
G0 X5.2296 Y-18.0998 
G1 X5.2296 Y-18.0998 Z1.9100 F75.
G1 X5.2296 Y-18.0998 Z1.8850 F25.
G1 X5.2203 Y-18.1004 Z1.8376
G1 X5.1938 Y-18.1023 Z1.7973
G1 X5.1540 Y-18.1051 Z1.7701
G1 X5.1069 Y-18.1085 Z1.7600
G1 X5.0836 Y-18.1101 Z1.7596 F150.
G1 X5.0602 Y-18.1118 Z1.7585
G1 X5.0310 Y-18.1138 Z1.7559
G1 X4.8264 Y-18.1283 Z1.7363
G1 X4.6861 Y-18.1382 Z1.7235
G1 X4.6335 Y-18.1419 Z1.7190
G1 X4.5751 Y-18.1461 Z1.7126
G1 X4.5692 Y-18.1465 Z1.7123
G1 X4.5458 Y-18.1481 Z1.7099
G1 X4.5283 Y-18.1494 Z1.7072
G1 X4.4991 Y-18.1514 Z1.7018
G1 X4.4757 Y-18.1531 Z1.6965
G1 X4.4523 Y-18.1548 Z1.6897
G1 X4.4348 Y-18.1560 Z1.6836
G1 X4.4056 Y-18.1581 Z1.6725
G1 X4.3822 Y-18.1597 Z1.6623
G1 X4.3588 Y-18.1614 Z1.6503
G1 X4.3438 Y-18.1624 Z1.6416
G1 X4.3214 Y-18.1640 Z1.6280
G1 X4.3139 Y-18.1645 Z1.6233
G1 X4.2989 Y-18.1656 Z1.6131
G1 X4.2840 Y-18.1667 Z1.6019
G1 X4.2690 Y-18.1677 Z1.5895
G1 X4.2391 Y-18.1698 Z1.5626
G1 X4.2241 Y-18.1709 Z1.5479
G1 X4.2092 Y-18.1720 Z1.5313
G1 X4.2017 Y-18.1725 Z1.5223
G1 X4.1904 Y-18.1733 Z1.5076
G1 X4.1717 Y-18.1746 Z1.4822
G1 X4.1643 Y-18.1751 Z1.4712
G1 X4.1568 Y-18.1757 Z1.4593
G1 X4.1493 Y-18.1762 Z1.4464
G1 X4.1399 Y-18.1768 Z1.4285
G1 X4.1268 Y-18.1778 Z1.4014
G1 X4.1188 Y-18.1783 Z1.3834
G1 X4.0605 Y-18.1825 Z1.3888
G1 X4.0605 Y-18.1825 Z1.4138
G0 Z2.0100
G0 X4.0605 Y-18.1825 
G0 Z2.0100
G0 X5.2647 Y-18.1311 
G1 X5.2647 Y-18.1311 Z1.9100 F75.
G1 X5.2647 Y-18.1311 Z1.8850 F25.
G1 X5.2554 Y-18.1318 Z1.8376
G1 X5.2289 Y-18.1338 Z1.7973
G1 X5.1891 Y-18.1369 Z1.7701
G1 X5.1421 Y-18.1406 Z1.7600
G1 X5.1187 Y-18.1424 Z1.7596 F150.
G1 X5.0954 Y-18.1442 Z1.7584
G1 X5.0720 Y-18.1460 Z1.7565
G1 X5.0019 Y-18.1515 Z1.7495
G1 X4.6747 Y-18.1770 Z1.7181
G1 X4.5681 Y-18.1853 Z1.7065
G1 X4.5579 Y-18.1860 Z1.7057
G1 X4.5345 Y-18.1879 Z1.7031
G1 X4.5170 Y-18.1892 Z1.7002
G1 X4.4878 Y-18.1915 Z1.6946
G1 X4.4644 Y-18.1933 Z1.6890
G1 X4.4411 Y-18.1951 Z1.6819
G1 X4.4294 Y-18.1960 Z1.6777
G1 X4.4002 Y-18.1983 Z1.6666
G1 X4.3943 Y-18.1988 Z1.6642
G1 X4.3769 Y-18.2001 Z1.6565
G1 X4.3595 Y-18.2015 Z1.6478
G1 X4.3420 Y-18.2028 Z1.6381
G1 X4.3159 Y-18.2049 Z1.6220
G1 X4.3072 Y-18.2056 Z1.6164
G1 X4.2897 Y-18.2069 Z1.6042
G1 X4.2723 Y-18.2083 Z1.5905
G1 X4.2592 Y-18.2093 Z1.5792
G1 X4.2374 Y-18.2110 Z1.5592
G1 X4.2287 Y-18.2117 Z1.5509
G1 X4.2200 Y-18.2123 Z1.5420
G1 X4.2113 Y-18.2130 Z1.5327
G1 X4.2026 Y-18.2137 Z1.5226
G1 X4.1939 Y-18.2144 Z1.5119
G1 X4.1764 Y-18.2157 Z1.4887
G1 X4.1677 Y-18.2164 Z1.4768
G1 X4.1590 Y-18.2171 Z1.4641
G1 X4.1503 Y-18.2178 Z1.4502
G1 X4.1416 Y-18.2184 Z1.4349
G1 X4.1339 Y-18.2190 Z1.4201
G1 X4.1198 Y-18.2201 Z1.3907
G1 X4.1148 Y-18.2205 Z1.3796
G1 X4.0551 Y-18.2252 Z1.3852
G1 X4.0551 Y-18.2252 Z1.4102
G0 Z2.0100
G0 X4.0551 Y-18.2252 
G0 Z2.0100
G0 X5.2992 Y-18.1619 
G1 X5.2992 Y-18.1619 Z1.9099 F75.
G1 X5.2992 Y-18.1619 Z1.8849 F25.
G1 X5.2900 Y-18.1627 Z1.8376
G1 X5.2635 Y-18.1649 Z1.7973
G1 X5.2238 Y-18.1683 Z1.7701
G1 X5.1768 Y-18.1723 Z1.7600
G1 X5.1534 Y-18.1743 Z1.7596 F150.
G1 X5.1301 Y-18.1763 Z1.7584
G1 X5.1067 Y-18.1782 Z1.7564
G1 X5.0366 Y-18.1842 Z1.7490
G1 X4.8819 Y-18.1973 Z1.7336
G1 X4.8557 Y-18.1996 Z1.7306
G1 X4.7097 Y-18.2120 Z1.7166
G1 X4.6630 Y-18.2159 Z1.7112
G1 X4.5608 Y-18.2246 Z1.7003
G1 X4.5462 Y-18.2258 Z1.6991
G1 X4.5229 Y-18.2278 Z1.6961
G1 X4.5112 Y-18.2288 Z1.6941
G1 X4.4878 Y-18.2308 Z1.6896
G1 X4.4762 Y-18.2318 Z1.6872
G1 X4.4528 Y-18.2338 Z1.6811
G1 X4.4295 Y-18.2358 Z1.6734
G1 X4.3897 Y-18.2391 Z1.6579
G1 X4.3698 Y-18.2408 Z1.6489
G1 X4.3499 Y-18.2425 Z1.6386
G1 X4.3350 Y-18.2438 Z1.6299
G1 X4.3052 Y-18.2463 Z1.6112
G1 X4.2903 Y-18.2476 Z1.6011
G1 X4.2704 Y-18.2493 Z1.5860
G1 X4.2604 Y-18.2501 Z1.5776
G1 X4.2505 Y-18.2510 Z1.5687
G1 X4.2306 Y-18.2526 Z1.5504
G1 X4.2206 Y-18.2535 Z1.5408
G1 X4.2107 Y-18.2543 Z1.5305
G1 X4.2008 Y-18.2552 Z1.5195
G1 X4.1908 Y-18.2560 Z1.5075
G1 X4.1809 Y-18.2569 Z1.4946
G1 X4.1610 Y-18.2586 Z1.4676
G1 X4.1510 Y-18.2594 Z1.4528
G1 X4.1411 Y-18.2602 Z1.4365
G1 X4.1361 Y-18.2607 Z1.4276
G1 X4.1287 Y-18.2613 Z1.4132
G1 X4.1162 Y-18.2624 Z1.3875
G1 X4.1105 Y-18.2628 Z1.3752
G1 X4.0695 Y-18.2663 Z1.3797
G1 X4.0497 Y-18.2680 Z1.3816
G1 X4.0497 Y-18.2680 Z1.4066
G0 Z2.0100
G0 X4.0497 Y-18.2680 
G0 Z2.0100
G0 X5.3333 Y-18.1923 
G1 X5.3333 Y-18.1923 Z1.9099 F75.
G1 X5.3333 Y-18.1923 Z1.8849 F25.
G1 X5.3241 Y-18.1932 Z1.8376
G1 X5.2976 Y-18.1956 Z1.7973
G1 X5.2580 Y-18.1993 Z1.7701
G1 X5.2110 Y-18.2036 Z1.7600
G1 X5.1877 Y-18.2057 Z1.7596 F150.
G1 X5.1643 Y-18.2079 Z1.7583
G1 X5.1352 Y-18.2106 Z1.7557
G1 X5.0476 Y-18.2186 Z1.7459
G1 X4.9134 Y-18.2310 Z1.7325
G1 X4.8551 Y-18.2363 Z1.7258
G1 X4.7355 Y-18.2474 Z1.7141
G1 X4.6509 Y-18.2551 Z1.7043
G1 X4.5517 Y-18.2643 Z1.6935
G1 X4.5342 Y-18.2659 Z1.6918
G1 X4.5108 Y-18.2680 Z1.6882
G1 X4.4758 Y-18.2712 Z1.6812
G1 X4.4642 Y-18.2723 Z1.6785
G1 X4.4419 Y-18.2744 Z1.6722
G1 X4.4168 Y-18.2767 Z1.6635
G1 X4.3861 Y-18.2795 Z1.6513
G1 X4.3750 Y-18.2805 Z1.6465
G1 X4.3527 Y-18.2826 Z1.6357
G1 X4.3304 Y-18.2846 Z1.6230
G1 X4.2970 Y-18.2877 Z1.6020
G1 X4.2858 Y-18.2887 Z1.5944
G1 X4.2747 Y-18.2898 Z1.5862
G1 X4.2635 Y-18.2908 Z1.5774
G1 X4.2524 Y-18.2918 Z1.5680
G1 X4.2259 Y-18.2942 Z1.5437
G1 X4.2190 Y-18.2949 Z1.5371
G1 X4.2078 Y-18.2959 Z1.5258
G1 X4.1967 Y-18.2969 Z1.5136
G1 X4.1855 Y-18.2980 Z1.5003
G1 X4.1744 Y-18.2990 Z1.4858
G1 X4.1577 Y-18.3005 Z1.4632
G1 X4.1521 Y-18.3010 Z1.4552
G1 X4.1409 Y-18.3021 Z1.4380
G1 X4.1354 Y-18.3026 Z1.4286
G1 X4.1298 Y-18.3031 Z1.4186
G1 X4.1242 Y-18.3036 Z1.4077
G1 X4.1068 Y-18.3052 Z1.3707
G1 X4.0448 Y-18.3109 Z1.3774
G1 X4.0448 Y-18.3109 Z1.4024
G0 Z2.0100
G0 X4.0448 Y-18.3109 
G0 Z2.0100
G0 X5.3670 Y-18.2224 
G1 X5.3670 Y-18.2224 Z1.9099 F75.
G1 X5.3670 Y-18.2224 Z1.8849 F25.
G1 X5.3578 Y-18.2233 Z1.8376
G1 X5.3313 Y-18.2259 Z1.7973
G1 X5.2917 Y-18.2298 Z1.7701
G1 X5.2448 Y-18.2345 Z1.7600
G1 X5.2215 Y-18.2368 Z1.7596 F150.
G1 X5.1982 Y-18.2391 Z1.7583
G1 X5.1748 Y-18.2414 Z1.7563
G1 X5.0466 Y-18.2541 Z1.7417
G1 X4.9416 Y-18.2645 Z1.7310
G1 X4.8541 Y-18.2732 Z1.7209
G1 X4.7667 Y-18.2819 Z1.7123
G1 X4.6850 Y-18.2900 Z1.7027
G1 X4.5830 Y-18.3001 Z1.6912
G1 X4.5451 Y-18.3039 Z1.6862
G1 X4.5218 Y-18.3062 Z1.6837
G1 X4.4985 Y-18.3085 Z1.6797
G1 X4.4693 Y-18.3114 Z1.6737
G1 X4.4518 Y-18.3131 Z1.6694
G1 X4.4285 Y-18.3154 Z1.6623
G1 X4.4110 Y-18.3172 Z1.6560
G1 X4.3818 Y-18.3201 Z1.6444
G1 X4.3585 Y-18.3224 Z1.6340
G1 X4.3352 Y-18.3247 Z1.6217
G1 X4.3235 Y-18.3258 Z1.6148
G1 X4.2944 Y-18.3287 Z1.5964
G1 X4.2885 Y-18.3293 Z1.5926
G1 X4.2769 Y-18.3305 Z1.5844
G1 X4.2652 Y-18.3316 Z1.5757
G1 X4.2536 Y-18.3328 Z1.5662
G1 X4.2390 Y-18.3342 Z1.5534
G1 X4.2186 Y-18.3362 Z1.5344
G1 X4.2069 Y-18.3374 Z1.5228
G1 X4.1953 Y-18.3386 Z1.5102
G1 X4.1836 Y-18.3397 Z1.4965
G1 X4.1697 Y-18.3411 Z1.4784
G1 X4.1544 Y-18.3426 Z1.4573
G1 X4.1486 Y-18.3432 Z1.4490
G1 X4.1428 Y-18.3438 Z1.4402
G1 X4.1369 Y-18.3443 Z1.4308
G1 X4.1311 Y-18.3449 Z1.4209
G1 X4.1253 Y-18.3455 Z1.4103
G1 X4.1173 Y-18.3463 Z1.3944
G1 X4.1041 Y-18.3476 Z1.3663
G1 X4.1034 Y-18.3477 Z1.3661
G1 X4.0405 Y-18.3539 Z1.3729
G1 X4.0405 Y-18.3539 Z1.3979
G0 Z2.0100
G0 X4.0405 Y-18.3539 
G0 Z2.0100
G0 X5.4003 Y-18.2520 
G1 X5.4003 Y-18.2520 Z1.9100 F75.
G1 X5.4003 Y-18.2520 Z1.8850 F25.
G1 X5.3910 Y-18.2530 Z1.8376
G1 X5.3646 Y-18.2558 Z1.7974
G1 X5.3251 Y-18.2600 Z1.7701
G1 X5.2782 Y-18.2650 Z1.7600
G1 X5.2549 Y-18.2675 Z1.7596 F150.
G1 X5.2316 Y-18.2699 Z1.7583
G1 X5.2082 Y-18.2724 Z1.7563
G1 X5.0568 Y-18.2885 Z1.7387
G1 X4.9694 Y-18.2978 Z1.7296
G1 X4.8528 Y-18.3102 Z1.7160
G1 X4.7975 Y-18.3161 Z1.7104
G1 X4.6169 Y-18.3353 Z1.6892
G1 X4.5397 Y-18.3435 Z1.6791
G1 X4.5324 Y-18.3443 Z1.6784
G1 X4.5091 Y-18.3467 Z1.6754
G1 X4.4916 Y-18.3486 Z1.6722
G1 X4.4625 Y-18.3517 Z1.6661
G1 X4.4391 Y-18.3542 Z1.6601
G1 X4.4158 Y-18.3566 Z1.6525
G1 X4.3984 Y-18.3585 Z1.6459
G1 X4.3692 Y-18.3616 Z1.6340
G1 X4.3459 Y-18.3641 Z1.6230
G1 X4.3343 Y-18.3653 Z1.6168
G1 X4.3226 Y-18.3666 Z1.6100
G1 X4.2877 Y-18.3703 Z1.5876
G1 X4.2760 Y-18.3715 Z1.5795
G1 X4.2643 Y-18.3727 Z1.5708
G1 X4.2527 Y-18.3740 Z1.5615
G1 X4.2410 Y-18.3752 Z1.5514
G1 X4.2134 Y-18.3782 Z1.5253
G1 X4.2061 Y-18.3789 Z1.5182
G1 X4.1944 Y-18.3802 Z1.5059
G1 X4.1828 Y-18.3814 Z1.4926
G1 X4.1711 Y-18.3827 Z1.4780
G1 X4.1486 Y-18.3850 Z1.4471
G1 X4.1450 Y-18.3854 Z1.4419
G1 X4.1378 Y-18.3862 Z1.4310
G1 X4.1306 Y-18.3870 Z1.4193
G1 X4.1233 Y-18.3877 Z1.4066
G1 X4.1161 Y-18.3885 Z1.3928
G1 X4.1017 Y-18.3900 Z1.3624
G1 X4.1007 Y-18.3901 Z1.3613
G1 X4.0361 Y-18.3970 Z1.3684
G1 X4.0361 Y-18.3970 Z1.3934
G0 Z2.0100
G0 X4.0361 Y-18.3970 
G0 Z2.0100
G0 X5.4331 Y-18.2813 
G1 X5.4331 Y-18.2813 Z1.9100 F75.
G1 X5.4331 Y-18.2813 Z1.8850 F25.
G1 X5.4239 Y-18.2823 Z1.8376
G1 X5.3975 Y-18.2853 Z1.7974
G1 X5.3580 Y-18.2898 Z1.7701
G1 X5.3111 Y-18.2951 Z1.7600
G1 X5.2878 Y-18.2978 Z1.7596 F150.
G1 X5.2645 Y-18.3004 Z1.7583
G1 X5.2413 Y-18.3030 Z1.7562
G1 X5.0782 Y-18.3215 Z1.7370
G1 X4.9967 Y-18.3308 Z1.7281
G1 X4.8512 Y-18.3473 Z1.7110
G1 X4.8221 Y-18.3506 Z1.7079
G1 X4.6474 Y-18.3704 Z1.6869
G1 X4.5339 Y-18.3833 Z1.6718
G1 X4.5193 Y-18.3849 Z1.6704
G1 X4.4960 Y-18.3876 Z1.6669
G1 X4.4844 Y-18.3889 Z1.6646
G1 X4.4611 Y-18.3915 Z1.6596
G1 X4.4495 Y-18.3929 Z1.6568
G1 X4.4262 Y-18.3955 Z1.6501
G1 X4.4029 Y-18.3981 Z1.6419
G1 X4.3680 Y-18.4021 Z1.6275
G1 X4.3563 Y-18.4034 Z1.6222
G1 X4.3330 Y-18.4061 Z1.6104
G1 X4.3214 Y-18.4074 Z1.6037
G1 X4.3097 Y-18.4087 Z1.5965
G1 X4.2806 Y-18.4120 Z1.5775
G1 X4.2748 Y-18.4127 Z1.5735
G1 X4.2632 Y-18.4140 Z1.5650
G1 X4.2515 Y-18.4153 Z1.5558
G1 X4.2399 Y-18.4166 Z1.5460
G1 X4.2282 Y-18.4180 Z1.5353
G1 X4.2049 Y-18.4206 Z1.5131
G1 X4.1933 Y-18.4219 Z1.5011
G1 X4.1814 Y-18.4233 Z1.4878
G1 X4.1695 Y-18.4246 Z1.4733
G1 X4.1605 Y-18.4256 Z1.4614
G1 X4.1457 Y-18.4273 Z1.4408
G1 X4.1337 Y-18.4287 Z1.4233
G1 X4.1278 Y-18.4293 Z1.4138
G1 X4.1218 Y-18.4300 Z1.4037
G1 X4.1159 Y-18.4307 Z1.3928
G1 X4.1084 Y-18.4315 Z1.3780
G1 X4.0980 Y-18.4327 Z1.3559
G1 X4.0974 Y-18.4328 Z1.3554
G1 X4.0646 Y-18.4365 Z1.3600
G1 X4.0318 Y-18.4402 Z1.3639
G1 X4.0318 Y-18.4402 Z1.3889
G0 Z2.0100
G0 X4.0318 Y-18.4402 
G0 Z2.0100
G0 X5.4655 Y-18.3102 
G1 X5.4655 Y-18.3102 Z1.9100 F75.
G1 X5.4655 Y-18.3102 Z1.8850 F25.
G1 X5.4563 Y-18.3113 Z1.8377
G1 X5.4300 Y-18.3145 Z1.7974
G1 X5.3905 Y-18.3192 Z1.7701
G1 X5.3437 Y-18.3249 Z1.7600
G1 X5.3204 Y-18.3277 Z1.7596 F150.
G1 X5.2971 Y-18.3305 Z1.7583
G1 X5.2739 Y-18.3333 Z1.7562
G1 X4.9714 Y-18.3698 Z1.7204
G1 X4.6921 Y-18.4034 Z1.6864
G1 X4.6689 Y-18.4062 Z1.6833
G1 X4.6223 Y-18.4119 Z1.6766
G1 X4.5307 Y-18.4229 Z1.6643
G1 X4.5060 Y-18.4259 Z1.6614
G1 X4.4798 Y-18.4290 Z1.6566
G1 X4.4507 Y-18.4326 Z1.6501
G1 X4.4362 Y-18.4343 Z1.6463
G1 X4.4129 Y-18.4371 Z1.6390
G1 X4.3955 Y-18.4392 Z1.6325
G1 X4.3635 Y-18.4431 Z1.6192
G1 X4.3547 Y-18.4441 Z1.6153
G1 X4.3431 Y-18.4455 Z1.6097
G1 X4.3198 Y-18.4483 Z1.5971
G1 X4.3038 Y-18.4503 Z1.5873
G1 X4.2733 Y-18.4539 Z1.5672
G1 X4.2617 Y-18.4554 Z1.5589
G1 X4.2500 Y-18.4568 Z1.5499
G1 X4.2384 Y-18.4582 Z1.5402
G1 X4.2247 Y-18.4598 Z1.5279
G1 X4.2022 Y-18.4625 Z1.5064
G1 X4.1940 Y-18.4635 Z1.4982
G1 X4.1858 Y-18.4645 Z1.4895
G1 X4.1776 Y-18.4655 Z1.4803
G1 X4.1695 Y-18.4665 Z1.4705
G1 X4.1613 Y-18.4675 Z1.4601
G1 X4.1449 Y-18.4694 Z1.4375
G1 X4.1367 Y-18.4704 Z1.4259
G1 X4.1285 Y-18.4714 Z1.4134
G1 X4.1203 Y-18.4724 Z1.3998
G1 X4.1121 Y-18.4734 Z1.3849
G1 X4.1040 Y-18.4744 Z1.3683
G1 X4.0958 Y-18.4754 Z1.3506
G1 X4.0950 Y-18.4755 Z1.3493
G1 X4.0283 Y-18.4835 Z1.3585
G1 X4.0283 Y-18.4835 Z1.3835
G0 Z2.0100
G0 X4.0283 Y-18.4835 
G0 Z2.0100
G0 X5.4976 Y-18.3387 
G1 X5.4976 Y-18.3387 Z1.9100 F75.
G1 X5.4976 Y-18.3387 Z1.8850 F25.
G1 X5.4883 Y-18.3399 Z1.8377
G1 X5.4620 Y-18.3432 Z1.7974
G1 X5.4226 Y-18.3483 Z1.7702
G1 X5.3758 Y-18.3543 Z1.7600
G1 X5.3526 Y-18.3572 Z1.7596 F150.
G1 X5.3293 Y-18.3602 Z1.7583
G1 X5.3061 Y-18.3632 Z1.7561
G1 X5.0504 Y-18.3958 Z1.7251
G1 X5.0271 Y-18.3988 Z1.7221
G1 X4.8789 Y-18.4178 Z1.7039
G1 X4.8411 Y-18.4226 Z1.6987
G1 X4.7074 Y-18.4397 Z1.6820
G1 X4.5738 Y-18.4567 Z1.6627
G1 X4.5258 Y-18.4629 Z1.6562
G1 X4.5156 Y-18.4642 Z1.6552
G1 X4.4924 Y-18.4671 Z1.6519
G1 X4.4750 Y-18.4694 Z1.6485
G1 X4.4459 Y-18.4731 Z1.6418
G1 X4.4226 Y-18.4760 Z1.6355
G1 X4.3994 Y-18.4790 Z1.6276
G1 X4.3878 Y-18.4805 Z1.6230
G1 X4.3529 Y-18.4850 Z1.6082
G1 X4.3297 Y-18.4879 Z1.5968
G1 X4.3180 Y-18.4894 Z1.5904
G1 X4.3064 Y-18.4909 Z1.5834
G1 X4.2715 Y-18.4954 Z1.5607
G1 X4.2599 Y-18.4968 Z1.5525
G1 X4.2495 Y-18.4982 Z1.5447
G1 X4.2392 Y-18.4995 Z1.5363
G1 X4.2288 Y-18.5008 Z1.5272
G1 X4.2184 Y-18.5021 Z1.5175
G1 X4.1976 Y-18.5048 Z1.4973
G1 X4.1873 Y-18.5061 Z1.4866
G1 X4.1769 Y-18.5074 Z1.4751
G1 X4.1665 Y-18.5088 Z1.4626
G1 X4.1535 Y-18.5104 Z1.4456
G1 X4.1354 Y-18.5127 Z1.4199
G1 X4.1250 Y-18.5141 Z1.4042
G1 X4.1146 Y-18.5154 Z1.3867
G1 X4.1094 Y-18.5161 Z1.3772
G1 X4.1016 Y-18.5171 Z1.3616
G1 X4.0929 Y-18.5182 Z1.3431
G1 X4.0251 Y-18.5268 Z1.3524
G1 X4.0251 Y-18.5268 Z1.3774
G0 Z2.0100
G0 X4.0251 Y-18.5268 
G0 Z2.0100
G0 X5.5292 Y-18.3669 
G1 X5.5292 Y-18.3669 Z1.9100 F75.
G1 X5.5292 Y-18.3669 Z1.8850 F25.
G1 X5.5200 Y-18.3681 Z1.8377
G1 X5.4937 Y-18.3717 Z1.7974
G1 X5.4543 Y-18.3770 Z1.7702
G1 X5.4076 Y-18.3833 Z1.7600
G1 X5.3844 Y-18.3864 Z1.7596 F150.
G1 X5.3612 Y-18.3896 Z1.7583
G1 X5.3379 Y-18.3927 Z1.7561
G1 X5.2218 Y-18.4084 Z1.7415
G1 X5.0766 Y-18.4280 Z1.7235
G1 X5.0360 Y-18.4335 Z1.7180
G1 X4.9082 Y-18.4507 Z1.7021
G1 X4.8444 Y-18.4593 Z1.6931
G1 X4.7398 Y-18.4734 Z1.6800
G1 X4.5250 Y-18.5024 Z1.6485
G1 X4.5018 Y-18.5056 Z1.6459
G1 X4.4785 Y-18.5087 Z1.6420
G1 X4.4611 Y-18.5110 Z1.6382
G1 X4.4321 Y-18.5150 Z1.6312
G1 X4.4089 Y-18.5181 Z1.6243
G1 X4.3827 Y-18.5216 Z1.6146
G1 X4.3624 Y-18.5244 Z1.6059
G1 X4.3392 Y-18.5275 Z1.5954
G1 X4.3159 Y-18.5306 Z1.5830
G1 X4.3043 Y-18.5322 Z1.5761
G1 X4.2927 Y-18.5338 Z1.5686
G1 X4.2675 Y-18.5372 Z1.5516
G1 X4.2549 Y-18.5389 Z1.5426
G1 X4.2423 Y-18.5406 Z1.5327
G1 X4.2297 Y-18.5423 Z1.5221
G1 X4.2140 Y-18.5444 Z1.5074
G1 X4.1919 Y-18.5474 Z1.4858
G1 X4.1793 Y-18.5491 Z1.4725
G1 X4.1667 Y-18.5508 Z1.4580
G1 X4.1541 Y-18.5525 Z1.4419
G1 X4.1289 Y-18.5559 Z1.4063
G1 X4.1226 Y-18.5567 Z1.3967
G1 X4.1163 Y-18.5576 Z1.3865
G1 X4.1100 Y-18.5584 Z1.3755
G1 X4.1037 Y-18.5593 Z1.3637
G1 X4.0974 Y-18.5601 Z1.3508
G1 X4.0906 Y-18.5610 Z1.3362
G1 X4.0734 Y-18.5634 Z1.3390
G1 X4.0476 Y-18.5668 Z1.3427
G1 X4.0218 Y-18.5703 Z1.3462
G1 X4.0218 Y-18.5703 Z1.3712
G0 Z2.0100
G0 X4.0218 Y-18.5703 
G0 Z2.0100
G0 X5.5605 Y-18.3948 
G1 X5.5605 Y-18.3948 Z1.9100 F75.
G1 X5.5605 Y-18.3948 Z1.8850 F25.
G1 X5.5513 Y-18.3961 Z1.8377
G1 X5.5250 Y-18.3998 Z1.7974
G1 X5.4857 Y-18.4054 Z1.7702
G1 X5.4390 Y-18.4120 Z1.7600
G1 X5.4158 Y-18.4153 Z1.7596 F150.
G1 X5.3926 Y-18.4186 Z1.7583
G1 X5.3694 Y-18.4219 Z1.7561
G1 X5.2998 Y-18.4318 Z1.7468
G1 X5.1084 Y-18.4590 Z1.7228
G1 X5.0329 Y-18.4697 Z1.7124
G1 X4.9372 Y-18.4833 Z1.7004
G1 X4.8415 Y-18.4969 Z1.6868
G1 X4.7690 Y-18.5073 Z1.6775
G1 X4.5123 Y-18.5437 Z1.6396
G1 X4.4876 Y-18.5472 Z1.6363
G1 X4.4615 Y-18.5510 Z1.6310
G1 X4.4296 Y-18.5555 Z1.6231
G1 X4.4180 Y-18.5571 Z1.6198
G1 X4.3948 Y-18.5604 Z1.6120
G1 X4.3774 Y-18.5629 Z1.6051
G1 X4.3484 Y-18.5670 Z1.5924
G1 X4.3252 Y-18.5703 Z1.5810
G1 X4.3104 Y-18.5724 Z1.5728
G1 X4.2919 Y-18.5751 Z1.5613
G1 X4.2660 Y-18.5788 Z1.5438
G1 X4.2511 Y-18.5809 Z1.5332
G1 X4.2363 Y-18.5830 Z1.5215
G1 X4.2215 Y-18.5851 Z1.5087
G1 X4.2104 Y-18.5867 Z1.4982
G1 X4.1919 Y-18.5893 Z1.4801
G1 X4.1771 Y-18.5914 Z1.4647
G1 X4.1623 Y-18.5935 Z1.4476
G1 X4.1549 Y-18.5945 Z1.4383
G1 X4.1438 Y-18.5961 Z1.4232
G1 X4.1252 Y-18.5988 Z1.3968
G1 X4.1178 Y-18.5998 Z1.3855
G1 X4.1104 Y-18.6009 Z1.3732
G1 X4.1030 Y-18.6019 Z1.3599
G1 X4.0938 Y-18.6032 Z1.3413
G1 X4.0882 Y-18.6040 Z1.3293
G1 X4.0876 Y-18.6041 Z1.3289
G1 X4.0188 Y-18.6139 Z1.3399
G1 X4.0188 Y-18.6139 Z1.3649
G0 Z2.0100
G0 X4.0188 Y-18.6139 
G0 Z2.0100
G0 X5.5914 Y-18.4223 
G1 X5.5914 Y-18.4223 Z1.9100 F75.
G1 X5.5914 Y-18.4223 Z1.8850 F25.
G1 X5.5822 Y-18.4236 Z1.8377
G1 X5.5560 Y-18.4276 Z1.7974
G1 X5.5167 Y-18.4334 Z1.7702
G1 X5.4701 Y-18.4404 Z1.7600
G1 X5.4469 Y-18.4439 Z1.7596 F150.
G1 X5.4237 Y-18.4473 Z1.7582
G1 X5.4005 Y-18.4508 Z1.7560
G1 X5.2846 Y-18.4681 Z1.7403
G1 X5.1339 Y-18.4906 Z1.7212
G1 X5.0354 Y-18.5053 Z1.7074
G1 X4.9833 Y-18.5131 Z1.7009
G1 X4.9601 Y-18.5166 Z1.6978
G1 X4.8442 Y-18.5339 Z1.6811
G1 X4.7978 Y-18.5408 Z1.6751
G1 X4.6356 Y-18.5650 Z1.6508
G1 X4.5428 Y-18.5789 Z1.6364
G1 X4.5066 Y-18.5843 Z1.6306
G1 X4.4965 Y-18.5858 Z1.6294
G1 X4.4733 Y-18.5893 Z1.6255
G1 X4.4559 Y-18.5919 Z1.6217
G1 X4.4269 Y-18.5962 Z1.6144
G1 X4.4038 Y-18.5996 Z1.6074
G1 X4.3806 Y-18.6031 Z1.5989
G1 X4.3690 Y-18.6048 Z1.5940
G1 X4.3405 Y-18.6091 Z1.5813
G1 X4.3236 Y-18.6116 Z1.5729
G1 X4.3067 Y-18.6141 Z1.5636
G1 X4.2898 Y-18.6167 Z1.5531
G1 X4.2561 Y-18.6217 Z1.5302
G1 X4.2392 Y-18.6242 Z1.5175
G1 X4.2223 Y-18.6267 Z1.5034
G1 X4.2096 Y-18.6286 Z1.4917
G1 X4.1885 Y-18.6318 Z1.4710
G1 X4.1801 Y-18.6331 Z1.4624
G1 X4.1716 Y-18.6343 Z1.4533
G1 X4.1632 Y-18.6356 Z1.4437
G1 X4.1547 Y-18.6368 Z1.4333
G1 X4.1463 Y-18.6381 Z1.4221
G1 X4.1252 Y-18.6413 Z1.3917
G1 X4.1210 Y-18.6419 Z1.3854
G1 X4.1125 Y-18.6431 Z1.3720
G1 X4.1041 Y-18.6444 Z1.3573
G1 X4.0956 Y-18.6457 Z1.3410
G1 X4.0865 Y-18.6470 Z1.3213
G1 X4.0167 Y-18.6575 Z1.3324
G1 X4.0167 Y-18.6575 Z1.3574
G0 Z2.0100
G0 X4.0167 Y-18.6575 
G0 Z2.0100
G0 X5.6219 Y-18.4495 
G1 X5.6219 Y-18.4495 Z1.9100 F75.
G1 X5.6219 Y-18.4495 Z1.8850 F25.
G1 X5.6127 Y-18.4509 Z1.8377
G1 X5.5865 Y-18.4550 Z1.7974
G1 X5.5473 Y-18.4612 Z1.7702
G1 X5.5007 Y-18.4684 Z1.7600
G1 X5.4776 Y-18.4721 Z1.7596 F150.
G1 X5.4544 Y-18.4757 Z1.7582
G1 X5.4313 Y-18.4793 Z1.7560
G1 X5.2576 Y-18.5065 Z1.7323
G1 X5.1592 Y-18.5219 Z1.7197
G1 X5.0318 Y-18.5419 Z1.7017
G1 X4.9942 Y-18.5478 Z1.6969
G1 X4.8177 Y-18.5754 Z1.6713
G1 X4.6556 Y-18.6008 Z1.6466
G1 X4.5036 Y-18.6246 Z1.6218
G1 X4.4935 Y-18.6262 Z1.6206
G1 X4.4819 Y-18.6280 Z1.6189
G1 X4.4588 Y-18.6316 Z1.6143
G1 X4.4269 Y-18.6366 Z1.6063
G1 X4.4124 Y-18.6388 Z1.6023
G1 X4.3893 Y-18.6425 Z1.5946
G1 X4.3703 Y-18.6454 Z1.5871
G1 X4.3418 Y-18.6499 Z1.5744
G1 X4.3323 Y-18.6514 Z1.5699
G1 X4.3133 Y-18.6544 Z1.5602
G1 X4.2943 Y-18.6573 Z1.5491
G1 X4.2801 Y-18.6596 Z1.5398
G1 X4.2563 Y-18.6633 Z1.5236
G1 X4.2373 Y-18.6663 Z1.5093
G1 X4.2183 Y-18.6692 Z1.4932
G1 X4.2088 Y-18.6707 Z1.4843
G1 X4.1803 Y-18.6752 Z1.4558
G1 X4.1708 Y-18.6767 Z1.4456
G1 X4.1614 Y-18.6782 Z1.4346
G1 X4.1519 Y-18.6796 Z1.4228
G1 X4.1400 Y-18.6815 Z1.4068
G1 X4.1234 Y-18.6841 Z1.3827
G1 X4.1139 Y-18.6856 Z1.3682
G1 X4.1044 Y-18.6871 Z1.3522
G1 X4.0996 Y-18.6878 Z1.3436
G1 X4.0949 Y-18.6886 Z1.3344
G1 X4.0854 Y-18.6901 Z1.3142
G1 X4.0846 Y-18.6902 Z1.3136
G1 X4.0145 Y-18.7012 Z1.3249
G1 X4.0145 Y-18.7012 Z1.3499
G0 Z2.0100
G0 X4.0145 Y-18.7012 
G0 Z2.0100
G0 X5.6521 Y-18.4764 
G1 X5.6521 Y-18.4764 Z1.9100 F75.
G1 X5.6521 Y-18.4764 Z1.8850 F25.
G1 X5.6429 Y-18.4779 Z1.8377
G1 X5.6168 Y-18.4821 Z1.7974
G1 X5.5776 Y-18.4886 Z1.7702
G1 X5.5311 Y-18.4962 Z1.7600
G1 X5.5080 Y-18.5000 Z1.7596 F150.
G1 X5.4848 Y-18.5038 Z1.7582
G1 X5.4617 Y-18.5075 Z1.7559
G1 X5.2420 Y-18.5435 Z1.7256
G1 X5.1899 Y-18.5521 Z1.7189
G1 X5.0222 Y-18.5795 Z1.6951
G1 X4.8517 Y-18.6075 Z1.6698
G1 X4.8372 Y-18.6099 Z1.6674
G1 X4.6854 Y-18.6347 Z1.6440
G1 X4.6522 Y-18.6402 Z1.6382
G1 X4.5004 Y-18.6650 Z1.6130
G1 X4.4903 Y-18.6667 Z1.6118
G1 X4.4671 Y-18.6705 Z1.6079
G1 X4.4498 Y-18.6733 Z1.6041
G1 X4.4209 Y-18.6781 Z1.5967
G1 X4.3998 Y-18.6815 Z1.5904
G1 X4.3787 Y-18.6850 Z1.5829
G1 X4.3576 Y-18.6884 Z1.5738
G1 X4.3312 Y-18.6927 Z1.5616
G1 X4.3154 Y-18.6953 Z1.5535
G1 X4.2943 Y-18.6988 Z1.5413
G1 X4.2785 Y-18.7014 Z1.5310
G1 X4.2521 Y-18.7057 Z1.5125
G1 X4.2416 Y-18.7074 Z1.5047
G1 X4.2310 Y-18.7092 Z1.4964
G1 X4.2205 Y-18.7109 Z1.4874
G1 X4.2099 Y-18.7126 Z1.4778
G1 X4.1994 Y-18.7143 Z1.4676
G1 X4.1783 Y-18.7178 Z1.4463
G1 X4.1677 Y-18.7195 Z1.4349
G1 X4.1572 Y-18.7213 Z1.4226
G1 X4.1466 Y-18.7230 Z1.4093
G1 X4.1361 Y-18.7247 Z1.3948
G1 X4.1203 Y-18.7273 Z1.3718
G1 X4.1150 Y-18.7282 Z1.3639
G1 X4.1044 Y-18.7299 Z1.3467
G1 X4.0992 Y-18.7308 Z1.3373
G1 X4.0939 Y-18.7316 Z1.3273
G1 X4.0860 Y-18.7329 Z1.3110
G1 X4.0833 Y-18.7333 Z1.3052
G1 X4.0826 Y-18.7335 Z1.3052
G1 X4.0220 Y-18.7434 Z1.3158
G1 X4.0124 Y-18.7450 Z1.3173
G1 X4.0124 Y-18.7450 Z1.3423
G0 Z2.0100
G0 X4.0124 Y-18.7450 
G0 Z2.0100
G0 X5.6819 Y-18.5029 
G1 X5.6819 Y-18.5029 Z1.9100 F75.
G1 X5.6819 Y-18.5029 Z1.8850 F25.
G1 X5.6728 Y-18.5045 Z1.8377
G1 X5.6467 Y-18.5090 Z1.7975
G1 X5.6075 Y-18.5157 Z1.7702
G1 X5.5611 Y-18.5236 Z1.7600
G1 X5.5380 Y-18.5276 Z1.7596 F150.
G1 X5.5149 Y-18.5315 Z1.7582
G1 X5.4918 Y-18.5355 Z1.7559
G1 X5.1915 Y-18.5868 Z1.7140
G1 X5.0066 Y-18.6185 Z1.6867
G1 X4.8796 Y-18.6402 Z1.6676
G1 X4.8334 Y-18.6481 Z1.6598
G1 X4.7150 Y-18.6684 Z1.6414
G1 X4.6370 Y-18.6817 Z1.6278
G1 X4.4897 Y-18.7069 Z1.6031
G1 X4.4753 Y-18.7094 Z1.6009
G1 X4.4522 Y-18.7133 Z1.5962
G1 X4.4291 Y-18.7173 Z1.5902
G1 X4.4118 Y-18.7202 Z1.5855
G1 X4.4060 Y-18.7212 Z1.5837
G1 X4.3829 Y-18.7252 Z1.5759
G1 X4.3569 Y-18.7296 Z1.5650
G1 X4.3251 Y-18.7351 Z1.5501
G1 X4.3136 Y-18.7370 Z1.5441
G1 X4.3020 Y-18.7390 Z1.5377
G1 X4.2905 Y-18.7410 Z1.5307
G1 X4.2746 Y-18.7437 Z1.5202
G1 X4.2501 Y-18.7479 Z1.5030
G1 X4.2443 Y-18.7489 Z1.4988
G1 X4.2327 Y-18.7509 Z1.4899
G1 X4.2212 Y-18.7528 Z1.4803
G1 X4.2096 Y-18.7548 Z1.4700
G1 X4.1981 Y-18.7568 Z1.4589
G1 X4.1750 Y-18.7607 Z1.4355
G1 X4.1634 Y-18.7627 Z1.4229
G1 X4.1519 Y-18.7647 Z1.4092
G1 X4.1403 Y-18.7667 Z1.3942
G1 X4.1288 Y-18.7686 Z1.3778
G1 X4.1172 Y-18.7706 Z1.3610
G1 X4.1115 Y-18.7716 Z1.3522
G1 X4.1057 Y-18.7726 Z1.3429
G1 X4.0999 Y-18.7736 Z1.3329
G1 X4.0941 Y-18.7746 Z1.3222
G1 X4.0883 Y-18.7756 Z1.3106
G1 X4.0820 Y-18.7766 Z1.2968
G1 X4.0815 Y-18.7767 Z1.2966
G1 X4.0110 Y-18.7888 Z1.3089
G1 X4.0110 Y-18.7888 Z1.3339
G0 Z2.0100
G0 X4.0110 Y-18.7888 
G0 Z2.0100
G0 X5.7114 Y-18.5292 
G1 X5.7114 Y-18.5292 Z1.9100 F75.
G1 X5.7114 Y-18.5292 Z1.8850 F25.
G1 X5.7023 Y-18.5309 Z1.8377
G1 X5.6762 Y-18.5355 Z1.7975
G1 X5.6371 Y-18.5425 Z1.7702
G1 X5.5908 Y-18.5507 Z1.7600
G1 X5.5677 Y-18.5549 Z1.7595 F150.
G1 X5.5446 Y-18.5590 Z1.7582
G1 X5.5216 Y-18.5631 Z1.7558
G1 X5.3600 Y-18.5919 Z1.7332
G1 X5.2360 Y-18.6140 Z1.7153
G1 X5.1985 Y-18.6207 Z1.7096
G1 X5.0716 Y-18.6433 Z1.6908
G1 X5.0255 Y-18.6516 Z1.6833
G1 X4.9101 Y-18.6721 Z1.6658
G1 X4.8351 Y-18.6855 Z1.6531
G1 X4.7457 Y-18.7015 Z1.6390
G1 X4.6448 Y-18.7195 Z1.6212
G1 X4.5395 Y-18.7382 Z1.6033
G1 X4.4876 Y-18.7475 Z1.5937
G1 X4.4832 Y-18.7483 Z1.5931
G1 X4.4602 Y-18.7524 Z1.5890
G1 X4.4429 Y-18.7555 Z1.5850
G1 X4.4140 Y-18.7606 Z1.5772
G1 X4.3910 Y-18.7647 Z1.5700
G1 X4.3679 Y-18.7688 Z1.5612
G1 X4.3506 Y-18.7719 Z1.5536
G1 X4.3217 Y-18.7771 Z1.5399
G1 X4.2987 Y-18.7812 Z1.5274
G1 X4.2871 Y-18.7832 Z1.5204
G1 X4.2713 Y-18.7861 Z1.5098
G1 X4.2467 Y-18.7904 Z1.4925
G1 X4.2410 Y-18.7915 Z1.4883
G1 X4.2294 Y-18.7935 Z1.4794
G1 X4.2179 Y-18.7956 Z1.4697
G1 X4.2064 Y-18.7976 Z1.4594
G1 X4.1948 Y-18.7997 Z1.4482
G1 X4.1718 Y-18.8038 Z1.4245
G1 X4.1602 Y-18.8059 Z1.4116
G1 X4.1487 Y-18.8079 Z1.3976
G1 X4.1371 Y-18.8100 Z1.3822
G1 X4.1170 Y-18.8136 Z1.3525
G1 X4.1060 Y-18.8156 Z1.3352
G1 X4.0978 Y-18.8170 Z1.3211
G1 X4.0897 Y-18.8185 Z1.3056
G1 X4.0816 Y-18.8199 Z1.2882
G1 X4.0808 Y-18.8201 Z1.2878
G1 X4.0101 Y-18.8327 Z1.3001
G1 X4.0101 Y-18.8327 Z1.3251
G0 Z2.0100
G0 X4.0101 Y-18.8327 
G0 Z2.0100
G0 X5.7406 Y-18.5552 
G1 X5.7406 Y-18.5552 Z1.9100 F75.
G1 X5.7406 Y-18.5552 Z1.8850 F25.
G1 X5.7315 Y-18.5569 Z1.8377
G1 X5.7055 Y-18.5617 Z1.7975
G1 X5.6664 Y-18.5690 Z1.7702
G1 X5.6201 Y-18.5776 Z1.7600
G1 X5.5971 Y-18.5819 Z1.7595 F150.
G1 X5.5740 Y-18.5861 Z1.7581
G1 X5.5510 Y-18.5904 Z1.7558
G1 X5.5337 Y-18.5936 Z1.7534
G1 X5.4934 Y-18.6011 Z1.7473
G1 X5.3436 Y-18.6289 Z1.7259
G1 X5.2630 Y-18.6439 Z1.7141
G1 X5.2169 Y-18.6524 Z1.7067
G1 X5.1016 Y-18.6738 Z1.6896
G1 X5.0210 Y-18.6888 Z1.6764
G1 X4.9375 Y-18.7043 Z1.6636
G1 X4.8366 Y-18.7230 Z1.6463
G1 X4.7762 Y-18.7343 Z1.6367
G1 X4.6408 Y-18.7594 Z1.6126
G1 X4.5918 Y-18.7685 Z1.6041
G1 X4.4852 Y-18.7883 Z1.5842
G1 X4.4679 Y-18.7915 Z1.5815
G1 X4.4449 Y-18.7958 Z1.5766
G1 X4.4103 Y-18.8022 Z1.5673
G1 X4.3988 Y-18.8043 Z1.5638
G1 X4.3758 Y-18.8086 Z1.5557
G1 X4.3527 Y-18.8129 Z1.5460
G1 X4.3239 Y-18.8182 Z1.5324
G1 X4.3182 Y-18.8193 Z1.5295
G1 X4.3066 Y-18.8214 Z1.5235
G1 X4.2951 Y-18.8236 Z1.5169
G1 X4.2836 Y-18.8257 Z1.5098
G1 X4.2678 Y-18.8286 Z1.4990
G1 X4.2433 Y-18.8332 Z1.4814
G1 X4.2375 Y-18.8343 Z1.4770
G1 X4.2260 Y-18.8364 Z1.4679
G1 X4.2145 Y-18.8385 Z1.4580
G1 X4.2029 Y-18.8407 Z1.4473
G1 X4.1914 Y-18.8428 Z1.4358
G1 X4.1741 Y-18.8460 Z1.4180
G1 X4.1684 Y-18.8471 Z1.4118
G1 X4.1569 Y-18.8492 Z1.3988
G1 X4.1453 Y-18.8514 Z1.3845
G1 X4.1373 Y-18.8529 Z1.3738
G1 X4.1292 Y-18.8544 Z1.3622
G1 X4.1131 Y-18.8573 Z1.3383
G1 X4.1051 Y-18.8588 Z1.3255
G1 X4.0971 Y-18.8603 Z1.3116
G1 X4.0890 Y-18.8618 Z1.2963
G1 X4.0804 Y-18.8634 Z1.2784
G1 X4.0270 Y-18.8733 Z1.2882
G1 X4.0091 Y-18.8766 Z1.2913
G1 X4.0091 Y-18.8766 Z1.3163
G0 Z2.0100
G0 X4.0091 Y-18.8766 
G0 Z2.0100
G0 X5.7695 Y-18.5809 
G1 X5.7695 Y-18.5809 Z1.9100 F75.
G1 X5.7695 Y-18.5809 Z1.8850 F25.
G1 X5.7604 Y-18.5827 Z1.8377
G1 X5.7344 Y-18.5877 Z1.7975
G1 X5.6954 Y-18.5952 Z1.7702
G1 X5.6492 Y-18.6041 Z1.7600
G1 X5.6262 Y-18.6086 Z1.7595 F150.
G1 X5.6032 Y-18.6130 Z1.7581
G1 X5.5801 Y-18.6175 Z1.7557
G1 X5.5571 Y-18.6219 Z1.7524
G1 X5.4766 Y-18.6374 Z1.7401
G1 X5.2982 Y-18.6719 Z1.7142
G1 X5.2119 Y-18.6885 Z1.7005
G1 X5.1285 Y-18.7046 Z1.6879
G1 X5.0278 Y-18.7240 Z1.6712
G1 X4.9674 Y-18.7357 Z1.6618
G1 X4.8322 Y-18.7618 Z1.6386
G1 X4.8035 Y-18.7673 Z1.6338
G1 X4.6366 Y-18.7995 Z1.6037
G1 X4.4827 Y-18.8292 Z1.5747
G1 X4.4755 Y-18.8306 Z1.5737
G1 X4.4525 Y-18.8350 Z1.5694
G1 X4.4352 Y-18.8384 Z1.5652
G1 X4.4065 Y-18.8439 Z1.5571
G1 X4.3835 Y-18.8484 Z1.5496
G1 X4.3605 Y-18.8528 Z1.5404
G1 X4.3432 Y-18.8561 Z1.5324
G1 X4.3202 Y-18.8606 Z1.5213
G1 X4.3144 Y-18.8617 Z1.5183
G1 X4.3029 Y-18.8639 Z1.5121
G1 X4.2914 Y-18.8661 Z1.5053
G1 X4.2799 Y-18.8683 Z1.4980
G1 X4.2655 Y-18.8711 Z1.4881
G1 X4.2454 Y-18.8750 Z1.4736
G1 X4.2339 Y-18.8772 Z1.4649
G1 X4.2224 Y-18.8794 Z1.4556
G1 X4.2109 Y-18.8817 Z1.4456
G1 X4.1994 Y-18.8839 Z1.4348
G1 X4.1879 Y-18.8861 Z1.4231
G1 X4.1703 Y-18.8895 Z1.4049
G1 X4.1643 Y-18.8907 Z1.3984
G1 X4.1522 Y-18.8930 Z1.3844
G1 X4.1402 Y-18.8953 Z1.3690
G1 X4.1296 Y-18.8973 Z1.3542
G1 X4.1100 Y-18.9011 Z1.3250
G1 X4.1040 Y-18.9023 Z1.3154
G1 X4.0979 Y-18.9035 Z1.3051
G1 X4.0919 Y-18.9046 Z1.2940
G1 X4.0859 Y-18.9058 Z1.2822
G1 X4.0799 Y-18.9069 Z1.2692
G1 X4.0792 Y-18.9071 Z1.2690
G1 X4.0083 Y-18.9207 Z1.2820
G1 X4.0083 Y-18.9207 Z1.3070
G0 Z2.0100
G0 X4.0083 Y-18.9207 
G0 Z2.0100
G0 X5.7980 Y-18.6064 
G1 X5.7980 Y-18.6064 Z1.9100 F75.
G1 X5.7980 Y-18.6064 Z1.8850 F25.
G1 X5.7889 Y-18.6082 Z1.8377
G1 X5.7630 Y-18.6134 Z1.7975
G1 X5.7241 Y-18.6212 Z1.7702
G1 X5.6779 Y-18.6304 Z1.7600
G1 X5.6549 Y-18.6350 Z1.7595 F150.
G1 X5.6320 Y-18.6396 Z1.7581
G1 X5.6090 Y-18.6442 Z1.7557
G1 X5.5860 Y-18.6488 Z1.7524
G1 X5.4941 Y-18.6672 Z1.7381
G1 X5.3102 Y-18.7041 Z1.7108
G1 X5.2183 Y-18.7225 Z1.6959
G1 X5.1723 Y-18.7317 Z1.6889
G1 X5.1264 Y-18.7409 Z1.6814
G1 X5.0230 Y-18.7616 Z1.6642
G1 X4.9885 Y-18.7685 Z1.6586
G1 X4.8276 Y-18.8007 Z1.6305
G1 X4.6696 Y-18.8324 Z1.6016
G1 X4.6208 Y-18.8421 Z1.5920
G1 X4.4743 Y-18.8715 Z1.5640
G1 X4.4599 Y-18.8744 Z1.5614
G1 X4.4369 Y-18.8790 Z1.5561
G1 X4.4025 Y-18.8859 Z1.5463
G1 X4.3910 Y-18.8882 Z1.5426
G1 X4.3680 Y-18.8928 Z1.5341
G1 X4.3450 Y-18.8974 Z1.5238
G1 X4.3220 Y-18.9020 Z1.5126
G1 X4.2991 Y-18.9066 Z1.5004
G1 X4.2876 Y-18.9089 Z1.4935
G1 X4.2761 Y-18.9112 Z1.4861
G1 X4.2646 Y-18.9135 Z1.4781
G1 X4.2416 Y-18.9181 Z1.4615
G1 X4.2301 Y-18.9204 Z1.4527
G1 X4.2186 Y-18.9227 Z1.4432
G1 X4.2071 Y-18.9250 Z1.4330
G1 X4.1912 Y-18.9282 Z1.4176
G1 X4.1674 Y-18.9330 Z1.3928
G1 X4.1594 Y-18.9345 Z1.3840
G1 X4.1515 Y-18.9361 Z1.3746
G1 X4.1436 Y-18.9377 Z1.3647
G1 X4.1356 Y-18.9393 Z1.3541
G1 X4.1277 Y-18.9409 Z1.3427
G1 X4.1118 Y-18.9441 Z1.3186
G1 X4.1038 Y-18.9457 Z1.3059
G1 X4.0959 Y-18.9473 Z1.2920
G1 X4.0879 Y-18.9489 Z1.2767
G1 X4.0839 Y-18.9497 Z1.2685
G1 X4.0800 Y-18.9505 Z1.2597
G1 X4.0792 Y-18.9506 Z1.2593
G1 X4.0086 Y-18.9647 Z1.2722
G1 X4.0086 Y-18.9647 Z1.2972
G0 Z2.0100
G0 X4.0086 Y-18.9647 
G0 Z2.0100
G0 X5.8263 Y-18.6315 
G1 X5.8263 Y-18.6315 Z1.9100 F75.
G1 X5.8263 Y-18.6315 Z1.8850 F25.
G1 X5.8172 Y-18.6334 Z1.8377
G1 X5.7913 Y-18.6388 Z1.7975
G1 X5.7524 Y-18.6468 Z1.7702
G1 X5.7064 Y-18.6564 Z1.7600
G1 X5.6834 Y-18.6612 Z1.7595 F150.
G1 X5.6605 Y-18.6659 Z1.7581
G1 X5.6375 Y-18.6707 Z1.7556
G1 X5.6146 Y-18.6755 Z1.7523
G1 X5.4425 Y-18.7112 Z1.7254
G1 X5.3449 Y-18.7315 Z1.7110
G1 X5.2130 Y-18.7589 Z1.6895
G1 X5.1843 Y-18.7648 Z1.6851
G1 X5.0179 Y-18.7994 Z1.6569
G1 X4.8573 Y-18.8327 Z1.6283
G1 X4.8229 Y-18.8399 Z1.6217
G1 X4.6995 Y-18.8655 Z1.5989
G1 X4.6278 Y-18.8804 Z1.5847
G1 X4.5217 Y-18.9024 Z1.5642
G1 X4.4729 Y-18.9125 Z1.5540
G1 X4.4672 Y-18.9137 Z1.5531
G1 X4.4442 Y-18.9185 Z1.5483
G1 X4.4270 Y-18.9221 Z1.5438
G1 X4.3983 Y-18.9280 Z1.5353
G1 X4.3754 Y-18.9328 Z1.5274
G1 X4.3524 Y-18.9375 Z1.5178
G1 X4.3180 Y-18.9447 Z1.5011
G1 X4.3065 Y-18.9471 Z1.4951
G1 X4.2951 Y-18.9495 Z1.4886
G1 X4.2836 Y-18.9518 Z1.4816
G1 X4.2721 Y-18.9542 Z1.4740
G1 X4.2606 Y-18.9566 Z1.4659
G1 X4.2377 Y-18.9614 Z1.4492
G1 X4.2279 Y-18.9634 Z1.4415
G1 X4.2180 Y-18.9655 Z1.4333
G1 X4.2082 Y-18.9675 Z1.4246
G1 X4.1984 Y-18.9695 Z1.4152
G1 X4.1886 Y-18.9716 Z1.4052
G1 X4.1689 Y-18.9757 Z1.3844
G1 X4.1591 Y-18.9777 Z1.3735
G1 X4.1492 Y-18.9797 Z1.3616
G1 X4.1394 Y-18.9818 Z1.3488
G1 X4.1271 Y-18.9843 Z1.3313
G1 X4.1099 Y-18.9879 Z1.3052
G1 X4.1001 Y-18.9899 Z1.2889
G1 X4.0952 Y-18.9910 Z1.2801
G1 X4.0903 Y-18.9920 Z1.2708
G1 X4.0854 Y-18.9930 Z1.2608
G1 X4.0804 Y-18.9940 Z1.2501
G1 X4.0795 Y-18.9942 Z1.2492
G1 X4.0090 Y-19.0089 Z1.2623
G1 X4.0090 Y-19.0089 Z1.2873
G0 Z2.0100
G0 X4.0090 Y-19.0089 
G0 Z2.0100
G0 X5.8542 Y-18.6564 
G1 X5.8542 Y-18.6564 Z1.9100 F75.
G1 X5.8542 Y-18.6564 Z1.8850 F25.
G1 X5.8452 Y-18.6584 Z1.8377
G1 X5.8193 Y-18.6639 Z1.7975
G1 X5.7805 Y-18.6723 Z1.7702
G1 X5.7345 Y-18.6822 Z1.7600
G1 X5.7116 Y-18.6871 Z1.7595 F150.
G1 X5.6887 Y-18.6920 Z1.7580
G1 X5.6658 Y-18.6969 Z1.7556
G1 X5.6429 Y-18.7019 Z1.7522
G1 X5.4596 Y-18.7413 Z1.7233
G1 X5.3679 Y-18.7610 Z1.7093
G1 X5.1961 Y-18.7979 Z1.6810
G1 X5.0471 Y-18.8300 Z1.6552
G1 X5.0127 Y-18.8374 Z1.6488
G1 X4.8867 Y-18.8644 Z1.6262
G1 X4.8294 Y-18.8768 Z1.6150
G1 X4.7321 Y-18.8977 Z1.5969
G1 X4.6347 Y-18.9186 Z1.5772
G1 X4.5602 Y-18.9347 Z1.5627
G1 X4.4714 Y-18.9537 Z1.5440
G1 X4.4628 Y-18.9556 Z1.5425
G1 X4.4514 Y-18.9581 Z1.5402
G1 X4.4256 Y-18.9636 Z1.5337
G1 X4.3941 Y-18.9704 Z1.5243
G1 X4.3826 Y-18.9728 Z1.5204
G1 X4.3597 Y-18.9778 Z1.5114
G1 X4.3482 Y-18.9802 Z1.5063
G1 X4.3167 Y-18.9870 Z1.4906
G1 X4.3024 Y-18.9901 Z1.4829
G1 X4.2910 Y-18.9925 Z1.4762
G1 X4.2795 Y-18.9950 Z1.4690
G1 X4.2681 Y-18.9975 Z1.4612
G1 X4.2388 Y-19.0038 Z1.4396
G1 X4.2329 Y-19.0050 Z1.4350
G1 X4.2212 Y-19.0076 Z1.4255
G1 X4.2095 Y-19.0101 Z1.4152
G1 X4.1977 Y-19.0126 Z1.4040
G1 X4.1860 Y-19.0151 Z1.3920
G1 X4.1684 Y-19.0189 Z1.3733
G1 X4.1626 Y-19.0202 Z1.3669
G1 X4.1509 Y-19.0227 Z1.3530
G1 X4.1391 Y-19.0252 Z1.3379
G1 X4.1274 Y-19.0277 Z1.3211
G1 X4.1098 Y-19.0315 Z1.2944
G1 X4.1040 Y-19.0328 Z1.2849
G1 X4.0981 Y-19.0340 Z1.2748
G1 X4.0923 Y-19.0353 Z1.2640
G1 X4.0864 Y-19.0365 Z1.2524
G1 X4.0800 Y-19.0379 Z1.2389
G1 X4.0093 Y-19.0531 Z1.2522
G1 X4.0093 Y-19.0531 Z1.2772
G0 Z2.0100
G0 X4.0093 Y-19.0531 
G0 Z2.0100
G0 X5.8819 Y-18.6811 
G1 X5.8819 Y-18.6811 Z1.9100 F75.
G1 X5.8819 Y-18.6811 Z1.8850 F25.
G1 X5.8728 Y-18.6831 Z1.8377
G1 X5.8470 Y-18.6888 Z1.7975
G1 X5.8083 Y-18.6974 Z1.7702
G1 X5.7624 Y-18.7076 Z1.7600
G1 X5.7395 Y-18.7127 Z1.7595 F150.
G1 X5.7167 Y-18.7178 Z1.7580
G1 X5.6938 Y-18.7229 Z1.7555
G1 X5.6709 Y-18.7280 Z1.7521
G1 X5.3964 Y-18.7891 Z1.7086
G1 X5.2333 Y-18.8253 Z1.6813
G1 X5.2019 Y-18.8323 Z1.6756
G1 X5.0732 Y-18.8609 Z1.6531
G1 X5.0189 Y-18.8730 Z1.6428
G1 X4.9159 Y-18.8959 Z1.6241
G1 X4.8244 Y-18.9163 Z1.6061
G1 X4.7615 Y-18.9303 Z1.5943
G1 X4.6299 Y-18.9595 Z1.5675
G1 X4.5956 Y-18.9672 Z1.5607
G1 X4.4698 Y-18.9951 Z1.5339
G1 X4.4583 Y-18.9977 Z1.5318
G1 X4.4355 Y-19.0028 Z1.5266
G1 X4.4183 Y-19.0066 Z1.5216
G1 X4.3897 Y-19.0129 Z1.5127
G1 X4.3668 Y-19.0180 Z1.5041
G1 X4.3439 Y-19.0231 Z1.4939
G1 X4.3153 Y-19.0295 Z1.4795
G1 X4.3096 Y-19.0308 Z1.4765
G1 X4.2982 Y-19.0333 Z1.4701
G1 X4.2846 Y-19.0363 Z1.4618
G1 X4.2710 Y-19.0394 Z1.4528
G1 X4.2574 Y-19.0424 Z1.4429
G1 X4.2370 Y-19.0469 Z1.4277
G1 X4.2302 Y-19.0484 Z1.4223
G1 X4.2166 Y-19.0515 Z1.4110
G1 X4.2030 Y-19.0545 Z1.3985
G1 X4.1894 Y-19.0575 Z1.3849
G1 X4.1690 Y-19.0620 Z1.3633
G1 X4.1622 Y-19.0636 Z1.3558
G1 X4.1486 Y-19.0666 Z1.3396
G1 X4.1418 Y-19.0681 Z1.3308
G1 X4.1350 Y-19.0696 Z1.3215
G1 X4.1248 Y-19.0719 Z1.3065
G1 X4.1078 Y-19.0757 Z1.2805
G1 X4.1010 Y-19.0772 Z1.2692
G1 X4.0942 Y-19.0787 Z1.2569
G1 X4.0874 Y-19.0802 Z1.2435
G1 X4.0806 Y-19.0817 Z1.2286
G1 X4.0103 Y-19.0973 Z1.2417
G1 X4.0103 Y-19.0973 Z1.2667
G0 Z2.0100
G0 X4.0103 Y-19.0973 
G0 Z2.0100
G0 X5.9093 Y-18.7055 
G1 X5.9093 Y-18.7055 Z1.9100 F75.
G1 X5.9093 Y-18.7055 Z1.8850 F25.
G1 X5.9002 Y-18.7075 Z1.8377
G1 X5.8745 Y-18.7135 Z1.7975
G1 X5.8358 Y-18.7223 Z1.7702
G1 X5.7900 Y-18.7329 Z1.7600
G1 X5.7672 Y-18.7381 Z1.7595 F150.
G1 X5.7443 Y-18.7434 Z1.7580
G1 X5.7215 Y-18.7486 Z1.7555
G1 X5.7015 Y-18.7532 Z1.7525
G1 X5.5045 Y-18.7985 Z1.7211
G1 X5.4131 Y-18.8195 Z1.7059
G1 X5.2589 Y-18.8549 Z1.6796
G1 X5.2075 Y-18.8667 Z1.6701
G1 X5.1019 Y-18.8910 Z1.6515
G1 X5.0134 Y-18.9114 Z1.6346
G1 X4.9449 Y-18.9271 Z1.6221
G1 X4.8307 Y-18.9534 Z1.5993
G1 X4.7907 Y-18.9626 Z1.5917
G1 X4.6251 Y-19.0006 Z1.5576
G1 X4.4709 Y-19.0361 Z1.5239
G1 X4.4652 Y-19.0374 Z1.5229
G1 X4.4423 Y-19.0426 Z1.5180
G1 X4.4252 Y-19.0466 Z1.5134
G1 X4.3967 Y-19.0531 Z1.5046
G1 X4.3738 Y-19.0584 Z1.4966
G1 X4.3510 Y-19.0636 Z1.4868
G1 X4.3396 Y-19.0662 Z1.4813
G1 X4.3128 Y-19.0724 Z1.4677
G1 X4.2974 Y-19.0759 Z1.4591
G1 X4.2820 Y-19.0795 Z1.4497
G1 X4.2667 Y-19.0830 Z1.4392
G1 X4.2360 Y-19.0900 Z1.4163
G1 X4.2206 Y-19.0936 Z1.4038
G1 X4.2052 Y-19.0971 Z1.3901
G1 X4.1880 Y-19.1011 Z1.3728
G1 X4.1668 Y-19.1059 Z1.3502
G1 X4.1592 Y-19.1077 Z1.3414
G1 X4.1515 Y-19.1095 Z1.3320
G1 X4.1438 Y-19.1112 Z1.3221
G1 X4.1361 Y-19.1130 Z1.3115
G1 X4.1284 Y-19.1148 Z1.3002
G1 X4.1131 Y-19.1183 Z1.2765
G1 X4.1054 Y-19.1201 Z1.2640
G1 X4.0977 Y-19.1218 Z1.2505
G1 X4.0900 Y-19.1236 Z1.2355
G1 X4.0817 Y-19.1255 Z1.2178
G1 X4.0120 Y-19.1415 Z1.2309
G1 X4.0120 Y-19.1415 Z1.2559
G0 Z2.0100
G0 X4.0120 Y-19.1415 
G0 Z2.0100
G0 X5.9364 Y-18.7296 
G1 X5.9364 Y-18.7296 Z1.9100 F75.
G1 X5.9364 Y-18.7296 Z1.8850 F25.
G1 X5.9274 Y-18.7318 Z1.8377
G1 X5.9017 Y-18.7379 Z1.7975
G1 X5.8631 Y-18.7470 Z1.7702
G1 X5.8174 Y-18.7579 Z1.7600
G1 X5.7945 Y-18.7633 Z1.7595 F150.
G1 X5.7717 Y-18.7687 Z1.7580
G1 X5.7489 Y-18.7741 Z1.7555
G1 X5.7290 Y-18.7788 Z1.7524
G1 X5.5893 Y-18.8120 Z1.7299
G1 X5.4411 Y-18.8471 Z1.7052
G1 X5.3955 Y-18.8580 Z1.6970
G1 X5.2843 Y-18.8843 Z1.6780
G1 X5.2016 Y-18.9040 Z1.6626
G1 X5.1275 Y-18.9215 Z1.6494
G1 X5.0192 Y-18.9472 Z1.6284
G1 X4.9736 Y-18.9581 Z1.6200
G1 X4.8140 Y-18.9959 Z1.5880
G1 X4.7227 Y-19.0176 Z1.5688
G1 X4.6315 Y-19.0392 Z1.5494
G1 X4.5403 Y-19.0609 Z1.5289
G1 X4.4690 Y-19.0778 Z1.5133
G1 X4.4605 Y-19.0798 Z1.5117
G1 X4.4491 Y-19.0825 Z1.5094
G1 X4.4263 Y-19.0879 Z1.5035
G1 X4.3978 Y-19.0947 Z1.4946
G1 X4.3807 Y-19.0988 Z1.4888
G1 X4.3579 Y-19.1042 Z1.4796
G1 X4.3407 Y-19.1082 Z1.4715
G1 X4.3150 Y-19.1143 Z1.4583
G1 X4.3064 Y-19.1164 Z1.4537
G1 X4.2893 Y-19.1204 Z1.4437
G1 X4.2721 Y-19.1245 Z1.4324
G1 X4.2593 Y-19.1276 Z1.4231
G1 X4.2379 Y-19.1326 Z1.4067
G1 X4.2207 Y-19.1367 Z1.3927
G1 X4.2036 Y-19.1408 Z1.3769
G1 X4.1907 Y-19.1438 Z1.3638
G1 X4.1693 Y-19.1489 Z1.3407
G1 X4.1607 Y-19.1510 Z1.3309
G1 X4.1521 Y-19.1530 Z1.3205
G1 X4.1436 Y-19.1550 Z1.3093
G1 X4.1350 Y-19.1571 Z1.2973
G1 X4.1178 Y-19.1611 Z1.2711
G1 X4.1093 Y-19.1632 Z1.2576
G1 X4.1007 Y-19.1652 Z1.2427
G1 X4.0921 Y-19.1672 Z1.2263
G1 X4.0878 Y-19.1682 Z1.2174
G1 X4.0835 Y-19.1693 Z1.2079
G1 X4.0829 Y-19.1694 Z1.2070
G1 X4.0136 Y-19.1859 Z1.2201
G1 X4.0136 Y-19.1859 Z1.2451
G0 Z2.0100
G0 X4.0136 Y-19.1859 
G0 Z2.0100
G0 X5.9632 Y-18.7535 
G1 X5.9632 Y-18.7535 Z1.9100 F75.
G1 X5.9632 Y-18.7535 Z1.8850 F25.
G1 X5.9542 Y-18.7557 Z1.8377
G1 X5.9286 Y-18.7620 Z1.7975
G1 X5.8901 Y-18.7714 Z1.7703
G1 X5.8444 Y-18.7826 Z1.7600
G1 X5.8217 Y-18.7882 Z1.7595 F150.
G1 X5.7989 Y-18.7938 Z1.7580
G1 X5.7761 Y-18.7993 Z1.7554
G1 X5.7591 Y-18.8035 Z1.7528
G1 X5.6168 Y-18.8383 Z1.7295
G1 X5.5826 Y-18.8467 Z1.7236
G1 X5.4631 Y-18.8759 Z1.7035
G1 X5.4005 Y-18.8913 Z1.6921
G1 X5.3094 Y-18.9135 Z1.6763
G1 X5.2070 Y-18.9386 Z1.6570
G1 X5.1558 Y-18.9512 Z1.6478
G1 X5.0106 Y-18.9867 Z1.6196
G1 X4.8883 Y-19.0166 Z1.5949
G1 X4.8427 Y-19.0278 Z1.5855
G1 X4.7858 Y-19.0417 Z1.5729
G1 X4.6322 Y-19.0793 Z1.5400
G1 X4.4700 Y-19.1190 Z1.5031
G1 X4.4557 Y-19.1225 Z1.5005
G1 X4.4330 Y-19.1281 Z1.4950
G1 X4.4159 Y-19.1322 Z1.4900
G1 X4.3874 Y-19.1392 Z1.4807
G1 X4.3685 Y-19.1438 Z1.4735
G1 X4.3496 Y-19.1485 Z1.4651
G1 X4.3355 Y-19.1519 Z1.4579
G1 X4.3118 Y-19.1577 Z1.4456
G1 X4.2929 Y-19.1623 Z1.4346
G1 X4.2740 Y-19.1670 Z1.4222
G1 X4.2599 Y-19.1704 Z1.4119
G1 X4.2363 Y-19.1762 Z1.3938
G1 X4.2174 Y-19.1808 Z1.3779
G1 X4.2079 Y-19.1831 Z1.3691
G1 X4.1985 Y-19.1855 Z1.3598
G1 X4.1890 Y-19.1878 Z1.3499
G1 X4.1701 Y-19.1924 Z1.3294
G1 X4.1607 Y-19.1947 Z1.3186
G1 X4.1512 Y-19.1970 Z1.3069
G1 X4.1418 Y-19.1993 Z1.2943
G1 X4.1300 Y-19.2022 Z1.2770
G1 X4.1134 Y-19.2063 Z1.2514
G1 X4.1040 Y-19.2086 Z1.2355
G1 X4.0992 Y-19.2097 Z1.2269
G1 X4.0945 Y-19.2109 Z1.2177
G1 X4.0898 Y-19.2121 Z1.2080
G1 X4.0844 Y-19.2134 Z1.1960
G1 X4.0153 Y-19.2303 Z1.2090
G1 X4.0153 Y-19.2303 Z1.2340
G0 Z2.0100
G0 X4.0153 Y-19.2303 
G0 Z2.0100
G0 X5.9898 Y-18.7772 
G1 X5.9898 Y-18.7772 Z1.9100 F75.
G1 X5.9898 Y-18.7772 Z1.8850 F25.
G1 X5.9808 Y-18.7795 Z1.8377
G1 X5.9552 Y-18.7859 Z1.7975
G1 X5.9168 Y-18.7956 Z1.7703
G1 X5.8712 Y-18.8071 Z1.7600
G1 X5.8485 Y-18.8129 Z1.7595 F150.
G1 X5.8258 Y-18.8186 Z1.7579
G1 X5.8031 Y-18.8243 Z1.7554
G1 X5.7860 Y-18.8286 Z1.7527
G1 X5.6894 Y-18.8530 Z1.7366
G1 X5.6440 Y-18.8645 Z1.7292
G1 X5.5872 Y-18.8788 Z1.7191
G1 X5.4906 Y-18.9031 Z1.7028
G1 X5.3940 Y-18.9275 Z1.6851
G1 X5.3372 Y-18.9418 Z1.6752
G1 X5.2122 Y-18.9734 Z1.6515
G1 X5.1781 Y-18.9820 Z1.6452
G1 X5.0276 Y-19.0199 Z1.6154
G1 X4.8713 Y-19.0594 Z1.5831
G1 X4.7350 Y-19.0937 Z1.5527
G1 X4.6327 Y-19.1195 Z1.5306
G1 X4.4907 Y-19.1554 Z1.4979
G1 X4.4651 Y-19.1618 Z1.4918
G1 X4.4395 Y-19.1683 Z1.4861
G1 X4.4225 Y-19.1726 Z1.4812
G1 X4.3962 Y-19.1792 Z1.4727
G1 X4.3755 Y-19.1844 Z1.4652
G1 X4.3549 Y-19.1896 Z1.4564
G1 X4.3394 Y-19.1935 Z1.4488
G1 X4.3136 Y-19.2000 Z1.4352
G1 X4.2930 Y-19.2052 Z1.4232
G1 X4.2723 Y-19.2104 Z1.4095
G1 X4.2620 Y-19.2131 Z1.4019
G1 X4.2414 Y-19.2183 Z1.3861
G1 X4.2310 Y-19.2209 Z1.3778
G1 X4.2207 Y-19.2235 Z1.3690
G1 X4.2104 Y-19.2261 Z1.3595
G1 X4.2001 Y-19.2287 Z1.3494
G1 X4.1898 Y-19.2313 Z1.3386
G1 X4.1691 Y-19.2365 Z1.3161
G1 X4.1588 Y-19.2391 Z1.3039
G1 X4.1485 Y-19.2417 Z1.2908
G1 X4.1382 Y-19.2443 Z1.2765
G1 X4.1175 Y-19.2495 Z1.2445
G1 X4.1072 Y-19.2521 Z1.2271
G1 X4.1021 Y-19.2534 Z1.2176
G1 X4.0969 Y-19.2547 Z1.2075
G1 X4.0892 Y-19.2567 Z1.1910
G1 X4.0866 Y-19.2573 Z1.1850
G1 X4.0859 Y-19.2575 Z1.1850
G1 X4.0183 Y-19.2745 Z1.1976
G1 X4.0183 Y-19.2745 Z1.2226
G0 Z2.0100
G0 X4.0183 Y-19.2745 
G0 Z2.0100
G0 X6.0162 Y-18.8007 
G1 X6.0162 Y-18.8007 Z1.9100 F75.
G1 X6.0162 Y-18.8007 Z1.8850 F25.
G1 X6.0072 Y-18.8030 Z1.8377
G1 X5.9817 Y-18.8096 Z1.7975
G1 X5.9433 Y-18.8196 Z1.7703
G1 X5.8978 Y-18.8314 Z1.7600
G1 X5.8751 Y-18.8373 Z1.7595 F150.
G1 X5.8524 Y-18.8432 Z1.7579
G1 X5.8298 Y-18.8491 Z1.7553
G1 X5.8128 Y-18.8535 Z1.7527
G1 X5.7163 Y-18.8786 Z1.7362
G1 X5.6681 Y-18.8911 Z1.7283
G1 X5.5802 Y-18.9139 Z1.7127
G1 X5.5122 Y-18.9316 Z1.7010
G1 X5.3988 Y-18.9611 Z1.6801
G1 X5.3591 Y-18.9714 Z1.6730
G1 X5.2045 Y-19.0115 Z1.6433
G1 X5.0528 Y-19.0509 Z1.6129
G1 X5.0131 Y-19.0612 Z1.6043
G1 X4.8997 Y-19.0907 Z1.5807
G1 X4.6728 Y-19.1496 Z1.5298
G1 X4.6275 Y-19.1614 Z1.5198
G1 X4.5594 Y-19.1791 Z1.5040
G1 X4.4659 Y-19.2034 Z1.4813
G1 X4.4573 Y-19.2056 Z1.4796
G1 X4.4460 Y-19.2086 Z1.4770
G1 X4.4209 Y-19.2151 Z1.4699
G1 X4.3903 Y-19.2230 Z1.4597
G1 X4.3791 Y-19.2259 Z1.4556
G1 X4.3569 Y-19.2317 Z1.4461
G1 X4.3401 Y-19.2361 Z1.4379
G1 X4.3123 Y-19.2433 Z1.4231
G1 X4.2900 Y-19.2491 Z1.4099
G1 X4.2789 Y-19.2520 Z1.4025
G1 X4.2677 Y-19.2549 Z1.3945
G1 X4.2454 Y-19.2607 Z1.3774
G1 X4.2343 Y-19.2635 Z1.3686
G1 X4.2231 Y-19.2664 Z1.3591
G1 X4.2120 Y-19.2693 Z1.3488
G1 X4.2009 Y-19.2722 Z1.3377
G1 X4.1897 Y-19.2751 Z1.3257
G1 X4.1730 Y-19.2795 Z1.3072
G1 X4.1674 Y-19.2809 Z1.3007
G1 X4.1563 Y-19.2838 Z1.2870
G1 X4.1451 Y-19.2867 Z1.2719
G1 X4.1354 Y-19.2892 Z1.2574
G1 X4.1173 Y-19.2939 Z1.2288
G1 X4.1117 Y-19.2954 Z1.2194
G1 X4.1061 Y-19.2968 Z1.2094
G1 X4.1006 Y-19.2983 Z1.1986
G1 X4.0950 Y-19.2997 Z1.1870
G1 X4.0894 Y-19.3012 Z1.1745
G1 X4.0887 Y-19.3014 Z1.1736
G1 X4.0214 Y-19.3188 Z1.1861
G1 X4.0214 Y-19.3188 Z1.2111
G0 Z2.0100
G0 X4.0214 Y-19.3188 
G0 Z2.0100
G0 X6.0422 Y-18.8239 
G1 X6.0422 Y-18.8239 Z1.9099 F75.
G1 X6.0422 Y-18.8239 Z1.8849 F25.
G1 X6.0333 Y-18.8263 Z1.8378
G1 X6.0078 Y-18.8331 Z1.7975
G1 X5.9695 Y-18.8434 Z1.7703
G1 X5.9241 Y-18.8555 Z1.7600
G1 X5.9015 Y-18.8615 Z1.7595 F150.
G1 X5.8789 Y-18.8676 Z1.7579
G1 X5.8562 Y-18.8736 Z1.7553
G1 X5.8392 Y-18.8782 Z1.7526
G1 X5.7430 Y-18.9039 Z1.7359
G1 X5.6921 Y-18.9175 Z1.7275
G1 X5.5845 Y-18.9463 Z1.7082
G1 X5.5392 Y-18.9584 Z1.7004
G1 X5.3807 Y-19.0007 Z1.6708
G1 X5.2307 Y-19.0408 Z1.6416
G1 X5.1996 Y-19.0492 Z1.6350
G1 X5.0807 Y-19.0809 Z1.6109
G1 X5.0071 Y-19.1006 Z1.5949
G1 X4.9279 Y-19.1218 Z1.5783
G1 X4.8373 Y-19.1460 Z1.5579
G1 X4.6335 Y-19.2005 Z1.5115
G1 X4.4665 Y-19.2451 Z1.4707
G1 X4.4524 Y-19.2489 Z1.4677
G1 X4.4297 Y-19.2550 Z1.4617
G1 X4.4184 Y-19.2580 Z1.4582
G1 X4.3958 Y-19.2640 Z1.4506
G1 X4.3845 Y-19.2671 Z1.4466
G1 X4.3618 Y-19.2731 Z1.4372
G1 X4.3392 Y-19.2792 Z1.4261
G1 X4.3165 Y-19.2852 Z1.4139
G1 X4.3052 Y-19.2883 Z1.4074
G1 X4.2939 Y-19.2913 Z1.4004
G1 X4.2826 Y-19.2943 Z1.3929
G1 X4.2712 Y-19.2973 Z1.3847
G1 X4.2429 Y-19.3049 Z1.3627
G1 X4.2373 Y-19.3064 Z1.3581
G1 X4.2260 Y-19.3094 Z1.3484
G1 X4.2146 Y-19.3125 Z1.3379
G1 X4.2033 Y-19.3155 Z1.3266
G1 X4.1920 Y-19.3185 Z1.3144
G1 X4.1750 Y-19.3231 Z1.2955
G1 X4.1694 Y-19.3246 Z1.2889
G1 X4.1580 Y-19.3276 Z1.2748
G1 X4.1467 Y-19.3306 Z1.2594
G1 X4.1368 Y-19.3333 Z1.2445
G1 X4.1241 Y-19.3367 Z1.2245
G1 X4.1184 Y-19.3382 Z1.2153
G1 X4.1128 Y-19.3397 Z1.2055
G1 X4.1076 Y-19.3411 Z1.1961
G1 X4.1024 Y-19.3425 Z1.1859
G1 X4.0972 Y-19.3439 Z1.1751
G1 X4.0921 Y-19.3452 Z1.1634
G1 X4.0914 Y-19.3454 Z1.1622
G1 X4.0245 Y-19.3633 Z1.1745
G1 X4.0245 Y-19.3633 Z1.1995
G0 Z2.0100
G0 X4.0245 Y-19.3633 
G0 Z2.0100
G0 X6.0681 Y-18.8469 
G1 X6.0681 Y-18.8469 Z1.9099 F75.
G1 X6.0681 Y-18.8469 Z1.8849 F25.
G1 X6.0592 Y-18.8494 Z1.8378
G1 X6.0337 Y-18.8564 Z1.7976
G1 X5.9955 Y-18.8669 Z1.7703
G1 X5.9502 Y-18.8793 Z1.7600
G1 X5.9276 Y-18.8855 Z1.7595 F150.
G1 X5.9050 Y-18.8918 Z1.7579
G1 X5.8824 Y-18.8980 Z1.7552
G1 X5.8655 Y-18.9026 Z1.7525
G1 X5.7694 Y-18.9290 Z1.7357
G1 X5.7129 Y-18.9446 Z1.7261
G1 X5.5887 Y-18.9787 Z1.7036
G1 X5.5661 Y-18.9849 Z1.6997
G1 X5.4983 Y-19.0036 Z1.6870
G1 X5.4079 Y-19.0284 Z1.6697
G1 X5.2723 Y-19.0657 Z1.6429
G1 X5.2045 Y-19.0843 Z1.6286
G1 X5.1084 Y-19.1107 Z1.6091
G1 X5.0124 Y-19.1372 Z1.5879
G1 X4.9559 Y-19.1527 Z1.5759
G1 X4.7751 Y-19.2024 Z1.5348
G1 X4.6395 Y-19.2397 Z1.5027
G1 X4.4643 Y-19.2878 Z1.4595
G1 X4.4587 Y-19.2894 Z1.4583
G1 X4.4361 Y-19.2956 Z1.4525
G1 X4.4191 Y-19.3002 Z1.4472
G1 X4.3909 Y-19.3080 Z1.4375
G1 X4.3683 Y-19.3142 Z1.4283
G1 X4.3457 Y-19.3204 Z1.4174
G1 X4.3174 Y-19.3282 Z1.4022
G1 X4.3118 Y-19.3297 Z1.3989
G1 X4.3005 Y-19.3328 Z1.3921
G1 X4.2892 Y-19.3359 Z1.3848
G1 X4.2779 Y-19.3391 Z1.3769
G1 X4.2666 Y-19.3422 Z1.3684
G1 X4.2440 Y-19.3484 Z1.3506
G1 X4.2327 Y-19.3515 Z1.3411
G1 X4.2214 Y-19.3546 Z1.3309
G1 X4.2101 Y-19.3577 Z1.3199
G1 X4.1960 Y-19.3616 Z1.3049
G1 X4.1762 Y-19.3670 Z1.2829
G1 X4.1649 Y-19.3701 Z1.2692
G1 X4.1536 Y-19.3732 Z1.2543
G1 X4.1423 Y-19.3763 Z1.2379
G1 X4.1246 Y-19.3812 Z1.2100
G1 X4.1187 Y-19.3828 Z1.2002
G1 X4.1128 Y-19.3844 Z1.1898
G1 X4.1069 Y-19.3861 Z1.1785
G1 X4.1010 Y-19.3877 Z1.1661
G1 X4.0951 Y-19.3893 Z1.1526
G1 X4.0942 Y-19.3896 Z1.1508
G1 X4.0283 Y-19.4077 Z1.1628
G1 X4.0283 Y-19.4077 Z1.1878
G0 Z2.0100
G0 X4.0283 Y-19.4077 
G0 Z2.0100
G0 X6.0937 Y-18.8698 
G1 X6.0937 Y-18.8698 Z1.9099 F75.
G1 X6.0937 Y-18.8698 Z1.8849 F25.
G1 X6.0848 Y-18.8723 Z1.8378
G1 X6.0594 Y-18.8794 Z1.7976
G1 X6.0213 Y-18.8902 Z1.7703
G1 X5.9761 Y-18.9030 Z1.7600
G1 X5.9535 Y-18.9093 Z1.7595 F150.
G1 X5.9310 Y-18.9157 Z1.7579
G1 X5.9084 Y-18.9221 Z1.7552
G1 X5.8915 Y-18.9269 Z1.7525
G1 X5.7957 Y-18.9539 Z1.7355
G1 X5.7393 Y-18.9699 Z1.7258
G1 X5.6152 Y-19.0049 Z1.7031
G1 X5.5250 Y-19.0304 Z1.6860
G1 X5.4348 Y-19.0559 Z1.6687
G1 X5.3897 Y-19.0686 Z1.6594
G1 X5.2825 Y-19.0989 Z1.6380
G1 X5.1980 Y-19.1228 Z1.6199
G1 X5.1331 Y-19.1411 Z1.6066
G1 X4.9837 Y-19.1833 Z1.5736
G1 X4.8709 Y-19.2152 Z1.5477
G1 X4.8145 Y-19.2311 Z1.5344
G1 X4.6228 Y-19.2853 Z1.4882
G1 X4.4988 Y-19.3203 Z1.4572
G1 X4.4663 Y-19.3295 Z1.4488
G1 X4.4424 Y-19.3363 Z1.4430
G1 X4.4255 Y-19.3410 Z1.4379
G1 X4.3973 Y-19.3490 Z1.4282
G1 X4.3747 Y-19.3554 Z1.4193
G1 X4.3522 Y-19.3617 Z1.4087
G1 X4.3183 Y-19.3713 Z1.3904
G1 X4.3070 Y-19.3745 Z1.3837
G1 X4.2958 Y-19.3777 Z1.3766
G1 X4.2845 Y-19.3809 Z1.3689
G1 X4.2690 Y-19.3852 Z1.3573
G1 X4.2450 Y-19.3920 Z1.3383
G1 X4.2394 Y-19.3936 Z1.3336
G1 X4.2281 Y-19.3968 Z1.3237
G1 X4.2168 Y-19.4000 Z1.3130
G1 X4.2056 Y-19.4032 Z1.3015
G1 X4.1830 Y-19.4095 Z1.2764
G1 X4.1717 Y-19.4127 Z1.2630
G1 X4.1626 Y-19.4153 Z1.2512
G1 X4.1534 Y-19.4179 Z1.2384
G1 X4.1420 Y-19.4211 Z1.2209
G1 X4.1260 Y-19.4256 Z1.1949
G1 X4.1168 Y-19.4282 Z1.1787
G1 X4.1122 Y-19.4295 Z1.1698
G1 X4.1077 Y-19.4308 Z1.1604
G1 X4.1008 Y-19.4328 Z1.1451
G1 X4.0985 Y-19.4334 Z1.1396
G1 X4.0980 Y-19.4336 Z1.1392
G1 X4.0329 Y-19.4519 Z1.1509
G1 X4.0329 Y-19.4519 Z1.1759
G0 Z2.0100
G0 X4.0329 Y-19.4519 
G0 Z2.0100
G0 X6.1191 Y-18.8924 
G1 X6.1191 Y-18.8924 Z1.9099 F75.
G1 X6.1191 Y-18.8924 Z1.8849 F25.
G1 X6.1102 Y-18.8949 Z1.8378
G1 X6.0849 Y-18.9023 Z1.7976
G1 X6.0468 Y-18.9133 Z1.7703
G1 X6.0017 Y-18.9264 Z1.7600
G1 X5.9792 Y-18.9329 Z1.7594 F150.
G1 X5.9567 Y-18.9395 Z1.7578
G1 X5.9342 Y-18.9460 Z1.7552
G1 X5.9173 Y-18.9509 Z1.7524
G1 X5.7541 Y-18.9982 Z1.7234
G1 X5.6135 Y-19.0391 Z1.6972
G1 X5.5741 Y-19.0505 Z1.6894
G1 X5.4615 Y-19.0832 Z1.6676
G1 X5.3715 Y-19.1093 Z1.6490
G1 X5.3096 Y-19.1272 Z1.6366
G1 X5.2027 Y-19.1583 Z1.6135
G1 X5.1576 Y-19.1713 Z1.6041
G1 X5.0085 Y-19.2146 Z1.5706
G1 X4.8200 Y-19.2693 Z1.5261
G1 X4.7412 Y-19.2921 Z1.5065
G1 X4.6287 Y-19.3248 Z1.4792
G1 X4.5386 Y-19.3509 Z1.4565
G1 X4.4683 Y-19.3713 Z1.4380
G1 X4.4599 Y-19.3738 Z1.4362
G1 X4.4486 Y-19.3770 Z1.4334
G1 X4.4261 Y-19.3836 Z1.4266
G1 X4.3980 Y-19.3917 Z1.4167
G1 X4.3811 Y-19.3966 Z1.4101
G1 X4.3586 Y-19.4032 Z1.3998
G1 X4.3417 Y-19.4081 Z1.3910
G1 X4.3248 Y-19.4130 Z1.3817
G1 X4.3135 Y-19.4162 Z1.3752
G1 X4.3023 Y-19.4195 Z1.3682
G1 X4.2910 Y-19.4228 Z1.3607
G1 X4.2798 Y-19.4260 Z1.3525
G1 X4.2685 Y-19.4293 Z1.3437
G1 X4.2460 Y-19.4358 Z1.3254
G1 X4.2348 Y-19.4391 Z1.3156
G1 X4.2235 Y-19.4424 Z1.3050
G1 X4.2123 Y-19.4456 Z1.2935
G1 X4.2010 Y-19.4489 Z1.2811
G1 X4.1826 Y-19.4542 Z1.2600
G1 X4.1764 Y-19.4560 Z1.2526
G1 X4.1641 Y-19.4596 Z1.2366
G1 X4.1518 Y-19.4631 Z1.2187
G1 X4.1334 Y-19.4685 Z1.1892
G1 X4.1273 Y-19.4703 Z1.1788
G1 X4.1211 Y-19.4721 Z1.1677
G1 X4.1150 Y-19.4738 Z1.1557
G1 X4.1088 Y-19.4756 Z1.1427
G1 X4.1027 Y-19.4774 Z1.1284
G1 X4.1020 Y-19.4776 Z1.1275
G1 X4.0375 Y-19.4963 Z1.1390
G1 X4.0375 Y-19.4963 Z1.1640
G0 Z2.0100
G0 X4.0375 Y-19.4963 
G0 Z2.0100
G0 X6.1442 Y-18.9148 
G1 X6.1442 Y-18.9148 Z1.9099 F75.
G1 X6.1442 Y-18.9148 Z1.8849 F25.
G1 X6.1354 Y-18.9174 Z1.8378
G1 X6.1101 Y-18.9249 Z1.7976
G1 X6.0721 Y-18.9362 Z1.7703
G1 X6.0272 Y-18.9496 Z1.7600
G1 X6.0047 Y-18.9563 Z1.7594 F150.
G1 X5.9822 Y-18.9630 Z1.7578
G1 X5.9598 Y-18.9697 Z1.7551
G1 X5.9429 Y-18.9747 Z1.7523
G1 X5.7857 Y-19.0216 Z1.7241
G1 X5.6284 Y-19.0684 Z1.6943
G1 X5.5779 Y-19.0834 Z1.6841
G1 X5.4824 Y-19.1119 Z1.6654
G1 X5.3870 Y-19.1403 Z1.6454
G1 X5.3364 Y-19.1553 Z1.6352
G1 X5.1848 Y-19.2005 Z1.6022
G1 X5.0360 Y-19.2448 Z1.5684
G1 X4.9489 Y-19.2707 Z1.5471
G1 X4.8142 Y-19.3109 Z1.5150
G1 X4.6794 Y-19.3510 Z1.4812
G1 X4.6232 Y-19.3677 Z1.4674
G1 X4.5783 Y-19.3811 Z1.4558
G1 X4.4702 Y-19.4133 Z1.4273
G1 X4.4548 Y-19.4179 Z1.4236
G1 X4.4323 Y-19.4246 Z1.4171
G1 X4.3986 Y-19.4346 Z1.4051
G1 X4.3874 Y-19.4380 Z1.4007
G1 X4.3649 Y-19.4447 Z1.3905
G1 X4.3537 Y-19.4480 Z1.3847
G1 X4.3256 Y-19.4564 Z1.3691
G1 X4.3200 Y-19.4581 Z1.3658
G1 X4.3088 Y-19.4614 Z1.3589
G1 X4.2975 Y-19.4647 Z1.3514
G1 X4.2863 Y-19.4681 Z1.3433
G1 X4.2751 Y-19.4714 Z1.3346
G1 X4.2526 Y-19.4781 Z1.3164
G1 X4.2414 Y-19.4815 Z1.3068
G1 X4.2301 Y-19.4848 Z1.2963
G1 X4.2147 Y-19.4894 Z1.2806
G1 X4.1916 Y-19.4963 Z1.2546
G1 X4.1839 Y-19.4986 Z1.2455
G1 X4.1762 Y-19.5009 Z1.2359
G1 X4.1685 Y-19.5032 Z1.2257
G1 X4.1608 Y-19.5055 Z1.2147
G1 X4.1531 Y-19.5078 Z1.2030
G1 X4.1376 Y-19.5124 Z1.1781
G1 X4.1299 Y-19.5147 Z1.1650
G1 X4.1222 Y-19.5170 Z1.1507
G1 X4.1145 Y-19.5193 Z1.1348
G1 X4.1068 Y-19.5215 Z1.1171
G1 X4.1061 Y-19.5218 Z1.1159
G1 X4.0422 Y-19.5408 Z1.1271
G1 X4.0422 Y-19.5408 Z1.1521
G0 Z2.0100
G0 X4.0422 Y-19.5408 
G0 Z2.0100
G0 X6.1691 Y-18.9370 
G1 X6.1691 Y-18.9370 Z1.9099 F75.
G1 X6.1691 Y-18.9370 Z1.8849 F25.
G1 X6.1603 Y-18.9397 Z1.8378
G1 X6.1351 Y-18.9474 Z1.7976
G1 X6.0972 Y-18.9590 Z1.7703
G1 X6.0524 Y-18.9727 Z1.7600
G1 X6.0299 Y-18.9795 Z1.7594 F150.
G1 X6.0075 Y-18.9864 Z1.7578
G1 X5.9851 Y-18.9932 Z1.7551
G1 X5.9683 Y-18.9984 Z1.7523
G1 X5.8506 Y-19.0343 Z1.7310
G1 X5.6545 Y-19.0942 Z1.6936
G1 X5.5816 Y-19.1165 Z1.6787
G1 X5.5088 Y-19.1387 Z1.6644
G1 X5.3911 Y-19.1747 Z1.6395
G1 X5.3575 Y-19.1850 Z1.6325
G1 X5.2118 Y-19.2295 Z1.6004
G1 X5.0605 Y-19.2757 Z1.5655
G1 X4.8980 Y-19.3254 Z1.5254
G1 X4.8195 Y-19.3493 Z1.5066
G1 X4.6290 Y-19.4075 Z1.4583
G1 X4.4749 Y-19.4546 Z1.4167
G1 X4.4609 Y-19.4589 Z1.4135
G1 X4.4385 Y-19.4657 Z1.4070
G1 X4.4161 Y-19.4726 Z1.3992
G1 X4.4049 Y-19.4760 Z1.3951
G1 X4.3937 Y-19.4794 Z1.3907
G1 X4.3712 Y-19.4863 Z1.3807
G1 X4.3600 Y-19.4897 Z1.3751
G1 X4.3376 Y-19.4966 Z1.3626
G1 X4.3264 Y-19.5000 Z1.3562
G1 X4.3152 Y-19.5034 Z1.3494
G1 X4.3040 Y-19.5068 Z1.3420
G1 X4.2928 Y-19.5103 Z1.3341
G1 X4.2788 Y-19.5145 Z1.3233
G1 X4.2592 Y-19.5205 Z1.3074
G1 X4.2407 Y-19.5262 Z1.2913
G1 X4.2315 Y-19.5290 Z1.2825
G1 X4.2223 Y-19.5318 Z1.2732
G1 X4.2108 Y-19.5353 Z1.2606
G1 X4.1947 Y-19.5402 Z1.2422
G1 X4.1855 Y-19.5430 Z1.2312
G1 X4.1762 Y-19.5459 Z1.2194
G1 X4.1670 Y-19.5487 Z1.2066
G1 X4.1578 Y-19.5515 Z1.1926
G1 X4.1394 Y-19.5571 Z1.1623
G1 X4.1302 Y-19.5599 Z1.1455
G1 X4.1256 Y-19.5613 Z1.1364
G1 X4.1210 Y-19.5627 Z1.1267
G1 X4.1141 Y-19.5649 Z1.1108
G1 X4.1118 Y-19.5656 Z1.1051
G1 X4.1109 Y-19.5658 Z1.1042
G1 X4.0483 Y-19.5849 Z1.1149
G1 X4.0483 Y-19.5849 Z1.1399
G0 Z2.0100
G0 X4.0483 Y-19.5849 
G0 Z2.0100
G0 X6.1939 Y-18.9590 
G1 X6.1939 Y-18.9590 Z1.9099 F75.
G1 X6.1939 Y-18.9590 Z1.8849 F25.
G1 X6.1850 Y-18.9618 Z1.8378
G1 X6.1599 Y-18.9697 Z1.7976
G1 X6.1221 Y-18.9815 Z1.7703
G1 X6.0773 Y-18.9955 Z1.7600
G1 X6.0550 Y-19.0025 Z1.7594 F150.
G1 X6.0326 Y-19.0095 Z1.7578
G1 X6.0102 Y-19.0165 Z1.7550
G1 X5.9935 Y-19.0218 Z1.7522
G1 X5.8984 Y-19.0516 Z1.7349
G1 X5.8201 Y-19.0761 Z1.7201
G1 X5.7642 Y-19.0936 Z1.7090
G1 X5.6804 Y-19.1199 Z1.6930
G1 X5.5741 Y-19.1532 Z1.6712
G1 X5.5294 Y-19.1672 Z1.6622
G1 X5.3840 Y-19.2127 Z1.6311
G1 X5.2358 Y-19.2591 Z1.5980
G1 X5.1939 Y-19.2723 Z1.5880
G1 X5.0905 Y-19.3047 Z1.5640
G1 X4.8025 Y-19.3949 Z1.4925
G1 X4.7410 Y-19.4141 Z1.4766
G1 X4.6236 Y-19.4509 Z1.4455
G1 X4.4782 Y-19.4965 Z1.4058
G1 X4.4670 Y-19.5000 Z1.4032
G1 X4.4446 Y-19.5070 Z1.3969
G1 X4.4279 Y-19.5122 Z1.3911
G1 X4.3999 Y-19.5210 Z1.3807
G1 X4.3775 Y-19.5280 Z1.3709
G1 X4.3552 Y-19.5350 Z1.3593
G1 X4.3328 Y-19.5420 Z1.3465
G1 X4.3216 Y-19.5455 Z1.3398
G1 X4.3104 Y-19.5490 Z1.3326
G1 X4.2993 Y-19.5525 Z1.3248
G1 X4.2881 Y-19.5560 Z1.3164
G1 X4.2668 Y-19.5627 Z1.2991
G1 X4.2561 Y-19.5660 Z1.2902
G1 X4.2454 Y-19.5694 Z1.2806
G1 X4.2348 Y-19.5727 Z1.2702
G1 X4.2241 Y-19.5760 Z1.2590
G1 X4.2135 Y-19.5794 Z1.2469
G1 X4.1975 Y-19.5844 Z1.2283
G1 X4.1922 Y-19.5861 Z1.2218
G1 X4.1815 Y-19.5894 Z1.2079
G1 X4.1708 Y-19.5927 Z1.1927
G1 X4.1615 Y-19.5957 Z1.1781
G1 X4.1442 Y-19.6011 Z1.1493
G1 X4.1389 Y-19.6028 Z1.1397
G1 X4.1335 Y-19.6044 Z1.1295
G1 X4.1282 Y-19.6061 Z1.1185
G1 X4.1229 Y-19.6078 Z1.1066
G1 X4.1176 Y-19.6094 Z1.0938
G1 X4.1166 Y-19.6097 Z1.0924
G1 X4.0546 Y-19.6291 Z1.1029
G1 X4.0546 Y-19.6291 Z1.1279
G0 Z2.0100
G0 X4.0546 Y-19.6291 
G0 Z2.0100
G0 X6.2184 Y-18.9809 
G1 X6.2184 Y-18.9809 Z1.9099 F75.
G1 X6.2184 Y-18.9809 Z1.8849 F25.
G1 X6.2096 Y-18.9837 Z1.8378
G1 X6.1845 Y-18.9917 Z1.7976
G1 X6.1468 Y-19.0038 Z1.7703
G1 X6.1021 Y-19.0182 Z1.7600
G1 X6.0798 Y-19.0253 Z1.7594 F150.
G1 X6.0575 Y-19.0325 Z1.7578
G1 X6.0352 Y-19.0397 Z1.7550
G1 X6.0184 Y-19.0450 Z1.7522
G1 X5.9459 Y-19.0683 Z1.7388
G1 X5.8455 Y-19.1006 Z1.7197
G1 X5.7674 Y-19.1256 Z1.7041
G1 X5.7004 Y-19.1471 Z1.6912
G1 X5.5666 Y-19.1901 Z1.6635
G1 X5.4773 Y-19.2188 Z1.6444
G1 X5.4327 Y-19.2331 Z1.6347
G1 X5.2597 Y-19.2886 Z1.5956
G1 X5.1872 Y-19.3119 Z1.5781
G1 X5.1147 Y-19.3352 Z1.5612
G1 X4.8915 Y-19.4068 Z1.5054
G1 X4.8162 Y-19.4310 Z1.4858
G1 X4.6293 Y-19.4910 Z1.4357
G1 X4.4814 Y-19.5385 Z1.3948
G1 X4.4731 Y-19.5411 Z1.3929
G1 X4.4508 Y-19.5483 Z1.3867
G1 X4.4340 Y-19.5537 Z1.3811
G1 X4.4061 Y-19.5626 Z1.3706
G1 X4.3838 Y-19.5698 Z1.3610
G1 X4.3727 Y-19.5734 Z1.3554
G1 X4.3573 Y-19.5783 Z1.3470
G1 X4.3336 Y-19.5859 Z1.3332
G1 X4.3280 Y-19.5877 Z1.3298
G1 X4.3169 Y-19.5913 Z1.3225
G1 X4.3047 Y-19.5952 Z1.3139
G1 X4.2926 Y-19.5991 Z1.3047
G1 X4.2684 Y-19.6069 Z1.2846
G1 X4.2563 Y-19.6107 Z1.2741
G1 X4.2441 Y-19.6146 Z1.2626
G1 X4.2320 Y-19.6185 Z1.2501
G1 X4.2214 Y-19.6219 Z1.2382
G1 X4.2017 Y-19.6283 Z1.2151
G1 X4.1957 Y-19.6302 Z1.2076
G1 X4.1835 Y-19.6341 Z1.1914
G1 X4.1775 Y-19.6360 Z1.1826
G1 X4.1684 Y-19.6390 Z1.1685
G1 X4.1532 Y-19.6438 Z1.1435
G1 X4.1472 Y-19.6458 Z1.1329
G1 X4.1411 Y-19.6477 Z1.1216
G1 X4.1350 Y-19.6497 Z1.1093
G1 X4.1290 Y-19.6516 Z1.0959
G1 X4.1229 Y-19.6536 Z1.0813
G1 X4.1224 Y-19.6537 Z1.0806
G1 X4.0609 Y-19.6734 Z1.0908
G1 X4.0609 Y-19.6734 Z1.1158
G0 Z2.0100
G0 X4.0609 Y-19.6734 
G0 Z2.0100
G0 X6.2427 Y-19.0025 
G1 X6.2427 Y-19.0025 Z1.9099 F75.
G1 X6.2427 Y-19.0025 Z1.8849 F25.
G1 X6.2339 Y-19.0054 Z1.8378
G1 X6.2089 Y-19.0136 Z1.7976
G1 X6.1713 Y-19.0260 Z1.7703
G1 X6.1267 Y-19.0407 Z1.7600
G1 X6.1045 Y-19.0480 Z1.7594 F150.
G1 X6.0822 Y-19.0553 Z1.7578
G1 X6.0599 Y-19.0626 Z1.7550
G1 X6.0432 Y-19.0681 Z1.7521
G1 X5.9486 Y-19.0992 Z1.7343
G1 X5.8707 Y-19.1249 Z1.7194
G1 X5.7705 Y-19.1578 Z1.6992
G1 X5.7260 Y-19.1724 Z1.6905
G1 X5.5757 Y-19.2219 Z1.6590
G1 X5.4588 Y-19.2603 Z1.6334
G1 X5.3697 Y-19.2896 Z1.6129
G1 X5.3029 Y-19.3115 Z1.5977
G1 X5.2807 Y-19.3189 Z1.5925
G1 X5.1916 Y-19.3481 Z1.5709
G1 X5.1415 Y-19.3646 Z1.5590
G1 X4.9912 Y-19.4140 Z1.5213
G1 X4.8131 Y-19.4726 Z1.4744
G1 X4.7352 Y-19.4982 Z1.4529
G1 X4.6239 Y-19.5348 Z1.4228
G1 X4.4819 Y-19.5815 Z1.3830
G1 X4.4569 Y-19.5898 Z1.3762
G1 X4.4402 Y-19.5952 Z1.3705
G1 X4.4123 Y-19.6044 Z1.3600
G1 X4.3901 Y-19.6117 Z1.3502
G1 X4.3678 Y-19.6190 Z1.3387
G1 X4.3388 Y-19.6286 Z1.3217
G1 X4.3320 Y-19.6308 Z1.3175
G1 X4.3184 Y-19.6353 Z1.3085
G1 X4.3049 Y-19.6397 Z1.2986
G1 X4.2913 Y-19.6442 Z1.2878
G1 X4.2710 Y-19.6509 Z1.2707
G1 X4.2642 Y-19.6531 Z1.2648
G1 X4.2507 Y-19.6576 Z1.2521
G1 X4.2371 Y-19.6620 Z1.2381
G1 X4.2269 Y-19.6654 Z1.2267
G1 X4.2100 Y-19.6709 Z1.2068
G1 X4.1964 Y-19.6754 Z1.1898
G1 X4.1897 Y-19.6776 Z1.1806
G1 X4.1829 Y-19.6798 Z1.1707
G1 X4.1761 Y-19.6821 Z1.1603
G1 X4.1592 Y-19.6876 Z1.1323
G1 X4.1558 Y-19.6888 Z1.1265
G1 X4.1490 Y-19.6910 Z1.1142
G1 X4.1422 Y-19.6932 Z1.1008
G1 X4.1355 Y-19.6954 Z1.0859
G1 X4.1287 Y-19.6977 Z1.0691
G1 X4.1281 Y-19.6978 Z1.0689
G1 X4.0680 Y-19.7176 Z1.0787
G1 X4.0680 Y-19.7176 Z1.1037
G0 Z2.0100
G0 X4.0680 Y-19.7176 
G0 Z2.0100
G0 X6.2668 Y-19.0240 
G1 X6.2668 Y-19.0240 Z1.9099 F75.
G1 X6.2668 Y-19.0240 Z1.8849 F25.
G1 X6.2580 Y-19.0270 Z1.8378
G1 X6.2331 Y-19.0354 Z1.7976
G1 X6.1956 Y-19.0480 Z1.7703
G1 X6.1511 Y-19.0630 Z1.7600
G1 X6.1289 Y-19.0704 Z1.7594 F150.
G1 X6.1067 Y-19.0779 Z1.7577
G1 X6.0845 Y-19.0854 Z1.7549
G1 X6.0734 Y-19.0891 Z1.7531
G1 X5.8957 Y-19.1490 Z1.7190
G1 X5.7513 Y-19.1976 Z1.6899
G1 X5.6069 Y-19.2462 Z1.6592
G1 X5.5736 Y-19.2574 Z1.6517
G1 X5.4570 Y-19.2967 Z1.6258
G1 X5.3848 Y-19.3210 Z1.6087
G1 X5.3293 Y-19.3397 Z1.5960
G1 X5.3070 Y-19.3471 Z1.5908
G1 X5.1960 Y-19.3845 Z1.5636
G1 X5.1682 Y-19.3939 Z1.5569
G1 X5.0849 Y-19.4219 Z1.5358
G1 X5.0016 Y-19.4500 Z1.5142
G1 X4.9516 Y-19.4668 Z1.5006
G1 X4.8128 Y-19.5135 Z1.4637
G1 X4.6740 Y-19.5603 Z1.4251
G1 X4.6185 Y-19.5790 Z1.4099
G1 X4.5574 Y-19.5995 Z1.3926
G1 X4.4866 Y-19.6234 Z1.3719
G1 X4.4630 Y-19.6313 Z1.3654
G1 X4.4463 Y-19.6369 Z1.3598
G1 X4.4185 Y-19.6463 Z1.3491
G1 X4.3963 Y-19.6537 Z1.3394
G1 X4.3741 Y-19.6612 Z1.3280
G1 X4.3444 Y-19.6712 Z1.3105
G1 X4.3295 Y-19.6762 Z1.3009
G1 X4.3146 Y-19.6813 Z1.2904
G1 X4.2969 Y-19.6872 Z1.2765
G1 X4.2774 Y-19.6938 Z1.2600
G1 X4.2699 Y-19.6963 Z1.2535
G1 X4.2551 Y-19.7013 Z1.2394
G1 X4.2402 Y-19.7063 Z1.2238
G1 X4.2253 Y-19.7113 Z1.2066
G1 X4.2104 Y-19.7163 Z1.1887
G1 X4.2030 Y-19.7188 Z1.1789
G1 X4.1955 Y-19.7213 Z1.1685
G1 X4.1881 Y-19.7238 Z1.1574
G1 X4.1806 Y-19.7264 Z1.1455
G1 X4.1657 Y-19.7314 Z1.1202
G1 X4.1583 Y-19.7339 Z1.1068
G1 X4.1509 Y-19.7364 Z1.0920
G1 X4.1434 Y-19.7389 Z1.0756
G1 X4.1360 Y-19.7414 Z1.0572
G1 X4.1354 Y-19.7416 Z1.0569
G1 X4.0760 Y-19.7616 Z1.0665
G1 X4.0760 Y-19.7616 Z1.0915
G0 Z2.0100
G0 X4.0760 Y-19.7616 
G0 Z2.0100
G0 X6.2907 Y-19.0453 
G1 X6.2907 Y-19.0453 Z1.9099 F75.
G1 X6.2907 Y-19.0453 Z1.8849 F25.
G1 X6.2819 Y-19.0483 Z1.8378
G1 X6.2570 Y-19.0569 Z1.7976
G1 X6.2197 Y-19.0698 Z1.7703
G1 X6.1753 Y-19.0851 Z1.7600
G1 X6.1532 Y-19.0927 Z1.7594 F150.
G1 X6.1310 Y-19.1004 Z1.7577
G1 X6.1088 Y-19.1080 Z1.7549
G1 X6.0922 Y-19.1137 Z1.7520
G1 X5.9094 Y-19.1767 Z1.7164
G1 X5.7681 Y-19.2254 Z1.6874
G1 X5.6269 Y-19.2740 Z1.6571
G1 X5.5770 Y-19.2912 Z1.6455
G1 X5.4828 Y-19.3237 Z1.6246
G1 X5.3776 Y-19.3599 Z1.5995
G1 X5.3388 Y-19.3733 Z1.5905
G1 X5.1934 Y-19.4234 Z1.5544
G1 X5.0009 Y-19.4897 Z1.5041
G1 X4.9012 Y-19.5241 Z1.4767
G1 X4.8125 Y-19.5546 Z1.4529
G1 X4.6463 Y-19.6119 Z1.4063
G1 X4.6242 Y-19.6195 Z1.3999
G1 X4.4912 Y-19.6653 Z1.3607
G1 X4.4691 Y-19.6730 Z1.3545
G1 X4.4469 Y-19.6806 Z1.3469
G1 X4.4247 Y-19.6882 Z1.3382
G1 X4.4026 Y-19.6959 Z1.3286
G1 X4.3864 Y-19.7014 Z1.3205
G1 X4.3743 Y-19.7056 Z1.3137
G1 X4.3541 Y-19.7126 Z1.3017
G1 X4.3379 Y-19.7182 Z1.2915
G1 X4.3217 Y-19.7237 Z1.2801
G1 X4.3055 Y-19.7293 Z1.2672
G1 X4.2813 Y-19.7377 Z1.2464
G1 X4.2732 Y-19.7405 Z1.2390
G1 X4.2570 Y-19.7460 Z1.2230
G1 X4.2489 Y-19.7488 Z1.2143
G1 X4.2368 Y-19.7530 Z1.2002
G1 X4.2247 Y-19.7572 Z1.1856
G1 X4.2166 Y-19.7600 Z1.1756
G1 X4.2085 Y-19.7627 Z1.1648
G1 X4.2004 Y-19.7655 Z1.1533
G1 X4.1923 Y-19.7683 Z1.1409
G1 X4.1751 Y-19.7742 Z1.1120
G1 X4.1681 Y-19.7767 Z1.0995
G1 X4.1600 Y-19.7795 Z1.0838
G1 X4.1559 Y-19.7809 Z1.0753
G1 X4.1519 Y-19.7822 Z1.0662
G1 X4.1432 Y-19.7852 Z1.0450
G1 X4.0841 Y-19.8056 Z1.0542
G1 X4.0841 Y-19.8056 Z1.0792
G0 Z2.0100
G0 X4.0841 Y-19.8056 
G0 Z2.0100
G0 X6.3144 Y-19.0665 
G1 X6.3144 Y-19.0665 Z1.9099 F75.
G1 X6.3144 Y-19.0665 Z1.8849 F25.
G1 X6.3057 Y-19.0696 Z1.8378
G1 X6.2808 Y-19.0783 Z1.7976
G1 X6.2436 Y-19.0914 Z1.7703
G1 X6.1993 Y-19.1070 Z1.7600
G1 X6.1772 Y-19.1148 Z1.7594 F150.
G1 X6.1551 Y-19.1226 Z1.7577
G1 X6.1330 Y-19.1304 Z1.7548
G1 X6.1164 Y-19.1363 Z1.7519
G1 X5.9341 Y-19.2005 Z1.7161
G1 X5.7987 Y-19.2483 Z1.6880
G1 X5.7572 Y-19.2629 Z1.6788
G1 X5.6467 Y-19.3018 Z1.6548
G1 X5.5694 Y-19.3291 Z1.6369
G1 X5.5086 Y-19.3505 Z1.6233
G1 X5.3594 Y-19.4031 Z1.5874
G1 X5.2212 Y-19.4518 Z1.5528
G1 X5.1383 Y-19.4810 Z1.5304
G1 X5.0002 Y-19.5297 Z1.4940
G1 X4.8510 Y-19.5823 Z1.4527
G1 X4.8123 Y-19.5959 Z1.4422
G1 X4.7321 Y-19.6242 Z1.4194
G1 X4.6078 Y-19.6680 Z1.3827
G1 X4.4973 Y-19.7070 Z1.3497
G1 X4.4752 Y-19.7147 Z1.3436
G1 X4.4503 Y-19.7235 Z1.3348
G1 X4.4266 Y-19.7319 Z1.3253
G1 X4.4135 Y-19.7365 Z1.3195
G1 X4.3960 Y-19.7427 Z1.3108
G1 X4.3785 Y-19.7488 Z1.3009
G1 X4.3522 Y-19.7581 Z1.2848
G1 X4.3435 Y-19.7612 Z1.2791
G1 X4.3260 Y-19.7673 Z1.2664
G1 X4.3129 Y-19.7719 Z1.2559
G1 X4.2910 Y-19.7797 Z1.2370
G1 X4.2735 Y-19.7858 Z1.2208
G1 X4.2648 Y-19.7889 Z1.2119
G1 X4.2560 Y-19.7920 Z1.2025
G1 X4.2473 Y-19.7951 Z1.1924
G1 X4.2298 Y-19.8012 Z1.1713
G1 X4.2210 Y-19.8043 Z1.1602
G1 X4.2123 Y-19.8074 Z1.1482
G1 X4.2035 Y-19.8105 Z1.1352
G1 X4.1948 Y-19.8136 Z1.1211
G1 X4.1817 Y-19.8182 Z1.0988
G1 X4.1773 Y-19.8197 Z1.0911
G1 X4.1686 Y-19.8228 Z1.0744
G1 X4.1642 Y-19.8244 Z1.0653
G1 X4.1598 Y-19.8259 Z1.0555
G1 X4.1511 Y-19.8290 Z1.0341
G1 X4.1504 Y-19.8292 Z1.0332
G1 X4.0922 Y-19.8497 Z1.0422
G1 X4.0922 Y-19.8497 Z1.0672
G0 Z2.0100
G0 X4.0922 Y-19.8497 
G0 Z2.0100
G0 X6.3379 Y-19.0875 
G1 X6.3379 Y-19.0875 Z1.9099 F75.
G1 X6.3379 Y-19.0875 Z1.8849 F25.
G1 X6.3292 Y-19.0906 Z1.8378
G1 X6.3045 Y-19.0995 Z1.7976
G1 X6.2673 Y-19.1129 Z1.7704
G1 X6.2232 Y-19.1288 Z1.7600
G1 X6.2011 Y-19.1368 Z1.7594 F150.
G1 X6.1791 Y-19.1447 Z1.7577
G1 X6.1570 Y-19.1527 Z1.7548
G1 X6.1405 Y-19.1586 Z1.7518
G1 X5.9531 Y-19.2262 Z1.7146
G1 X5.8153 Y-19.2758 Z1.6856
G1 X5.7601 Y-19.2957 Z1.6732
G1 X5.6719 Y-19.3275 Z1.6539
G1 X5.5727 Y-19.3633 Z1.6307
G1 X5.5286 Y-19.3792 Z1.6207
G1 X5.3963 Y-19.4268 Z1.5885
G1 X5.2447 Y-19.4815 Z1.5501
G1 X5.0766 Y-19.5421 Z1.5044
G1 X4.9994 Y-19.5699 Z1.4839
G1 X4.8479 Y-19.6245 Z1.4415
G1 X4.8120 Y-19.6374 Z1.4310
G1 X4.6136 Y-19.7090 Z1.3721
G1 X4.5144 Y-19.7447 Z1.3422
G1 X4.4978 Y-19.7507 Z1.3370
G1 X4.4813 Y-19.7566 Z1.3322
G1 X4.4592 Y-19.7646 Z1.3244
G1 X4.4311 Y-19.7747 Z1.3129
G1 X4.4218 Y-19.7781 Z1.3088
G1 X4.4030 Y-19.7848 Z1.2995
G1 X4.3890 Y-19.7899 Z1.2916
G1 X4.3656 Y-19.7983 Z1.2773
G1 X4.3468 Y-19.8051 Z1.2649
G1 X4.3281 Y-19.8118 Z1.2509
G1 X4.3141 Y-19.8169 Z1.2392
G1 X4.2953 Y-19.8237 Z1.2229
G1 X4.2906 Y-19.8253 Z1.2186
G1 X4.2813 Y-19.8287 Z1.2097
G1 X4.2719 Y-19.8321 Z1.2002
G1 X4.2625 Y-19.8355 Z1.1900
G1 X4.2532 Y-19.8389 Z1.1790
G1 X4.2344 Y-19.8456 Z1.1563
G1 X4.2251 Y-19.8490 Z1.1440
G1 X4.2157 Y-19.8524 Z1.1307
G1 X4.2063 Y-19.8557 Z1.1162
G1 X4.1900 Y-19.8616 Z1.0882
G1 X4.1829 Y-19.8642 Z1.0754
G1 X4.1782 Y-19.8659 Z1.0662
G1 X4.1736 Y-19.8675 Z1.0563
G1 X4.1689 Y-19.8692 Z1.0458
G1 X4.1595 Y-19.8726 Z1.0223
G1 X4.1588 Y-19.8729 Z1.0212
G1 X4.1019 Y-19.8934 Z1.0299
G1 X4.1019 Y-19.8934 Z1.0549
G0 Z2.0100
G0 X4.1019 Y-19.8934 
G0 Z2.0100
G0 X6.3613 Y-19.1083 
G1 X6.3613 Y-19.1083 Z1.9099 F75.
G1 X6.3613 Y-19.1083 Z1.8849 F25.
G1 X6.3526 Y-19.1115 Z1.8378
G1 X6.3279 Y-19.1206 Z1.7976
G1 X6.2908 Y-19.1342 Z1.7704
G1 X6.2468 Y-19.1505 Z1.7600
G1 X6.2248 Y-19.1586 Z1.7594 F150.
G1 X6.2028 Y-19.1667 Z1.7577
G1 X6.1809 Y-19.1748 Z1.7548
G1 X6.1644 Y-19.1808 Z1.7518
G1 X6.0269 Y-19.2315 Z1.7243
G1 X5.9774 Y-19.2497 Z1.7142
G1 X5.8345 Y-19.3024 Z1.6837
G1 X5.7630 Y-19.3287 Z1.6675
G1 X5.6970 Y-19.3530 Z1.6530
G1 X5.5431 Y-19.4097 Z1.6167
G1 X5.4111 Y-19.4583 Z1.5842
G1 X5.3671 Y-19.4746 Z1.5727
G1 X5.2682 Y-19.5110 Z1.5474
G1 X5.1912 Y-19.5394 Z1.5265
G1 X5.0153 Y-19.6042 Z1.4782
G1 X4.9658 Y-19.6224 Z1.4644
G1 X4.8118 Y-19.6791 Z1.4195
G1 X4.7294 Y-19.7095 Z1.3943
G1 X4.6194 Y-19.7500 Z1.3615
G1 X4.5534 Y-19.7743 Z1.3414
G1 X4.5039 Y-19.7926 Z1.3256
G1 X4.4874 Y-19.7986 Z1.3207
G1 X4.4650 Y-19.8069 Z1.3126
G1 X4.4376 Y-19.8170 Z1.3013
G1 X4.4276 Y-19.8207 Z1.2969
G1 X4.4077 Y-19.8280 Z1.2868
G1 X4.3928 Y-19.8335 Z1.2782
G1 X4.3679 Y-19.8427 Z1.2627
G1 X4.3479 Y-19.8500 Z1.2490
G1 X4.3380 Y-19.8537 Z1.2415
G1 X4.3280 Y-19.8574 Z1.2334
G1 X4.3081 Y-19.8647 Z1.2161
G1 X4.2981 Y-19.8684 Z1.2071
G1 X4.2881 Y-19.8721 Z1.1975
G1 X4.2782 Y-19.8757 Z1.1871
G1 X4.2682 Y-19.8794 Z1.1758
G1 X4.2483 Y-19.8868 Z1.1515
G1 X4.2383 Y-19.8904 Z1.1388
G1 X4.2283 Y-19.8941 Z1.1248
G1 X4.2184 Y-19.8978 Z1.1096
G1 X4.2109 Y-19.9005 Z1.0971
G1 X4.1984 Y-19.9051 Z1.0754
G1 X4.1935 Y-19.9070 Z1.0663
G1 X4.1885 Y-19.9088 Z1.0566
G1 X4.1835 Y-19.9106 Z1.0462
G1 X4.1785 Y-19.9125 Z1.0350
G1 X4.1735 Y-19.9143 Z1.0229
G1 X4.1685 Y-19.9161 Z1.0101
G1 X4.1679 Y-19.9164 Z1.0092
G1 X4.1118 Y-19.9371 Z1.0175
G1 X4.1118 Y-19.9371 Z1.0425
G0 Z2.0100
G0 X4.1118 Y-19.9371 
G0 Z2.0100
G0 X6.3844 Y-19.1290 
G1 X6.3844 Y-19.1290 Z1.9099 F75.
G1 X6.3844 Y-19.1290 Z1.8849 F25.
G1 X6.3758 Y-19.1322 Z1.8378
G1 X6.3512 Y-19.1415 Z1.7977
G1 X6.3142 Y-19.1554 Z1.7704
G1 X6.2703 Y-19.1719 Z1.7600
G1 X6.2484 Y-19.1802 Z1.7594 F150.
G1 X6.2265 Y-19.1884 Z1.7577
G1 X6.2045 Y-19.1967 Z1.7547
G1 X6.1881 Y-19.2029 Z1.7517
G1 X6.1168 Y-19.2297 Z1.7375
G1 X6.0016 Y-19.2731 Z1.7138
G1 X5.9413 Y-19.2958 Z1.7007
G1 X5.8590 Y-19.3268 Z1.6831
G1 X5.7658 Y-19.3618 Z1.6618
G1 X5.7165 Y-19.3804 Z1.6508
G1 X5.5903 Y-19.4279 Z1.6208
G1 X5.4368 Y-19.4857 Z1.5827
G1 X5.3710 Y-19.5105 Z1.5653
G1 X5.2942 Y-19.5394 Z1.5455
G1 X5.0858 Y-19.6178 Z1.4881
G1 X5.0420 Y-19.6343 Z1.4757
G1 X4.9981 Y-19.6509 Z1.4630
G1 X4.9542 Y-19.6674 Z1.4499
G1 X4.8117 Y-19.7210 Z1.4079
G1 X4.6691 Y-19.7747 Z1.3640
G1 X4.5978 Y-19.8016 Z1.3424
G1 X4.5116 Y-19.8340 Z1.3145
G1 X4.5050 Y-19.8365 Z1.3127
G1 X4.4944 Y-19.8405 Z1.3094
G1 X4.4707 Y-19.8494 Z1.3008
G1 X4.4522 Y-19.8564 Z1.2931
G1 X4.4311 Y-19.8643 Z1.2837
G1 X4.4099 Y-19.8723 Z1.2725
G1 X4.3941 Y-19.8782 Z1.2629
G1 X4.3783 Y-19.8842 Z1.2529
G1 X4.3677 Y-19.8882 Z1.2459
G1 X4.3571 Y-19.8922 Z1.2384
G1 X4.3466 Y-19.8961 Z1.2303
G1 X4.3360 Y-19.9001 Z1.2215
G1 X4.3096 Y-19.9100 Z1.1981
G1 X4.3043 Y-19.9120 Z1.1931
G1 X4.2938 Y-19.9160 Z1.1826
G1 X4.2832 Y-19.9200 Z1.1712
G1 X4.2700 Y-19.9250 Z1.1556
G1 X4.2515 Y-19.9319 Z1.1326
G1 X4.2410 Y-19.9359 Z1.1183
G1 X4.2304 Y-19.9399 Z1.1025
G1 X4.2212 Y-19.9433 Z1.0873
G1 X4.2093 Y-19.9478 Z1.0667
G1 X4.2040 Y-19.9498 Z1.0571
G1 X4.1987 Y-19.9518 Z1.0470
G1 X4.1935 Y-19.9538 Z1.0361
G1 X4.1882 Y-19.9558 Z1.0243
G1 X4.1816 Y-19.9583 Z1.0080
G1 X4.1776 Y-19.9597 Z0.9978
G1 X4.1769 Y-19.9600 Z0.9973
G1 X4.1217 Y-19.9808 Z1.0053
G1 X4.1217 Y-19.9808 Z1.0303
G0 Z2.0100
G0 X4.1217 Y-19.9808 
G0 Z2.0100
G0 X6.4074 Y-19.1495 
G1 X6.4074 Y-19.1495 Z1.9099 F75.
G1 X6.4074 Y-19.1495 Z1.8849 F25.
G1 X6.3988 Y-19.1528 Z1.8378
G1 X6.3743 Y-19.1622 Z1.7977
G1 X6.3374 Y-19.1764 Z1.7704
G1 X6.2936 Y-19.1932 Z1.7600
G1 X6.2718 Y-19.2017 Z1.7594 F150.
G1 X6.2499 Y-19.2101 Z1.7576
G1 X6.2280 Y-19.2185 Z1.7547
G1 X6.2116 Y-19.2248 Z1.7517
G1 X6.1624 Y-19.2437 Z1.7417
G1 X6.0202 Y-19.2984 Z1.7123
G1 X5.9436 Y-19.3278 Z1.6954
G1 X5.8835 Y-19.3510 Z1.6825
G1 X5.7686 Y-19.3951 Z1.6560
G1 X5.7413 Y-19.4057 Z1.6499
G1 X5.6005 Y-19.4598 Z1.6159
G1 X5.5717 Y-19.4708 Z1.6085
G1 X5.4596 Y-19.5140 Z1.5804
G1 X5.3749 Y-19.5466 Z1.5578
G1 X5.3202 Y-19.5676 Z1.5436
G1 X5.1561 Y-19.6307 Z1.4982
G1 X4.9975 Y-19.6917 Z1.4521
G1 X4.9045 Y-19.7274 Z1.4239
G1 X4.8116 Y-19.7632 Z1.3962
G1 X4.6420 Y-19.8284 Z1.3435
G1 X4.5190 Y-19.8757 Z1.3033
G1 X4.5108 Y-19.8788 Z1.3009
G1 X4.4998 Y-19.8830 Z1.2974
G1 X4.4779 Y-19.8915 Z1.2892
G1 X4.4561 Y-19.8999 Z1.2800
G1 X4.4342 Y-19.9083 Z1.2697
G1 X4.4123 Y-19.9167 Z1.2575
G1 X4.3850 Y-19.9272 Z1.2402
G1 X4.3795 Y-19.9293 Z1.2366
G1 X4.3686 Y-19.9335 Z1.2289
G1 X4.3576 Y-19.9377 Z1.2206
G1 X4.3467 Y-19.9419 Z1.2116
G1 X4.3221 Y-19.9514 Z1.1898
G1 X4.3139 Y-19.9545 Z1.1821
G1 X4.3029 Y-19.9587 Z1.1712
G1 X4.2920 Y-19.9630 Z1.1594
G1 X4.2811 Y-19.9672 Z1.1465
G1 X4.2647 Y-19.9735 Z1.1262
G1 X4.2592 Y-19.9756 Z1.1191
G1 X4.2483 Y-19.9798 Z1.1040
G1 X4.2373 Y-19.9840 Z1.0873
G1 X4.2291 Y-19.9871 Z1.0735
G1 X4.2154 Y-19.9924 Z1.0495
G1 X4.2100 Y-19.9945 Z1.0392
G1 X4.2045 Y-19.9966 Z1.0282
G1 X4.1990 Y-19.9987 Z1.0162
G1 X4.1936 Y-20.0008 Z1.0032
G1 X4.1869 Y-20.0034 Z0.9857
G1 X4.1864 Y-20.0036 Z0.9852
G1 X4.1323 Y-20.0244 Z0.9930
G1 X4.1323 Y-20.0244 Z1.0180
G0 Z2.0100
G0 X4.1323 Y-20.0244 
G0 Z2.0100
G0 X6.4302 Y-19.1699 
G1 X6.4302 Y-19.1699 Z1.9099 F75.
G1 X6.4302 Y-19.1699 Z1.8849 F25.
G1 X6.4217 Y-19.1732 Z1.8378
G1 X6.3972 Y-19.1828 Z1.7977
G1 X6.3604 Y-19.1973 Z1.7704
G1 X6.3168 Y-19.2144 Z1.7600
G1 X6.2950 Y-19.2230 Z1.7594 F150.
G1 X6.2732 Y-19.2315 Z1.7576
G1 X6.2514 Y-19.2401 Z1.7546
G1 X6.2350 Y-19.2465 Z1.7516
G1 X6.0441 Y-19.3215 Z1.7119
G1 X5.9459 Y-19.3600 Z1.6901
G1 X5.9023 Y-19.3772 Z1.6806
G1 X5.7714 Y-19.4286 Z1.6503
G1 X5.6241 Y-19.4864 Z1.6144
G1 X5.5642 Y-19.5100 Z1.5989
G1 X5.4823 Y-19.5421 Z1.5782
G1 X5.3787 Y-19.5828 Z1.5503
G1 X5.3460 Y-19.5956 Z1.5417
G1 X5.2478 Y-19.6342 Z1.5144
G1 X5.1824 Y-19.6599 Z1.4956
G1 X5.1387 Y-19.6770 Z1.4827
G1 X4.9969 Y-19.7327 Z1.4412
G1 X4.8442 Y-19.7926 Z1.3944
G1 X4.8115 Y-19.8055 Z1.3845
G1 X4.7461 Y-19.8312 Z1.3640
G1 X4.5279 Y-19.9169 Z1.2923
G1 X4.5061 Y-19.9254 Z1.2856
G1 X4.4843 Y-19.9340 Z1.2771
G1 X4.4624 Y-19.9426 Z1.2678
G1 X4.4406 Y-19.9511 Z1.2572
G1 X4.4297 Y-19.9554 Z1.2513
G1 X4.4161 Y-19.9608 Z1.2431
G1 X4.3915 Y-19.9704 Z1.2273
G1 X4.3861 Y-19.9725 Z1.2236
G1 X4.3752 Y-19.9768 Z1.2158
G1 X4.3643 Y-19.9811 Z1.2074
G1 X4.3506 Y-19.9865 Z1.1959
G1 X4.3316 Y-19.9940 Z1.1787
G1 X4.3206 Y-19.9982 Z1.1684
G1 X4.3097 Y-20.0025 Z1.1573
G1 X4.2988 Y-20.0068 Z1.1452
G1 X4.2879 Y-20.0111 Z1.1321
G1 X4.2716 Y-20.0175 Z1.1116
G1 X4.2661 Y-20.0197 Z1.1043
G1 X4.2552 Y-20.0239 Z1.0886
G1 X4.2443 Y-20.0282 Z1.0710
G1 X4.2279 Y-20.0346 Z1.0421
G1 X4.2225 Y-20.0368 Z1.0318
G1 X4.2164 Y-20.0392 Z1.0194
G1 X4.2102 Y-20.0416 Z1.0058
G1 X4.2041 Y-20.0440 Z0.9907
G1 X4.1980 Y-20.0464 Z0.9745
G1 X4.1974 Y-20.0466 Z0.9732
G1 X4.1441 Y-20.0676 Z0.9806
G1 X4.1441 Y-20.0676 Z1.0056
G0 Z2.0100
G0 X4.1441 Y-20.0676 
G0 Z2.0100
G0 X6.4529 Y-19.1901 
G1 X6.4529 Y-19.1901 Z1.9099 F75.
G1 X6.4529 Y-19.1901 Z1.8849 F25.
G1 X6.4443 Y-19.1935 Z1.8378
G1 X6.4199 Y-19.2033 Z1.7977
G1 X6.3833 Y-19.2180 Z1.7704
G1 X6.3398 Y-19.2354 Z1.7600
G1 X6.3180 Y-19.2442 Z1.7594 F150.
G1 X6.2963 Y-19.2529 Z1.7576
G1 X6.2745 Y-19.2616 Z1.7546
G1 X6.2569 Y-19.2687 Z1.7513
G1 X6.0624 Y-19.3466 Z1.7104
G1 X5.9265 Y-19.4011 Z1.6800
G1 X5.7905 Y-19.4556 Z1.6481
G1 X5.7524 Y-19.4709 Z1.6386
G1 X5.6436 Y-19.5145 Z1.6119
G1 X5.5675 Y-19.5450 Z1.5919
G1 X5.5077 Y-19.5690 Z1.5767
G1 X5.3608 Y-19.6278 Z1.5368
G1 X5.1868 Y-19.6976 Z1.4870
G1 X5.0780 Y-19.7412 Z1.4543
G1 X4.9964 Y-19.7739 Z1.4302
G1 X4.8496 Y-19.8328 Z1.3847
G1 X4.8061 Y-19.8502 Z1.3707
G1 X4.7734 Y-19.8633 Z1.3597
G1 X4.5369 Y-19.9581 Z1.2814
G1 X4.5124 Y-19.9679 Z1.2736
G1 X4.4961 Y-19.9745 Z1.2673
G1 X4.4689 Y-19.9854 Z1.2555
G1 X4.4471 Y-19.9941 Z1.2447
G1 X4.4362 Y-19.9984 Z1.2387
G1 X4.4226 Y-20.0039 Z1.2303
G1 X4.4036 Y-20.0115 Z1.2180
G1 X4.3927 Y-20.0159 Z1.2106
G1 X4.3819 Y-20.0202 Z1.2025
G1 X4.3710 Y-20.0246 Z1.1938
G1 X4.3574 Y-20.0301 Z1.1820
G1 X4.3383 Y-20.0377 Z1.1646
G1 X4.3275 Y-20.0421 Z1.1539
G1 X4.3166 Y-20.0464 Z1.1423
G1 X4.3057 Y-20.0508 Z1.1298
G1 X4.2840 Y-20.0595 Z1.1024
G1 X4.2731 Y-20.0639 Z1.0876
G1 X4.2622 Y-20.0682 Z1.0712
G1 X4.2540 Y-20.0715 Z1.0577
G1 X4.2407 Y-20.0768 Z1.0340
G1 X4.2354 Y-20.0790 Z1.0242
G1 X4.2301 Y-20.0811 Z1.0136
G1 X4.2248 Y-20.0832 Z1.0023
G1 X4.2195 Y-20.0853 Z0.9900
G1 X4.2088 Y-20.0896 Z0.9624
G1 X4.2081 Y-20.0899 Z0.9612
G1 X4.1559 Y-20.1108 Z0.9684
G1 X4.1559 Y-20.1108 Z0.9934
G0 Z2.0100
G0 X4.1559 Y-20.1108 
G0 Z2.0100
G0 X6.4754 Y-19.2102 
G1 X6.4754 Y-19.2102 Z1.9099 F75.
G1 X6.4754 Y-19.2102 Z1.8849 F25.
G1 X6.4669 Y-19.2137 Z1.8378
G1 X6.4425 Y-19.2236 Z1.7977
G1 X6.4060 Y-19.2386 Z1.7704
G1 X6.3626 Y-19.2563 Z1.7600
G1 X6.3409 Y-19.2652 Z1.7594 F150.
G1 X6.3193 Y-19.2741 Z1.7576
G1 X6.2976 Y-19.2829 Z1.7546
G1 X6.2813 Y-19.2896 Z1.7515
G1 X6.0861 Y-19.3695 Z1.7100
G1 X5.9396 Y-19.4293 Z1.6769
G1 X5.8068 Y-19.4837 Z1.6453
G1 X5.7552 Y-19.5048 Z1.6322
G1 X5.6685 Y-19.5403 Z1.6107
G1 X5.5275 Y-19.5979 Z1.5737
G1 X5.3919 Y-19.6534 Z1.5365
G1 X5.3214 Y-19.6822 Z1.5159
G1 X5.1858 Y-19.7377 Z1.4767
G1 X4.9960 Y-19.8153 Z1.4191
G1 X4.9363 Y-19.8397 Z1.4004
G1 X4.8062 Y-19.8930 Z1.3581
G1 X4.7248 Y-19.9263 Z1.3301
G1 X4.5459 Y-19.9995 Z1.2704
G1 X4.5404 Y-20.0017 Z1.2688
G1 X4.5188 Y-20.0106 Z1.2616
G1 X4.5079 Y-20.0150 Z1.2574
G1 X4.4754 Y-20.0283 Z1.2431
G1 X4.4537 Y-20.0372 Z1.2319
G1 X4.4428 Y-20.0416 Z1.2256
G1 X4.4320 Y-20.0461 Z1.2188
G1 X4.4103 Y-20.0549 Z1.2045
G1 X4.3994 Y-20.0594 Z1.1968
G1 X4.3886 Y-20.0638 Z1.1886
G1 X4.3777 Y-20.0682 Z1.1796
G1 X4.3669 Y-20.0727 Z1.1699
G1 X4.3506 Y-20.0793 Z1.1550
G1 X4.3452 Y-20.0816 Z1.1498
G1 X4.3344 Y-20.0860 Z1.1388
G1 X4.3235 Y-20.0904 Z1.1268
G1 X4.3100 Y-20.0960 Z1.1104
G1 X4.2964 Y-20.1015 Z1.0932
G1 X4.2910 Y-20.1037 Z1.0861
G1 X4.2801 Y-20.1082 Z1.0707
G1 X4.2726 Y-20.1113 Z1.0590
G1 X4.2631 Y-20.1151 Z1.0429
G1 X4.2498 Y-20.1206 Z1.0192
G1 X4.2423 Y-20.1237 Z1.0046
G1 X4.2347 Y-20.1268 Z0.9883
G1 X4.2309 Y-20.1283 Z0.9794
G1 X4.2195 Y-20.1330 Z0.9498
G1 X4.2187 Y-20.1333 Z0.9493
G1 X4.1677 Y-20.1542 Z0.9562
G1 X4.1677 Y-20.1542 Z0.9812
G0 Z2.0100
G0 X4.1677 Y-20.1542 
G0 Z2.0100
G0 X6.4977 Y-19.2301 
G1 X6.4977 Y-19.2301 Z1.9099 F75.
G1 X6.4977 Y-19.2301 Z1.8849 F25.
G1 X6.4892 Y-19.2337 Z1.8378
G1 X6.4650 Y-19.2438 Z1.7977
G1 X6.4286 Y-19.2590 Z1.7704
G1 X6.3853 Y-19.2771 Z1.7600
G1 X6.3637 Y-19.2861 Z1.7594 F150.
G1 X6.3421 Y-19.2951 Z1.7576
G1 X6.3204 Y-19.3041 Z1.7545
G1 X6.3042 Y-19.3109 Z1.7514
G1 X6.1041 Y-19.3944 Z1.7085
G1 X5.9690 Y-19.4508 Z1.6776
G1 X5.8284 Y-19.5095 Z1.6438
G1 X5.7581 Y-19.5388 Z1.6258
G1 X5.6932 Y-19.5659 Z1.6096
G1 X5.5526 Y-19.6246 Z1.5723
G1 X5.4174 Y-19.6810 Z1.5348
G1 X5.2822 Y-19.7374 Z1.4947
G1 X5.1849 Y-19.7780 Z1.4663
G1 X5.0227 Y-19.8457 Z1.4165
G1 X4.9794 Y-19.8638 Z1.4022
G1 X4.8064 Y-19.9360 Z1.3455
G1 X4.6658 Y-19.9947 Z1.2967
G1 X4.5563 Y-20.0404 Z1.2599
G1 X4.5468 Y-20.0443 Z1.2571
G1 X4.5252 Y-20.0533 Z1.2495
G1 X4.5090 Y-20.0601 Z1.2428
G1 X4.4873 Y-20.0691 Z1.2330
G1 X4.4819 Y-20.0714 Z1.2305
G1 X4.4603 Y-20.0804 Z1.2189
G1 X4.4495 Y-20.0849 Z1.2124
G1 X4.4224 Y-20.0962 Z1.1947
G1 X4.4170 Y-20.0985 Z1.1909
G1 X4.4062 Y-20.1030 Z1.1830
G1 X4.3954 Y-20.1075 Z1.1745
G1 X4.3819 Y-20.1131 Z1.1628
G1 X4.3630 Y-20.1210 Z1.1453
G1 X4.3521 Y-20.1255 Z1.1349
G1 X4.3413 Y-20.1301 Z1.1235
G1 X4.3305 Y-20.1346 Z1.1112
G1 X4.3197 Y-20.1391 Z1.0978
G1 X4.3089 Y-20.1436 Z1.0840
G1 X4.2992 Y-20.1476 Z1.0711
G1 X4.2895 Y-20.1517 Z1.0571
G1 X4.2799 Y-20.1557 Z1.0416
G1 X4.2630 Y-20.1628 Z1.0113
G1 X4.2557 Y-20.1658 Z0.9972
G1 X4.2509 Y-20.1678 Z0.9870
G1 X4.2460 Y-20.1698 Z0.9761
G1 X4.2394 Y-20.1726 Z0.9594
G1 X4.2315 Y-20.1759 Z0.9381
G1 X4.2310 Y-20.1761 Z0.9375
G1 X4.1811 Y-20.1969 Z0.9438
G1 X4.1811 Y-20.1969 Z0.9688
G0 Z2.0100
G0 X4.1811 Y-20.1969 
G0 Z2.0100
G0 X6.5199 Y-19.2500 
G1 X6.5199 Y-19.2500 Z1.9099 F75.
G1 X6.5199 Y-19.2500 Z1.8849 F25.
G1 X6.5115 Y-19.2536 Z1.8378
G1 X6.4873 Y-19.2639 Z1.7977
G1 X6.4510 Y-19.2793 Z1.7704
G1 X6.4079 Y-19.2977 Z1.7600
G1 X6.3863 Y-19.3068 Z1.7594 F150.
G1 X6.3647 Y-19.3160 Z1.7576
G1 X6.3432 Y-19.3252 Z1.7545
G1 X6.3270 Y-19.3321 Z1.7514
G1 X6.1491 Y-19.4078 Z1.7128
G1 X6.0628 Y-19.4445 Z1.6933
G1 X5.9873 Y-19.4767 Z1.6757
G1 X5.9334 Y-19.4996 Z1.6625
G1 X5.8526 Y-19.5340 Z1.6429
G1 X5.8040 Y-19.5547 Z1.6304
G1 X5.7124 Y-19.5937 Z1.6071
G1 X5.5776 Y-19.6510 Z1.5709
G1 X5.4401 Y-19.7096 Z1.5324
G1 X5.3727 Y-19.7382 Z1.5123
G1 X5.2218 Y-19.8025 Z1.4670
G1 X5.1840 Y-19.8186 Z1.4559
G1 X5.1139 Y-19.8484 Z1.4341
G1 X5.0358 Y-19.8817 Z1.4095
G1 X4.9576 Y-19.9149 Z1.3827
G1 X4.8080 Y-19.9786 Z1.3333
G1 X4.6072 Y-20.0641 Z1.2630
G1 X4.5667 Y-20.0813 Z1.2493
G1 X4.5532 Y-20.0870 Z1.2452
G1 X4.5317 Y-20.0962 Z1.2374
G1 X4.5209 Y-20.1008 Z1.2328
G1 X4.4993 Y-20.1100 Z1.2230
G1 X4.4886 Y-20.1146 Z1.2178
G1 X4.4670 Y-20.1238 Z1.2059
G1 X4.4535 Y-20.1295 Z1.1974
G1 X4.4346 Y-20.1375 Z1.1848
G1 X4.4239 Y-20.1421 Z1.1772
G1 X4.4131 Y-20.1467 Z1.1691
G1 X4.4023 Y-20.1513 Z1.1603
G1 X4.3888 Y-20.1570 Z1.1482
G1 X4.3699 Y-20.1651 Z1.1304
G1 X4.3592 Y-20.1697 Z1.1195
G1 X4.3484 Y-20.1742 Z1.1076
G1 X4.3376 Y-20.1788 Z1.0946
G1 X4.3201 Y-20.1863 Z1.0721
G1 X4.3143 Y-20.1887 Z1.0643
G1 X4.3027 Y-20.1937 Z1.0473
G1 X4.2968 Y-20.1962 Z1.0380
G1 X4.2881 Y-20.1999 Z1.0230
G1 X4.2736 Y-20.2061 Z0.9963
G1 X4.2677 Y-20.2086 Z0.9847
G1 X4.2619 Y-20.2111 Z0.9721
G1 X4.2561 Y-20.2135 Z0.9583
G1 X4.2439 Y-20.2187 Z0.9258
G1 X4.1948 Y-20.2396 Z0.9319
G1 X4.1948 Y-20.2396 Z0.9569
G0 Z2.0100
G0 X4.1948 Y-20.2396 
G0 Z2.0100
G0 X6.5420 Y-19.2697 
G1 X6.5420 Y-19.2697 Z1.9099 F75.
G1 X6.5420 Y-19.2697 Z1.8849 F25.
G1 X6.5335 Y-19.2733 Z1.8379
G1 X6.5094 Y-19.2838 Z1.7977
G1 X6.4732 Y-19.2995 Z1.7704
G1 X6.4303 Y-19.3181 Z1.7600
G1 X6.4088 Y-19.3275 Z1.7594 F150.
G1 X6.3873 Y-19.3368 Z1.7575
G1 X6.3658 Y-19.3461 Z1.7545
G1 X6.3496 Y-19.3531 Z1.7513
G1 X6.1669 Y-19.4324 Z1.7114
G1 X6.1293 Y-19.4488 Z1.7028
G1 X6.0110 Y-19.5001 Z1.6752
G1 X5.9143 Y-19.5421 Z1.6513
G1 X5.7423 Y-19.6167 Z1.6074
G1 X5.5998 Y-19.6785 Z1.5688
G1 X5.5488 Y-19.7007 Z1.5541
G1 X5.4628 Y-19.7380 Z1.5299
G1 X5.3123 Y-19.8033 Z1.4847
G1 X5.2209 Y-19.8430 Z1.4570
G1 X5.0650 Y-19.9106 Z1.4077
G1 X4.9360 Y-19.9666 Z1.3631
G1 X4.8178 Y-20.0180 Z1.3239
G1 X4.5705 Y-20.1253 Z1.2368
G1 X4.5598 Y-20.1299 Z1.2333
G1 X4.5383 Y-20.1393 Z1.2251
G1 X4.5168 Y-20.1486 Z1.2154
G1 X4.5060 Y-20.1533 Z1.2104
G1 X4.4953 Y-20.1579 Z1.2049
G1 X4.4845 Y-20.1626 Z1.1989
G1 X4.4738 Y-20.1672 Z1.1925
G1 X4.4630 Y-20.1719 Z1.1854
G1 X4.4415 Y-20.1812 Z1.1708
G1 X4.4308 Y-20.1859 Z1.1629
G1 X4.4200 Y-20.1906 Z1.1544
G1 X4.4093 Y-20.1952 Z1.1451
G1 X4.3878 Y-20.2046 Z1.1250
G1 X4.3770 Y-20.2092 Z1.1145
G1 X4.3663 Y-20.2139 Z1.1030
G1 X4.3526 Y-20.2198 Z1.0870
G1 X4.3322 Y-20.2287 Z1.0606
G1 X4.3254 Y-20.2317 Z1.0513
G1 X4.3185 Y-20.2346 Z1.0414
G1 X4.3117 Y-20.2376 Z1.0307
G1 X4.3049 Y-20.2405 Z1.0193
G1 X4.2879 Y-20.2479 Z0.9883
G1 X4.2844 Y-20.2494 Z0.9817
G1 X4.2776 Y-20.2524 Z0.9676
G1 X4.2708 Y-20.2553 Z0.9519
G1 X4.2657 Y-20.2576 Z0.9388
G1 X4.2566 Y-20.2615 Z0.9141
G1 X4.2085 Y-20.2824 Z0.9200
G1 X4.2085 Y-20.2824 Z0.9450
G0 Z2.0100
G0 X4.2085 Y-20.2824 
G0 Z2.0100
G0 X6.5639 Y-19.2892 
G1 X6.5639 Y-19.2892 Z1.9099 F75.
G1 X6.5639 Y-19.2892 Z1.8849 F25.
G1 X6.5554 Y-19.2929 Z1.8379
G1 X6.5314 Y-19.3036 Z1.7977
G1 X6.4953 Y-19.3195 Z1.7704
G1 X6.4525 Y-19.3385 Z1.7600
G1 X6.4311 Y-19.3480 Z1.7594 F150.
G1 X6.4097 Y-19.3574 Z1.7575
G1 X6.3882 Y-19.3669 Z1.7544
G1 X6.3721 Y-19.3740 Z1.7513
G1 X6.2328 Y-19.4357 Z1.7207
G1 X6.1632 Y-19.4665 Z1.7049
G1 X6.0238 Y-19.5281 Z1.6719
G1 X5.9381 Y-19.5661 Z1.6505
G1 X5.8952 Y-19.5850 Z1.6399
G1 X5.7559 Y-19.6467 Z1.6034
G1 X5.6220 Y-19.7059 Z1.5667
G1 X5.5523 Y-19.7367 Z1.5465
G1 X5.4880 Y-19.7652 Z1.5282
G1 X5.3380 Y-19.8316 Z1.4830
G1 X5.2951 Y-19.8505 Z1.4697
G1 X5.0968 Y-19.9382 Z1.4068
G1 X4.9093 Y-20.0212 Z1.3416
G1 X4.8236 Y-20.0591 Z1.3130
G1 X4.8021 Y-20.0686 Z1.3056
G1 X4.6146 Y-20.1516 Z1.2389
G1 X4.5811 Y-20.1664 Z1.2264
G1 X4.5664 Y-20.1729 Z1.2214
G1 X4.5449 Y-20.1824 Z1.2127
G1 X4.5235 Y-20.1919 Z1.2027
G1 X4.5021 Y-20.2014 Z1.1917
G1 X4.4913 Y-20.2061 Z1.1855
G1 X4.4766 Y-20.2126 Z1.1760
G1 X4.4592 Y-20.2203 Z1.1642
G1 X4.4485 Y-20.2251 Z1.1566
G1 X4.4378 Y-20.2298 Z1.1483
G1 X4.4270 Y-20.2346 Z1.1394
G1 X4.4163 Y-20.2393 Z1.1297
G1 X4.3949 Y-20.2488 Z1.1093
G1 X4.3793 Y-20.2557 Z1.0929
G1 X4.3715 Y-20.2592 Z1.0840
G1 X4.3617 Y-20.2635 Z1.0719
G1 X4.3480 Y-20.2695 Z1.0541
G1 X4.3402 Y-20.2730 Z1.0436
G1 X4.3324 Y-20.2764 Z1.0323
G1 X4.3246 Y-20.2799 Z1.0201
G1 X4.3148 Y-20.2842 Z1.0034
G1 X4.3011 Y-20.2903 Z0.9784
G1 X4.2933 Y-20.2937 Z0.9628
G1 X4.2894 Y-20.2955 Z0.9543
G1 X4.2855 Y-20.2972 Z0.9452
G1 X4.2816 Y-20.2989 Z0.9354
G1 X4.2699 Y-20.3041 Z0.9030
G1 X4.2692 Y-20.3044 Z0.9030
G1 X4.2228 Y-20.3249 Z0.9082
G1 X4.2228 Y-20.3249 Z0.9332
G0 Z2.0100
G0 X4.2228 Y-20.3249 
G0 Z2.0100
G0 X6.5856 Y-19.3087 
G1 X6.5856 Y-19.3087 Z1.9099 F75.
G1 X6.5856 Y-19.3087 Z1.8849 F25.
G1 X6.5772 Y-19.3124 Z1.8379
G1 X6.5533 Y-19.3232 Z1.7977
G1 X6.5173 Y-19.3395 Z1.7704
