( MOP:  Elbow-carve-front-02 )
( FILE: G:\Shared drives\AlloyProjectFiles\Customer CAD files\Alloy-Standard-Builds-CAM\t-in\Contours\Elbow-carve-front-02.nc)
G90
(  BEGIN TOOL LIST )
(  TOOL 11 - Downcut PT750 ROUGH - DESC: 0.7500 DIA, 2 FLUTE,  CARBIDE MAT )
(  ENDOF TOOL LIST )
( Elbow-carve-front-02)
T11
S14000
M3
G0 Z4.0000
G0 X8.2798 Y-23.1714 
G1 X8.2798 Y-23.1714 Z1.7767 F75.
G1 X8.3422 Y-23.1786 Z1.7656 F50.
G1 X8.4916 Y-23.1935 Z1.7391
G1 X8.7873 Y-23.2166 Z1.6868
G1 X9.0859 Y-23.2323 Z1.6341
G1 X9.3840 Y-23.2410 Z1.5815
G1 X9.6805 Y-23.2441 Z1.5292
G1 X10.2622 Y-23.2442 Z1.4267
G17
G2X9.0859Y-23.2323Z1.4267I-0.2848J29.9348 F150.
G2X7.7419Y-23.0936Z1.4267I0.3399J9.8778
G2X6.3888Y-22.6838Z1.4267I0.9496J5.5739
G2X4.7277Y-21.3459Z1.4267I1.7393J3.8595
G2X3.9940Y-19.3620Z1.4267I3.0555J2.2576
G2X4.1525Y-17.5137Z1.4267I6.0666J0.4106
G0 Z1.8879
G0 X4.1525 Y-17.5137 
G0 Z1.8879
G0 X4.0060 Y-19.4840 
G1 X4.0060 Y-19.4840 Z1.4433 F75.
G1 X3.9940 Y-19.3620 Z1.4217 F50.
G1 X3.9840 Y-19.2045 Z1.3939
G1 X3.9790 Y-19.0479 Z1.3663
G1 X3.9786 Y-18.8920 Z1.3388
G1 X3.9825 Y-18.7365 Z1.3113
G1 X3.9906 Y-18.5816 Z1.2840
G1 X4.0028 Y-18.4270 Z1.2566
G1 X4.0188 Y-18.2726 Z1.2293
G1 X4.0386 Y-18.1182 Z1.2018
G1 X4.0622 Y-17.9640 Z1.1743
G1 X4.0895 Y-17.8101 Z1.1468
G1 X4.1204 Y-17.6571 Z1.1192
G1 X4.1525 Y-17.5137 Z1.0933
G3X3.9940Y-19.3620Z1.0933I5.9081J-1.4377 F150.
G3X4.7277Y-21.3459Z1.0933I3.7860J0.2725
G3X6.3888Y-22.6838Z1.0933I3.3912J2.5102
G3X7.7419Y-23.0936Z1.0933I2.2764J5.0775
G3X8.7873Y-23.2166Z1.0933I1.6148J9.2199
G3X9.6805Y-23.2441Z1.0933I0.8688J13.7207
G1 X10.2622 Y-23.2442 Z1.0933
G0 Z1.7354
G0 X10.2622 Y-23.2442 
G0 Z1.7354
G0 X8.2798 Y-23.1714 
G1 X8.2798 Y-23.1714 Z1.1100 F75.
G1 X8.3422 Y-23.1786 Z1.0989 F50.
G1 X8.4916 Y-23.1935 Z1.0724
G1 X8.7873 Y-23.2166 Z1.0202
G1 X9.0859 Y-23.2323 Z0.9674
G1 X9.3840 Y-23.2410 Z0.9149
G1 X9.6805 Y-23.2441 Z0.8626
G1 X10.2622 Y-23.2442 Z0.7600
G2X9.0859Y-23.2323Z0.7600I-0.2848J29.9348 F150.
G2X7.7419Y-23.0936Z0.7600I0.3399J9.8778
G2X6.3888Y-22.6838Z0.7600I0.9496J5.5739
G2X4.7277Y-21.3459Z0.7600I1.7393J3.8595
G2X3.9940Y-19.3620Z0.7600I3.0555J2.2576
G2X4.1525Y-17.5137Z0.7600I6.0666J0.4106
G0 Z4.0000
G0 X4.1525 Y-17.5137 
M5
G53 Z
X2Y0
