( MOP:  Rear-control-back-04 )
( FILE: G:\Shared drives\AlloyProjectFiles\Customer CAD files\Alloy-Standard-Builds-CAM\t-in\Controls\Rear-control-back-04.nc)
G90
(  BEGIN TOOL LIST )
(  TOOL 3 - Downcut PT750 - DESC: 0.7500 DIA, 2 FLUTE,  CARBIDE MAT )
(  ENDOF TOOL LIST )
( Rear-control-back-04)
T03
S14000
M3
G0 Z4.0000
G0 X7.2606 Y-15.9550 
G1 X7.2606 Y-15.9550 Z0.2600 F75.
G17
G3X7.5106Y-15.7050Z0.2600I0.0000J0.2500 F50.
G1 X7.5106 Y-14.7612 Z0.2600
G1 X7.3425 Y-14.6921 Z0.2600
G1 X7.3150 Y-14.6849 Z0.2600
G3X7.0925Y-14.6629Z0.2600I-0.2339J-1.2304
G3X6.8699Y-14.6849Z0.2600I0.0490J-1.6332
G1 X6.8424 Y-14.6921 Z0.2600
G1 X6.6743 Y-14.7612 Z0.2600
G1 X6.6743 Y-16.8715 Z0.2600
G3X6.7127Y-16.9633Z0.2600I0.1409J0.0048
G3X6.8192Y-17.0690Z0.2600I154.3677J155.4980
G2X6.7520Y-17.8349Z0.2600I-0.4064J-0.3502
G3X6.6754Y-17.9501Z0.2600I0.1272J-0.1676
G1 X6.6743 Y-17.9670 Z0.2600
G1 X6.6743 Y-20.0552 Z0.2600
G3X7.0453Y-20.1695Z0.2600I0.8132J1.9809
G3X7.1821Y-20.1612Z0.2600I0.0517J0.2808
G3X7.5106Y-20.0552Z0.2600I-0.5442J2.2486
G1 X7.5106 Y-17.9670 Z0.2600
G3X7.4723Y-17.8751Z0.2600I-0.1408J-0.0048
G3X7.3658Y-17.7694Z0.2600I-154.3559J-155.4862
G2X7.4330Y-17.0035Z0.2600I0.4064J0.3502
G3X7.5096Y-16.8884Z0.2600I-0.1273J0.1676
G1 X7.5106 Y-16.8715 Z0.2600
G1 X7.5106 Y-15.7050 Z0.2600
G3X7.2606Y-15.4550Z0.2600I-0.2500J0.0000
G0 Z4.0000
G0 X7.2606 Y-15.4550 
M5
G53 Z
X2Y0
