( MOP:  Rear-control-back-03 )
( FILE: G:\Shared drives\AlloyProjectFiles\Customer CAD files\Alloy-Standard-Builds-CAM\t-in\Controls\Rear-control-back-03.nc)
G90
(  BEGIN TOOL LIST )
(  TOOL 3 - Downcut PT750 - DESC: 0.7500 DIA, 2 FLUTE,  CARBIDE MAT )
(  ENDOF TOOL LIST )
( Rear-control-back-03)
T03
S14000
M3
G0 Z4.0000
G0 X7.4616 Y-19.1300 
G1 X7.4616 Y-19.1300 Z1.6600 F75.
G17
G2X7.7116Y-19.3800Z1.6600I0.0000J-0.2500 F50.
G1 X7.7116 Y-19.9437 Z1.6600
G2X7.3624Y-20.4569Z1.6600I-0.5569J0.0036
G2X6.6288Y-20.2966Z1.6600I-0.2563J0.5859
G2X6.4988Y-19.9437Z1.6600I0.4015J0.3483
G1 X6.4988 Y-14.8948 Z1.6600
G2X6.8481Y-14.3816Z1.6600I0.5570J-0.0036
G2X7.5817Y-14.5419Z1.6600I0.2563J-0.5858
G2X7.7116Y-14.8948Z1.6600I-0.4016J-0.3483
G1 X7.7116 Y-19.3800 Z1.6600
G2X7.4616Y-19.6300Z1.6600I-0.2500J0.0000 F75.
G0 Z4.0000
G0 X7.4616 Y-19.6300 
M5
G53 Z
X2Y0
