( MOP:  Rear-control-back-01 )
( FILE: G:\Shared drives\AlloyProjectFiles\Customer CAD files\Alloy-Standard-Builds-CAM\t-in\Controls\Rear-control-back-01.nc)
G90
(  BEGIN TOOL LIST )
(  TOOL 19 - Downcut 1.5mm - DESC: 0.0590 DIA, 2 FLUTE,  CARBIDE MAT )
(  ENDOF TOOL LIST )
( Rear-control-back-01)
T19
S12000
M3
G0 Z4.0000
G0 X7.1052 Y-14.1692 
G0 Z1.8600
G81 X7.1052 Y-14.1692 Z1.3850 R1.8600 F25.0
G80
G0 Z2.0100
G0 X7.8951 Y-17.4192 
G0 Z1.8600
G81 X7.8951 Y-17.4192 Z1.3850 R1.8600 F25.0
G80
G0 Z2.0100
G0 X6.3153 Y-17.4192 
G0 Z1.8600
G81 X6.3153 Y-17.4192 Z1.3850 R1.8600 F25.0
G80
G0 Z2.0100
G0 X7.1052 Y-20.6692 
G0 Z1.8600
G81 X7.1052 Y-20.6692 Z1.3850 R1.8600 F25.0
G80
G0 Z4.0000
G0 X7.1052 Y-20.6692 
M5
G53 Z
X2Y0
