( MOP:  Rear-control-switch-front-02 )
( FILE: G:\Shared drives\AlloyProjectFiles\Customer CAD files\Alloy-Standard-Builds-CAM\t-in\Controls\Rear-control-switch-front-02.nc)
G90
(  BEGIN TOOL LIST )
(  TOOL 20 - Downcut 2mm - DESC: 0.0787 DIA, 2 FLUTE,  CARBIDE MAT )
(  ENDOF TOOL LIST )
( Rear-control-switch-front-02)
T20
S14000
M3
G0 Z4.0000
G0 X14.3608 Y-15.3021 
G1 X14.3608 Y-15.3021 Z1.7600 F75.
G1 X14.3608 Y-15.0185 Z1.7100 F25.
G1 X14.3608 Y-16.0304 Z1.7100 F35.
G0 Z2.0100
G0 X14.3608 Y-16.0304 
G0 Z2.0100
G0 X14.3608 Y-15.7469 
G1 X14.3608 Y-15.7469 Z1.7100 F75.
G1 X14.3608 Y-16.0304 Z1.6600 F25.
G1 X14.3608 Y-15.0185 Z1.6600 F35.
G0 Z2.0100
G0 X14.3608 Y-15.0185 
G0 Z2.0100
G0 X14.3608 Y-15.3021 
G1 X14.3608 Y-15.3021 Z1.6600 F75.
G1 X14.3608 Y-15.0185 Z1.6100 F25.
G1 X14.3608 Y-16.0304 Z1.6100 F35.
G0 Z2.0100
G0 X14.3608 Y-16.0304 
G0 Z2.0100
G0 X14.3608 Y-15.7469 
G1 X14.3608 Y-15.7469 Z1.6100 F75.
G1 X14.3608 Y-16.0304 Z1.5600 F25.
G1 X14.3608 Y-15.0185 Z1.5600 F35.
G0 Z2.0100
G0 X14.3608 Y-15.0185 
G0 Z2.0100
G0 X14.3608 Y-15.3021 
G1 X14.3608 Y-15.3021 Z1.5600 F75.
G1 X14.3608 Y-15.0185 Z1.5100 F25.
G1 X14.3608 Y-16.0304 Z1.5100 F35.
G0 Z4.0000
G0 X14.3608 Y-16.0304 
M5
G53 Z
X2Y0
