( MOP:  10-FullBody-StandardS-01 )
( FILE: G:\Shared drives\AlloyProjectFiles\Customer CAD files\Alloy-Standard-Builds-CAM\s-in\FullStandardS-Specific\10-FullBody-StandardS-01.nc)
G90
(  BEGIN TOOL LIST )
(  TOOL 13 - Straight PT750 - DESC: 0.7500 DIA, 2 FLUTE,  CARBIDE MAT )
(  ENDOF TOOL LIST )
( 10-FullBody-StandardS-01)
T13
S14000
M3
G0 Z6.0000
G0 X2.5291 Y-18.5180 
G1 X2.5291 Y-18.5180 Z0.0000 F75.
G17
G2X3.0347Y-19.0260Z0.0000I0.0056J-0.4999 F30.
G3X3.2061Y-20.2525Z0.0000I4.0711J-0.0564
G3X3.8345Y-21.4840Z0.0000I3.9526J1.2409
G3X4.4092Y-22.0381Z0.0000I2.5896J2.1111
G3X6.1110Y-22.9105Z0.0000I3.1455J4.0395
G3X7.2769Y-23.1101Z0.0000I1.5946J5.8094
G3X8.3720Y-23.1553Z0.0000I1.1570J14.7420
G3X11.1216Y-23.1528Z0.0000I1.1584J232.0705
G3X12.1637Y-23.1040Z0.0000I-0.0483J12.1917
G3X14.1404Y-22.5993Z0.0000I-0.6627J6.7183
G3X15.7849Y-21.2873Z0.0000I-1.5781J3.6646
G3X16.4817Y-19.4431Z0.0000I-2.9458J2.1669
G3X16.4764Y-18.4441Z0.0000I-5.4247J0.4707
G3X16.2089Y-16.9361Z0.0000I-9.7801J-0.9569
G3X15.5001Y-14.8078Z0.0000I-15.2498J-3.8971
G3X15.0718Y-13.8135Z0.0000I-34.0676J-14.0841
G2X14.7198Y-12.9478Z0.0000I12.9114J5.7542
G2X14.5913Y-12.4493Z0.0000I2.5339J0.9192
G2X14.5785Y-11.9320Z0.0000I2.2968J0.3153
G2X14.7442Y-11.0524Z0.0000I4.7759J-0.4439
G2X14.9947Y-10.2392Z0.0000I14.6678J-4.0731
G3X15.3645Y-9.0698Z0.0000I-23.1234J7.9553
G3X15.5683Y-7.9698Z0.0000I-6.8183J1.8324
G3X15.6153Y-6.8473Z0.0000I-7.5607J0.8790
G3X15.4723Y-5.8120Z0.0000I-4.9242J-0.1527
G3X15.1945Y-5.1082Z0.0000I-2.9645J-0.7633
G3X14.7749Y-4.5578Z0.0000I-1.5927J-0.7791
G3X14.2028Y-4.2817Z0.0000I-0.7926J-0.9116
G3X13.2951Y-4.5623Z0.0000I-0.1717J-1.0533
G3X13.0673Y-4.9392Z0.0000I0.6394J-0.6437
G3X13.0100Y-5.2612Z0.0000I1.3521J-0.4067
G1 X12.9990 Y-5.4674 Z0.0000
G2X12.9478Y-6.1386Z0.0000I-5.1481J0.0549
G2X12.5743Y-6.9643Z0.0000I-1.5780J0.2164
G2X11.5510Y-7.4201Z0.0000I-1.0004J0.8694
G2X11.3682Y-7.3716Z0.0000I0.0068J0.3944
G2X11.2138Y-7.2196Z0.0000I0.4176J0.5786
G2X11.1699Y-7.1027Z0.0000I0.3473J0.1970
G3X10.6090Y-6.6449Z0.0000I-0.5609J-0.1147
G1 X8.8100 Y-6.6449 Z0.0000
G3X8.2508Y-7.2090Z0.0000I0.0135J-0.5726
G1 X8.2488 Y-8.9604 Z0.0000
G2X8.0682Y-9.0586Z0.0000I-0.5158J0.7330
G2X7.6819Y-9.1953Z0.0000I-1.2296J2.8619
G2X7.3169Y-9.2063Z0.0000I-0.2126J0.9932
G2X6.7368Y-8.9758Z0.0000I0.1068J1.1141
G2X6.4858Y-8.6818Z0.0000I0.6959J0.8482
G2X6.2706Y-8.1304Z0.0000I1.7265J0.9916
G1 X6.2450 Y-8.0254 Z0.0000
G3X6.1217Y-7.5124Z0.0000I-10.5869J-2.2716
G3X5.6397Y-6.9146Z0.0000I-0.9539J-0.2759
G3X4.7900Y-6.8937Z0.0000I-0.4465J-0.8734
G3X4.2247Y-7.3844Z0.0000I0.5330J-1.1850
G3X3.9921Y-7.9032Z0.0000I1.5779J-1.0191
G3X3.8595Y-8.8532Z0.0000I3.5135J-0.9744
G3X4.1951Y-10.7438Z0.0000I5.0448J-0.0797
G1 X4.2556 Y-10.9018 Z0.0000
G1 X4.3177 Y-11.0559 Z0.0000
G2X4.6696Y-11.9039Z0.0000I-22.8174J-9.9661
G2X4.8473Y-12.5174Z0.0000I-3.1421J-1.2429
G2X4.8523Y-13.0747Z0.0000I-1.7864J-0.2945
G2X4.6536Y-13.8083Z0.0000I-3.3399J0.5109
G2X4.2934Y-14.6315Z0.0000I-9.6672J3.7394
G3X3.7319Y-15.8795Z0.0000I19.0514J-9.3213
G3X3.1283Y-17.9779Z0.0000I9.6010J-3.8980
G3X3.0419Y-19.3103Z0.0000I6.0230J-1.0593
G3X3.0594Y-19.5252Z0.0000I3.3904J0.1675
G2X2.6129Y-20.0741Z0.0000I-0.4973J-0.0515
G0 Z6.0000
G0 X2.6129 Y-20.0741 
M5
G53 Z
X2Y0
