( MOP:  BackRoundover-PT5-01-back )
( FILE: G:\Shared drives\AlloyProjectFiles\Customer CAD files\Alloy-Standard-Builds-CAM\s-in\EdgeTreatment\BackRoundover-PT5-01-back.nc)
G90
(  BEGIN TOOL LIST )
(  TOOL 11 - Downcut PT750 ROUGH - DESC: 0.7500 DIA, 2 FLUTE,  CARBIDE MAT )
(  ENDOF TOOL LIST )
( BackRoundover-PT5-01-back)
T11
S14000
M3
G0 Z4.0000
G0 X3.5840 Y-21.1848 
G1 X3.5840 Y-21.1848 Z1.9000 F75.
G1 X3.5504 Y-21.1285 Z1.8884 F50.
G1 X3.4992 Y-21.0380 Z1.8701
G1 X3.4480 Y-20.9422 Z1.8509
G1 X3.3973 Y-20.8411 Z1.8310
G1 X3.3475 Y-20.7350 Z1.8103
G1 X3.2991 Y-20.6241 Z1.7890
G1 X3.2526 Y-20.5084 Z1.7670
G1 X3.2090 Y-20.3891 Z1.7446
G1 X3.1677 Y-20.2638 Z1.7213
G1 X3.1302 Y-20.1351 Z1.6977
G1 X3.0969 Y-20.0026 Z1.6736
G1 X3.0684 Y-19.8678 Z1.6493
G1 X3.0449 Y-19.7311 Z1.6249
G1 X3.0261 Y-19.5929 Z1.6003
G1 X3.0119 Y-19.4531 Z1.5755
G1 X3.0020 Y-19.3120 Z1.5506
G1 X2.9963 Y-19.1696 Z1.5254
G1 X2.9947 Y-19.0254 Z1.5000
G17
G2X3.0383Y-18.3258Z1.5000I6.1373J-0.0319 F150.
G2X3.2392Y-17.2578Z1.5000I8.2986J-1.0078
G2X3.8336Y-15.5311Z1.5000I11.0848J-2.8502
G1 X3.9756 Y-15.2135 Z1.5000
G1 X4.1179 Y-14.9087 Z1.5000
G1 X4.2572 Y-14.6145 Z1.5000
G3X4.5654Y-13.9242Z1.5000I-12.6938J6.0809
G3X4.7697Y-13.3008Z1.5000I-4.0488J1.6725
G3X4.8307Y-12.8437Z1.5000I-2.1768J0.5232
G3X4.8079Y-12.5243Z1.5000I-1.6880J0.0400
G3X4.7206Y-12.1708Z1.5000I-2.4789J-0.4246
G3X4.5254Y-11.6512Z1.5000I-5.9956J-1.9569
G1 X4.2806 Y-11.0708 Z1.5000
G2X4.0445Y-10.4273Z1.5000I7.1429J2.9857
G2X3.8382Y-9.3747Z1.5000I4.7610J1.4796
G2X3.8382Y-8.5154Z1.5000I4.7859J0.4294
G2X3.9148Y-8.0391Z1.5000I3.5807J-0.3316
G1 X3.9534 Y-7.8927 Z1.5000
G1 X3.9993 Y-7.7520 Z1.5000
G2X4.2721Y-7.2504Z1.5000I1.6631J-0.5795
G2X4.7184Y-6.8827Z1.5000I1.0446J-0.8133
G2X5.3715Y-6.7820Z1.5000I0.4810J-0.9514
G2X6.0223Y-7.2085Z1.5000I-0.1668J-0.9644
G2X6.1597Y-7.4998Z1.5000I-0.9270J-0.6156
G1 X6.1890 Y-7.6045 Z1.5000
G1 X6.2359 Y-7.8032 Z1.5000
G3X6.3369Y-8.2224Z1.5000I6.9742J1.4584
G3X6.5201Y-8.6611Z1.5000I1.7716J0.4820
G3X6.6725Y-8.8624Z1.5000I0.9653J0.5724
G3X7.1102Y-9.1236Z1.5000I0.6964J0.6698
G3X7.5544Y-9.1746Z1.5000I0.3747J1.3020
G3X7.7412Y-9.1377Z1.5000I-0.0676J0.8320
G3X8.1108Y-8.9950Z1.5000I-0.9927J3.1217
G3X8.2088Y-8.9396Z1.5000I-0.3244J0.6888
G1 X8.2108 Y-7.2085 Z1.5000
G2X8.8232Y-6.6049Z1.5000I0.6124J-0.0089
G1 X10.6090 Y-6.6049 Z1.5000
G2X11.2065Y-7.0821Z1.5000I-0.0001J-0.6128
G1 X11.2113 Y-7.1052 Z1.5000
G3X11.2474Y-7.1976Z1.5000I0.3406J0.0799
G3X11.3670Y-7.3215Z1.5000I0.6336J0.4921
G1 X11.3887 Y-7.3372 Z1.5000
G3X11.5506Y-7.3801Z1.5000I0.1694J0.3123
G3X11.9682Y-7.3182Z1.5000I0.0147J1.3403
G3X12.4910Y-6.9948Z1.5000I-0.3948J1.2227
G3X12.8738Y-6.3022Z1.5000I-1.0697J1.0433
G3X12.9317Y-5.9505Z1.5000I-2.4086J0.5767
G1 X12.9398 Y-5.8583 Z1.5000
G1 X12.9513 Y-5.6642 Z1.5000
G1 X12.9590 Y-5.4654 Z1.5000
G1 X12.9702 Y-5.2572 Z1.5000
G1 X12.9819 Y-5.1473 Z1.5000
G1 X13.0002 Y-5.0394 Z1.5000
G1 X13.0284 Y-4.9297 Z1.5000
G2X13.3128Y-4.4911Z1.5000I0.9065J-0.2764
G1 X13.3918 Y-4.4288 Z1.5000
G2X13.5138Y-4.3548Z1.5000I0.7183J-1.0465
G1 X13.5954 Y-4.3162 Z1.5000
G1 X13.6950 Y-4.2801 Z1.5000
G1 X13.7954 Y-4.2539 Z1.5000
G2X14.0088Y-4.2288Z1.5000I0.2451J-1.1629
G1 X14.1085 Y-4.2308 Z1.5000
G1 X14.2066 Y-4.2418 Z1.5000
G1 X14.3017 Y-4.2614 Z1.5000
G2X14.5745Y-4.3708Z1.5000I-0.2934J-1.1266
G2X14.9385Y-4.6600Z1.5000I-0.6958J-1.2496
G2X15.1815Y-5.0003Z1.5000I-1.3647J-1.2315
G2X15.3748Y-5.3933Z1.5000I-3.6976J-2.0628
G2X15.5434Y-5.9363Z1.5000I-3.0079J-1.2315
G2X15.6587Y-6.9736Z1.5000I-5.1239J-1.0947
G1 X15.6596 Y-7.1004 Z1.5000
G1 X15.6579 Y-7.2300 Z1.5000
G1 X15.6485 Y-7.4795 Z1.5000
G2X15.5771Y-8.2221Z1.5000I-8.8902J0.4800
G1 X15.5389 Y-8.4655 Z1.5000
G2X15.3146Y-9.3825Z1.5000I-6.7925J1.1756
G1 X15.2586 Y-9.5620 Z1.5000
G1 X15.1454 Y-9.9109 Z1.5000
G3X14.8743Y-10.7467Z1.5000I42.9195J-14.3826
G3X14.6766Y-11.5144Z1.5000I7.4487J-2.3271
G3X14.6114Y-12.0677Z1.5000I3.4030J-0.6818
G3X14.6173Y-12.3221Z1.5000I2.3109J-0.0734
G3X14.6514Y-12.5610Z1.5000I1.9221J0.1528
G3X14.8029Y-13.0592Z1.5000I3.2537J0.7167
G3X15.1085Y-13.7976Z1.5000I15.6133J6.0302
G2X15.5372Y-14.7930Z1.5000I-43.9137J-19.5037
G2X16.1495Y-16.5586Z1.5000I-15.2218J-6.2678
G2X16.4445Y-17.8713Z1.5000I-11.3992J-3.2513
G2X16.5392Y-18.8167Z1.5000I-7.4967J-1.2280
G2X16.5215Y-19.4475Z1.5000I-5.0031J-0.1752
G2X16.2373Y-20.5760Z1.5000I-3.7265J0.3383
G2X15.1511Y-22.0235Z1.5000I-3.6037J1.5729
G2X14.2793Y-22.5795Z1.5000I-2.6406J3.1790
G2X13.5180Y-22.8712Z1.5000I-2.3760J5.0614
G2X12.4061Y-23.1162Z1.5000I-2.0521J6.6682
G1 X12.1670 Y-23.1439 Z1.5000
G1 X11.9233 Y-23.1642 Z1.5000
G1 X11.6710 Y-23.1783 Z1.5000
G1 X11.4058 Y-23.1874 Z1.5000
G1 X11.1218 Y-23.1928 Z1.5000
G1 X10.4858 Y-23.1967 Z1.5000
G2X8.3713Y-23.1953Z1.5000I-0.8813J276.7307
G2X7.4177Y-23.1611Z1.5000I0.1442J17.3091
G2X6.4702Y-23.0389Z1.5000I0.4667J7.3518
G2X5.1767Y-22.5777Z1.5000I0.9334J4.6622
G2X4.2161Y-21.9319Z1.5000I2.4078J4.6190
G2X3.8026Y-21.5082Z1.5000I1.9676J2.3339
G1 X3.7492 Y-21.4373 Z1.5000
G1 X3.6966 Y-21.3620 Z1.5000
G2X3.1302Y-20.1351Z1.5000I3.5182J2.3684
G2X3.0119Y-19.4531Z1.5000I3.6599J0.9865
G2X2.9979Y-18.8520Z1.5000I5.0185J0.4176
G1 X3.0063 Y-18.6777 Z1.5000
G1 X3.0181 Y-18.5261 Z1.5000
G0 Z2.2495
G0 X3.0181 Y-18.5261 
G0 Z2.2495
G0 X3.5840 Y-21.1848 
G1 X3.5840 Y-21.1848 Z1.6500 F75.
G1 X3.5504 Y-21.1285 Z1.6384 F50.
G1 X3.4992 Y-21.0380 Z1.6201
G1 X3.4480 Y-20.9422 Z1.6009
G1 X3.3973 Y-20.8411 Z1.5810
G1 X3.3475 Y-20.7350 Z1.5603
G1 X3.2991 Y-20.6241 Z1.5390
G1 X3.2526 Y-20.5084 Z1.5170
G1 X3.2090 Y-20.3891 Z1.4946
G1 X3.1677 Y-20.2638 Z1.4713
G1 X3.1302 Y-20.1351 Z1.4477
G1 X3.0969 Y-20.0026 Z1.4236
G1 X3.0684 Y-19.8678 Z1.3993
G1 X3.0449 Y-19.7311 Z1.3749
G1 X3.0261 Y-19.5929 Z1.3503
G1 X3.0119 Y-19.4531 Z1.3255
G1 X3.0020 Y-19.3120 Z1.3006
G1 X2.9963 Y-19.1696 Z1.2754
G1 X2.9947 Y-19.0254 Z1.2500
G2X3.0383Y-18.3258Z1.2500I6.1373J-0.0319 F150.
G2X3.2392Y-17.2578Z1.2500I8.2986J-1.0078
G2X3.8336Y-15.5311Z1.2500I11.0848J-2.8502
G1 X3.9756 Y-15.2135 Z1.2500
G1 X4.1179 Y-14.9087 Z1.2500
G1 X4.2572 Y-14.6145 Z1.2500
G3X4.5654Y-13.9242Z1.2500I-12.6938J6.0809
G3X4.7697Y-13.3008Z1.2500I-4.0488J1.6725
G3X4.8307Y-12.8437Z1.2500I-2.1768J0.5232
G3X4.8079Y-12.5243Z1.2500I-1.6880J0.0400
G3X4.7206Y-12.1708Z1.2500I-2.4789J-0.4246
G3X4.5254Y-11.6512Z1.2500I-5.9956J-1.9569
G1 X4.2806 Y-11.0708 Z1.2500
G2X4.0445Y-10.4273Z1.2500I7.1429J2.9857
G2X3.8382Y-9.3747Z1.2500I4.7610J1.4796
G2X3.8382Y-8.5154Z1.2500I4.7859J0.4294
G2X3.9148Y-8.0391Z1.2500I3.5807J-0.3316
G1 X3.9534 Y-7.8927 Z1.2500
G1 X3.9993 Y-7.7520 Z1.2500
G2X4.2721Y-7.2504Z1.2500I1.6631J-0.5795
G2X4.7184Y-6.8827Z1.2500I1.0446J-0.8133
G2X5.3715Y-6.7820Z1.2500I0.4810J-0.9514
G2X6.0223Y-7.2085Z1.2500I-0.1668J-0.9644
G2X6.1597Y-7.4998Z1.2500I-0.9270J-0.6156
G1 X6.1890 Y-7.6045 Z1.2500
G1 X6.2359 Y-7.8032 Z1.2500
G3X6.3369Y-8.2224Z1.2500I6.9742J1.4584
G3X6.5201Y-8.6611Z1.2500I1.7716J0.4820
G3X6.6725Y-8.8624Z1.2500I0.9653J0.5724
G3X7.1102Y-9.1236Z1.2500I0.6964J0.6698
G3X7.5544Y-9.1746Z1.2500I0.3747J1.3020
G3X7.7412Y-9.1377Z1.2500I-0.0676J0.8320
G3X8.1108Y-8.9950Z1.2500I-0.9927J3.1217
G3X8.2088Y-8.9396Z1.2500I-0.3244J0.6888
G1 X8.2108 Y-7.2085 Z1.2500
G2X8.8232Y-6.6049Z1.2500I0.6124J-0.0089
G1 X10.6090 Y-6.6049 Z1.2500
G2X11.2065Y-7.0821Z1.2500I-0.0001J-0.6128
G1 X11.2113 Y-7.1052 Z1.2500
G3X11.2474Y-7.1976Z1.2500I0.3406J0.0799
G3X11.3670Y-7.3215Z1.2500I0.6336J0.4921
G1 X11.3887 Y-7.3372 Z1.2500
G3X11.5506Y-7.3801Z1.2500I0.1694J0.3123
G3X11.9682Y-7.3182Z1.2500I0.0147J1.3403
G3X12.4910Y-6.9948Z1.2500I-0.3948J1.2227
G3X12.8738Y-6.3022Z1.2500I-1.0697J1.0433
G3X12.9317Y-5.9505Z1.2500I-2.4086J0.5767
G1 X12.9398 Y-5.8583 Z1.2500
G1 X12.9513 Y-5.6642 Z1.2500
G1 X12.9590 Y-5.4654 Z1.2500
G1 X12.9702 Y-5.2572 Z1.2500
G1 X12.9819 Y-5.1473 Z1.2500
G1 X13.0002 Y-5.0394 Z1.2500
G1 X13.0284 Y-4.9297 Z1.2500
G2X13.3128Y-4.4911Z1.2500I0.9065J-0.2764
G1 X13.3918 Y-4.4288 Z1.2500
G2X13.5138Y-4.3548Z1.2500I0.7183J-1.0465
G1 X13.5954 Y-4.3162 Z1.2500
G1 X13.6950 Y-4.2801 Z1.2500
G1 X13.7954 Y-4.2539 Z1.2500
G2X14.0088Y-4.2288Z1.2500I0.2451J-1.1629
G1 X14.1085 Y-4.2308 Z1.2500
G1 X14.2066 Y-4.2418 Z1.2500
G1 X14.3017 Y-4.2614 Z1.2500
G2X14.5745Y-4.3708Z1.2500I-0.2934J-1.1266
G2X14.9385Y-4.6600Z1.2500I-0.6958J-1.2496
G2X15.1815Y-5.0003Z1.2500I-1.3647J-1.2315
G2X15.3748Y-5.3933Z1.2500I-3.6976J-2.0628
G2X15.5434Y-5.9363Z1.2500I-3.0079J-1.2315
G2X15.6587Y-6.9736Z1.2500I-5.1239J-1.0947
G1 X15.6596 Y-7.1004 Z1.2500
G1 X15.6579 Y-7.2300 Z1.2500
G1 X15.6485 Y-7.4795 Z1.2500
G2X15.5771Y-8.2221Z1.2500I-8.8902J0.4800
G1 X15.5389 Y-8.4655 Z1.2500
G2X15.3146Y-9.3825Z1.2500I-6.7925J1.1756
G1 X15.2586 Y-9.5620 Z1.2500
G1 X15.1454 Y-9.9109 Z1.2500
G3X14.8743Y-10.7467Z1.2500I42.9195J-14.3826
G3X14.6766Y-11.5144Z1.2500I7.4487J-2.3271
G3X14.6114Y-12.0677Z1.2500I3.4030J-0.6818
G3X14.6173Y-12.3221Z1.2500I2.3109J-0.0734
G3X14.6514Y-12.5610Z1.2500I1.9221J0.1528
G3X14.8029Y-13.0592Z1.2500I3.2537J0.7167
G3X15.1085Y-13.7976Z1.2500I15.6133J6.0302
G2X15.5372Y-14.7930Z1.2500I-43.9137J-19.5037
G2X16.1495Y-16.5586Z1.2500I-15.2218J-6.2678
G2X16.4445Y-17.8713Z1.2500I-11.3992J-3.2513
G2X16.5392Y-18.8167Z1.2500I-7.4967J-1.2280
G2X16.5215Y-19.4475Z1.2500I-5.0031J-0.1752
G2X16.2373Y-20.5760Z1.2500I-3.7265J0.3383
G2X15.1511Y-22.0235Z1.2500I-3.6037J1.5729
G2X14.2793Y-22.5795Z1.2500I-2.6406J3.1790
G2X13.5180Y-22.8712Z1.2500I-2.3760J5.0614
G2X12.4061Y-23.1162Z1.2500I-2.0521J6.6682
G1 X12.1670 Y-23.1439 Z1.2500
G1 X11.9233 Y-23.1642 Z1.2500
G1 X11.6710 Y-23.1783 Z1.2500
G1 X11.4058 Y-23.1874 Z1.2500
G1 X11.1218 Y-23.1928 Z1.2500
G1 X10.4858 Y-23.1967 Z1.2500
G2X8.3713Y-23.1953Z1.2500I-0.8813J276.7307
G2X7.4177Y-23.1611Z1.2500I0.1442J17.3091
G2X6.4702Y-23.0389Z1.2500I0.4667J7.3518
G2X5.1767Y-22.5777Z1.2500I0.9334J4.6622
G2X4.2161Y-21.9319Z1.2500I2.4078J4.6190
G2X3.8026Y-21.5082Z1.2500I1.9676J2.3339
G1 X3.7492 Y-21.4373 Z1.2500
G1 X3.6966 Y-21.3620 Z1.2500
G2X3.1302Y-20.1351Z1.2500I3.5182J2.3684
G2X3.0119Y-19.4531Z1.2500I3.6599J0.9865
G2X2.9979Y-18.8520Z1.2500I5.0185J0.4176
G1 X3.0063 Y-18.6777 Z1.2500
G1 X3.0181 Y-18.5261 Z1.2500
G0 Z4.0000
G0 X3.0181 Y-18.5261 
M5
G53 Z
X2Y0
