( MOP:  BellyCarve-back-01 )
( FILE: G:\Shared drives\AlloyProjectFiles\Customer CAD files\Alloy-Standard-Builds-CAM\s-in\FullStandardS-Specific\BellyCarve-back-01.nc)
G90
(  BEGIN TOOL LIST )
(  TOOL 11 - Downcut PT750 ROUGH - DESC: 0.7500 DIA, 2 FLUTE,  CARBIDE MAT )
(  ENDOF TOOL LIST )
( BellyCarve-back-01)
T11
S14000
M3
G0 Z4.0000
G0 X15.5898 Y-8.1259 
G1 X15.5898 Y-8.1259 Z1.7500 F75.
G1 X15.6049 Y-8.0027 Z1.7281 F50.
G1 X15.6204 Y-7.8537 Z1.7017
G1 X15.6334 Y-7.7052 Z1.6754
G1 X15.6439 Y-7.5570 Z1.6492
G1 X15.6519 Y-7.4085 Z1.6230
G1 X15.6572 Y-7.2592 Z1.5966
G1 X15.6595 Y-7.1089 Z1.5701
G1 X15.6584 Y-6.9576 Z1.5435
G1 X15.6536 Y-6.8053 Z1.5166
G1 X15.6487 Y-6.7113 Z1.5000
G17
G2X15.5139Y-8.6010Z1.5000I-8.0257J-0.3775 F150.
G2X15.2979Y-9.4365Z1.5000I-6.9100J1.3415
G2X14.9249Y-10.5836Z1.5000I-294.4611J95.0936
G3X14.6877Y-11.4588Z1.5000I8.3172J-2.7243
G3X14.6141Y-12.2723Z1.5000I3.0864J-0.6893
G3X14.7207Y-12.8237Z1.5000I2.1559J0.1307
G3X14.9361Y-13.3929Z1.5000I6.2364J2.0347
G3X15.4144Y-14.4998Z1.5000I67.6104J28.5626
G2X16.2453Y-16.9162Z1.5000I-15.0095J-6.5122
G2X16.5174Y-18.4524Z1.5000I-9.7265J-2.5144
G2X16.5058Y-19.5871Z1.5000I-5.3173J-0.5135
G0 Z1.7500
G0 X16.5058 Y-19.5871 
G0 Z1.7500
G0 X16.4871 Y-18.1731 
G1 X16.4871 Y-18.1731 Z1.5000 F75.
G1 X16.4999 Y-18.2770 Z1.4815 F50.
G1 X16.5174 Y-18.4524 Z1.4504
G1 X16.5305 Y-18.6293 Z1.4192
G1 X16.5390 Y-18.8078 Z1.3877
G1 X16.5420 Y-18.9882 Z1.3559
G1 X16.5390 Y-19.1702 Z1.3238
G1 X16.5292 Y-19.3538 Z1.2913
G1 X16.5125 Y-19.5333 Z1.2595
G1 X16.5058 Y-19.5871 Z1.2500
G3X16.5305Y-18.6293Z1.2500I-5.0067J0.6083 F150.
G3X16.2863Y-17.0831Z1.2500I-9.1606J-0.6543
G3X15.6716Y-15.1304Z1.2500I-14.8749J-3.6099
G3X15.1044Y-13.7881Z1.2500I-28.6507J-11.3157
G2X14.7506Y-12.9144Z1.2500I13.1319J5.8265
G2X14.6141Y-12.2723Z1.2500I2.2263J0.8088
G2X14.6877Y-11.4588Z1.2500I3.1600J0.1242
G2X14.8563Y-10.8057Z1.2500I7.1696J-1.5026
G2X15.2236Y-9.6711Z1.2500I49.4978J-15.3975
G3X15.4832Y-8.7508Z1.2500I-8.7809J2.9738
G3X15.6536Y-6.8053Z1.2500I-7.9701J1.6780
G1 X15.6487 Y-6.7113 Z1.2500
G0 Z1.6250
G0 X15.6487 Y-6.7113 
G0 Z1.6250
G0 X15.5898 Y-8.1259 
G1 X15.5898 Y-8.1259 Z1.2500 F75.
G1 X15.6049 Y-8.0027 Z1.2281 F50.
G1 X15.6204 Y-7.8537 Z1.2017
G1 X15.6334 Y-7.7052 Z1.1754
G1 X15.6439 Y-7.5570 Z1.1492
G1 X15.6519 Y-7.4085 Z1.1230
G1 X15.6572 Y-7.2592 Z1.0966
G1 X15.6595 Y-7.1089 Z1.0701
G1 X15.6584 Y-6.9576 Z1.0435
G1 X15.6536 Y-6.8053 Z1.0166
G1 X15.6487 Y-6.7113 Z1.0000
G2X15.5139Y-8.6010Z1.0000I-8.0257J-0.3775 F150.
G2X15.2979Y-9.4365Z1.0000I-6.9100J1.3415
G2X14.9249Y-10.5836Z1.0000I-294.4611J95.0936
G3X14.6877Y-11.4588Z1.0000I8.3172J-2.7243
G3X14.6141Y-12.2723Z1.0000I3.0864J-0.6893
G3X14.7207Y-12.8237Z1.0000I2.1559J0.1307
G3X14.9361Y-13.3929Z1.0000I6.2364J2.0347
G3X15.4144Y-14.4998Z1.0000I67.6104J28.5626
G2X16.2453Y-16.9162Z1.0000I-15.0095J-6.5122
G2X16.5174Y-18.4524Z1.0000I-9.7265J-2.5144
G2X16.5058Y-19.5871Z1.0000I-5.3173J-0.5135
G0 Z1.6230
G0 X16.5058 Y-19.5871 
G0 Z1.6230
G0 X16.4871 Y-18.1731 
G1 X16.4871 Y-18.1731 Z1.0000 F75.
G1 X16.4999 Y-18.2770 Z0.9815 F50.
G1 X16.5174 Y-18.4524 Z0.9504
G1 X16.5305 Y-18.6293 Z0.9192
G1 X16.5390 Y-18.8078 Z0.8877
G1 X16.5420 Y-18.9882 Z0.8559
G1 X16.5390 Y-19.1702 Z0.8238
G1 X16.5292 Y-19.3538 Z0.7913
G1 X16.5125 Y-19.5333 Z0.7595
G1 X16.5058 Y-19.5871 Z0.7500
G3X16.5305Y-18.6293Z0.7500I-5.0067J0.6083 F150.
G3X16.2863Y-17.0831Z0.7500I-9.1606J-0.6543
G3X15.6716Y-15.1304Z0.7500I-14.8749J-3.6099
G3X15.1044Y-13.7881Z0.7500I-28.6507J-11.3157
G2X14.7506Y-12.9144Z0.7500I13.1319J5.8265
G2X14.6141Y-12.2723Z0.7500I2.2263J0.8088
G2X14.6877Y-11.4588Z0.7500I3.1600J0.1242
G2X14.8563Y-10.8057Z0.7500I7.1696J-1.5026
G2X15.2236Y-9.6711Z0.7500I49.4978J-15.3975
G3X15.4832Y-8.7508Z0.7500I-8.7809J2.9738
G3X15.6536Y-6.8053Z0.7500I-7.9701J1.6780
G1 X15.6487 Y-6.7113 Z0.7500
G0 Z4.0000
G0 X15.6487 Y-6.7113 
M5
G53 Z
X2Y0
