( MOP:  Elbow-carve-front-02 )
( FILE: G:\Shared drives\AlloyProjectFiles\Customer CAD files\Alloy-Standard-Builds-CAM\s-in\FullStandardS-Specific\Elbow-carve-front-02.nc)
G90
(  BEGIN TOOL LIST )
(  TOOL 12 - Ball PT750 - DESC: 0.7500 DIA, 2 FLUTE,  CARBIDE MAT )
(  ENDOF TOOL LIST )
( Elbow-carve-front-02)
T12
S12000
M3
G0 Z4.0000
G0 X4.0235 Y-16.7774 
G1 X4.0235 Y-16.7774 Z1.8650 F75.
G1 X4.0162 Y-16.7752 Z1.8268 F25.
G1 X3.9955 Y-16.7689 Z1.7943
G1 X3.9644 Y-16.7596 Z1.7727
G1 X3.9278 Y-16.7486 Z1.7650
G1 X3.8368 Y-16.7212 Z1.7650 F150.
G1 X3.8186 Y-16.7157 Z1.7643
G1 X3.8004 Y-16.7102 Z1.7625
G1 X3.7822 Y-16.7047 Z1.7598
G0 Z1.8900
G0 X3.7822 Y-16.7047 
G0 Z1.8900
G0 X4.1360 Y-16.8493 
G1 X4.1360 Y-16.8493 Z1.8650 F75.
G1 X4.1287 Y-16.8471 Z1.8268 F25.
G1 X4.1079 Y-16.8410 Z1.7943
G1 X4.0768 Y-16.8319 Z1.7727
G1 X4.0400 Y-16.8212 Z1.7650
G1 X3.8307 Y-16.7599 Z1.7650 F150.
G1 X3.8075 Y-16.7530 Z1.7642
G1 X3.7842 Y-16.7462 Z1.7618
G1 X3.7610 Y-16.7394 Z1.7578
G1 X3.7377 Y-16.7326 Z1.7521
G1 X3.7028 Y-16.7224 Z1.7411
G1 X3.6912 Y-16.7190 Z1.7376
G1 X3.6679 Y-16.7122 Z1.7299
G0 Z1.8900
G0 X3.6679 Y-16.7122 
G0 Z1.8900
G0 X4.2268 Y-16.9130 
G1 X4.2268 Y-16.9130 Z1.8650 F75.
G1 X4.2195 Y-16.9109 Z1.8268 F25.
G1 X4.1986 Y-16.9049 Z1.7943
G1 X4.1674 Y-16.8961 Z1.7727
G1 X4.1306 Y-16.8856 Z1.7650
G1 X3.8152 Y-16.7958 Z1.7650 F150.
G1 X3.7986 Y-16.7910 Z1.7643
G1 X3.7820 Y-16.7863 Z1.7628
G1 X3.7654 Y-16.7816 Z1.7605
G1 X3.7488 Y-16.7769 Z1.7574
G1 X3.7322 Y-16.7721 Z1.7535
G1 X3.7156 Y-16.7674 Z1.7486
G1 X3.6990 Y-16.7627 Z1.7431
G1 X3.6658 Y-16.7532 Z1.7330
G1 X3.6492 Y-16.7485 Z1.7269
G1 X3.6326 Y-16.7438 Z1.7199
G1 X3.6160 Y-16.7390 Z1.7118
G1 X3.5994 Y-16.7343 Z1.7029
G0 Z1.8900
G0 X3.5994 Y-16.7343 
G0 Z1.8900
G0 X4.3084 Y-16.9725 
G1 X4.3084 Y-16.9725 Z1.8650 F75.
G1 X4.3010 Y-16.9704 Z1.8268 F25.
G1 X4.2801 Y-16.9647 Z1.7943
G1 X4.2489 Y-16.9560 Z1.7727
G1 X4.2120 Y-16.9458 Z1.7650
G1 X3.8797 Y-16.8539 Z1.7650 F150.
G1 X3.7966 Y-16.8309 Z1.7647
G1 X3.7759 Y-16.8252 Z1.7633
G1 X3.7551 Y-16.8194 Z1.7605
G1 X3.7343 Y-16.8137 Z1.7565
G1 X3.7136 Y-16.8079 Z1.7512
G1 X3.6928 Y-16.8022 Z1.7445
G1 X3.6720 Y-16.7964 Z1.7383
G1 X3.6513 Y-16.7907 Z1.7317
G1 X3.6305 Y-16.7849 Z1.7237
G1 X3.6097 Y-16.7792 Z1.7141
G1 X3.5890 Y-16.7734 Z1.7032
G1 X3.5682 Y-16.7677 Z1.6918
G1 X3.5474 Y-16.7620 Z1.6787
G0 Z1.8900
G0 X3.5474 Y-16.7620 
G0 Z1.8900
G0 X4.3840 Y-17.0289 
G1 X4.3840 Y-17.0289 Z1.8650 F75.
G1 X4.3767 Y-17.0270 Z1.8268 F25.
G1 X4.3558 Y-17.0214 Z1.7943
G1 X4.3244 Y-17.0129 Z1.7726
G1 X4.2875 Y-17.0030 Z1.7650
G1 X3.8348 Y-16.8814 Z1.7650 F150.
G1 X3.7895 Y-16.8692 Z1.7649
G1 X3.7669 Y-16.8632 Z1.7634
G1 X3.7442 Y-16.8571 Z1.7605
G1 X3.7216 Y-16.8510 Z1.7560
G1 X3.6990 Y-16.8449 Z1.7499
G1 X3.6763 Y-16.8388 Z1.7427
G1 X3.6537 Y-16.8328 Z1.7359
G1 X3.6310 Y-16.8267 Z1.7281
G1 X3.6084 Y-16.8206 Z1.7186
G1 X3.5858 Y-16.8145 Z1.7072
G1 X3.5631 Y-16.8084 Z1.6950
G1 X3.5450 Y-16.8036 Z1.6842
G1 X3.5269 Y-16.7987 Z1.6719
G1 X3.5088 Y-16.7938 Z1.6578
G1 X3.4907 Y-16.7890 Z1.6426
G0 Z1.8900
G0 X3.4907 Y-16.7890 
G0 Z1.8900
G0 X4.4507 Y-17.0817 
G1 X4.4507 Y-17.0817 Z1.8650 F75.
G1 X4.4433 Y-17.0798 Z1.8268 F25.
G1 X4.4224 Y-17.0743 Z1.7943
G1 X4.3910 Y-17.0661 Z1.7727
G1 X4.3539 Y-17.0565 Z1.7650
G1 X3.7869 Y-16.9087 Z1.7650 F150.
G1 X3.7643 Y-16.9028 Z1.7641
G1 X3.7416 Y-16.8969 Z1.7616
G1 X3.7189 Y-16.8910 Z1.7577
G1 X3.6962 Y-16.8851 Z1.7522
G1 X3.6282 Y-16.8674 Z1.7308
G1 X3.6156 Y-16.8641 Z1.7261
G1 X3.6031 Y-16.8608 Z1.7208
G1 X3.5905 Y-16.8575 Z1.7149
G1 X3.5780 Y-16.8543 Z1.7084
G1 X3.5529 Y-16.8477 Z1.6949
G1 X3.5403 Y-16.8445 Z1.6876
G1 X3.5278 Y-16.8412 Z1.6796
G1 X3.5152 Y-16.8379 Z1.6708
G1 X3.5027 Y-16.8347 Z1.6613
G1 X3.4776 Y-16.8281 Z1.6403
G1 X3.4650 Y-16.8248 Z1.6294
G1 X3.4524 Y-16.8216 Z1.6173
G1 X3.4399 Y-16.8183 Z1.6041
G1 X3.4273 Y-16.8150 Z1.5894
G0 Z1.8900
G0 X3.4273 Y-16.8150 
G0 Z1.8900
G0 X4.5150 Y-17.1327 
G1 X4.5150 Y-17.1327 Z1.8650 F75.
G1 X4.5077 Y-17.1308 Z1.8268 F25.
G1 X4.4866 Y-17.1255 Z1.7943
G1 X4.4552 Y-17.1176 Z1.7726
G1 X4.4181 Y-17.1082 Z1.7650
G1 X3.7818 Y-16.9475 Z1.7650 F150.
G1 X3.7591 Y-16.9417 Z1.7644
G1 X3.7364 Y-16.9360 Z1.7622
G1 X3.7137 Y-16.9302 Z1.7586
G1 X3.6909 Y-16.9245 Z1.7534
G1 X3.6128 Y-16.9048 Z1.7289
G1 X3.5932 Y-16.8998 Z1.7209
G1 X3.5737 Y-16.8949 Z1.7116
G1 X3.5346 Y-16.8850 Z1.6904
G1 X3.5151 Y-16.8801 Z1.6780
G1 X3.4956 Y-16.8752 Z1.6638
G1 X3.4760 Y-16.8702 Z1.6477
G1 X3.4565 Y-16.8653 Z1.6310
G1 X3.4467 Y-16.8628 Z1.6219
G1 X3.4370 Y-16.8603 Z1.6121
G1 X3.4272 Y-16.8579 Z1.6015
G1 X3.4174 Y-16.8554 Z1.5900
G1 X3.3979 Y-16.8505 Z1.5653
G1 X3.3881 Y-16.8480 Z1.5524
G1 X3.3783 Y-16.8455 Z1.5382
G0 Z1.8900
G0 X3.3783 Y-16.8455 
G0 Z1.8900
G0 X4.5773 Y-17.1820 
G1 X4.5773 Y-17.1820 Z1.8650 F75.
G1 X4.5699 Y-17.1802 Z1.8268 F25.
G1 X4.5489 Y-17.1750 Z1.7943
G1 X4.5174 Y-17.1673 Z1.7726
G1 X4.4802 Y-17.1582 Z1.7650
G1 X3.7744 Y-16.9856 Z1.7650 F150.
G1 X3.7517 Y-16.9800 Z1.7645
G1 X3.7289 Y-16.9744 Z1.7625
G1 X3.7061 Y-16.9689 Z1.7590
G1 X3.6834 Y-16.9633 Z1.7540
G1 X3.6606 Y-16.9577 Z1.7474
G1 X3.6151 Y-16.9466 Z1.7332
G1 X3.5923 Y-16.9410 Z1.7248
G1 X3.5695 Y-16.9354 Z1.7146
G1 X3.5468 Y-16.9299 Z1.7026
G1 X3.5240 Y-16.9243 Z1.6901
G1 X3.5126 Y-16.9215 Z1.6831
G1 X3.5012 Y-16.9187 Z1.6755
G1 X3.4899 Y-16.9159 Z1.6673
G1 X3.4785 Y-16.9132 Z1.6584
G1 X3.4557 Y-16.9076 Z1.6394
G1 X3.4443 Y-16.9048 Z1.6294
G1 X3.4329 Y-16.9020 Z1.6186
G1 X3.4216 Y-16.8992 Z1.6068
G1 X3.4102 Y-16.8965 Z1.5939
G1 X3.3874 Y-16.8909 Z1.5654
G1 X3.3753 Y-16.8879 Z1.5491
G1 X3.3692 Y-16.8864 Z1.5403
G1 X3.3631 Y-16.8849 Z1.5308
G1 X3.3571 Y-16.8835 Z1.5207
G1 X3.3510 Y-16.8820 Z1.5099
G1 X3.3388 Y-16.8790 Z1.4860
G0 Z1.8900
G0 X3.3388 Y-16.8790 
G0 Z1.8900
G0 X4.6376 Y-17.2297 
G1 X4.6376 Y-17.2297 Z1.8650 F75.
G1 X4.6302 Y-17.2280 Z1.8268 F25.
G1 X4.6091 Y-17.2230 Z1.7943
G1 X4.5776 Y-17.2155 Z1.7726
G1 X4.5403 Y-17.2067 Z1.7650
G1 X3.7649 Y-17.0231 Z1.7650 F150.
G1 X3.7421 Y-17.0177 Z1.7645
G1 X3.7193 Y-17.0123 Z1.7625
G1 X3.6965 Y-17.0069 Z1.7591
G1 X3.6736 Y-17.0015 Z1.7540
G1 X3.6508 Y-16.9961 Z1.7474
G1 X3.6280 Y-16.9907 Z1.7402
G1 X3.6052 Y-16.9853 Z1.7333
G1 X3.5824 Y-16.9799 Z1.7249
G1 X3.5596 Y-16.9745 Z1.7147
G1 X3.5254 Y-16.9664 Z1.6967
G1 X3.5140 Y-16.9637 Z1.6903
G1 X3.5026 Y-16.9610 Z1.6833
G1 X3.4912 Y-16.9583 Z1.6757
G1 X3.4798 Y-16.9556 Z1.6675
G1 X3.4684 Y-16.9529 Z1.6586
G1 X3.4456 Y-16.9475 Z1.6396
G1 X3.4282 Y-16.9434 Z1.6241
G1 X3.4195 Y-16.9414 Z1.6156
G1 X3.4108 Y-16.9393 Z1.6065
G1 X3.4021 Y-16.9373 Z1.5967
G1 X3.3934 Y-16.9352 Z1.5863
G1 X3.3761 Y-16.9311 Z1.5643
G1 X3.3674 Y-16.9290 Z1.5528
G1 X3.3587 Y-16.9270 Z1.5403
G1 X3.3500 Y-16.9249 Z1.5266
G1 X3.3413 Y-16.9229 Z1.5115
G1 X3.3239 Y-16.9187 Z1.4774
G1 X3.3196 Y-16.9177 Z1.4684
G1 X3.3152 Y-16.9167 Z1.4588
G1 X3.3109 Y-16.9157 Z1.4483
G1 X3.3065 Y-16.9146 Z1.4369
G0 Z1.8900
G0 X3.3065 Y-16.9146 
G0 Z1.8900
G0 X4.6961 Y-17.2760 
G1 X4.6961 Y-17.2760 Z1.8650 F75.
G1 X4.6887 Y-17.2743 Z1.8268 F25.
G1 X4.6675 Y-17.2694 Z1.7943
G1 X4.6359 Y-17.2622 Z1.7726
G1 X4.5986 Y-17.2536 Z1.7650
G1 X3.7533 Y-17.0602 Z1.7650 F150.
G1 X3.7418 Y-17.0576 Z1.7649
G1 X3.7304 Y-17.0550 Z1.7644
G1 X3.7076 Y-17.0498 Z1.7623
G1 X3.6847 Y-17.0445 Z1.7587
G1 X3.6619 Y-17.0393 Z1.7535
G1 X3.6390 Y-17.0341 Z1.7468
G1 X3.6162 Y-17.0289 Z1.7397
G1 X3.6048 Y-17.0262 Z1.7363
G1 X3.5933 Y-17.0236 Z1.7327
G1 X3.5705 Y-17.0184 Z1.7241
G1 X3.5476 Y-17.0132 Z1.7138
G1 X3.5134 Y-17.0053 Z1.6957
G1 X3.5019 Y-17.0027 Z1.6892
G1 X3.4881 Y-16.9996 Z1.6805
G1 X3.4743 Y-16.9964 Z1.6710
G1 X3.4604 Y-16.9932 Z1.6605
G1 X3.4327 Y-16.9869 Z1.6375
G1 X3.4189 Y-16.9837 Z1.6251
G1 X3.4050 Y-16.9806 Z1.6115
G1 X3.3912 Y-16.9774 Z1.5962
G1 X3.3774 Y-16.9742 Z1.5792
G1 X3.3635 Y-16.9711 Z1.5617
G1 X3.3566 Y-16.9695 Z1.5524
G1 X3.3497 Y-16.9679 Z1.5426
G1 X3.3427 Y-16.9663 Z1.5320
G1 X3.3358 Y-16.9647 Z1.5205
G1 X3.3289 Y-16.9631 Z1.5081
G1 X3.3151 Y-16.9600 Z1.4809
G1 X3.3081 Y-16.9584 Z1.4667
G1 X3.3012 Y-16.9568 Z1.4507
G1 X3.2978 Y-16.9560 Z1.4419
G1 X3.2943 Y-16.9552 Z1.4324
G1 X3.2908 Y-16.9544 Z1.4220
G1 X3.2874 Y-16.9536 Z1.4104
G1 X3.2805 Y-16.9520 Z1.3858
G0 Z1.8900
G0 X3.2805 Y-16.9520 
G0 Z1.8900
G0 X4.7528 Y-17.3208 
G1 X4.7528 Y-17.3208 Z1.8650 F75.
G1 X4.7454 Y-17.3191 Z1.8268 F25.
G1 X4.7242 Y-17.3145 Z1.7943
G1 X4.6925 Y-17.3075 Z1.7726
G1 X4.6552 Y-17.2992 Z1.7650
G1 X3.7855 Y-17.1071 Z1.7650 F150.
G1 X3.7398 Y-17.0970 Z1.7645
G1 X3.7169 Y-17.0919 Z1.7636
G1 X3.6940 Y-17.0868 Z1.7612
G1 X3.6711 Y-17.0818 Z1.7572
G1 X3.6482 Y-17.0767 Z1.7518
G1 X3.5910 Y-17.0641 Z1.7352
G1 X3.5796 Y-17.0616 Z1.7314
G1 X3.5567 Y-17.0565 Z1.7225
G1 X3.5427 Y-17.0534 Z1.7162
G1 X3.5265 Y-17.0498 Z1.7081
G1 X3.5010 Y-17.0442 Z1.6945
G1 X3.4824 Y-17.0401 Z1.6834
G1 X3.4685 Y-17.0370 Z1.6740
G1 X3.4639 Y-17.0360 Z1.6707
G1 X3.4430 Y-17.0314 Z1.6546
G1 X3.4267 Y-17.0278 Z1.6411
G1 X3.4175 Y-17.0258 Z1.6331
G1 X3.4082 Y-17.0237 Z1.6246
G1 X3.3989 Y-17.0217 Z1.6155
G1 X3.3896 Y-17.0196 Z1.6058
G1 X3.3803 Y-17.0176 Z1.5955
G1 X3.3711 Y-17.0155 Z1.5844
G1 X3.3525 Y-17.0114 Z1.5608
G1 X3.3409 Y-17.0088 Z1.5446
G1 X3.3339 Y-17.0073 Z1.5342
G1 X3.3246 Y-17.0052 Z1.5191
G1 X3.3200 Y-17.0042 Z1.5109
G1 X3.3130 Y-17.0027 Z1.4977
G1 X3.3014 Y-17.0001 Z1.4745
G1 X3.2945 Y-16.9986 Z1.4591
G1 X3.2875 Y-16.9970 Z1.4422
G1 X3.2829 Y-16.9960 Z1.4295
G1 X3.2771 Y-16.9947 Z1.4112
G1 X3.2690 Y-16.9929 Z1.3818
G1 X3.2643 Y-16.9919 Z1.3622
G1 X3.2620 Y-16.9914 Z1.3504
G1 X3.2597 Y-16.9909 Z1.3360
G0 Z1.8900
G0 X3.2597 Y-16.9909 
G0 Z1.8900
G0 X4.8080 Y-17.3643 
G1 X4.8080 Y-17.3643 Z1.8650 F75.
G1 X4.8006 Y-17.3627 Z1.8268 F25.
G1 X4.7794 Y-17.3582 Z1.7943
G1 X4.7476 Y-17.3514 Z1.7726
G1 X4.7102 Y-17.3434 Z1.7650
G1 X3.8621 Y-17.1627 Z1.7650 F150.
G1 X3.8391 Y-17.1578 Z1.7647
G1 X3.7933 Y-17.1481 Z1.7636
G1 X3.7474 Y-17.1383 Z1.7616
G1 X3.7016 Y-17.1285 Z1.7588
G1 X3.6787 Y-17.1236 Z1.7569
G1 X3.6672 Y-17.1212 Z1.7555
G1 X3.6557 Y-17.1187 Z1.7538
G1 X3.6328 Y-17.1139 Z1.7494
G1 X3.6214 Y-17.1114 Z1.7468
G1 X3.6099 Y-17.1090 Z1.7437
G1 X3.5870 Y-17.1041 Z1.7370
G1 X3.5641 Y-17.0992 Z1.7293
G1 X3.5413 Y-17.0944 Z1.7198
G1 X3.5241 Y-17.0907 Z1.7118
G1 X3.5098 Y-17.0876 Z1.7046
G1 X3.4955 Y-17.0846 Z1.6970
G1 X3.4841 Y-17.0822 Z1.6904
G1 X3.4726 Y-17.0797 Z1.6832
G1 X3.4612 Y-17.0773 Z1.6755
G1 X3.4497 Y-17.0749 Z1.6674
G1 X3.4383 Y-17.0724 Z1.6589
G1 X3.4211 Y-17.0688 Z1.6450
G1 X3.4154 Y-17.0675 Z1.6402
G1 X3.4040 Y-17.0651 Z1.6299
G1 X3.3925 Y-17.0627 Z1.6188
G1 X3.3811 Y-17.0602 Z1.6070
G1 X3.3697 Y-17.0578 Z1.5947
G1 X3.3568 Y-17.0550 Z1.5794
G1 X3.3468 Y-17.0529 Z1.5667
G1 X3.3339 Y-17.0502 Z1.5487
G1 X3.3239 Y-17.0480 Z1.5337
G1 X3.3182 Y-17.0468 Z1.5249
G1 X3.3125 Y-17.0456 Z1.5154
G1 X3.3039 Y-17.0438 Z1.5000
G1 X3.2953 Y-17.0419 Z1.4829
G1 X3.2896 Y-17.0407 Z1.4704
G1 X3.2810 Y-17.0389 Z1.4508
G1 X3.2781 Y-17.0383 Z1.4438
G1 X3.2724 Y-17.0371 Z1.4286
G1 X3.2696 Y-17.0365 Z1.4201
G1 X3.2646 Y-17.0354 Z1.4035
G1 X3.2610 Y-17.0346 Z1.3901
G1 X3.2553 Y-17.0334 Z1.3668
G1 X3.2524 Y-17.0328 Z1.3533
G1 X3.2495 Y-17.0322 Z1.3365
G1 X3.2474 Y-17.0317 Z1.3192
G1 X3.2445 Y-17.0311 Z1.2840
G1 X3.2440 Y-17.0310 Z1.2726
G1 X3.2438 Y-17.0310 Z1.2641
G0 Z1.8900
G0 X3.2438 Y-17.0310 
G0 Z1.8900
G0 X4.8616 Y-17.4065 
G1 X4.8616 Y-17.4065 Z1.8650 F75.
G1 X4.8541 Y-17.4049 Z1.8268 F25.
G1 X4.8329 Y-17.4006 Z1.7943
G1 X4.8011 Y-17.3941 Z1.7726
G1 X4.7636 Y-17.3864 Z1.7650
G1 X3.9371 Y-17.2167 Z1.7650 F150.
G1 X3.8912 Y-17.2073 Z1.7642
G1 X3.8453 Y-17.1979 Z1.7624
G1 X3.7879 Y-17.1861 Z1.7590
G1 X3.6960 Y-17.1672 Z1.7577
G1 X3.6845 Y-17.1649 Z1.7573
G1 X3.6616 Y-17.1602 Z1.7555
G1 X3.6386 Y-17.1555 Z1.7523
G1 X3.6157 Y-17.1507 Z1.7477
G1 X3.5984 Y-17.1472 Z1.7433
G1 X3.5927 Y-17.1460 Z1.7417
G1 X3.5697 Y-17.1413 Z1.7347
G1 X3.5468 Y-17.1366 Z1.7262
G1 X3.5238 Y-17.1319 Z1.7160
G1 X3.5123 Y-17.1295 Z1.7107
G1 X3.5009 Y-17.1272 Z1.7052
G1 X3.4894 Y-17.1248 Z1.6992
G1 X3.4779 Y-17.1225 Z1.6926
G1 X3.4664 Y-17.1201 Z1.6854
G1 X3.4521 Y-17.1172 Z1.6757
G1 X3.4320 Y-17.1130 Z1.6614
G1 X3.4205 Y-17.1107 Z1.6527
G1 X3.4090 Y-17.1083 Z1.6432
G1 X3.3976 Y-17.1060 Z1.6330
G1 X3.3861 Y-17.1036 Z1.6218
G1 X3.3631 Y-17.0989 Z1.5978
G1 X3.3516 Y-17.0965 Z1.5849
G1 X3.3402 Y-17.0942 Z1.5706
G1 X3.3287 Y-17.0918 Z1.5547
G1 X3.3172 Y-17.0895 Z1.5373
G1 X3.3057 Y-17.0871 Z1.5194
G1 X3.3000 Y-17.0859 Z1.5097
G1 X3.2942 Y-17.0848 Z1.4992
G1 X3.2868 Y-17.0832 Z1.4844
G1 X3.2793 Y-17.0817 Z1.4678
G1 X3.2682 Y-17.0794 Z1.4413
G1 X3.2645 Y-17.0787 Z1.4316
G1 X3.2607 Y-17.0779 Z1.4209
G1 X3.2570 Y-17.0771 Z1.4091
G1 X3.2514 Y-17.0760 Z1.3887
G1 X3.2458 Y-17.0748 Z1.3657
G1 X3.2440 Y-17.0744 Z1.3573
G1 X3.2421 Y-17.0741 Z1.3480
G1 X3.2393 Y-17.0735 Z1.3308
G1 X3.2375 Y-17.0731 Z1.3151
G1 X3.2349 Y-17.0726 Z1.2843
G1 X3.2337 Y-17.0723 Z1.2583
G1 X3.2328 Y-17.0721 Z1.2583
G0 Z1.8900
G0 X3.2328 Y-17.0721 
G0 Z1.8900
G0 X4.9136 Y-17.4474 
G1 X4.9136 Y-17.4474 Z1.8650 F75.
G1 X4.9061 Y-17.4459 Z1.8268 F25.
G1 X4.8849 Y-17.4417 Z1.7943
G1 X4.8530 Y-17.4355 Z1.7726
G1 X4.8155 Y-17.4281 Z1.7650
G1 X4.0107 Y-17.2691 Z1.7650 F150.
G1 X3.9877 Y-17.2646 Z1.7648
G1 X3.9417 Y-17.2555 Z1.7634
G1 X3.8957 Y-17.2464 Z1.7610
G1 X3.8656 Y-17.2405 Z1.7589
G1 X3.7348 Y-17.2147 Z1.7567
G1 X3.6773 Y-17.2033 Z1.7554
G1 X3.6658 Y-17.2010 Z1.7550
G1 X3.6428 Y-17.1965 Z1.7530
G1 X3.6198 Y-17.1920 Z1.7496
G1 X3.5968 Y-17.1874 Z1.7446
G1 X3.5738 Y-17.1829 Z1.7380
G1 X3.5508 Y-17.1783 Z1.7301
G1 X3.5278 Y-17.1738 Z1.7208
G1 X3.4991 Y-17.1681 Z1.7068
G1 X3.4819 Y-17.1647 Z1.6979
G1 X3.4704 Y-17.1625 Z1.6913
G1 X3.4589 Y-17.1602 Z1.6842
G1 X3.4474 Y-17.1579 Z1.6764
G1 X3.4359 Y-17.1556 Z1.6681
G1 X3.4186 Y-17.1522 Z1.6552
G1 X3.4129 Y-17.1511 Z1.6507
G1 X3.3985 Y-17.1483 Z1.6386
G1 X3.3899 Y-17.1466 Z1.6309
G1 X3.3784 Y-17.1443 Z1.6199
G1 X3.3669 Y-17.1420 Z1.6081
G1 X3.3554 Y-17.1398 Z1.5958
G1 X3.3439 Y-17.1375 Z1.5826
G1 X3.3364 Y-17.1360 Z1.5733
G1 X3.3215 Y-17.1331 Z1.5535
G1 X3.3140 Y-17.1316 Z1.5429
G1 X3.2991 Y-17.1286 Z1.5198
G1 X3.2916 Y-17.1272 Z1.5071
G1 X3.2841 Y-17.1257 Z1.4932
G1 X3.2729 Y-17.1235 Z1.4703
G1 X3.2654 Y-17.1220 Z1.4538
G1 X3.2579 Y-17.1205 Z1.4357
G1 X3.2542 Y-17.1198 Z1.4256
G1 X3.2505 Y-17.1190 Z1.4145
G1 X3.2467 Y-17.1183 Z1.4021
G1 X3.2393 Y-17.1168 Z1.3747
G1 X3.2355 Y-17.1161 Z1.3594
G1 X3.2337 Y-17.1157 Z1.3507
G1 X3.2309 Y-17.1152 Z1.3354
G1 X3.2290 Y-17.1148 Z1.3224
G1 X3.2276 Y-17.1145 Z1.3097
G1 X3.2248 Y-17.1140 Z1.2769
G1 X3.2234 Y-17.1137 Z1.2530
G0 Z1.8900
G0 X3.2234 Y-17.1137 
G0 Z1.8900
G0 X4.9641 Y-17.4872 
G1 X4.9641 Y-17.4872 Z1.8650 F75.
G1 X4.9567 Y-17.4858 Z1.8268 F25.
G1 X4.9354 Y-17.4817 Z1.7943
G1 X4.9035 Y-17.4757 Z1.7726
G1 X4.8659 Y-17.4686 Z1.7650
G1 X4.0830 Y-17.3201 Z1.7650 F150.
G1 X4.0369 Y-17.3113 Z1.7644
G1 X3.9909 Y-17.3026 Z1.7626
G1 X3.9333 Y-17.2917 Z1.7589
G1 X3.8067 Y-17.2677 Z1.7565
G1 X3.6685 Y-17.2415 Z1.7527
G1 X3.6455 Y-17.2371 Z1.7511
G1 X3.6224 Y-17.2327 Z1.7480
G1 X3.5994 Y-17.2284 Z1.7434
G1 X3.5764 Y-17.2240 Z1.7373
G1 X3.5591 Y-17.2207 Z1.7316
G1 X3.5418 Y-17.2174 Z1.7255
G1 X3.5303 Y-17.2152 Z1.7212
G1 X3.5073 Y-17.2109 Z1.7111
G1 X3.4900 Y-17.2076 Z1.7025
G1 X3.4756 Y-17.2049 Z1.6946
G1 X3.4612 Y-17.2021 Z1.6863
G1 X3.4497 Y-17.2000 Z1.6794
G1 X3.4382 Y-17.1978 Z1.6719
G1 X3.4238 Y-17.1950 Z1.6618
G1 X3.4152 Y-17.1934 Z1.6553
G1 X3.4037 Y-17.1912 Z1.6460
G1 X3.3783 Y-17.1864 Z1.6238
G1 X3.3700 Y-17.1848 Z1.6162
G1 X3.3589 Y-17.1827 Z1.6053
G1 X3.3478 Y-17.1806 Z1.5935
G1 X3.3367 Y-17.1785 Z1.5806
G1 X3.3256 Y-17.1764 Z1.5664
G1 X3.3145 Y-17.1743 Z1.5518
G1 X3.3034 Y-17.1722 Z1.5367
G1 X3.2923 Y-17.1701 Z1.5198
G1 X3.2868 Y-17.1691 Z1.5106
G1 X3.2812 Y-17.1680 Z1.5008
G1 X3.2729 Y-17.1664 Z1.4846
G1 X3.2591 Y-17.1638 Z1.4560
G1 X3.2535 Y-17.1627 Z1.4435
G1 X3.2480 Y-17.1617 Z1.4296
G1 X3.2424 Y-17.1606 Z1.4139
G1 X3.2396 Y-17.1601 Z1.4051
G1 X3.2369 Y-17.1596 Z1.3955
G1 X3.2286 Y-17.1580 Z1.3647
G1 X3.2258 Y-17.1575 Z1.3531
G1 X3.2230 Y-17.1570 Z1.3395
G1 X3.2202 Y-17.1564 Z1.3225
G1 X3.2182 Y-17.1560 Z1.3046
G1 X3.2154 Y-17.1555 Z1.2719
G1 X3.2140 Y-17.1552 Z1.2477
G0 Z1.8900
G0 X3.2140 Y-17.1552 
G0 Z1.8900
G0 X5.0133 Y-17.5259 
G1 X5.0133 Y-17.5259 Z1.8650 F75.
G1 X5.0058 Y-17.5245 Z1.8268 F25.
G1 X4.9845 Y-17.5206 Z1.7943
G1 X4.9525 Y-17.5148 Z1.7726
G1 X4.9149 Y-17.5080 Z1.7650
G1 X4.1309 Y-17.3653 Z1.7650 F150.
G1 X4.0848 Y-17.3569 Z1.7640
G1 X4.0387 Y-17.3486 Z1.7618
G1 X3.9997 Y-17.3415 Z1.7589
G1 X3.8744 Y-17.3187 Z1.7564
G1 X3.7331 Y-17.2930 Z1.7521
G1 X3.6582 Y-17.2793 Z1.7493
G1 X3.6467 Y-17.2772 Z1.7484
G1 X3.6236 Y-17.2731 Z1.7455
G1 X3.6005 Y-17.2689 Z1.7411
G1 X3.5832 Y-17.2657 Z1.7368
G1 X3.5659 Y-17.2626 Z1.7316
G1 X3.5314 Y-17.2563 Z1.7200
G1 X3.5083 Y-17.2521 Z1.7109
G1 X3.4852 Y-17.2479 Z1.6998
G1 X3.4737 Y-17.2458 Z1.6936
G1 X3.4449 Y-17.2405 Z1.6768
G1 X3.4391 Y-17.2395 Z1.6733
G1 X3.4245 Y-17.2368 Z1.6638
G1 X3.4099 Y-17.2342 Z1.6532
G1 X3.3953 Y-17.2315 Z1.6414
G1 X3.3661 Y-17.2262 Z1.6157
G1 X3.3515 Y-17.2236 Z1.6018
G1 X3.3369 Y-17.2209 Z1.5862
G1 X3.3296 Y-17.2196 Z1.5777
G1 X3.3187 Y-17.2176 Z1.5639
G1 X3.3004 Y-17.2143 Z1.5397
G1 X3.2931 Y-17.2129 Z1.5295
G1 X3.2858 Y-17.2116 Z1.5186
G1 X3.2785 Y-17.2103 Z1.5067
G1 X3.2712 Y-17.2089 Z1.4938
G1 X3.2639 Y-17.2076 Z1.4796
G1 X3.2493 Y-17.2050 Z1.4494
G1 X3.2457 Y-17.2043 Z1.4413
G1 X3.2420 Y-17.2036 Z1.4326
G1 X3.2384 Y-17.2030 Z1.4233
G1 X3.2347 Y-17.2023 Z1.4131
G1 X3.2311 Y-17.2016 Z1.4020
G1 X3.2274 Y-17.2010 Z1.3895
G1 X3.2183 Y-17.1993 Z1.3555
G1 X3.2146 Y-17.1987 Z1.3391
G1 X3.2119 Y-17.1982 Z1.3239
G1 X3.2101 Y-17.1978 Z1.3111
G1 X3.2083 Y-17.1975 Z1.2933
G1 X3.2058 Y-17.1970 Z1.2628
G1 X3.2046 Y-17.1968 Z1.2424
G0 Z1.8900
G0 X3.2046 Y-17.1968 
G0 Z1.8900
G0 X5.0611 Y-17.5634 
G1 X5.0611 Y-17.5634 Z1.8650 F75.
G1 X5.0536 Y-17.5621 Z1.8268 F25.
G1 X5.0322 Y-17.5584 Z1.7943
G1 X5.0003 Y-17.5528 Z1.7726
G1 X4.9626 Y-17.5463 Z1.7650
G1 X4.1891 Y-17.4115 Z1.7650 F150.
G1 X4.1775 Y-17.4095 Z1.7649
G1 X4.1313 Y-17.4015 Z1.7636
G1 X4.0852 Y-17.3934 Z1.7609
G1 X4.0592 Y-17.3889 Z1.7589
G1 X3.9408 Y-17.3683 Z1.7564
G1 X3.8095 Y-17.3454 Z1.7522
G1 X3.6926 Y-17.3251 Z1.7474
G1 X3.6580 Y-17.3190 Z1.7458
G1 X3.6465 Y-17.3170 Z1.7450
G1 X3.6234 Y-17.3130 Z1.7422
G1 X3.6060 Y-17.3100 Z1.7391
G1 X3.5887 Y-17.3070 Z1.7353
G1 X3.5772 Y-17.3050 Z1.7323
G1 X3.5541 Y-17.3009 Z1.7254
G1 X3.5252 Y-17.2959 Z1.7157
G1 X3.5195 Y-17.2949 Z1.7136
G1 X3.5079 Y-17.2929 Z1.7091
G1 X3.4848 Y-17.2889 Z1.6988
G1 X3.4668 Y-17.2857 Z1.6893
G1 X3.4351 Y-17.2802 Z1.6710
G1 X3.4306 Y-17.2794 Z1.6682
G1 X3.4126 Y-17.2763 Z1.6563
G1 X3.3945 Y-17.2731 Z1.6428
G1 X3.3809 Y-17.2708 Z1.6314
G1 X3.3584 Y-17.2669 Z1.6115
G1 X3.3493 Y-17.2653 Z1.6031
G1 X3.3403 Y-17.2637 Z1.5941
G1 X3.3313 Y-17.2621 Z1.5846
G1 X3.3222 Y-17.2606 Z1.5743
G1 X3.3109 Y-17.2586 Z1.5603
G1 X3.2906 Y-17.2551 Z1.5334
G1 X3.2861 Y-17.2543 Z1.5271
G1 X3.2771 Y-17.2527 Z1.5138
G1 X3.2680 Y-17.2511 Z1.4990
G1 X3.2590 Y-17.2496 Z1.4827
G1 X3.2432 Y-17.2468 Z1.4505
G1 X3.2364 Y-17.2456 Z1.4358
G1 X3.2319 Y-17.2448 Z1.4250
G1 X3.2274 Y-17.2440 Z1.4132
G1 X3.2229 Y-17.2433 Z1.4000
G1 X3.2184 Y-17.2425 Z1.3849
G1 X3.2093 Y-17.2409 Z1.3515
G1 X3.2071 Y-17.2405 Z1.3420
G1 X3.2037 Y-17.2399 Z1.3252
G1 X3.2014 Y-17.2395 Z1.3110
G1 X3.1997 Y-17.2392 Z1.2971
G1 X3.1966 Y-17.2387 Z1.2616
G1 X3.1958 Y-17.2385 Z1.2449
G1 X3.1952 Y-17.2384 Z1.2370
G0 Z1.8900
G0 X3.1952 Y-17.2384 
G0 Z1.8900
G0 X5.1076 Y-17.6000 
G1 X5.1076 Y-17.6000 Z1.8650 F75.
G1 X5.1001 Y-17.5987 Z1.8268 F25.
G1 X5.0787 Y-17.5952 Z1.7943
G1 X5.0467 Y-17.5899 Z1.7726
G1 X5.0090 Y-17.5836 Z1.7650
G1 X4.2460 Y-17.4566 Z1.7650 F150.
G1 X4.2229 Y-17.4527 Z1.7647
G1 X4.1767 Y-17.4450 Z1.7630
G1 X4.1304 Y-17.4373 Z1.7600
G1 X4.1174 Y-17.4352 Z1.7589
G1 X4.0033 Y-17.4162 Z1.7564
G1 X3.8877 Y-17.3969 Z1.7526
G1 X3.7490 Y-17.3738 Z1.7466
G1 X3.6565 Y-17.3584 Z1.7417
G1 X3.6449 Y-17.3565 Z1.7409
G1 X3.6218 Y-17.3527 Z1.7381
G1 X3.6102 Y-17.3507 Z1.7363
G1 X3.5987 Y-17.3488 Z1.7341
G1 X3.5756 Y-17.3450 Z1.7290
G1 X3.5640 Y-17.3430 Z1.7260
G1 X3.5467 Y-17.3401 Z1.7207
G1 X3.5293 Y-17.3373 Z1.7149
G1 X3.5079 Y-17.3337 Z1.7073
G1 X3.4864 Y-17.3301 Z1.6984
G1 X3.4649 Y-17.3265 Z1.6879
G1 X3.4542 Y-17.3248 Z1.6819
G1 X3.4220 Y-17.3194 Z1.6631
G1 X3.4112 Y-17.3176 Z1.6562
G1 X3.4005 Y-17.3158 Z1.6487
G1 X3.3898 Y-17.3140 Z1.6407
G1 X3.3790 Y-17.3122 Z1.6321
G1 X3.3576 Y-17.3087 Z1.6134
G1 X3.3469 Y-17.3069 Z1.6038
G1 X3.3362 Y-17.3051 Z1.5937
G1 X3.3255 Y-17.3033 Z1.5827
G1 X3.3148 Y-17.3015 Z1.5708
G1 X3.3014 Y-17.2993 Z1.5543
G1 X3.2827 Y-17.2962 Z1.5296
G1 X3.2720 Y-17.2944 Z1.5146
G1 X3.2613 Y-17.2926 Z1.4978
G1 X3.2560 Y-17.2918 Z1.4886
G1 X3.2506 Y-17.2909 Z1.4788
G1 X3.2400 Y-17.2891 Z1.4573
G1 X3.2293 Y-17.2873 Z1.4350
G1 X3.2239 Y-17.2864 Z1.4227
G1 X3.2186 Y-17.2855 Z1.4089
G1 X3.2132 Y-17.2846 Z1.3934
G1 X3.2085 Y-17.2839 Z1.3776
G1 X3.1999 Y-17.2824 Z1.3455
G1 X3.1958 Y-17.2817 Z1.3277
G1 X3.1932 Y-17.2813 Z1.3129
G1 X3.1912 Y-17.2810 Z1.2988
G1 X3.1892 Y-17.2806 Z1.2786
G1 X3.1872 Y-17.2803 Z1.2553
G1 X3.1858 Y-17.2801 Z1.2315
G0 Z1.8900
G0 X3.1858 Y-17.2801 
G0 Z1.8900
G0 X5.1532 Y-17.6356 
G1 X5.1532 Y-17.6356 Z1.8650 F75.
G1 X5.1456 Y-17.6344 Z1.8268 F25.
G1 X5.1242 Y-17.6310 Z1.7943
G1 X5.0922 Y-17.6259 Z1.7726
G1 X5.0544 Y-17.6199 Z1.7650
G1 X4.2905 Y-17.4986 Z1.7649 F150.
G1 X4.2674 Y-17.4950 Z1.7645
G1 X4.2211 Y-17.4876 Z1.7625
G1 X4.1719 Y-17.4798 Z1.7588
G1 X4.0706 Y-17.4637 Z1.7567
G1 X3.9404 Y-17.4431 Z1.7521
G1 X3.8160 Y-17.4233 Z1.7464
G1 X3.6974 Y-17.4045 Z1.7399
G1 X3.6424 Y-17.3957 Z1.7363
G1 X3.6308 Y-17.3939 Z1.7352
G1 X3.6193 Y-17.3921 Z1.7337
G1 X3.5961 Y-17.3884 Z1.7300
G1 X3.5730 Y-17.3847 Z1.7253
G1 X3.5556 Y-17.3820 Z1.7209
G1 X3.5382 Y-17.3792 Z1.7156
G1 X3.5267 Y-17.3774 Z1.7118
G1 X3.5035 Y-17.3737 Z1.7037
G1 X3.4804 Y-17.3700 Z1.6944
G1 X3.4572 Y-17.3663 Z1.6832
G1 X3.4456 Y-17.3645 Z1.6768
G1 X3.4167 Y-17.3599 Z1.6599
G1 X3.4109 Y-17.3590 Z1.6564
G1 X3.3994 Y-17.3572 Z1.6488
G1 X3.3878 Y-17.3553 Z1.6406
G1 X3.3762 Y-17.3535 Z1.6318
G1 X3.3617 Y-17.3512 Z1.6196
G1 X3.3415 Y-17.3480 Z1.6017
G1 X3.3299 Y-17.3461 Z1.5910
G1 X3.3183 Y-17.3443 Z1.5793
G1 X3.3068 Y-17.3424 Z1.5666
G1 X3.2952 Y-17.3406 Z1.5526
G1 X3.2720 Y-17.3369 Z1.5221
G1 X3.2605 Y-17.3351 Z1.5055
G1 X3.2547 Y-17.3342 Z1.4965
G1 X3.2489 Y-17.3333 Z1.4868
G1 X3.2431 Y-17.3323 Z1.4765
G1 X3.2373 Y-17.3314 Z1.4653
G1 X3.2229 Y-17.3291 Z1.4357
G1 X3.2200 Y-17.3287 Z1.4295
G1 X3.2142 Y-17.3277 Z1.4161
G1 X3.2084 Y-17.3268 Z1.4010
G1 X3.2055 Y-17.3264 Z1.3927
G1 X3.2026 Y-17.3259 Z1.3837
G1 X3.1994 Y-17.3254 Z1.3729
G1 X3.1915 Y-17.3241 Z1.3438
G1 X3.1883 Y-17.3236 Z1.3308
G1 X3.1852 Y-17.3231 Z1.3153
G1 X3.1828 Y-17.3228 Z1.3008
G1 X3.1812 Y-17.3225 Z1.2884
G1 X3.1776 Y-17.3219 Z1.2482
G1 X3.1764 Y-17.3218 Z1.2257
G0 Z1.8900
G0 X3.1764 Y-17.3218 
G0 Z1.8900
G0 X5.1979 Y-17.6703 
G1 X5.1979 Y-17.6703 Z1.8650 F75.
G1 X5.1904 Y-17.6692 Z1.8268 F25.
G1 X5.1690 Y-17.6659 Z1.7943
G1 X5.1369 Y-17.6611 Z1.7726
G1 X5.0990 Y-17.6554 Z1.7650
G1 X4.3575 Y-17.5433 Z1.7650 F150.
G1 X4.3111 Y-17.5363 Z1.7642
G1 X4.2648 Y-17.5293 Z1.7619
G1 X4.2300 Y-17.5241 Z1.7591
G1 X4.2242 Y-17.5232 Z1.7588
G1 X4.1257 Y-17.5083 Z1.7566
G1 X3.9983 Y-17.4891 Z1.7521
G1 X3.8766 Y-17.4707 Z1.7461
G1 X3.7549 Y-17.4523 Z1.7390
G1 X3.7086 Y-17.4453 Z1.7358
G1 X3.6564 Y-17.4374 Z1.7323
G1 X3.6391 Y-17.4348 Z1.7314
G1 X3.6275 Y-17.4330 Z1.7304
G1 X3.6101 Y-17.4304 Z1.7283
G1 X3.5927 Y-17.4278 Z1.7256
G1 X3.5811 Y-17.4260 Z1.7236
G1 X3.5695 Y-17.4243 Z1.7212
G1 X3.5464 Y-17.4208 Z1.7156
G1 X3.5290 Y-17.4182 Z1.7103
G1 X3.4942 Y-17.4129 Z1.6982
G1 X3.4884 Y-17.4120 Z1.6961
G1 X3.4768 Y-17.4103 Z1.6914
G1 X3.4537 Y-17.4068 Z1.6806
G1 X3.4421 Y-17.4050 Z1.6745
G1 X3.4073 Y-17.3998 Z1.6543
G1 X3.3957 Y-17.3980 Z1.6470
G1 X3.3841 Y-17.3963 Z1.6391
G1 X3.3725 Y-17.3945 Z1.6306
G1 X3.3610 Y-17.3928 Z1.6213
G1 X3.3494 Y-17.3910 Z1.6113
G1 X3.3262 Y-17.3875 Z1.5906
G1 X3.3146 Y-17.3858 Z1.5794
G1 X3.3030 Y-17.3840 Z1.5672
G1 X3.2914 Y-17.3823 Z1.5538
G1 X3.2827 Y-17.3810 Z1.5429
G1 X3.2625 Y-17.3779 Z1.5161
G1 X3.2567 Y-17.3770 Z1.5080
G1 X3.2509 Y-17.3761 Z1.4994
G1 X3.2451 Y-17.3753 Z1.4904
G1 X3.2355 Y-17.3738 Z1.4739
G1 X3.2283 Y-17.3727 Z1.4602
G1 X3.2115 Y-17.3702 Z1.4256
G1 X3.2066 Y-17.3695 Z1.4147
G1 X3.2018 Y-17.3687 Z1.4028
G1 X3.1970 Y-17.3680 Z1.3895
G1 X3.1922 Y-17.3673 Z1.3744
G1 X3.1826 Y-17.3658 Z1.3391
G1 X3.1802 Y-17.3655 Z1.3294
G1 X3.1766 Y-17.3649 Z1.3124
G1 X3.1742 Y-17.3646 Z1.2982
G1 X3.1724 Y-17.3643 Z1.2846
G1 X3.1706 Y-17.3640 Z1.2654
G1 X3.1685 Y-17.3637 Z1.2390
G1 X3.1676 Y-17.3636 Z1.2199
G1 X3.1670 Y-17.3635 Z1.2199
G0 Z1.8900
G0 X3.1670 Y-17.3635 
G0 Z1.8900
G0 X5.2415 Y-17.7041 
G1 X5.2415 Y-17.7041 Z1.8650 F75.
G1 X5.2340 Y-17.7031 Z1.8268 F25.
G1 X5.2125 Y-17.7000 Z1.7943
G1 X5.1804 Y-17.6954 Z1.7726
G1 X5.1425 Y-17.6899 Z1.7650
G1 X4.4001 Y-17.5835 Z1.7650 F150.
G1 X4.3537 Y-17.5768 Z1.7639
G1 X4.3073 Y-17.5701 Z1.7612
G1 X4.2783 Y-17.5660 Z1.7588
G1 X4.1797 Y-17.5518 Z1.7566
G1 X4.0637 Y-17.5352 Z1.7524
G1 X3.9477 Y-17.5186 Z1.7467
G1 X3.8143 Y-17.4994 Z1.7385
G1 X3.6519 Y-17.4761 Z1.7272
G1 X3.6345 Y-17.4736 Z1.7265
G1 X3.6229 Y-17.4720 Z1.7256
G1 X3.6113 Y-17.4703 Z1.7243
G1 X3.5765 Y-17.4653 Z1.7190
G1 X3.5649 Y-17.4637 Z1.7168
G1 X3.5417 Y-17.4603 Z1.7115
G1 X3.5185 Y-17.4570 Z1.7046
G1 X3.4837 Y-17.4520 Z1.6923
G1 X3.4721 Y-17.4503 Z1.6878
G1 X3.4489 Y-17.4470 Z1.6774
G1 X3.4373 Y-17.4454 Z1.6715
G1 X3.4257 Y-17.4437 Z1.6650
G1 X3.4025 Y-17.4404 Z1.6514
G1 X3.3909 Y-17.4387 Z1.6443
G1 X3.3793 Y-17.4370 Z1.6366
G1 X3.3677 Y-17.4354 Z1.6283
G1 X3.3561 Y-17.4337 Z1.6193
G1 X3.3445 Y-17.4320 Z1.6094
G1 X3.3213 Y-17.4287 Z1.5887
G1 X3.3097 Y-17.4271 Z1.5777
G1 X3.2981 Y-17.4254 Z1.5657
G1 X3.2865 Y-17.4237 Z1.5527
G1 X3.2786 Y-17.4226 Z1.5430
G1 X3.2548 Y-17.4192 Z1.5115
G1 X3.2469 Y-17.4180 Z1.5004
G1 X3.2390 Y-17.4169 Z1.4883
G1 X3.2310 Y-17.4158 Z1.4752
G1 X3.2231 Y-17.4146 Z1.4607
G1 X3.2152 Y-17.4135 Z1.4447
G1 X3.2033 Y-17.4118 Z1.4200
G1 X3.1993 Y-17.4112 Z1.4110
G1 X3.1954 Y-17.4106 Z1.4015
G1 X3.1914 Y-17.4101 Z1.3911
G1 X3.1874 Y-17.4095 Z1.3796
G1 X3.1835 Y-17.4089 Z1.3669
G1 X3.1736 Y-17.4075 Z1.3304
G1 X3.1696 Y-17.4070 Z1.3134
G1 X3.1666 Y-17.4065 Z1.2976
G1 X3.1646 Y-17.4062 Z1.2843
G1 X3.1629 Y-17.4060 Z1.2687
G1 X3.1602 Y-17.4056 Z1.2364
G1 X3.1597 Y-17.4055 Z1.2277
G1 X3.1592 Y-17.4055 Z1.2141
G1 X3.1582 Y-17.4053 Z1.2141
G0 Z1.8900
G0 X3.1582 Y-17.4053 
G0 Z1.8900
G0 X5.2840 Y-17.7371 
G1 X5.2840 Y-17.7371 Z1.8650 F75.
G1 X5.2765 Y-17.7360 Z1.8268 F25.
G1 X5.2550 Y-17.7331 Z1.7943
G1 X5.2228 Y-17.7288 Z1.7726
G1 X5.1849 Y-17.7236 Z1.7650
G1 X4.4533 Y-17.6243 Z1.7650 F150.
G1 X4.4417 Y-17.6227 Z1.7649
G1 X4.3953 Y-17.6164 Z1.7635
G1 X4.3488 Y-17.6101 Z1.7605
G1 X4.3285 Y-17.6073 Z1.7588
G1 X4.2211 Y-17.5927 Z1.7562
G1 X4.1166 Y-17.5785 Z1.7523
G1 X3.9918 Y-17.5616 Z1.7459
G1 X3.8844 Y-17.5470 Z1.7390
G1 X3.6463 Y-17.5147 Z1.7220
G1 X3.6289 Y-17.5123 Z1.7213
G1 X3.6057 Y-17.5092 Z1.7192
G1 X3.5592 Y-17.5029 Z1.7118
G1 X3.5360 Y-17.4997 Z1.7066
G1 X3.5128 Y-17.4966 Z1.6998
G1 X3.4779 Y-17.4918 Z1.6875
G1 X3.4663 Y-17.4902 Z1.6830
G1 X3.4431 Y-17.4871 Z1.6727
G1 X3.4315 Y-17.4855 Z1.6668
G1 X3.4170 Y-17.4835 Z1.6587
G1 X3.3850 Y-17.4792 Z1.6396
G1 X3.3734 Y-17.4776 Z1.6320
G1 X3.3618 Y-17.4761 Z1.6237
G1 X3.3502 Y-17.4745 Z1.6148
G1 X3.3357 Y-17.4725 Z1.6026
G1 X3.3105 Y-17.4691 Z1.5799
G1 X3.3050 Y-17.4683 Z1.5747
G1 X3.2940 Y-17.4668 Z1.5637
G1 X3.2830 Y-17.4654 Z1.5518
G1 X3.2720 Y-17.4639 Z1.5387
G1 X3.2610 Y-17.4624 Z1.5245
G1 X3.2445 Y-17.4601 Z1.5024
G1 X3.2390 Y-17.4594 Z1.4946
G1 X3.2281 Y-17.4579 Z1.4778
G1 X3.2226 Y-17.4571 Z1.4685
G1 X3.2171 Y-17.4564 Z1.4587
G1 X3.2088 Y-17.4553 Z1.4425
G1 X3.1951 Y-17.4534 Z1.4140
G1 X3.1896 Y-17.4527 Z1.4015
G1 X3.1841 Y-17.4519 Z1.3877
G1 X3.1786 Y-17.4512 Z1.3720
G1 X3.1758 Y-17.4508 Z1.3633
G1 X3.1731 Y-17.4504 Z1.3538
G1 X3.1649 Y-17.4493 Z1.3232
G1 X3.1621 Y-17.4489 Z1.3117
G1 X3.1594 Y-17.4486 Z1.2983
G1 X3.1566 Y-17.4482 Z1.2816
G1 X3.1546 Y-17.4479 Z1.2644
G1 X3.1515 Y-17.4475 Z1.2278
G1 X3.1504 Y-17.4474 Z1.2082
G1 X3.1497 Y-17.4473 Z1.2082
G0 Z1.8900
G0 X3.1497 Y-17.4473 
G0 Z1.8900
G0 X5.3254 Y-17.7692 
G1 X5.3254 Y-17.7692 Z1.8650 F75.
G1 X5.3179 Y-17.7682 Z1.8268 F25.
G1 X5.2964 Y-17.7654 Z1.7943
G1 X5.2642 Y-17.7613 Z1.7726
G1 X5.2262 Y-17.7564 Z1.7650
G1 X4.5056 Y-17.6641 Z1.7650 F150.
G1 X4.4823 Y-17.6611 Z1.7648
G1 X4.4358 Y-17.6551 Z1.7631
G1 X4.3893 Y-17.6492 Z1.7597
G1 X4.3792 Y-17.6479 Z1.7588
G1 X4.2731 Y-17.6343 Z1.7562
G1 X4.1685 Y-17.6209 Z1.7522
G1 X4.0450 Y-17.6051 Z1.7457
G1 X3.9476 Y-17.5926 Z1.7394
G1 X3.9244 Y-17.5896 Z1.7376
G1 X3.8779 Y-17.5836 Z1.7338
G1 X3.6106 Y-17.5494 Z1.7147
G1 X3.5989 Y-17.5479 Z1.7135
G1 X3.5699 Y-17.5442 Z1.7089
G1 X3.5524 Y-17.5419 Z1.7060
G1 X3.5292 Y-17.5390 Z1.7009
G1 X3.5059 Y-17.5360 Z1.6941
G1 X3.4711 Y-17.5315 Z1.6817
G1 X3.4594 Y-17.5300 Z1.6773
G1 X3.4362 Y-17.5270 Z1.6671
G1 X3.4246 Y-17.5255 Z1.6612
G1 X3.4100 Y-17.5237 Z1.6532
G1 X3.3781 Y-17.5196 Z1.6341
G1 X3.3665 Y-17.5181 Z1.6265
G1 X3.3524 Y-17.5163 Z1.6165
G1 X3.3384 Y-17.5145 Z1.6056
G1 X3.3262 Y-17.5129 Z1.5951
G1 X3.3034 Y-17.5100 Z1.5746
G1 X3.2964 Y-17.5091 Z1.5680
G1 X3.2823 Y-17.5073 Z1.5538
G1 X3.2683 Y-17.5055 Z1.5380
G1 X3.2578 Y-17.5042 Z1.5248
G1 X3.2368 Y-17.5015 Z1.4968
G1 X3.2263 Y-17.5001 Z1.4817
G1 X3.2193 Y-17.4992 Z1.4706
G1 X3.2122 Y-17.4983 Z1.4587
G1 X3.2052 Y-17.4974 Z1.4458
G1 X3.1877 Y-17.4952 Z1.4098
G1 X3.1807 Y-17.4943 Z1.3940
G1 X3.1772 Y-17.4938 Z1.3853
G1 X3.1737 Y-17.4934 Z1.3760
G1 X3.1702 Y-17.4929 Z1.3658
G1 X3.1649 Y-17.4923 Z1.3485
G1 X3.1562 Y-17.4911 Z1.3161
G1 X3.1527 Y-17.4907 Z1.3011
G1 X3.1509 Y-17.4905 Z1.2923
G1 X3.1483 Y-17.4901 Z1.2767
G1 X3.1461 Y-17.4899 Z1.2590
G1 X3.1430 Y-17.4895 Z1.2237
G1 X3.1422 Y-17.4894 Z1.2040
G1 X3.1413 Y-17.4892 Z1.2016
G0 Z1.8900
G0 X3.1413 Y-17.4892 
G0 Z1.8900
G0 X5.3658 Y-17.8004 
G1 X5.3658 Y-17.8004 Z1.8650 F75.
G1 X5.3583 Y-17.7995 Z1.8268 F25.
G1 X5.3368 Y-17.7969 Z1.7943
G1 X5.3046 Y-17.7931 Z1.7726
G1 X5.2666 Y-17.7885 Z1.7650
G1 X4.5452 Y-17.7015 Z1.7650 F150.
G1 X4.5220 Y-17.6987 Z1.7646
G1 X4.4754 Y-17.6931 Z1.7626
G1 X4.4274 Y-17.6873 Z1.7588
G1 X4.3213 Y-17.6745 Z1.7561
G1 X4.2195 Y-17.6623 Z1.7521
G1 X4.1031 Y-17.6482 Z1.7459
G1 X3.9868 Y-17.6342 Z1.7381
G1 X3.8472 Y-17.6174 Z1.7266
G1 X3.6116 Y-17.5890 Z1.7098
G1 X3.5912 Y-17.5865 Z1.7078
G1 X3.5679 Y-17.5837 Z1.7042
G1 X3.5447 Y-17.5809 Z1.6999
G1 X3.5214 Y-17.5781 Z1.6948
G1 X3.4981 Y-17.5753 Z1.6880
G1 X3.4632 Y-17.5711 Z1.6756
G1 X3.4516 Y-17.5697 Z1.6712
G1 X3.4283 Y-17.5669 Z1.6609
G1 X3.4167 Y-17.5655 Z1.6551
G1 X3.4050 Y-17.5641 Z1.6487
G1 X3.3711 Y-17.5600 Z1.6285
G1 X3.3542 Y-17.5580 Z1.6174
G1 X3.3372 Y-17.5559 Z1.6049
G1 X3.3182 Y-17.5536 Z1.5889
G1 X3.2949 Y-17.5508 Z1.5680
G1 X3.2864 Y-17.5498 Z1.5600
G1 X3.2779 Y-17.5488 Z1.5514
G1 X3.2695 Y-17.5477 Z1.5424
G1 X3.2610 Y-17.5467 Z1.5327
G1 X3.2525 Y-17.5457 Z1.5223
G1 X3.2292 Y-17.5429 Z1.4914
G1 X3.2186 Y-17.5416 Z1.4763
G1 X3.2101 Y-17.5406 Z1.4630
G1 X3.2017 Y-17.5396 Z1.4484
G1 X3.1932 Y-17.5385 Z1.4321
G1 X3.1805 Y-17.5370 Z1.4059
G1 X3.1762 Y-17.5365 Z1.3967
G1 X3.1720 Y-17.5360 Z1.3870
G1 X3.1678 Y-17.5355 Z1.3763
G1 X3.1635 Y-17.5350 Z1.3647
G1 X3.1593 Y-17.5345 Z1.3518
G1 X3.1551 Y-17.5339 Z1.3370
G1 X3.1466 Y-17.5329 Z1.3053
G1 X3.1445 Y-17.5327 Z1.2961
G1 X3.1413 Y-17.5323 Z1.2799
G1 X3.1392 Y-17.5320 Z1.2663
G1 X3.1376 Y-17.5318 Z1.2530
G1 X3.1344 Y-17.5315 Z1.2167
G1 X3.1333 Y-17.5313 Z1.1949
G1 X3.1328 Y-17.5313 Z1.1949
G0 Z1.8900
G0 X3.1328 Y-17.5313 
G0 Z1.8900
G0 X5.4053 Y-17.8310 
G1 X5.4053 Y-17.8310 Z1.8650 F75.
G1 X5.3977 Y-17.8301 Z1.8268 F25.
G1 X5.3762 Y-17.8277 Z1.7943
G1 X5.3439 Y-17.8240 Z1.7726
G1 X5.3059 Y-17.8197 Z1.7650
G1 X4.5956 Y-17.7395 Z1.7650 F150.
G1 X4.5839 Y-17.7382 Z1.7649
G1 X4.5607 Y-17.7356 Z1.7644
G1 X4.5141 Y-17.7303 Z1.7620
G1 X4.4908 Y-17.7277 Z1.7602
G1 X4.4748 Y-17.7259 Z1.7588
G1 X4.3685 Y-17.7139 Z1.7560
G1 X4.2579 Y-17.7014 Z1.7515
G1 X4.1647 Y-17.6908 Z1.7464
G1 X4.0483 Y-17.6777 Z1.7385
G1 X3.8387 Y-17.6540 Z1.7211
G1 X3.6407 Y-17.6317 Z1.7068
G1 X3.5941 Y-17.6264 Z1.7027
G1 X3.5825 Y-17.6251 Z1.7015
G1 X3.5563 Y-17.6221 Z1.6972
G1 X3.5359 Y-17.6198 Z1.6937
G1 X3.5126 Y-17.6172 Z1.6885
G1 X3.4893 Y-17.6146 Z1.6817
G1 X3.4777 Y-17.6132 Z1.6776
G1 X3.4544 Y-17.6106 Z1.6691
G1 X3.4428 Y-17.6093 Z1.6647
G1 X3.4229 Y-17.6071 Z1.6560
G1 X3.4031 Y-17.6048 Z1.6459
G1 X3.3932 Y-17.6037 Z1.6403
G1 X3.3635 Y-17.6003 Z1.6225
G1 X3.3436 Y-17.5981 Z1.6094
G1 X3.3337 Y-17.5970 Z1.6021
G1 X3.3238 Y-17.5959 Z1.5944
G1 X3.3139 Y-17.5947 Z1.5861
G1 X3.2842 Y-17.5914 Z1.5593
G1 X3.2743 Y-17.5903 Z1.5497
G1 X3.2643 Y-17.5892 Z1.5394
G1 X3.2544 Y-17.5880 Z1.5283
G1 X3.2445 Y-17.5869 Z1.5163
G1 X3.2222 Y-17.5844 Z1.4868
G1 X3.2148 Y-17.5836 Z1.4765
G1 X3.2049 Y-17.5824 Z1.4616
G1 X3.1950 Y-17.5813 Z1.4450
G1 X3.1900 Y-17.5808 Z1.4359
G1 X3.1850 Y-17.5802 Z1.4262
G1 X3.1702 Y-17.5785 Z1.3955
G1 X3.1652 Y-17.5780 Z1.3844
G1 X3.1603 Y-17.5774 Z1.3724
G1 X3.1553 Y-17.5768 Z1.3590
G1 X3.1504 Y-17.5763 Z1.3438
G1 X3.1454 Y-17.5757 Z1.3263
G1 X3.1380 Y-17.5749 Z1.2985
G1 X3.1342 Y-17.5745 Z1.2816
G1 X3.1318 Y-17.5742 Z1.2675
G1 X3.1299 Y-17.5740 Z1.2541
G1 X3.1281 Y-17.5738 Z1.2349
G1 X3.1259 Y-17.5735 Z1.2082
G1 X3.1250 Y-17.5734 Z1.1882
G1 X3.1243 Y-17.5733 Z1.1882
G0 Z1.8900
G0 X3.1243 Y-17.5733 
G0 Z1.8900
G0 X5.4438 Y-17.8607 
G1 X5.4438 Y-17.8607 Z1.8650 F75.
G1 X5.4362 Y-17.8599 Z1.8268 F25.
G1 X5.4146 Y-17.8577 Z1.7943
G1 X5.3824 Y-17.8543 Z1.7726
G1 X5.3443 Y-17.8503 Z1.7650
G1 X4.6451 Y-17.7766 Z1.7650 F150.
G1 X4.5985 Y-17.7717 Z1.7640
G1 X4.5518 Y-17.7668 Z1.7613
G1 X4.5227 Y-17.7637 Z1.7588
G1 X4.4178 Y-17.7526 Z1.7561
G1 X4.3056 Y-17.7408 Z1.7514
G1 X4.2022 Y-17.7299 Z1.7455
G1 X4.1002 Y-17.7192 Z1.7384
G1 X4.0391 Y-17.7127 Z1.7333
G1 X3.8409 Y-17.6919 Z1.7165
G1 X3.6690 Y-17.6738 Z1.7038
G1 X3.5962 Y-17.6661 Z1.6974
G1 X3.5729 Y-17.6636 Z1.6951
G1 X3.5554 Y-17.6618 Z1.6924
G1 X3.5263 Y-17.6587 Z1.6873
G1 X3.5030 Y-17.6563 Z1.6819
G1 X3.4796 Y-17.6538 Z1.6750
G1 X3.4342 Y-17.6490 Z1.6583
G1 X3.4115 Y-17.6466 Z1.6482
G1 X3.3888 Y-17.6442 Z1.6362
G1 X3.3547 Y-17.6406 Z1.6158
G1 X3.3434 Y-17.6394 Z1.6085
G1 X3.3320 Y-17.6382 Z1.6006
G1 X3.3207 Y-17.6370 Z1.5921
G1 X3.3093 Y-17.6359 Z1.5828
G1 X3.2980 Y-17.6347 Z1.5729
G1 X3.2754 Y-17.6323 Z1.5525
G1 X3.2642 Y-17.6311 Z1.5415
G1 X3.2529 Y-17.6299 Z1.5296
G1 X3.2416 Y-17.6287 Z1.5166
G1 X3.2304 Y-17.6275 Z1.5024
G1 X3.2078 Y-17.6252 Z1.4720
G1 X3.2022 Y-17.6246 Z1.4637
G1 X3.1966 Y-17.6240 Z1.4550
G1 X3.1909 Y-17.6234 Z1.4457
G1 X3.1853 Y-17.6228 Z1.4357
G1 X3.1769 Y-17.6219 Z1.4194
G1 X3.1628 Y-17.6204 Z1.3900
G1 X3.1571 Y-17.6198 Z1.3773
G1 X3.1515 Y-17.6192 Z1.3633
G1 X3.1459 Y-17.6186 Z1.3475
G1 X3.1431 Y-17.6183 Z1.3387
G1 X3.1388 Y-17.6179 Z1.3238
G1 X3.1318 Y-17.6171 Z1.2974
G1 X3.1290 Y-17.6169 Z1.2858
G1 X3.1262 Y-17.6166 Z1.2721
G1 X3.1234 Y-17.6163 Z1.2550
G1 X3.1212 Y-17.6160 Z1.2371
G1 X3.1184 Y-17.6157 Z1.2039
G1 X3.1177 Y-17.6157 Z1.1908
G1 X3.1170 Y-17.6156 Z1.1815
G1 X3.1163 Y-17.6155 Z1.1815
G0 Z1.8900
G0 X3.1163 Y-17.6155 
G0 Z1.8900
G0 X5.4814 Y-17.8898 
G1 X5.4814 Y-17.8898 Z1.8650 F75.
G1 X5.4738 Y-17.8891 Z1.8268 F25.
G1 X5.4522 Y-17.8869 Z1.7943
G1 X5.4199 Y-17.8838 Z1.7726
G1 X5.3818 Y-17.8801 Z1.7650
G1 X4.6821 Y-17.8116 Z1.7650 F150.
G1 X4.6354 Y-17.8071 Z1.7637
G1 X4.5888 Y-17.8025 Z1.7606
G1 X4.5683 Y-17.8005 Z1.7588
G1 X4.4721 Y-17.7911 Z1.7563
G1 X4.3555 Y-17.7797 Z1.7514
G1 X4.2447 Y-17.7689 Z1.7450
G1 X4.1514 Y-17.7597 Z1.7382
G1 X4.0756 Y-17.7523 Z1.7319
G1 X3.8306 Y-17.7284 Z1.7108
G1 X3.6965 Y-17.7153 Z1.7008
G1 X3.5974 Y-17.7056 Z1.6919
G1 X3.5857 Y-17.7044 Z1.6912
G1 X3.5624 Y-17.7022 Z1.6887
G1 X3.5507 Y-17.7010 Z1.6869
G1 X3.5274 Y-17.6987 Z1.6829
G1 X3.5157 Y-17.6976 Z1.6807
G1 X3.4924 Y-17.6953 Z1.6751
G1 X3.4691 Y-17.6930 Z1.6680
G1 X3.4341 Y-17.6896 Z1.6552
G1 X3.4224 Y-17.6885 Z1.6505
G1 X3.3991 Y-17.6862 Z1.6398
G1 X3.3875 Y-17.6850 Z1.6337
G1 X3.3758 Y-17.6839 Z1.6270
G1 X3.3466 Y-17.6811 Z1.6093
G1 X3.3408 Y-17.6805 Z1.6055
G1 X3.3291 Y-17.6793 Z1.5976
G1 X3.3175 Y-17.6782 Z1.5890
G1 X3.3058 Y-17.6771 Z1.5798
G1 X3.2912 Y-17.6756 Z1.5671
G1 X3.2708 Y-17.6736 Z1.5484
G1 X3.2592 Y-17.6725 Z1.5372
G1 X3.2475 Y-17.6714 Z1.5250
G1 X3.2358 Y-17.6702 Z1.5116
G1 X3.2227 Y-17.6689 Z1.4949
G1 X3.2008 Y-17.6668 Z1.4652
G1 X3.1950 Y-17.6662 Z1.4567
G1 X3.1892 Y-17.6657 Z1.4476
G1 X3.1833 Y-17.6651 Z1.4380
G1 X3.1775 Y-17.6645 Z1.4277
G1 X3.1717 Y-17.6639 Z1.4166
G1 X3.1542 Y-17.6622 Z1.3802
G1 X3.1484 Y-17.6617 Z1.3669
G1 X3.1425 Y-17.6611 Z1.3520
G1 X3.1385 Y-17.6607 Z1.3405
G1 X3.1344 Y-17.6603 Z1.3277
G1 X3.1243 Y-17.6593 Z1.2904
G1 X3.1203 Y-17.6589 Z1.2732
G1 X3.1172 Y-17.6586 Z1.2573
G1 X3.1152 Y-17.6584 Z1.2439
G1 X3.1137 Y-17.6583 Z1.2308
G1 X3.1107 Y-17.6580 Z1.1953
G1 X3.1096 Y-17.6579 Z1.1748
G1 X3.1086 Y-17.6578 Z1.1748
G0 Z1.8900
G0 X3.1086 Y-17.6578 
G0 Z1.8900
G0 X5.5181 Y-17.9182 
G1 X5.5181 Y-17.9182 Z1.8650 F75.
G1 X5.5105 Y-17.9175 Z1.8268 F25.
G1 X5.4889 Y-17.9155 Z1.7943
G1 X5.4566 Y-17.9126 Z1.7726
G1 X5.4185 Y-17.9092 Z1.7650
G1 X4.7299 Y-17.8471 Z1.7650 F150.
G1 X4.7182 Y-17.8460 Z1.7649
G1 X4.6715 Y-17.8418 Z1.7633
G1 X4.6249 Y-17.8376 Z1.7598
G1 X4.6132 Y-17.8365 Z1.7587
G1 X4.5198 Y-17.8281 Z1.7563
G1 X4.4148 Y-17.8186 Z1.7519
G1 X4.3914 Y-17.8165 Z1.7507
G1 X4.2922 Y-17.8076 Z1.7448
G1 X4.1930 Y-17.7986 Z1.7375
G1 X4.0646 Y-17.7870 Z1.7266
G1 X3.8254 Y-17.7655 Z1.7056
G1 X3.7262 Y-17.7565 Z1.6981
G1 X3.5861 Y-17.7439 Z1.6855
G1 X3.5744 Y-17.7428 Z1.6846
G1 X3.5511 Y-17.7407 Z1.6818
G1 X3.5161 Y-17.7376 Z1.6757
G1 X3.5044 Y-17.7365 Z1.6733
G1 X3.4811 Y-17.7344 Z1.6674
G1 X3.4577 Y-17.7323 Z1.6598
G1 X3.4227 Y-17.7291 Z1.6466
G1 X3.4110 Y-17.7281 Z1.6417
G1 X3.3877 Y-17.7260 Z1.6305
G1 X3.3760 Y-17.7249 Z1.6242
G1 X3.3643 Y-17.7239 Z1.6173
G1 X3.3410 Y-17.7218 Z1.6030
G1 X3.3293 Y-17.7207 Z1.5955
G1 X3.3177 Y-17.7197 Z1.5873
G1 X3.3060 Y-17.7186 Z1.5785
G1 X3.2943 Y-17.7175 Z1.5689
G1 X3.2826 Y-17.7165 Z1.5586
G1 X3.2593 Y-17.7144 Z1.5371
G1 X3.2476 Y-17.7133 Z1.5256
G1 X3.2360 Y-17.7123 Z1.5130
G1 X3.2243 Y-17.7112 Z1.4991
G1 X3.2155 Y-17.7104 Z1.4879
G1 X3.1951 Y-17.7086 Z1.4602
G1 X3.1893 Y-17.7081 Z1.4518
G1 X3.1834 Y-17.7075 Z1.4429
G1 X3.1776 Y-17.7070 Z1.4335
G1 X3.1682 Y-17.7062 Z1.4169
G1 X3.1612 Y-17.7055 Z1.4031
G1 X3.1471 Y-17.7043 Z1.3738
G1 X3.1401 Y-17.7036 Z1.3577
G1 X3.1354 Y-17.7032 Z1.3458
G1 X3.1307 Y-17.7028 Z1.3325
G1 X3.1261 Y-17.7024 Z1.3175
G1 X3.1167 Y-17.7015 Z1.2828
G1 X3.1143 Y-17.7013 Z1.2733
G1 X3.1108 Y-17.7010 Z1.2567
G1 X3.1085 Y-17.7008 Z1.2428
G1 X3.1067 Y-17.7006 Z1.2297
G1 X3.1050 Y-17.7005 Z1.2112
G1 X3.1029 Y-17.7003 Z1.1870
G1 X3.1020 Y-17.7002 Z1.1673
G1 X3.1008 Y-17.7001 Z1.1673
G0 Z1.8900
G0 X3.1008 Y-17.7001 
G0 Z1.8900
G0 X5.5540 Y-17.9459 
G1 X5.5540 Y-17.9459 Z1.8650 F75.
G1 X5.5464 Y-17.9453 Z1.8268 F25.
G1 X5.5248 Y-17.9435 Z1.7943
G1 X5.4924 Y-17.9408 Z1.7726
G1 X5.4543 Y-17.9377 Z1.7650
G1 X4.7769 Y-17.8817 Z1.7650 F150.
G1 X4.7536 Y-17.8797 Z1.7647
G1 X4.7068 Y-17.8759 Z1.7628
G1 X4.6572 Y-17.8718 Z1.7587
G1 X4.5550 Y-17.8633 Z1.7559
G1 X4.4733 Y-17.8566 Z1.7524
G1 X4.4266 Y-17.8527 Z1.7500
G1 X4.3390 Y-17.8455 Z1.7447
G1 X4.2397 Y-17.8372 Z1.7372
G1 X4.0762 Y-17.8237 Z1.7232
G1 X3.8660 Y-17.8064 Z1.7044
G1 X3.7492 Y-17.7967 Z1.6948
G1 X3.5623 Y-17.7813 Z1.6776
G1 X3.5390 Y-17.7793 Z1.6744
G1 X3.5039 Y-17.7764 Z1.6676
G1 X3.4922 Y-17.7755 Z1.6651
G1 X3.4689 Y-17.7735 Z1.6588
G1 X3.4455 Y-17.7716 Z1.6508
G1 X3.4222 Y-17.7697 Z1.6420
G1 X3.3988 Y-17.7677 Z1.6323
G1 X3.3755 Y-17.7658 Z1.6207
G1 X3.3638 Y-17.7648 Z1.6141
G1 X3.3287 Y-17.7619 Z1.5926
G1 X3.3171 Y-17.7610 Z1.5848
G1 X3.3054 Y-17.7600 Z1.5763
G1 X3.2937 Y-17.7590 Z1.5672
G1 X3.2791 Y-17.7578 Z1.5547
G1 X3.2528 Y-17.7557 Z1.5306
G1 X3.2470 Y-17.7552 Z1.5250
G1 X3.2353 Y-17.7542 Z1.5130
G1 X3.2236 Y-17.7533 Z1.4999
G1 X3.2119 Y-17.7523 Z1.4855
G1 X3.1900 Y-17.7505 Z1.4560
G1 X3.1827 Y-17.7499 Z1.4456
G1 X3.1754 Y-17.7493 Z1.4345
G1 X3.1681 Y-17.7487 Z1.4226
G1 X3.1607 Y-17.7481 Z1.4095
G1 X3.1534 Y-17.7475 Z1.3952
G1 X3.1388 Y-17.7462 Z1.3646
G1 X3.1351 Y-17.7459 Z1.3564
G1 X3.1315 Y-17.7456 Z1.3476
G1 X3.1278 Y-17.7453 Z1.3382
G1 X3.1242 Y-17.7450 Z1.3280
G1 X3.1205 Y-17.7447 Z1.3168
G1 X3.1169 Y-17.7444 Z1.3043
G1 X3.1077 Y-17.7437 Z1.2701
G1 X3.1041 Y-17.7434 Z1.2537
G1 X3.1013 Y-17.7431 Z1.2385
G1 X3.0995 Y-17.7430 Z1.2258
G1 X3.0977 Y-17.7428 Z1.2082
G1 X3.0954 Y-17.7427 Z1.1819
G1 X3.0940 Y-17.7425 Z1.1597
G1 X3.0931 Y-17.7425 Z1.1597
G0 Z1.8900
G0 X3.0931 Y-17.7425 
G0 Z1.8900
G0 X5.5890 Y-17.9730 
G1 X5.5890 Y-17.9730 Z1.8650 F75.
G1 X5.5814 Y-17.9724 Z1.8268 F25.
G1 X5.5597 Y-17.9708 Z1.7943
G1 X5.5274 Y-17.9683 Z1.7726
G1 X5.4892 Y-17.9655 Z1.7650
G1 X4.8115 Y-17.9146 Z1.7650 F150.
G1 X4.7881 Y-17.9128 Z1.7646
G1 X4.7413 Y-17.9093 Z1.7623
G1 X4.7180 Y-17.9075 Z1.7604
G1 X4.7004 Y-17.9062 Z1.7587
G1 X4.6011 Y-17.8988 Z1.7560
G1 X4.4959 Y-17.8909 Z1.7513
G1 X4.3908 Y-17.8830 Z1.7450
G1 X4.2856 Y-17.8751 Z1.7369
G1 X4.0869 Y-17.8601 Z1.7197
G1 X3.8006 Y-17.8386 Z1.6940
G1 X3.7714 Y-17.8364 Z1.6915
G1 X3.6896 Y-17.8303 Z1.6838
G1 X3.5494 Y-17.8198 Z1.6698
G1 X3.5260 Y-17.8180 Z1.6663
G1 X3.5026 Y-17.8162 Z1.6617
G1 X3.4793 Y-17.8145 Z1.6566
G1 X3.4559 Y-17.8127 Z1.6499
G1 X3.4442 Y-17.8119 Z1.6459
G1 X3.4092 Y-17.8092 Z1.6326
G1 X3.3858 Y-17.8075 Z1.6224
G1 X3.3741 Y-17.8066 Z1.6166
G1 X3.3624 Y-17.8057 Z1.6102
G1 X3.3507 Y-17.8048 Z1.6034
G1 X3.3274 Y-17.8031 Z1.5890
G1 X3.3157 Y-17.8022 Z1.5815
G1 X3.3040 Y-17.8013 Z1.5734
G1 X3.2923 Y-17.8004 Z1.5646
G1 X3.2806 Y-17.7996 Z1.5551
G1 X3.2689 Y-17.7987 Z1.5448
G1 X3.2456 Y-17.7969 Z1.5233
G1 X3.2357 Y-17.7962 Z1.5136
G1 X3.2257 Y-17.7954 Z1.5032
G1 X3.2158 Y-17.7947 Z1.4920
G1 X3.2059 Y-17.7940 Z1.4799
G1 X3.1960 Y-17.7932 Z1.4667
G1 X3.1812 Y-17.7921 Z1.4466
G1 X3.1762 Y-17.7917 Z1.4396
G1 X3.1663 Y-17.7910 Z1.4245
G1 X3.1564 Y-17.7902 Z1.4078
G1 X3.1514 Y-17.7899 Z1.3986
G1 X3.1440 Y-17.7893 Z1.3837
G1 X3.1316 Y-17.7884 Z1.3578
G1 X3.1267 Y-17.7880 Z1.3467
G1 X3.1217 Y-17.7876 Z1.3345
G1 X3.1167 Y-17.7873 Z1.3210
G1 X3.1118 Y-17.7869 Z1.3056
G1 X3.1019 Y-17.7861 Z1.2696
G1 X3.0994 Y-17.7860 Z1.2598
G1 X3.0957 Y-17.7857 Z1.2425
G1 X3.0932 Y-17.7855 Z1.2282
G1 X3.0914 Y-17.7854 Z1.2145
G1 X3.0883 Y-17.7851 Z1.1814
G1 X3.0870 Y-17.7850 Z1.1638
G1 X3.0864 Y-17.7850 Z1.1522
G1 X3.0858 Y-17.7849 Z1.1522
G0 Z1.8900
G0 X3.0858 Y-17.7849 
G0 Z1.8900
G0 X5.6232 Y-17.9994 
G1 X5.6232 Y-17.9994 Z1.8650 F75.
G1 X5.6156 Y-17.9989 Z1.8268 F25.
G1 X5.5940 Y-17.9975 Z1.7943
G1 X5.5616 Y-17.9953 Z1.7726
G1 X5.5234 Y-17.9927 Z1.7650
G1 X4.8570 Y-17.9477 Z1.7650 F150.
G1 X4.8453 Y-17.9469 Z1.7649
G1 X4.8219 Y-17.9453 Z1.7643
G1 X4.7751 Y-17.9421 Z1.7617
G1 X4.7415 Y-17.9399 Z1.7587
G1 X4.6582 Y-17.9342 Z1.7564
G1 X4.6348 Y-17.9326 Z1.7556
G1 X4.5354 Y-17.9259 Z1.7510
G1 X4.4361 Y-17.9192 Z1.7448
G1 X4.3250 Y-17.9117 Z1.7361
G1 X4.3074 Y-17.9105 Z1.7345
G1 X4.0268 Y-17.8916 Z1.7094
G1 X3.8047 Y-17.8765 Z1.6891
G1 X3.5475 Y-17.8592 Z1.6633
G1 X3.5358 Y-17.8584 Z1.6619
G1 X3.5182 Y-17.8572 Z1.6590
G1 X3.4890 Y-17.8552 Z1.6534
G1 X3.4656 Y-17.8536 Z1.6478
G1 X3.4422 Y-17.8520 Z1.6406
G1 X3.4305 Y-17.8513 Z1.6364
G1 X3.4072 Y-17.8497 Z1.6274
G1 X3.3955 Y-17.8489 Z1.6227
G1 X3.3721 Y-17.8473 Z1.6120
G1 X3.3604 Y-17.8465 Z1.6059
G1 X3.3487 Y-17.8457 Z1.5993
G1 X3.3136 Y-17.8434 Z1.5776
G1 X3.3019 Y-17.8426 Z1.5698
G1 X3.2902 Y-17.8418 Z1.5613
G1 X3.2785 Y-17.8410 Z1.5521
G1 X3.2631 Y-17.8399 Z1.5388
G1 X3.2352 Y-17.8381 Z1.5131
G1 X3.2290 Y-17.8376 Z1.5070
G1 X3.2167 Y-17.8368 Z1.4940
G1 X3.2043 Y-17.8360 Z1.4797
G1 X3.1919 Y-17.8351 Z1.4639
G1 X3.1734 Y-17.8339 Z1.4387
G1 X3.1672 Y-17.8335 Z1.4299
G1 X3.1610 Y-17.8330 Z1.4205
G1 X3.1548 Y-17.8326 Z1.4106
G1 X3.1486 Y-17.8322 Z1.3999
G1 X3.1424 Y-17.8318 Z1.3883
G1 X3.1239 Y-17.8305 Z1.3499
G1 X3.1177 Y-17.8301 Z1.3357
G1 X3.1115 Y-17.8297 Z1.3196
G1 X3.1084 Y-17.8295 Z1.3106
G1 X3.1053 Y-17.8293 Z1.3009
G1 X3.1007 Y-17.8290 Z1.2843
G1 X3.0930 Y-17.8284 Z1.2547
G1 X3.0899 Y-17.8282 Z1.2409
G1 X3.0868 Y-17.8280 Z1.2239
G1 X3.0844 Y-17.8279 Z1.2070
G1 X3.0829 Y-17.8278 Z1.1908
G1 X3.0806 Y-17.8276 Z1.1622
G1 X3.0798 Y-17.8276 Z1.1445
G1 X3.0790 Y-17.8275 Z1.1445
G0 Z1.8900
G0 X3.0790 Y-17.8275 
G0 Z1.8900
G0 X5.6567 Y-18.0253 
G1 X5.6567 Y-18.0253 Z1.8650 F75.
G1 X5.6491 Y-18.0249 Z1.8268 F25.
G1 X5.6275 Y-18.0236 Z1.7943
G1 X5.5951 Y-18.0216 Z1.7726
G1 X5.5569 Y-18.0193 Z1.7650
G1 X4.9018 Y-17.9800 Z1.7650 F150.
G1 X4.8550 Y-17.9772 Z1.7640
G1 X4.8082 Y-17.9744 Z1.7611
G1 X4.7834 Y-17.9729 Z1.7587
G1 X4.6912 Y-17.9674 Z1.7561
G1 X4.5977 Y-17.9617 Z1.7519
G1 X4.5743 Y-17.9603 Z1.7507
G1 X4.4807 Y-17.9547 Z1.7448
G1 X4.3754 Y-17.9484 Z1.7364
G1 X4.2701 Y-17.9421 Z1.7263
G1 X4.0596 Y-17.9294 Z1.7073
G1 X3.8724 Y-17.9182 Z1.6902
G1 X3.6852 Y-17.9069 Z1.6709
G1 X3.5449 Y-17.8985 Z1.6568
G1 X3.5215 Y-17.8971 Z1.6538
G1 X3.4864 Y-17.8950 Z1.6472
G1 X3.4747 Y-17.8943 Z1.6448
G1 X3.4513 Y-17.8929 Z1.6387
G1 X3.4279 Y-17.8915 Z1.6309
G1 X3.3928 Y-17.8894 Z1.6174
G1 X3.3811 Y-17.8887 Z1.6124
G1 X3.3577 Y-17.8873 Z1.6011
G1 X3.3460 Y-17.8866 Z1.5947
G1 X3.3343 Y-17.8859 Z1.5877
G1 X3.3109 Y-17.8845 Z1.5732
G1 X3.2961 Y-17.8836 Z1.5634
G1 X3.2812 Y-17.8827 Z1.5526
G1 X3.2663 Y-17.8818 Z1.5407
G1 X3.2533 Y-17.8810 Z1.5293
G1 X3.2366 Y-17.8800 Z1.5138
G1 X3.2218 Y-17.8791 Z1.4996
G1 X3.2069 Y-17.8782 Z1.4836
G1 X3.1995 Y-17.8778 Z1.4749
G1 X3.1921 Y-17.8773 Z1.4657
G1 X3.1846 Y-17.8769 Z1.4558
G1 X3.1623 Y-17.8755 Z1.4249
G1 X3.1549 Y-17.8751 Z1.4137
G1 X3.1475 Y-17.8746 Z1.4016
G1 X3.1401 Y-17.8742 Z1.3884
G1 X3.1326 Y-17.8738 Z1.3739
G1 X3.1178 Y-17.8729 Z1.3424
G1 X3.1141 Y-17.8726 Z1.3341
G1 X3.1103 Y-17.8724 Z1.3252
G1 X3.1066 Y-17.8722 Z1.3156
G1 X3.1029 Y-17.8720 Z1.3053
G1 X3.0992 Y-17.8717 Z1.2938
G1 X3.0955 Y-17.8715 Z1.2810
G1 X3.0862 Y-17.8710 Z1.2457
G1 X3.0825 Y-17.8707 Z1.2287
G1 X3.0797 Y-17.8706 Z1.2128
G1 X3.0778 Y-17.8705 Z1.1991
G1 X3.0760 Y-17.8703 Z1.1795
G1 X3.0739 Y-17.8702 Z1.1541
G1 X3.0732 Y-17.8702 Z1.1380
G1 X3.0723 Y-17.8701 Z1.1365
G0 Z1.8900
G0 X3.0723 Y-17.8701 
G0 Z1.8900
G0 X5.6895 Y-18.0507 
G1 X5.6895 Y-18.0507 Z1.8650 F75.
G1 X5.6819 Y-18.0503 Z1.8268 F25.
G1 X5.6602 Y-18.0491 Z1.7943
G1 X5.6278 Y-18.0474 Z1.7726
G1 X5.5896 Y-18.0454 Z1.7650
G1 X4.9343 Y-18.0110 Z1.7650 F150.
G1 X4.8875 Y-18.0085 Z1.7637
G1 X4.8640 Y-18.0073 Z1.7623
G1 X4.8406 Y-18.0061 Z1.7604
G1 X4.8231 Y-18.0051 Z1.7587
G1 X4.7236 Y-17.9999 Z1.7557
G1 X4.6300 Y-17.9950 Z1.7514
G1 X4.5598 Y-17.9913 Z1.7470
G1 X4.5130 Y-17.9889 Z1.7438
G1 X4.4428 Y-17.9852 Z1.7382
G1 X4.4018 Y-17.9830 Z1.7345
G1 X4.2321 Y-17.9741 Z1.7181
G1 X3.9981 Y-17.9618 Z1.6966
G1 X3.9015 Y-17.9567 Z1.6875
G1 X3.6236 Y-17.9421 Z1.6584
G1 X3.5504 Y-17.9383 Z1.6509
G1 X3.5417 Y-17.9378 Z1.6502
G1 X3.5299 Y-17.9372 Z1.6490
G1 X3.5036 Y-17.9358 Z1.6449
G1 X3.4714 Y-17.9341 Z1.6385
G1 X3.4597 Y-17.9335 Z1.6358
G1 X3.4363 Y-17.9323 Z1.6291
G1 X3.4129 Y-17.9311 Z1.6208
G1 X3.3895 Y-17.9298 Z1.6116
G1 X3.3661 Y-17.9286 Z1.6014
G1 X3.3544 Y-17.9280 Z1.5955
G1 X3.3427 Y-17.9274 Z1.5892
G1 X3.3211 Y-17.9262 Z1.5761
G1 X3.2996 Y-17.9251 Z1.5624
G1 X3.2909 Y-17.9247 Z1.5566
G1 X3.2737 Y-17.9238 Z1.5439
G1 X3.2564 Y-17.9228 Z1.5297
G1 X3.2478 Y-17.9224 Z1.5219
G1 X3.2219 Y-17.9210 Z1.4976
G1 X3.2133 Y-17.9206 Z1.4890
G1 X3.2046 Y-17.9201 Z1.4798
G1 X3.1960 Y-17.9197 Z1.4700
G1 X3.1874 Y-17.9192 Z1.4595
G1 X3.1788 Y-17.9188 Z1.4481
G1 X3.1615 Y-17.9179 Z1.4244
G1 X3.1529 Y-17.9174 Z1.4120
G1 X3.1442 Y-17.9170 Z1.3985
G1 X3.1356 Y-17.9165 Z1.3837
G1 X3.1270 Y-17.9160 Z1.3672
G1 X3.1097 Y-17.9151 Z1.3306
G1 X3.1054 Y-17.9149 Z1.3207
G1 X3.1011 Y-17.9147 Z1.3099
G1 X3.0968 Y-17.9145 Z1.2981
G1 X3.0925 Y-17.9142 Z1.2849
G1 X3.0881 Y-17.9140 Z1.2698
G1 X3.0795 Y-17.9136 Z1.2370
G1 X3.0774 Y-17.9134 Z1.2276
G1 X3.0741 Y-17.9133 Z1.2110
G1 X3.0720 Y-17.9132 Z1.1970
G1 X3.0704 Y-17.9131 Z1.1832
G1 X3.0671 Y-17.9129 Z1.1449
G1 X3.0666 Y-17.9129 Z1.1338
G1 X3.0660 Y-17.9128 Z1.1281
G1 X3.0655 Y-17.9128 Z1.1281
G0 Z1.8900
G0 X3.0655 Y-17.9128 
G0 Z1.8900
G0 X5.7216 Y-18.0754 
G1 X5.7216 Y-18.0754 Z1.8650 F75.
G1 X5.7140 Y-18.0751 Z1.8268 F25.
G1 X5.6923 Y-18.0741 Z1.7943
G1 X5.6599 Y-18.0727 Z1.7726
G1 X5.6217 Y-18.0709 Z1.7650
G1 X4.9661 Y-18.0414 Z1.7649 F150.
G1 X4.9427 Y-18.0404 Z1.7644
G1 X4.9193 Y-18.0393 Z1.7633
G1 X4.8958 Y-18.0383 Z1.7617
G1 X4.8622 Y-18.0368 Z1.7587
G1 X4.7671 Y-18.0325 Z1.7558
G1 X4.6617 Y-18.0277 Z1.7508
G1 X4.5915 Y-18.0246 Z1.7462
G1 X4.5505 Y-18.0227 Z1.7433
G1 X4.4744 Y-18.0193 Z1.7370
G1 X4.4276 Y-18.0172 Z1.7326
G1 X4.2051 Y-18.0072 Z1.7107
G1 X3.9534 Y-17.9958 Z1.6873
G1 X3.7486 Y-17.9866 Z1.6654
G1 X3.5378 Y-17.9771 Z1.6432
G1 X3.5144 Y-17.9761 Z1.6404
G1 X3.4910 Y-17.9750 Z1.6362
G1 X3.4676 Y-17.9740 Z1.6313
G1 X3.4442 Y-17.9729 Z1.6255
G1 X3.4208 Y-17.9719 Z1.6180
G1 X3.3739 Y-17.9698 Z1.5995
G1 X3.3543 Y-17.9689 Z1.5904
G1 X3.3347 Y-17.9680 Z1.5799
G1 X3.3200 Y-17.9673 Z1.5710
G1 X3.2954 Y-17.9662 Z1.5555
G1 X3.2758 Y-17.9653 Z1.5420
G1 X3.2660 Y-17.9649 Z1.5345
G1 X3.2562 Y-17.9645 Z1.5266
G1 X3.2464 Y-17.9640 Z1.5181
G1 X3.2169 Y-17.9627 Z1.4906
G1 X3.2071 Y-17.9623 Z1.4808
G1 X3.1973 Y-17.9618 Z1.4704
G1 X3.1875 Y-17.9614 Z1.4591
G1 X3.1777 Y-17.9609 Z1.4468
G1 X3.1679 Y-17.9605 Z1.4336
G1 X3.1532 Y-17.9598 Z1.4133
G1 X3.1483 Y-17.9596 Z1.4063
G1 X3.1384 Y-17.9592 Z1.3911
G1 X3.1286 Y-17.9587 Z1.3743
G1 X3.1237 Y-17.9585 Z1.3651
G1 X3.1164 Y-17.9582 Z1.3501
G1 X3.1041 Y-17.9576 Z1.3241
G1 X3.0992 Y-17.9574 Z1.3130
G1 X3.0943 Y-17.9572 Z1.3008
G1 X3.0894 Y-17.9570 Z1.2872
G1 X3.0845 Y-17.9567 Z1.2718
G1 X3.0747 Y-17.9563 Z1.2355
G1 X3.0722 Y-17.9562 Z1.2257
G1 X3.0685 Y-17.9560 Z1.2084
G1 X3.0661 Y-17.9559 Z1.1940
G1 X3.0642 Y-17.9558 Z1.1802
G1 X3.0606 Y-17.9557 Z1.1390
G1 X3.0593 Y-17.9556 Z1.1197
G1 X3.0587 Y-17.9556 Z1.1196
G0 Z1.8900
G0 X3.0587 Y-17.9556 
G0 Z1.8900
G0 X5.7530 Y-18.0997 
G1 X5.7530 Y-18.0997 Z1.8650 F75.
G1 X5.7454 Y-18.0994 Z1.8268 F25.
G1 X5.7237 Y-18.0986 Z1.7943
G1 X5.6913 Y-18.0974 Z1.7726
G1 X5.6531 Y-18.0960 Z1.7650
G1 X5.0090 Y-18.0718 Z1.7650 F150.
G1 X4.9973 Y-18.0714 Z1.7648
G1 X4.9739 Y-18.0705 Z1.7641
G1 X4.9504 Y-18.0696 Z1.7629
G1 X4.9270 Y-18.0687 Z1.7611
G1 X4.9007 Y-18.0677 Z1.7586
G1 X4.8041 Y-18.0641 Z1.7557
G1 X4.7045 Y-18.0604 Z1.7508
G1 X4.6460 Y-18.0582 Z1.7470
G1 X4.5933 Y-18.0562 Z1.7433
G1 X4.5289 Y-18.0538 Z1.7379
G1 X4.4352 Y-18.0503 Z1.7291
G1 X4.1717 Y-18.0404 Z1.7027
G1 X3.9946 Y-18.0338 Z1.6860
G1 X3.7794 Y-18.0257 Z1.6627
G1 X3.6154 Y-18.0195 Z1.6452
G1 X3.5452 Y-18.0169 Z1.6370
G1 X3.5100 Y-18.0156 Z1.6327
G1 X3.4983 Y-18.0151 Z1.6308
G1 X3.4632 Y-18.0138 Z1.6236
G1 X3.4515 Y-18.0134 Z1.6209
G1 X3.4281 Y-18.0125 Z1.6144
G1 X3.4047 Y-18.0116 Z1.6062
G1 X3.3717 Y-18.0104 Z1.5930
G1 X3.3607 Y-18.0100 Z1.5882
G1 X3.3388 Y-18.0092 Z1.5774
G1 X3.3168 Y-18.0083 Z1.5647
G1 X3.2839 Y-18.0071 Z1.5437
G1 X3.2729 Y-18.0067 Z1.5361
G1 X3.2619 Y-18.0063 Z1.5279
G1 X3.2509 Y-18.0059 Z1.5191
G1 X3.2400 Y-18.0055 Z1.5096
G1 X3.2070 Y-18.0042 Z1.4787
G1 X3.1960 Y-18.0038 Z1.4675
G1 X3.1851 Y-18.0034 Z1.4553
G1 X3.1741 Y-18.0030 Z1.4420
G1 X3.1645 Y-18.0026 Z1.4293
G1 X3.1466 Y-18.0020 Z1.4047
G1 X3.1411 Y-18.0017 Z1.3968
G1 X3.1302 Y-18.0013 Z1.3797
G1 X3.1247 Y-18.0011 Z1.3704
G1 X3.1192 Y-18.0009 Z1.3604
G1 X3.1109 Y-18.0006 Z1.3440
G1 X3.0972 Y-18.0001 Z1.3149
G1 X3.0917 Y-17.9999 Z1.3023
G1 X3.0862 Y-17.9997 Z1.2883
G1 X3.0807 Y-17.9995 Z1.2726
G1 X3.0780 Y-17.9994 Z1.2637
G1 X3.0753 Y-17.9993 Z1.2541
G1 X3.0670 Y-17.9990 Z1.2232
G1 X3.0629 Y-17.9988 Z1.2052
G1 X3.0602 Y-17.9987 Z1.1904
G1 X3.0581 Y-17.9986 Z1.1763
G1 X3.0564 Y-17.9986 Z1.1603
G1 X3.0536 Y-17.9985 Z1.1280
G1 X3.0526 Y-17.9984 Z1.1112
G1 X3.0519 Y-17.9984 Z1.1112
G0 Z1.8900
G0 X3.0519 Y-17.9984 
G0 Z1.8900
G0 X5.7838 Y-18.1235 
G1 X5.7838 Y-18.1235 Z1.8650 F75.
G1 X5.7762 Y-18.1232 Z1.8268 F25.
G1 X5.7545 Y-18.1226 Z1.7943
G1 X5.7221 Y-18.1216 Z1.7726
G1 X5.6838 Y-18.1205 Z1.7650
G1 X5.0513 Y-18.1015 Z1.7650 F150.
G1 X5.0279 Y-18.1008 Z1.7647
G1 X5.0045 Y-18.1001 Z1.7638
G1 X4.9810 Y-18.0994 Z1.7624
G1 X4.9576 Y-18.0987 Z1.7604
G1 X4.9400 Y-18.0982 Z1.7587
G1 X4.8522 Y-18.0955 Z1.7560
G1 X4.7526 Y-18.0925 Z1.7512
G1 X4.6999 Y-18.0909 Z1.7479
G1 X4.6355 Y-18.0890 Z1.7433
G1 X4.5828 Y-18.0874 Z1.7388
G1 X4.5359 Y-18.0860 Z1.7346
G1 X4.3719 Y-18.0811 Z1.7185
G1 X4.1377 Y-18.0741 Z1.6946
G1 X4.0381 Y-18.0711 Z1.6850
G1 X3.7043 Y-18.0611 Z1.6486
G1 X3.6691 Y-18.0600 Z1.6446
G1 X3.5051 Y-18.0551 Z1.6248
G1 X3.4817 Y-18.0544 Z1.6207
G1 X3.4583 Y-18.0537 Z1.6158
G1 X3.4349 Y-18.0530 Z1.6101
G1 X3.4114 Y-18.0523 Z1.6028
G1 X3.3997 Y-18.0519 Z1.5985
G1 X3.3646 Y-18.0509 Z1.5844
G1 X3.3411 Y-18.0502 Z1.5736
G1 X3.3294 Y-18.0498 Z1.5675
G1 X3.3177 Y-18.0495 Z1.5608
G1 X3.3060 Y-18.0491 Z1.5536
G1 X3.2826 Y-18.0484 Z1.5386
G1 X3.2709 Y-18.0481 Z1.5308
G1 X3.2592 Y-18.0477 Z1.5223
G1 X3.2474 Y-18.0474 Z1.5131
G1 X3.2357 Y-18.0470 Z1.5032
G1 X3.2240 Y-18.0467 Z1.4924
G1 X3.2006 Y-18.0460 Z1.4702
G1 X3.1889 Y-18.0456 Z1.4582
G1 X3.1772 Y-18.0453 Z1.4451
G1 X3.1654 Y-18.0449 Z1.4307
G1 X3.1537 Y-18.0446 Z1.4150
G1 X3.1362 Y-18.0440 Z1.3905
G1 X3.1303 Y-18.0439 Z1.3818
G1 X3.1244 Y-18.0437 Z1.3725
G1 X3.1186 Y-18.0435 Z1.3626
G1 X3.1127 Y-18.0433 Z1.3520
G1 X3.1069 Y-18.0432 Z1.3406
G1 X3.0893 Y-18.0426 Z1.3034
G1 X3.0835 Y-18.0425 Z1.2896
G1 X3.0776 Y-18.0423 Z1.2742
G1 X3.0747 Y-18.0422 Z1.2656
G1 X3.0717 Y-18.0421 Z1.2564
G1 X3.0688 Y-18.0420 Z1.2462
G1 X3.0600 Y-18.0418 Z1.2128
G1 X3.0568 Y-18.0417 Z1.1986
G1 X3.0537 Y-18.0416 Z1.1812
G1 X3.0513 Y-18.0415 Z1.1639
G1 X3.0497 Y-18.0414 Z1.1471
G1 X3.0473 Y-18.0414 Z1.1171
G1 X3.0464 Y-18.0413 Z1.1023
G1 X3.0455 Y-18.0413 Z1.1022
G0 Z1.8900
G0 X3.0455 Y-18.0413 
G0 Z1.8900
G0 X5.8140 Y-18.1467 
G1 X5.8140 Y-18.1467 Z1.8650 F75.
G1 X5.8064 Y-18.1466 Z1.8268 F25.
G1 X5.7847 Y-18.1461 Z1.7943
G1 X5.7523 Y-18.1453 Z1.7726
G1 X5.7140 Y-18.1445 Z1.7650
G1 X5.0814 Y-18.1303 Z1.7650 F150.
G1 X5.0579 Y-18.1297 Z1.7645
G1 X5.0345 Y-18.1292 Z1.7634
G1 X5.0111 Y-18.1287 Z1.7618
G1 X4.9774 Y-18.1279 Z1.7587
G1 X4.8822 Y-18.1258 Z1.7557
G1 X4.7782 Y-18.1234 Z1.7504
G1 X4.6772 Y-18.1212 Z1.7433
G1 X4.6362 Y-18.1202 Z1.7398
G1 X4.5776 Y-18.1189 Z1.7345
G1 X4.4018 Y-18.1150 Z1.7172
G1 X4.0738 Y-18.1076 Z1.6834
G1 X3.7516 Y-18.1003 Z1.6476
G1 X3.4997 Y-18.0947 Z1.6169
G1 X3.4880 Y-18.0944 Z1.6150
G1 X3.4704 Y-18.0940 Z1.6115
G1 X3.4411 Y-18.0934 Z1.6052
G1 X3.4177 Y-18.0928 Z1.5988
G1 X3.3943 Y-18.0923 Z1.5907
G1 X3.3591 Y-18.0915 Z1.5765
G1 X3.3474 Y-18.0912 Z1.5713
G1 X3.3240 Y-18.0907 Z1.5596
G1 X3.3123 Y-18.0905 Z1.5530
G1 X3.3006 Y-18.0902 Z1.5458
G1 X3.2771 Y-18.0897 Z1.5308
G1 X3.2654 Y-18.0894 Z1.5230
G1 X3.2537 Y-18.0891 Z1.5145
G1 X3.2420 Y-18.0889 Z1.5054
G1 X3.2303 Y-18.0886 Z1.4955
G1 X3.2185 Y-18.0883 Z1.4849
G1 X3.1951 Y-18.0878 Z1.4627
G1 X3.1834 Y-18.0876 Z1.4507
G1 X3.1717 Y-18.0873 Z1.4377
G1 X3.1600 Y-18.0870 Z1.4235
G1 X3.1512 Y-18.0868 Z1.4119
G1 X3.1365 Y-18.0865 Z1.3916
G1 X3.1248 Y-18.0862 Z1.3745
G1 X3.1190 Y-18.0861 Z1.3652
G1 X3.1131 Y-18.0860 Z1.3553
G1 X3.1072 Y-18.0858 Z1.3447
G1 X3.1014 Y-18.0857 Z1.3332
G1 X3.0836 Y-18.0853 Z1.2951
G1 X3.0776 Y-18.0852 Z1.2808
G1 X3.0715 Y-18.0850 Z1.2646
G1 X3.0685 Y-18.0850 Z1.2556
G1 X3.0655 Y-18.0849 Z1.2457
G1 X3.0594 Y-18.0848 Z1.2234
G1 X3.0534 Y-18.0846 Z1.1999
G1 X3.0504 Y-18.0846 Z1.1860
G1 X3.0474 Y-18.0845 Z1.1688
G1 X3.0451 Y-18.0844 Z1.1514
G1 X3.0417 Y-18.0844 Z1.1120
G1 X3.0405 Y-18.0843 Z1.0930
G1 X3.0398 Y-18.0843 Z1.0929
G0 Z1.8900
G0 X3.0398 Y-18.0843 
G0 Z1.8900
G0 X5.8436 Y-18.1695 
G1 X5.8436 Y-18.1695 Z1.8650 F75.
G1 X5.8360 Y-18.1694 Z1.8268 F25.
G1 X5.8143 Y-18.1691 Z1.7943
G1 X5.7818 Y-18.1686 Z1.7726
G1 X5.7436 Y-18.1680 Z1.7650
G1 X5.1226 Y-18.1587 Z1.7650 F150.
G1 X5.1108 Y-18.1586 Z1.7649
G1 X5.0874 Y-18.1582 Z1.7642
G1 X5.0640 Y-18.1578 Z1.7630
G1 X5.0405 Y-18.1575 Z1.7612
G1 X5.0142 Y-18.1571 Z1.7587
G1 X4.9234 Y-18.1557 Z1.7558
G1 X4.8179 Y-18.1542 Z1.7504
G1 X4.7154 Y-18.1526 Z1.7431
G1 X4.6187 Y-18.1512 Z1.7344
G1 X4.4312 Y-18.1484 Z1.7156
G1 X4.1178 Y-18.1437 Z1.6826
G1 X4.0563 Y-18.1427 Z1.6756
G1 X3.8219 Y-18.1392 Z1.6493
G1 X3.4938 Y-18.1343 Z1.6089
G1 X3.4675 Y-18.1339 Z1.6042
G1 X3.4470 Y-18.1336 Z1.5998
G1 X3.4235 Y-18.1332 Z1.5941
G1 X3.4001 Y-18.1329 Z1.5869
G1 X3.3884 Y-18.1327 Z1.5826
G1 X3.3532 Y-18.1322 Z1.5684
G1 X3.3298 Y-18.1318 Z1.5576
G1 X3.3181 Y-18.1317 Z1.5515
G1 X3.3064 Y-18.1315 Z1.5449
G1 X3.2917 Y-18.1313 Z1.5359
G1 X3.2595 Y-18.1308 Z1.5148
G1 X3.2478 Y-18.1306 Z1.5063
G1 X3.2360 Y-18.1304 Z1.4971
G1 X3.2243 Y-18.1303 Z1.4871
G1 X3.2126 Y-18.1301 Z1.4763
G1 X3.1892 Y-18.1297 Z1.4538
G1 X3.1775 Y-18.1296 Z1.4417
G1 X3.1657 Y-18.1294 Z1.4285
G1 X3.1540 Y-18.1292 Z1.4141
G1 X3.1452 Y-18.1291 Z1.4023
G1 X3.1247 Y-18.1288 Z1.3734
G1 X3.1189 Y-18.1287 Z1.3647
G1 X3.1084 Y-18.1285 Z1.3476
G1 X3.1032 Y-18.1284 Z1.3383
G1 X3.0980 Y-18.1284 Z1.3284
G1 X3.0928 Y-18.1283 Z1.3177
G1 X3.0771 Y-18.1281 Z1.2838
G1 X3.0719 Y-18.1280 Z1.2714
G1 X3.0667 Y-18.1279 Z1.2576
G1 X3.0614 Y-18.1278 Z1.2420
G1 X3.0569 Y-18.1277 Z1.2261
G1 X3.0484 Y-18.1276 Z1.1937
G1 X3.0445 Y-18.1276 Z1.1761
G1 X3.0419 Y-18.1275 Z1.1615
G1 X3.0399 Y-18.1275 Z1.1477
G1 X3.0383 Y-18.1275 Z1.1320
G1 X3.0357 Y-18.1274 Z1.1006
G1 X3.0347 Y-18.1274 Z1.0837
G1 X3.0340 Y-18.1274 Z1.0837
G0 Z1.8900
G0 X3.0340 Y-18.1274 
G0 Z1.8900
G0 X5.8726 Y-18.1919 
G1 X5.8726 Y-18.1919 Z1.8650 F75.
G1 X5.8650 Y-18.1918 Z1.8268 F25.
G1 X5.8433 Y-18.1917 Z1.7943
G1 X5.8109 Y-18.1914 Z1.7726
G1 X5.7726 Y-18.1911 Z1.7650
G1 X5.1632 Y-18.1866 Z1.7650 F150.
G1 X5.1398 Y-18.1864 Z1.7648
G1 X5.1164 Y-18.1862 Z1.7639
G1 X5.0929 Y-18.1860 Z1.7625
G1 X5.0695 Y-18.1859 Z1.7606
G1 X5.0504 Y-18.1857 Z1.7587
G1 X4.9640 Y-18.1851 Z1.7559
G1 X4.8585 Y-18.1843 Z1.7506
G1 X4.7560 Y-18.1835 Z1.7432
G1 X4.6593 Y-18.1828 Z1.7344
G1 X4.6007 Y-18.1824 Z1.7281
G1 X4.4601 Y-18.1813 Z1.7136
G1 X4.1613 Y-18.1791 Z1.6820
G1 X4.0851 Y-18.1785 Z1.6729
G1 X3.8478 Y-18.1767 Z1.6459
G1 X3.7101 Y-18.1757 Z1.6285
G1 X3.4992 Y-18.1741 Z1.6024
G1 X3.4758 Y-18.1739 Z1.5990
G1 X3.4641 Y-18.1738 Z1.5967
G1 X3.4289 Y-18.1736 Z1.5889
G1 X3.4055 Y-18.1734 Z1.5823
G1 X3.3820 Y-18.1732 Z1.5741
G1 X3.3469 Y-18.1730 Z1.5595
G1 X3.3352 Y-18.1729 Z1.5543
G1 X3.3117 Y-18.1727 Z1.5423
G1 X3.3000 Y-18.1726 Z1.5356
G1 X3.2883 Y-18.1725 Z1.5283
G1 X3.2590 Y-18.1723 Z1.5091
G1 X3.2531 Y-18.1722 Z1.5050
G1 X3.2414 Y-18.1722 Z1.4964
G1 X3.2297 Y-18.1721 Z1.4871
G1 X3.2180 Y-18.1720 Z1.4771
G1 X3.2062 Y-18.1719 Z1.4662
G1 X3.1828 Y-18.1717 Z1.4436
G1 X3.1711 Y-18.1716 Z1.4315
G1 X3.1594 Y-18.1715 Z1.4183
G1 X3.1477 Y-18.1715 Z1.4037
G1 X3.1366 Y-18.1714 Z1.3887
G1 X3.1183 Y-18.1712 Z1.3628
G1 X3.1109 Y-18.1712 Z1.3516
G1 X3.1036 Y-18.1711 Z1.3396
G1 X3.0962 Y-18.1711 Z1.3265
G1 X3.0871 Y-18.1710 Z1.3082
G1 X3.0742 Y-18.1709 Z1.2806
G1 X3.0705 Y-18.1709 Z1.2724
G1 X3.0669 Y-18.1709 Z1.2637
G1 X3.0632 Y-18.1708 Z1.2543
G1 X3.0595 Y-18.1708 Z1.2441
G1 X3.0558 Y-18.1708 Z1.2330
G1 X3.0508 Y-18.1707 Z1.2155
G1 X3.0430 Y-18.1707 Z1.1858
G1 X3.0393 Y-18.1706 Z1.1699
G1 X3.0366 Y-18.1706 Z1.1552
G1 X3.0347 Y-18.1706 Z1.1430
G1 X3.0329 Y-18.1706 Z1.1265
G1 X3.0301 Y-18.1706 Z1.0927
G1 X3.0292 Y-18.1706 Z1.0744
G1 X3.0283 Y-18.1706 Z1.0744
G0 Z1.8900
G0 X3.0283 Y-18.1706 
G0 Z1.8900
G0 X5.9010 Y-18.2138 
G1 X5.9010 Y-18.2138 Z1.8650 F75.
G1 X5.8934 Y-18.2138 Z1.8268 F25.
G1 X5.8717 Y-18.2138 Z1.7943
G1 X5.8393 Y-18.2138 Z1.7726
G1 X5.8010 Y-18.2138 Z1.7650
G1 X5.1917 Y-18.2138 Z1.7650 F150.
G1 X5.1682 Y-18.2138 Z1.7646
G1 X5.1448 Y-18.2138 Z1.7636
G1 X5.1213 Y-18.2138 Z1.7620
G1 X5.0862 Y-18.2138 Z1.7587
G1 X4.9924 Y-18.2138 Z1.7556
G1 X4.8987 Y-18.2138 Z1.7507
G1 X4.7932 Y-18.2138 Z1.7431
G1 X4.6995 Y-18.2138 Z1.7344
G1 X4.5940 Y-18.2138 Z1.7227
G1 X4.3010 Y-18.2138 Z1.6918
G1 X4.1985 Y-18.2138 Z1.6807
G1 X4.1135 Y-18.2138 Z1.6704
G1 X3.8909 Y-18.2138 Z1.6447
G1 X3.7385 Y-18.2138 Z1.6250
G1 X3.5510 Y-18.2138 Z1.6015
G1 X3.4807 Y-18.2138 Z1.5920
G1 X3.4573 Y-18.2138 Z1.5876
G1 X3.4221 Y-18.2138 Z1.5796
G1 X3.4104 Y-18.2138 Z1.5764
G1 X3.3870 Y-18.2138 Z1.5689
G1 X3.3753 Y-18.2138 Z1.5645
G1 X3.3401 Y-18.2138 Z1.5498
G1 X3.3167 Y-18.2138 Z1.5387
G1 X3.3049 Y-18.2138 Z1.5324
G1 X3.2932 Y-18.2138 Z1.5256
G1 X3.2815 Y-18.2138 Z1.5183
G1 X3.2581 Y-18.2138 Z1.5029
G1 X3.2463 Y-18.2138 Z1.4949
G1 X3.2346 Y-18.2138 Z1.4862
G1 X3.2229 Y-18.2138 Z1.4768
G1 X3.2112 Y-18.2138 Z1.4667
G1 X3.1995 Y-18.2138 Z1.4557
G1 X3.1760 Y-18.2138 Z1.4331
G1 X3.1665 Y-18.2138 Z1.4232
G1 X3.1571 Y-18.2138 Z1.4127
G1 X3.1476 Y-18.2138 Z1.4013
G1 X3.1381 Y-18.2138 Z1.3891
G1 X3.1143 Y-18.2138 Z1.3559
G1 X3.1096 Y-18.2138 Z1.3489
G1 X3.1001 Y-18.2138 Z1.3338
G1 X3.0906 Y-18.2138 Z1.3171
G1 X3.0859 Y-18.2138 Z1.3079
G1 X3.0811 Y-18.2138 Z1.2981
G1 X3.0669 Y-18.2138 Z1.2670
G1 X3.0621 Y-18.2138 Z1.2558
G1 X3.0574 Y-18.2138 Z1.2436
G1 X3.0526 Y-18.2138 Z1.2300
G1 X3.0479 Y-18.2138 Z1.2145
G1 X3.0384 Y-18.2138 Z1.1783
G1 X3.0360 Y-18.2138 Z1.1684
G1 X3.0325 Y-18.2138 Z1.1510
G1 X3.0301 Y-18.2138 Z1.1364
G1 X3.0283 Y-18.2138 Z1.1221
G1 X3.0250 Y-18.2138 Z1.0839
G1 X3.0241 Y-18.2138 Z1.0654
G1 X3.0235 Y-18.2138 Z1.0651
G1 X3.0229 Y-18.2138 Z1.0651
G0 Z1.8900
G0 X3.0229 Y-18.2138 
G0 Z1.8900
G0 X5.9289 Y-18.2353 
G1 X5.9289 Y-18.2353 Z1.8650 F75.
G1 X5.9213 Y-18.2353 Z1.8268 F25.
G1 X5.8997 Y-18.2355 Z1.7943
G1 X5.8672 Y-18.2358 Z1.7726
G1 X5.8290 Y-18.2360 Z1.7650
G1 X5.2196 Y-18.2406 Z1.7650 F150.
G1 X5.1962 Y-18.2408 Z1.7644
G1 X5.1727 Y-18.2410 Z1.7632
G1 X5.1493 Y-18.2411 Z1.7615
G1 X5.1200 Y-18.2414 Z1.7586
G1 X5.0321 Y-18.2420 Z1.7558
G1 X4.9384 Y-18.2427 Z1.7509
G1 X4.8681 Y-18.2432 Z1.7459
G1 X4.8270 Y-18.2436 Z1.7427
G1 X4.7391 Y-18.2442 Z1.7344
G1 X4.6571 Y-18.2448 Z1.7254
G1 X4.5399 Y-18.2457 Z1.7122
G1 X4.2587 Y-18.2478 Z1.6821
G1 X4.2353 Y-18.2480 Z1.6795
G1 X4.1415 Y-18.2487 Z1.6680
G1 X3.9306 Y-18.2503 Z1.6431
G1 X3.7665 Y-18.2515 Z1.6215
G1 X3.5907 Y-18.2528 Z1.5992
G1 X3.4853 Y-18.2536 Z1.5846
G1 X3.4618 Y-18.2538 Z1.5808
G1 X3.4501 Y-18.2539 Z1.5783
G1 X3.4267 Y-18.2541 Z1.5730
G1 X3.4150 Y-18.2541 Z1.5702
G1 X3.3915 Y-18.2543 Z1.5633
G1 X3.3681 Y-18.2545 Z1.5548
G1 X3.3329 Y-18.2548 Z1.5399
G1 X3.3212 Y-18.2548 Z1.5345
G1 X3.3095 Y-18.2549 Z1.5287
G1 X3.2978 Y-18.2550 Z1.5223
G1 X3.2861 Y-18.2551 Z1.5154
G1 X3.2743 Y-18.2552 Z1.5080
G1 X3.2509 Y-18.2554 Z1.4925
G1 X3.2392 Y-18.2555 Z1.4844
G1 X3.2275 Y-18.2555 Z1.4756
G1 X3.2158 Y-18.2556 Z1.4662
G1 X3.2040 Y-18.2557 Z1.4559
G1 X3.1925 Y-18.2558 Z1.4450
G1 X3.1694 Y-18.2560 Z1.4225
G1 X3.1579 Y-18.2561 Z1.4102
G1 X3.1463 Y-18.2562 Z1.3968
G1 X3.1348 Y-18.2562 Z1.3821
G1 X3.1117 Y-18.2564 Z1.3496
G1 X3.1002 Y-18.2565 Z1.3323
G1 X3.0944 Y-18.2565 Z1.3228
G1 X3.0887 Y-18.2566 Z1.3127
G1 X3.0829 Y-18.2566 Z1.3018
G1 X3.0757 Y-18.2567 Z1.2870
G1 X3.0627 Y-18.2568 Z1.2588
G1 X3.0598 Y-18.2568 Z1.2522
G1 X3.0540 Y-18.2568 Z1.2380
G1 X3.0483 Y-18.2569 Z1.2219
G1 X3.0454 Y-18.2569 Z1.2130
G1 X3.0411 Y-18.2569 Z1.1980
G1 X3.0339 Y-18.2570 Z1.1703
G1 X3.0310 Y-18.2570 Z1.1586
G1 X3.0281 Y-18.2570 Z1.1449
G1 X3.0252 Y-18.2571 Z1.1280
G1 X3.0230 Y-18.2571 Z1.1109
G1 X3.0198 Y-18.2571 Z1.0729
G1 X3.0187 Y-18.2571 Z1.0551
G1 X3.0180 Y-18.2571 Z1.0551
G0 Z1.8900
G0 X3.0180 Y-18.2571 
G0 Z1.8900
G0 X5.9564 Y-18.2564 
G1 X5.9564 Y-18.2564 Z1.8650 F75.
G1 X5.9487 Y-18.2565 Z1.8268 F25.
G1 X5.9271 Y-18.2568 Z1.7943
G1 X5.8946 Y-18.2573 Z1.7726
G1 X5.8564 Y-18.2579 Z1.7650
G1 X5.2588 Y-18.2668 Z1.7650 F150.
G1 X5.2471 Y-18.2670 Z1.7649
G1 X5.2236 Y-18.2674 Z1.7641
G1 X5.2002 Y-18.2677 Z1.7628
G1 X5.1768 Y-18.2681 Z1.7609
G1 X5.1548 Y-18.2684 Z1.7586
G1 X5.0713 Y-18.2696 Z1.7559
G1 X4.9893 Y-18.2709 Z1.7517
G1 X4.9600 Y-18.2713 Z1.7499
G1 X4.8721 Y-18.2726 Z1.7433
G1 X4.7784 Y-18.2740 Z1.7345
G1 X4.6612 Y-18.2758 Z1.7215
G1 X4.5089 Y-18.2781 Z1.7041
G1 X4.2862 Y-18.2814 Z1.6800
G1 X4.0753 Y-18.2846 Z1.6541
G1 X3.9743 Y-18.2861 Z1.6422
G1 X3.7941 Y-18.2888 Z1.6182
G1 X3.6447 Y-18.2910 Z1.5988
G1 X3.4660 Y-18.2937 Z1.5736
G1 X3.4426 Y-18.2941 Z1.5689
G1 X3.4191 Y-18.2944 Z1.5635
G1 X3.3957 Y-18.2948 Z1.5573
G1 X3.3723 Y-18.2951 Z1.5494
G1 X3.3606 Y-18.2953 Z1.5448
G1 X3.3254 Y-18.2958 Z1.5298
G1 X3.3020 Y-18.2962 Z1.5182
G1 X3.2903 Y-18.2964 Z1.5117
G1 X3.2785 Y-18.2965 Z1.5046
G1 X3.2434 Y-18.2971 Z1.4813
G1 X3.2317 Y-18.2972 Z1.4729
G1 X3.2181 Y-18.2974 Z1.4625
G1 X3.2045 Y-18.2976 Z1.4510
G1 X3.1910 Y-18.2978 Z1.4384
G1 X3.1639 Y-18.2982 Z1.4117
G1 X3.1503 Y-18.2985 Z1.3971
G1 X3.1367 Y-18.2987 Z1.3810
G1 X3.1300 Y-18.2988 Z1.3722
G1 X3.1232 Y-18.2989 Z1.3629
G1 X3.1028 Y-18.2992 Z1.3338
G1 X3.0961 Y-18.2993 Z1.3235
G1 X3.0893 Y-18.2994 Z1.3124
G1 X3.0825 Y-18.2995 Z1.3004
G1 X3.0757 Y-18.2996 Z1.2874
G1 X3.0689 Y-18.2997 Z1.2731
G1 X3.0554 Y-18.2999 Z1.2434
G1 X3.0520 Y-18.2999 Z1.2354
G1 X3.0486 Y-18.3000 Z1.2268
G1 X3.0452 Y-18.3000 Z1.2175
G1 X3.0418 Y-18.3001 Z1.2076
G1 X3.0384 Y-18.3001 Z1.1966
G1 X3.0350 Y-18.3002 Z1.1843
G1 X3.0266 Y-18.3003 Z1.1514
G1 X3.0232 Y-18.3004 Z1.1359
G1 X3.0215 Y-18.3004 Z1.1267
G1 X3.0189 Y-18.3004 Z1.1098
G1 X3.0173 Y-18.3004 Z1.0942
G1 X3.0147 Y-18.3005 Z1.0631
G1 X3.0139 Y-18.3005 Z1.0450
G1 X3.0130 Y-18.3005 Z1.0450
G0 Z1.8900
G0 X3.0130 Y-18.3005 
G0 Z1.8900
G0 X5.9833 Y-18.2771 
G1 X5.9833 Y-18.2771 Z1.8650 F75.
G1 X5.9757 Y-18.2772 Z1.8268 F25.
G1 X5.9540 Y-18.2777 Z1.7943
G1 X5.9215 Y-18.2784 Z1.7726
G1 X5.8833 Y-18.2793 Z1.7650
G1 X5.2975 Y-18.2925 Z1.7650 F150.
G1 X5.2741 Y-18.2930 Z1.7647
G1 X5.2506 Y-18.2935 Z1.7639
G1 X5.2272 Y-18.2941 Z1.7624
G1 X5.2038 Y-18.2946 Z1.7603
G1 X5.1877 Y-18.2950 Z1.7586
G1 X5.0983 Y-18.2970 Z1.7556
G1 X5.0046 Y-18.2991 Z1.7505
G1 X4.9109 Y-18.3012 Z1.7435
G1 X4.8142 Y-18.3034 Z1.7343
G1 X4.6648 Y-18.3067 Z1.7175
G1 X4.4774 Y-18.3109 Z1.6959
G1 X4.3251 Y-18.3144 Z1.6792
G1 X4.1025 Y-18.3194 Z1.6515
G1 X4.0146 Y-18.3213 Z1.6409
G1 X3.8213 Y-18.3257 Z1.6149
G1 X3.6983 Y-18.3285 Z1.5986
G1 X3.4698 Y-18.3336 Z1.5660
G1 X3.4464 Y-18.3341 Z1.5618
G1 X3.4113 Y-18.3349 Z1.5535
G1 X3.3995 Y-18.3352 Z1.5504
G1 X3.3761 Y-18.3357 Z1.5431
G1 X3.3527 Y-18.3362 Z1.5340
G1 X3.3175 Y-18.3370 Z1.5186
G1 X3.3058 Y-18.3373 Z1.5129
G1 X3.2941 Y-18.3376 Z1.5068
G1 X3.2824 Y-18.3378 Z1.5001
G1 X3.2707 Y-18.3381 Z1.4928
G1 X3.2356 Y-18.3389 Z1.4693
G1 X3.2278 Y-18.3390 Z1.4637
G1 X3.2123 Y-18.3394 Z1.4517
G1 X3.1967 Y-18.3397 Z1.4384
G1 X3.1851 Y-18.3400 Z1.4274
G1 X3.1579 Y-18.3406 Z1.4005
G1 X3.1501 Y-18.3408 Z1.3923
G1 X3.1423 Y-18.3410 Z1.3835
G1 X3.1345 Y-18.3411 Z1.3743
G1 X3.1268 Y-18.3413 Z1.3644
G1 X3.1151 Y-18.3416 Z1.3483
G1 X3.0957 Y-18.3420 Z1.3204
G1 X3.0879 Y-18.3422 Z1.3082
G1 X3.0801 Y-18.3424 Z1.2949
G1 X3.0723 Y-18.3425 Z1.2804
G1 X3.0645 Y-18.3427 Z1.2643
G1 X3.0568 Y-18.3429 Z1.2474
G1 X3.0490 Y-18.3431 Z1.2300
G1 X3.0451 Y-18.3432 Z1.2203
G1 X3.0412 Y-18.3432 Z1.2099
G1 X3.0373 Y-18.3433 Z1.1984
G1 X3.0334 Y-18.3434 Z1.1856
G1 X3.0296 Y-18.3435 Z1.1711
G1 X3.0218 Y-18.3437 Z1.1402
G1 X3.0198 Y-18.3437 Z1.1314
G1 X3.0169 Y-18.3438 Z1.1159
G1 X3.0150 Y-18.3438 Z1.1030
G1 X3.0130 Y-18.3439 Z1.0857
G1 X3.0101 Y-18.3439 Z1.0493
G1 X3.0091 Y-18.3440 Z1.0350
G1 X3.0082 Y-18.3440 Z1.0350
G0 Z1.8900
G0 X3.0082 Y-18.3440 
G0 Z1.8900
G0 X6.0097 Y-18.2974 
G1 X6.0097 Y-18.2974 Z1.8650 F75.
G1 X6.0021 Y-18.2976 Z1.8268 F25.
G1 X5.9804 Y-18.2982 Z1.7943
G1 X5.9480 Y-18.2992 Z1.7726
G1 X5.9097 Y-18.3004 Z1.7650
G1 X5.3240 Y-18.3179 Z1.7650 F150.
G1 X5.3006 Y-18.3186 Z1.7646
G1 X5.2772 Y-18.3193 Z1.7636
G1 X5.2538 Y-18.3200 Z1.7619
G1 X5.2230 Y-18.3210 Z1.7588
G1 X5.1366 Y-18.3236 Z1.7558
G1 X5.0429 Y-18.3264 Z1.7507
G1 X4.9726 Y-18.3285 Z1.7455
G1 X4.9316 Y-18.3297 Z1.7421
G1 X4.8497 Y-18.3322 Z1.7341
G1 X4.6915 Y-18.3369 Z1.7163
G1 X4.4338 Y-18.3446 Z1.6863
G1 X4.3518 Y-18.3471 Z1.6771
G1 X4.0531 Y-18.3561 Z1.6395
G1 X3.7544 Y-18.3650 Z1.5989
G1 X3.4733 Y-18.3735 Z1.5576
G1 X3.4499 Y-18.3742 Z1.5539
G1 X3.4323 Y-18.3747 Z1.5501
G1 X3.4030 Y-18.3756 Z1.5430
G1 X3.3796 Y-18.3763 Z1.5362
G1 X3.3562 Y-18.3770 Z1.5277
G1 X3.3445 Y-18.3773 Z1.5228
G1 X3.3152 Y-18.3782 Z1.5099
G1 X3.3093 Y-18.3784 Z1.5072
G1 X3.2859 Y-18.3791 Z1.4950
G1 X3.2684 Y-18.3796 Z1.4846
G1 X3.2508 Y-18.3801 Z1.4730
G1 X3.2333 Y-18.3807 Z1.4611
G1 X3.2158 Y-18.3812 Z1.4483
G1 X3.1982 Y-18.3817 Z1.4340
G1 X3.1807 Y-18.3822 Z1.4179
G1 X3.1544 Y-18.3830 Z1.3920
G1 X3.1456 Y-18.3833 Z1.3827
G1 X3.1369 Y-18.3835 Z1.3729
G1 X3.1281 Y-18.3838 Z1.3622
G1 X3.1193 Y-18.3841 Z1.3508
G1 X3.1106 Y-18.3843 Z1.3384
G1 X3.0930 Y-18.3849 Z1.3130
G1 X3.0843 Y-18.3851 Z1.2993
G1 X3.0755 Y-18.3854 Z1.2843
G1 X3.0667 Y-18.3856 Z1.2676
G1 X3.0602 Y-18.3858 Z1.2536
G1 X3.0492 Y-18.3862 Z1.2295
G1 X3.0448 Y-18.3863 Z1.2194
G1 X3.0404 Y-18.3864 Z1.2085
G1 X3.0361 Y-18.3866 Z1.1965
G1 X3.0317 Y-18.3867 Z1.1832
G1 X3.0273 Y-18.3868 Z1.1681
G1 X3.0185 Y-18.3871 Z1.1339
G1 X3.0163 Y-18.3872 Z1.1244
G1 X3.0130 Y-18.3873 Z1.1078
G1 X3.0109 Y-18.3873 Z1.0939
G1 X3.0092 Y-18.3874 Z1.0804
G1 X3.0059 Y-18.3875 Z1.0416
G1 X3.0048 Y-18.3875 Z1.0249
G1 X3.0043 Y-18.3875 Z1.0249
G0 Z1.8900
G0 X3.0043 Y-18.3875 
G0 Z1.8900
G0 X6.0356 Y-18.3173 
G1 X6.0356 Y-18.3173 Z1.8650 F75.
G1 X6.0280 Y-18.3176 Z1.8268 F25.
G1 X6.0063 Y-18.3184 Z1.7943
G1 X5.9739 Y-18.3196 Z1.7726
G1 X5.9357 Y-18.3210 Z1.7650
G1 X5.3502 Y-18.3430 Z1.7650 F150.
G1 X5.3267 Y-18.3439 Z1.7644
G1 X5.3033 Y-18.3448 Z1.7632
G1 X5.2799 Y-18.3456 Z1.7614
G1 X5.2536 Y-18.3466 Z1.7586
G1 X5.1628 Y-18.3500 Z1.7554
G1 X5.0691 Y-18.3535 Z1.7502
G1 X4.9989 Y-18.3562 Z1.7448
G1 X4.9520 Y-18.3579 Z1.7406
G1 X4.8817 Y-18.3606 Z1.7336
G1 X4.7178 Y-18.3667 Z1.7150
G1 X4.3840 Y-18.3792 Z1.6756
G1 X4.0898 Y-18.3903 Z1.6380
G1 X3.7927 Y-18.4014 Z1.5969
G1 X3.6170 Y-18.4080 Z1.5702
G1 X3.4531 Y-18.4142 Z1.5459
G1 X3.4267 Y-18.4151 Z1.5404
G1 X3.3945 Y-18.4164 Z1.5324
G1 X3.3828 Y-18.4168 Z1.5290
G1 X3.3594 Y-18.4177 Z1.5211
G1 X3.3477 Y-18.4181 Z1.5165
G1 X3.3360 Y-18.4185 Z1.5115
G1 X3.3125 Y-18.4194 Z1.5011
G1 X3.2931 Y-18.4202 Z1.4917
G1 X3.2736 Y-18.4209 Z1.4809
G1 X3.2541 Y-18.4216 Z1.4685
G1 X3.2249 Y-18.4227 Z1.4485
G1 X3.2152 Y-18.4231 Z1.4413
G1 X3.2054 Y-18.4234 Z1.4337
G1 X3.1957 Y-18.4238 Z1.4255
G1 X3.1860 Y-18.4242 Z1.4168
G1 X3.1762 Y-18.4245 Z1.4076
G1 X3.1519 Y-18.4255 Z1.3833
G1 X3.1470 Y-18.4256 Z1.3782
G1 X3.1373 Y-18.4260 Z1.3675
G1 X3.1276 Y-18.4264 Z1.3561
G1 X3.1178 Y-18.4267 Z1.3437
G1 X3.1081 Y-18.4271 Z1.3302
G1 X3.0886 Y-18.4278 Z1.3019
G1 X3.0789 Y-18.4282 Z1.2866
G1 X3.0691 Y-18.4286 Z1.2696
G1 X3.0643 Y-18.4287 Z1.2603
G1 X3.0570 Y-18.4290 Z1.2451
G1 X3.0448 Y-18.4295 Z1.2183
G1 X3.0399 Y-18.4297 Z1.2071
G1 X3.0351 Y-18.4298 Z1.1947
G1 X3.0302 Y-18.4300 Z1.1811
G1 X3.0253 Y-18.4302 Z1.1656
G1 X3.0205 Y-18.4304 Z1.1475
G1 X3.0132 Y-18.4307 Z1.1187
G1 X3.0095 Y-18.4308 Z1.1014
G1 X3.0071 Y-18.4309 Z1.0870
G1 X3.0053 Y-18.4310 Z1.0733
G1 X3.0034 Y-18.4310 Z1.0539
G1 X3.0013 Y-18.4311 Z1.0276
G1 X3.0004 Y-18.4311 Z1.0144
G0 Z1.8900
G0 X3.0004 Y-18.4311 
G0 Z1.8900
G0 X6.0611 Y-18.3369 
G1 X6.0611 Y-18.3369 Z1.8650 F75.
G1 X6.0535 Y-18.3372 Z1.8268 F25.
G1 X6.0319 Y-18.3382 Z1.7943
G1 X5.9994 Y-18.3396 Z1.7726
G1 X5.9612 Y-18.3414 Z1.7650
G1 X5.3876 Y-18.3672 Z1.7650 F150.
G1 X5.3759 Y-18.3677 Z1.7649
G1 X5.3525 Y-18.3688 Z1.7642
G1 X5.3290 Y-18.3698 Z1.7628
G1 X5.3056 Y-18.3709 Z1.7608
G1 X5.2851 Y-18.3718 Z1.7586
G1 X5.2120 Y-18.3751 Z1.7561
G1 X5.1769 Y-18.3767 Z1.7544
G1 X5.1008 Y-18.3801 Z1.7500
G1 X5.0130 Y-18.3841 Z1.7431
G1 X4.9544 Y-18.3867 Z1.7374
G1 X4.9076 Y-18.3888 Z1.7324
G1 X4.6969 Y-18.3983 Z1.7082
G1 X4.4627 Y-18.4088 Z1.6797
G1 X4.2754 Y-18.4173 Z1.6559
G1 X4.1276 Y-18.4239 Z1.6367
G1 X4.0881 Y-18.4257 Z1.6310
G1 X3.8320 Y-18.4372 Z1.5952
G1 X3.7135 Y-18.4426 Z1.5768
G1 X3.4559 Y-18.4541 Z1.5376
G1 X3.4325 Y-18.4552 Z1.5333
G1 X3.3974 Y-18.4568 Z1.5246
G1 X3.3857 Y-18.4573 Z1.5214
G1 X3.3623 Y-18.4584 Z1.5139
G1 X3.3389 Y-18.4594 Z1.5047
G1 X3.3068 Y-18.4609 Z1.4903
G1 X3.2962 Y-18.4613 Z1.4852
G1 X3.2748 Y-18.4623 Z1.4737
G1 X3.2534 Y-18.4633 Z1.4604
G1 X3.2214 Y-18.4647 Z1.4383
G1 X3.2107 Y-18.4652 Z1.4305
G1 X3.2000 Y-18.4657 Z1.4221
G1 X3.1894 Y-18.4661 Z1.4130
G1 X3.1787 Y-18.4666 Z1.4033
G1 X3.1680 Y-18.4671 Z1.3929
G1 X3.1467 Y-18.4681 Z1.3715
G1 X3.1360 Y-18.4686 Z1.3600
G1 X3.1253 Y-18.4690 Z1.3477
G1 X3.1146 Y-18.4695 Z1.3342
G1 X3.1039 Y-18.4700 Z1.3195
G1 X3.0826 Y-18.4710 Z1.2884
G1 X3.0719 Y-18.4714 Z1.2712
G1 X3.0666 Y-18.4717 Z1.2618
G1 X3.0612 Y-18.4719 Z1.2518
G1 X3.0532 Y-18.4723 Z1.2354
G1 X3.0399 Y-18.4729 Z1.2060
G1 X3.0345 Y-18.4731 Z1.1935
G1 X3.0292 Y-18.4734 Z1.1796
G1 X3.0239 Y-18.4736 Z1.1639
G1 X3.0212 Y-18.4737 Z1.1551
G1 X3.0172 Y-18.4739 Z1.1401
G1 X3.0105 Y-18.4742 Z1.1135
G1 X3.0065 Y-18.4744 Z1.0953
G1 X3.0038 Y-18.4745 Z1.0801
G1 X3.0018 Y-18.4746 Z1.0656
G1 X3.0002 Y-18.4747 Z1.0485
G1 X2.9978 Y-18.4748 Z1.0188
G1 X2.9972 Y-18.4748 Z1.0045
G1 X2.9965 Y-18.4748 Z1.0037
G0 Z1.8900
G0 X2.9965 Y-18.4748 
G0 Z1.8900
G0 X6.0862 Y-18.3561 
G1 X6.0862 Y-18.3561 Z1.8650 F75.
G1 X6.0786 Y-18.3565 Z1.8268 F25.
G1 X6.0569 Y-18.3576 Z1.7943
G1 X6.0245 Y-18.3593 Z1.7726
G1 X5.9863 Y-18.3613 Z1.7650
G1 X5.4129 Y-18.3915 Z1.7650 F150.
G1 X5.4012 Y-18.3921 Z1.7648
G1 X5.3778 Y-18.3933 Z1.7639
G1 X5.3544 Y-18.3945 Z1.7624
G1 X5.3310 Y-18.3958 Z1.7602
G1 X5.3163 Y-18.3965 Z1.7586
G1 X5.2373 Y-18.4007 Z1.7559
G1 X5.1905 Y-18.4032 Z1.7533
G1 X5.1320 Y-18.4062 Z1.7498
G1 X5.0501 Y-18.4105 Z1.7433
G1 X4.9916 Y-18.4136 Z1.7376
G1 X4.9448 Y-18.4161 Z1.7326
G1 X4.7107 Y-18.4284 Z1.7050
G1 X4.6756 Y-18.4302 Z1.7004
G1 X4.3947 Y-18.4450 Z1.6656
G1 X4.1636 Y-18.4571 Z1.6353
G1 X4.1139 Y-18.4597 Z1.6280
G1 X3.8711 Y-18.4725 Z1.5935
G1 X3.7394 Y-18.4794 Z1.5727
G1 X3.5024 Y-18.4918 Z1.5361
G1 X3.4468 Y-18.4948 Z1.5268
G1 X3.4351 Y-18.4954 Z1.5246
G1 X3.4176 Y-18.4963 Z1.5206
G1 X3.3883 Y-18.4978 Z1.5131
G1 X3.3649 Y-18.4991 Z1.5060
G1 X3.3416 Y-18.5003 Z1.4973
G1 X3.3242 Y-18.5012 Z1.4896
G1 X3.3009 Y-18.5024 Z1.4790
G1 X3.2951 Y-18.5027 Z1.4762
G1 X3.2718 Y-18.5039 Z1.4639
G1 X3.2602 Y-18.5046 Z1.4569
G1 X3.2457 Y-18.5053 Z1.4474
G1 X3.2137 Y-18.5070 Z1.4252
G1 X3.2020 Y-18.5076 Z1.4163
G1 X3.1904 Y-18.5082 Z1.4068
G1 X3.1787 Y-18.5088 Z1.3966
G1 X3.1672 Y-18.5094 Z1.3856
G1 X3.1441 Y-18.5107 Z1.3624
G1 X3.1326 Y-18.5113 Z1.3502
G1 X3.1210 Y-18.5119 Z1.3368
G1 X3.1095 Y-18.5125 Z1.3222
G1 X3.0994 Y-18.5130 Z1.3082
G1 X3.0806 Y-18.5140 Z1.2808
G1 X3.0748 Y-18.5143 Z1.2718
G1 X3.0691 Y-18.5146 Z1.2623
G1 X3.0633 Y-18.5149 Z1.2521
G1 X3.0575 Y-18.5152 Z1.2412
G1 X3.0518 Y-18.5155 Z1.2294
G1 X3.0344 Y-18.5164 Z1.1907
G1 X3.0287 Y-18.5167 Z1.1764
G1 X3.0229 Y-18.5170 Z1.1602
G1 X3.0200 Y-18.5172 Z1.1513
G1 X3.0171 Y-18.5173 Z1.1415
G1 X3.0114 Y-18.5176 Z1.1192
G1 X3.0056 Y-18.5179 Z1.0959
G1 X3.0027 Y-18.5181 Z1.0822
G1 X2.9998 Y-18.5182 Z1.0652
G1 X2.9976 Y-18.5184 Z1.0480
G1 X2.9944 Y-18.5185 Z1.0091
G1 X2.9933 Y-18.5186 Z0.9930
G1 X2.9926 Y-18.5186 Z0.9929
G0 Z1.8900
G0 X2.9926 Y-18.5186 
G0 Z1.8900
G0 X6.1108 Y-18.3750 
G1 X6.1108 Y-18.3750 Z1.8650 F75.
G1 X6.1032 Y-18.3755 Z1.8268 F25.
G1 X6.0815 Y-18.3768 Z1.7943
G1 X6.0492 Y-18.3787 Z1.7726
G1 X6.0110 Y-18.3810 Z1.7650
G1 X5.4495 Y-18.4147 Z1.7650 F150.
G1 X5.4261 Y-18.4161 Z1.7647
G1 X5.4027 Y-18.4175 Z1.7636
G1 X5.3793 Y-18.4189 Z1.7620
G1 X5.3471 Y-18.4209 Z1.7586
G1 X5.2623 Y-18.4260 Z1.7556
G1 X5.1629 Y-18.4319 Z1.7497
G1 X5.0752 Y-18.4372 Z1.7426
G1 X4.9816 Y-18.4428 Z1.7329
G1 X4.9348 Y-18.4456 Z1.7270
G1 X4.7242 Y-18.4583 Z1.7019
G1 X4.7008 Y-18.4597 Z1.6988
G1 X4.6306 Y-18.4639 Z1.6894
G1 X4.4201 Y-18.4765 Z1.6630
G1 X4.2095 Y-18.4892 Z1.6354
G1 X4.1393 Y-18.4934 Z1.6251
G1 X3.9098 Y-18.5072 Z1.5919
G1 X3.7650 Y-18.5159 Z1.5688
G1 X3.5632 Y-18.5280 Z1.5372
G1 X3.4375 Y-18.5355 Z1.5158
G1 X3.4112 Y-18.5371 Z1.5099
G1 X3.3790 Y-18.5391 Z1.5014
G1 X3.3673 Y-18.5398 Z1.4979
G1 X3.3439 Y-18.5412 Z1.4895
G1 X3.3322 Y-18.5419 Z1.4847
G1 X3.2971 Y-18.5440 Z1.4687
G1 X3.2737 Y-18.5454 Z1.4568
G1 X3.2620 Y-18.5461 Z1.4501
G1 X3.2503 Y-18.5468 Z1.4428
G1 X3.2386 Y-18.5475 Z1.4349
G1 X3.2152 Y-18.5489 Z1.4186
G1 X3.2035 Y-18.5496 Z1.4101
G1 X3.1918 Y-18.5503 Z1.4008
G1 X3.1801 Y-18.5510 Z1.3908
G1 X3.1684 Y-18.5517 Z1.3799
G1 X3.1392 Y-18.5535 Z1.3503
G1 X3.1333 Y-18.5538 Z1.3441
G1 X3.1216 Y-18.5545 Z1.3308
G1 X3.1099 Y-18.5552 Z1.3163
G1 X3.0961 Y-18.5560 Z1.2971
G1 X3.0748 Y-18.5573 Z1.2658
G1 X3.0690 Y-18.5577 Z1.2564
G1 X3.0632 Y-18.5580 Z1.2465
G1 X3.0573 Y-18.5584 Z1.2359
G1 X3.0515 Y-18.5587 Z1.2244
G1 X3.0456 Y-18.5591 Z1.2120
G1 X3.0339 Y-18.5598 Z1.1859
G1 X3.0281 Y-18.5601 Z1.1721
G1 X3.0222 Y-18.5605 Z1.1567
G1 X3.0193 Y-18.5607 Z1.1483
G1 X3.0164 Y-18.5608 Z1.1391
G1 X3.0116 Y-18.5611 Z1.1222
G1 X3.0035 Y-18.5616 Z1.0906
G1 X3.0003 Y-18.5618 Z1.0764
G1 X2.9971 Y-18.5620 Z1.0590
G1 X2.9947 Y-18.5621 Z1.0418
G1 X2.9931 Y-18.5622 Z1.0254
G1 X2.9907 Y-18.5624 Z0.9958
G1 X2.9899 Y-18.5624 Z0.9822
G1 X2.9890 Y-18.5625 Z0.9822
G0 Z1.8900
G0 X2.9890 Y-18.5625 
G0 Z1.8900
G0 X6.1350 Y-18.3936 
G1 X6.1350 Y-18.3936 Z1.8650 F75.
G1 X6.1274 Y-18.3941 Z1.8268 F25.
G1 X6.1058 Y-18.3955 Z1.7943
G1 X6.0734 Y-18.3977 Z1.7726
G1 X6.0352 Y-18.4003 Z1.7650
G1 X5.4740 Y-18.4382 Z1.7650 F150.
G1 X5.4506 Y-18.4398 Z1.7645
G1 X5.4272 Y-18.4414 Z1.7633
G1 X5.4039 Y-18.4430 Z1.7615
G1 X5.3775 Y-18.4448 Z1.7586
G1 X5.2986 Y-18.4501 Z1.7558
G1 X5.2051 Y-18.4564 Z1.7504
G1 X5.1466 Y-18.4604 Z1.7458
G1 X5.1028 Y-18.4633 Z1.7420
G1 X5.0180 Y-18.4691 Z1.7331
G1 X4.9011 Y-18.4770 Z1.7183
G1 X4.7257 Y-18.4888 Z1.6972
G1 X4.7023 Y-18.4904 Z1.6942
G1 X4.5854 Y-18.4983 Z1.6782
G1 X4.3516 Y-18.5141 Z1.6484
G1 X4.2361 Y-18.5219 Z1.6329
G1 X4.0710 Y-18.5331 Z1.6082
G1 X3.9774 Y-18.5394 Z1.5947
G1 X3.9306 Y-18.5425 Z1.5876
G1 X3.7903 Y-18.5520 Z1.5649
G1 X3.6208 Y-18.5635 Z1.5380
G1 X3.4396 Y-18.5757 Z1.5068
G1 X3.4162 Y-18.5773 Z1.5020
G1 X3.3811 Y-18.5797 Z1.4929
G1 X3.3694 Y-18.5805 Z1.4895
G1 X3.3460 Y-18.5821 Z1.4816
G1 X3.3227 Y-18.5836 Z1.4719
G1 X3.2876 Y-18.5860 Z1.4554
G1 X3.2759 Y-18.5868 Z1.4494
G1 X3.2642 Y-18.5876 Z1.4428
G1 X3.2525 Y-18.5884 Z1.4357
G1 X3.2364 Y-18.5895 Z1.4250
G1 X3.2057 Y-18.5915 Z1.4032
G1 X3.1940 Y-18.5923 Z1.3942
G1 X3.1824 Y-18.5931 Z1.3845
G1 X3.1707 Y-18.5939 Z1.3740
G1 X3.1590 Y-18.5947 Z1.3626
G1 X3.1356 Y-18.5963 Z1.3388
G1 X3.1239 Y-18.5971 Z1.3260
G1 X3.1122 Y-18.5979 Z1.3122
G1 X3.1005 Y-18.5986 Z1.2969
G1 X3.0917 Y-18.5992 Z1.2844
G1 X3.0713 Y-18.6006 Z1.2541
G1 X3.0654 Y-18.6010 Z1.2447
G1 X3.0596 Y-18.6014 Z1.2348
G1 X3.0537 Y-18.6018 Z1.2242
G1 X3.0479 Y-18.6022 Z1.2127
G1 X3.0421 Y-18.6026 Z1.2003
G1 X3.0286 Y-18.6035 Z1.1700
G1 X3.0218 Y-18.6040 Z1.1535
G1 X3.0184 Y-18.6042 Z1.1443
G1 X3.0151 Y-18.6044 Z1.1344
G1 X3.0117 Y-18.6047 Z1.1236
G1 X3.0066 Y-18.6050 Z1.1049
G1 X2.9999 Y-18.6054 Z1.0780
G1 X2.9965 Y-18.6057 Z1.0623
G1 X2.9948 Y-18.6058 Z1.0530
G1 X2.9923 Y-18.6060 Z1.0360
G1 X2.9904 Y-18.6061 Z1.0178
G1 X2.9881 Y-18.6062 Z0.9881
G1 X2.9872 Y-18.6063 Z0.9714
G1 X2.9863 Y-18.6064 Z0.9714
G0 Z1.8900
G0 X2.9863 Y-18.6064 
G0 Z1.8900
G0 X6.1588 Y-18.4118 
G1 X6.1588 Y-18.4118 Z1.8650 F75.
G1 X6.1512 Y-18.4124 Z1.8268 F25.
G1 X6.1296 Y-18.4140 Z1.7943
G1 X6.0972 Y-18.4164 Z1.7726
G1 X6.0591 Y-18.4193 Z1.7650
G1 X5.4982 Y-18.4615 Z1.7650 F150.
G1 X5.4748 Y-18.4632 Z1.7643
G1 X5.4514 Y-18.4650 Z1.7630
G1 X5.4281 Y-18.4667 Z1.7610
G1 X5.4061 Y-18.4684 Z1.7586
G1 X5.3229 Y-18.4746 Z1.7555
G1 X5.2294 Y-18.4816 Z1.7499
G1 X5.1359 Y-18.4887 Z1.7421
G1 X5.0541 Y-18.4948 Z1.7334
G1 X4.9840 Y-18.5001 Z1.7247
G1 X4.8671 Y-18.5089 Z1.7096
G1 X4.7094 Y-18.5207 Z1.6903
G1 X4.5399 Y-18.5334 Z1.6669
G1 X4.3763 Y-18.5457 Z1.6459
G1 X4.2712 Y-18.5536 Z1.6317
G1 X4.0959 Y-18.5668 Z1.6051
G1 X3.9849 Y-18.5751 Z1.5888
G1 X3.6781 Y-18.5982 Z1.5389
G1 X3.4415 Y-18.6159 Z1.4974
G1 X3.4181 Y-18.6177 Z1.4929
G1 X3.4006 Y-18.6190 Z1.4885
G1 X3.3713 Y-18.6212 Z1.4805
G1 X3.3480 Y-18.6230 Z1.4728
G1 X3.3246 Y-18.6247 Z1.4634
G1 X3.2895 Y-18.6274 Z1.4470
G1 X3.2779 Y-18.6282 Z1.4412
G1 X3.2662 Y-18.6291 Z1.4349
G1 X3.2545 Y-18.6300 Z1.4280
G1 X3.2428 Y-18.6309 Z1.4206
G1 X3.2311 Y-18.6318 Z1.4126
G1 X3.2077 Y-18.6335 Z1.3960
G1 X3.1961 Y-18.6344 Z1.3873
G1 X3.1844 Y-18.6353 Z1.3779
G1 X3.1727 Y-18.6361 Z1.3677
G1 X3.1610 Y-18.6370 Z1.3568
G1 X3.1318 Y-18.6392 Z1.3270
G1 X3.1259 Y-18.6397 Z1.3208
G1 X3.1143 Y-18.6405 Z1.3074
G1 X3.1026 Y-18.6414 Z1.2928
G1 X3.0894 Y-18.6424 Z1.2746
G1 X3.0734 Y-18.6436 Z1.2510
G1 X3.0675 Y-18.6440 Z1.2421
G1 X3.0572 Y-18.6448 Z1.2251
G1 X3.0520 Y-18.6452 Z1.2157
G1 X3.0469 Y-18.6456 Z1.2057
G1 X3.0391 Y-18.6462 Z1.1893
G1 X3.0262 Y-18.6471 Z1.1599
G1 X3.0211 Y-18.6475 Z1.1473
G1 X3.0159 Y-18.6479 Z1.1334
G1 X3.0107 Y-18.6483 Z1.1177
G1 X3.0082 Y-18.6485 Z1.1089
G1 X2.9978 Y-18.6493 Z1.0682
G1 X2.9940 Y-18.6496 Z1.0504
G1 X2.9914 Y-18.6498 Z1.0357
G1 X2.9895 Y-18.6499 Z1.0218
G1 X2.9877 Y-18.6500 Z1.0039
G1 X2.9853 Y-18.6502 Z0.9730
G1 X2.9849 Y-18.6502 Z0.9672
G1 X2.9843 Y-18.6503 Z0.9600
G1 X2.9836 Y-18.6503 Z0.9599
G0 Z1.8900
G0 X2.9836 Y-18.6503 
G0 Z1.8900
G0 X6.1822 Y-18.4298 
G1 X6.1822 Y-18.4298 Z1.8650 F75.
G1 X6.1746 Y-18.4304 Z1.8268 F25.
G1 X6.1530 Y-18.4322 Z1.7943
G1 X6.1207 Y-18.4349 Z1.7726
G1 X6.0826 Y-18.4380 Z1.7650
G1 X5.5337 Y-18.4834 Z1.7650 F150.
G1 X5.5220 Y-18.4844 Z1.7649
G1 X5.4986 Y-18.4863 Z1.7641
G1 X5.4753 Y-18.4882 Z1.7626
G1 X5.4519 Y-18.4901 Z1.7605
G1 X5.4358 Y-18.4915 Z1.7586
G1 X5.3526 Y-18.4984 Z1.7555
G1 X5.2650 Y-18.5056 Z1.7502
G1 X5.1716 Y-18.5133 Z1.7424
G1 X5.0899 Y-18.5201 Z1.7337
G1 X4.9614 Y-18.5307 Z1.7175
G1 X4.8329 Y-18.5413 Z1.7007
G1 X4.7045 Y-18.5519 Z1.6848
G1 X4.4884 Y-18.5698 Z1.6547
G1 X4.4008 Y-18.5770 Z1.6434
G1 X4.3059 Y-18.5849 Z1.6305
G1 X4.0738 Y-18.6041 Z1.5950
G1 X4.0227 Y-18.6083 Z1.5874
G1 X3.7351 Y-18.6321 Z1.5399
G1 X3.4373 Y-18.6567 Z1.4867
G1 X3.4198 Y-18.6581 Z1.4834
G1 X3.3964 Y-18.6601 Z1.4776
G1 X3.3731 Y-18.6620 Z1.4711
G1 X3.3497 Y-18.6639 Z1.4638
G1 X3.3263 Y-18.6659 Z1.4547
G1 X3.3117 Y-18.6671 Z1.4482
G1 X3.2796 Y-18.6697 Z1.4328
G1 X3.2679 Y-18.6707 Z1.4267
G1 X3.2563 Y-18.6716 Z1.4200
G1 X3.2446 Y-18.6726 Z1.4129
G1 X3.2300 Y-18.6738 Z1.4031
G1 X3.1979 Y-18.6765 Z1.3800
G1 X3.1862 Y-18.6774 Z1.3709
G1 X3.1745 Y-18.6784 Z1.3611
G1 X3.1628 Y-18.6794 Z1.3505
G1 X3.1512 Y-18.6803 Z1.3390
G1 X3.1278 Y-18.6823 Z1.3148
G1 X3.1161 Y-18.6832 Z1.3018
G1 X3.1044 Y-18.6842 Z1.2876
G1 X3.0928 Y-18.6852 Z1.2719
G1 X3.0790 Y-18.6863 Z1.2516
G1 X3.0652 Y-18.6874 Z1.2308
G1 X3.0584 Y-18.6880 Z1.2196
G1 X3.0515 Y-18.6886 Z1.2074
G1 X3.0446 Y-18.6891 Z1.1942
G1 X3.0377 Y-18.6897 Z1.1797
G1 X3.0240 Y-18.6909 Z1.1485
G1 X3.0205 Y-18.6911 Z1.1403
G1 X3.0171 Y-18.6914 Z1.1315
G1 X3.0136 Y-18.6917 Z1.1221
G1 X3.0102 Y-18.6920 Z1.1119
G1 X3.0068 Y-18.6923 Z1.1007
G1 X3.0025 Y-18.6926 Z1.0848
G1 X2.9947 Y-18.6933 Z1.0537
G1 X2.9913 Y-18.6936 Z1.0376
G1 X2.9887 Y-18.6938 Z1.0228
G1 X2.9870 Y-18.6939 Z1.0104
G1 X2.9852 Y-18.6941 Z0.9936
G1 X2.9818 Y-18.6943 Z0.9487
G1 X2.9809 Y-18.6944 Z0.9486
G0 Z1.8900
G0 X2.9809 Y-18.6944 
G0 Z1.8900
G0 X6.2053 Y-18.4474 
G1 X6.2053 Y-18.4474 Z1.8650 F75.
G1 X6.1977 Y-18.4481 Z1.8268 F25.
G1 X6.1761 Y-18.4501 Z1.7943
G1 X6.1438 Y-18.4530 Z1.7726
G1 X6.1057 Y-18.4564 Z1.7650
G1 X5.5571 Y-18.5059 Z1.7650 F150.
G1 X5.5455 Y-18.5070 Z1.7648
G1 X5.5221 Y-18.5091 Z1.7639
G1 X5.4988 Y-18.5112 Z1.7622
G1 X5.4638 Y-18.5143 Z1.7586
G1 X5.3821 Y-18.5217 Z1.7555
G1 X5.3004 Y-18.5291 Z1.7506
G1 X5.2770 Y-18.5312 Z1.7488
G1 X5.1982 Y-18.5383 Z1.7419
G1 X5.1136 Y-18.5459 Z1.7327
G1 X4.9852 Y-18.5575 Z1.7164
G1 X4.7985 Y-18.5744 Z1.6917
G1 X4.7051 Y-18.5828 Z1.6800
G1 X4.4367 Y-18.6070 Z1.6423
G1 X4.3506 Y-18.6148 Z1.6308
G1 X4.0574 Y-18.6412 Z1.5856
G1 X3.7743 Y-18.6667 Z1.5383
G1 X3.5847 Y-18.6839 Z1.5034
G1 X3.4213 Y-18.6986 Z1.4738
G1 X3.3950 Y-18.7010 Z1.4675
G1 X3.3629 Y-18.7039 Z1.4584
G1 X3.3512 Y-18.7049 Z1.4546
G1 X3.3279 Y-18.7070 Z1.4459
G1 X3.3162 Y-18.7081 Z1.4409
G1 X3.2812 Y-18.7112 Z1.4243
G1 X3.2695 Y-18.7123 Z1.4183
G1 X3.2579 Y-18.7133 Z1.4118
G1 X3.2462 Y-18.7144 Z1.4047
G1 X3.2345 Y-18.7154 Z1.3971
G1 X3.1995 Y-18.7186 Z1.3720
G1 X3.1878 Y-18.7197 Z1.3630
G1 X3.1762 Y-18.7207 Z1.3533
G1 X3.1645 Y-18.7218 Z1.3429
G1 X3.1499 Y-18.7231 Z1.3286
G1 X3.1236 Y-18.7255 Z1.3012
G1 X3.1178 Y-18.7260 Z1.2947
G1 X3.1092 Y-18.7268 Z1.2847
G1 X3.1006 Y-18.7275 Z1.2740
G1 X3.0920 Y-18.7283 Z1.2624
G1 X3.0834 Y-18.7291 Z1.2500
G1 X3.0661 Y-18.7306 Z1.2241
G1 X3.0575 Y-18.7314 Z1.2104
G1 X3.0489 Y-18.7322 Z1.1953
G1 X3.0403 Y-18.7330 Z1.1786
G1 X3.0338 Y-18.7336 Z1.1646
G1 X3.0188 Y-18.7349 Z1.1301
G1 X3.0145 Y-18.7353 Z1.1193
G1 X3.0102 Y-18.7357 Z1.1073
G1 X3.0058 Y-18.7361 Z1.0941
G1 X3.0015 Y-18.7365 Z1.0791
G1 X2.9929 Y-18.7372 Z1.0449
G1 X2.9908 Y-18.7374 Z1.0356
G1 X2.9875 Y-18.7377 Z1.0192
G1 X2.9854 Y-18.7379 Z1.0051
G1 X2.9838 Y-18.7381 Z0.9913
G1 X2.9805 Y-18.7384 Z0.9499
G1 X2.9800 Y-18.7384 Z0.9379
G1 X2.9795 Y-18.7385 Z0.9374
G1 X2.9789 Y-18.7385 Z0.9373
G0 Z1.8900
G0 X2.9789 Y-18.7385 
G0 Z1.8900
G0 X6.2279 Y-18.4648 
G1 X6.2279 Y-18.4648 Z1.8650 F75.
G1 X6.2204 Y-18.4655 Z1.8268 F25.
G1 X6.1988 Y-18.4677 Z1.7943
G1 X6.1665 Y-18.4708 Z1.7726
G1 X6.1284 Y-18.4745 Z1.7650
G1 X5.5919 Y-18.5270 Z1.7650 F150.
G1 X5.5686 Y-18.5293 Z1.7647
G1 X5.5453 Y-18.5316 Z1.7636
G1 X5.5219 Y-18.5338 Z1.7618
G1 X5.4928 Y-18.5367 Z1.7586
G1 X5.4111 Y-18.5447 Z1.7555
G1 X5.3208 Y-18.5535 Z1.7499
G1 X5.2304 Y-18.5624 Z1.7421
G1 X5.1487 Y-18.5703 Z1.7331
G1 X5.0088 Y-18.5840 Z1.7153
G1 X4.7522 Y-18.6091 Z1.6811
G1 X4.7055 Y-18.6137 Z1.6752
G1 X4.3731 Y-18.6462 Z1.6280
G1 X4.0932 Y-18.6735 Z1.5842
G1 X3.8118 Y-18.7011 Z1.5365
G1 X3.4226 Y-18.7391 Z1.4640
G1 X3.3993 Y-18.7414 Z1.4587
G1 X3.3643 Y-18.7448 Z1.4487
G1 X3.3526 Y-18.7460 Z1.4450
G1 X3.3293 Y-18.7482 Z1.4365
G1 X3.3059 Y-18.7505 Z1.4261
G1 X3.2768 Y-18.7534 Z1.4119
G1 X3.2710 Y-18.7539 Z1.4089
G1 X3.2593 Y-18.7551 Z1.4025
G1 X3.2476 Y-18.7562 Z1.3957
G1 X3.2360 Y-18.7574 Z1.3882
G1 X3.2214 Y-18.7588 Z1.3781
G1 X3.1951 Y-18.7614 Z1.3589
G1 X3.1893 Y-18.7619 Z1.3545
G1 X3.1777 Y-18.7631 Z1.3450
G1 X3.1660 Y-18.7642 Z1.3348
G1 X3.1543 Y-18.7653 Z1.3238
G1 X3.1427 Y-18.7665 Z1.3119
G1 X3.1222 Y-18.7685 Z1.2905
G1 X3.1119 Y-18.7695 Z1.2790
G1 X3.1017 Y-18.7705 Z1.2666
G1 X3.0914 Y-18.7715 Z1.2532
G1 X3.0812 Y-18.7725 Z1.2385
G1 X3.0607 Y-18.7745 Z1.2076
G1 X3.0504 Y-18.7755 Z1.1906
G1 X3.0453 Y-18.7760 Z1.1813
G1 X3.0402 Y-18.7765 Z1.1714
G1 X3.0350 Y-18.7770 Z1.1608
G1 X3.0197 Y-18.7785 Z1.1256
G1 X3.0145 Y-18.7790 Z1.1131
G1 X3.0094 Y-18.7795 Z1.0992
G1 X3.0043 Y-18.7800 Z1.0834
G1 X3.0017 Y-18.7803 Z1.0746
G1 X2.9979 Y-18.7806 Z1.0598
G1 X2.9915 Y-18.7813 Z1.0337
G1 X2.9876 Y-18.7816 Z1.0159
G1 X2.9851 Y-18.7819 Z1.0012
G1 X2.9832 Y-18.7821 Z0.9872
G1 X2.9814 Y-18.7823 Z0.9692
G1 X2.9790 Y-18.7825 Z0.9380
G1 X2.9787 Y-18.7825 Z0.9320
G1 X2.9780 Y-18.7826 Z0.9261
G1 X2.9774 Y-18.7827 Z0.9260
G0 Z1.8900
G0 X2.9774 Y-18.7827 
G0 Z1.8900
G0 X6.2503 Y-18.4819 
G1 X6.2503 Y-18.4819 Z1.8650 F75.
G1 X6.2427 Y-18.4827 Z1.8268 F25.
G1 X6.2211 Y-18.4850 Z1.7943
G1 X6.1889 Y-18.4884 Z1.7726
G1 X6.1508 Y-18.4924 Z1.7650
G1 X5.6147 Y-18.5489 Z1.7650 F150.
G1 X5.5914 Y-18.5513 Z1.7645
G1 X5.5681 Y-18.5538 Z1.7633
G1 X5.5448 Y-18.5562 Z1.7614
G1 X5.5200 Y-18.5588 Z1.7586
G1 X5.4516 Y-18.5660 Z1.7561
G1 X5.4283 Y-18.5685 Z1.7549
G1 X5.3583 Y-18.5759 Z1.7505
G1 X5.3350 Y-18.5783 Z1.7487
G1 X5.2651 Y-18.5857 Z1.7425
G1 X5.1719 Y-18.5955 Z1.7321
G1 X5.0320 Y-18.6103 Z1.7141
G1 X4.7057 Y-18.6446 Z1.6704
G1 X4.5425 Y-18.6618 Z1.6469
G1 X4.4027 Y-18.6766 Z1.6263
G1 X4.1288 Y-18.7054 Z1.5828
G1 X4.0997 Y-18.7085 Z1.5777
G1 X3.8549 Y-18.7343 Z1.5358
G1 X3.7267 Y-18.7478 Z1.5116
G1 X3.4937 Y-18.7723 Z1.4679
G1 X3.4237 Y-18.7797 Z1.4537
G1 X3.4004 Y-18.7822 Z1.4485
G1 X3.3538 Y-18.7871 Z1.4350
G1 X3.3305 Y-18.7895 Z1.4267
G1 X3.3072 Y-18.7920 Z1.4166
G1 X3.2722 Y-18.7957 Z1.3994
G1 X3.2606 Y-18.7969 Z1.3932
G1 X3.2489 Y-18.7981 Z1.3864
G1 X3.2373 Y-18.7993 Z1.3791
G1 X3.2256 Y-18.8006 Z1.3713
G1 X3.1906 Y-18.8043 Z1.3457
G1 X3.1790 Y-18.8055 Z1.3365
G1 X3.1673 Y-18.8067 Z1.3265
G1 X3.1555 Y-18.8080 Z1.3156
G1 X3.1436 Y-18.8092 Z1.3037
G1 X3.1198 Y-18.8117 Z1.2788
G1 X3.1080 Y-18.8130 Z1.2654
G1 X3.0961 Y-18.8142 Z1.2506
G1 X3.0842 Y-18.8155 Z1.2342
G1 X3.0605 Y-18.8180 Z1.1981
G1 X3.0545 Y-18.8186 Z1.1885
G1 X3.0486 Y-18.8192 Z1.1782
G1 X3.0426 Y-18.8198 Z1.1672
G1 X3.0367 Y-18.8205 Z1.1553
G1 X3.0293 Y-18.8213 Z1.1389
G1 X3.0189 Y-18.8223 Z1.1149
G1 X3.0130 Y-18.8230 Z1.1005
G1 X3.0070 Y-18.8236 Z1.0841
G1 X3.0041 Y-18.8239 Z1.0751
G1 X3.0011 Y-18.8242 Z1.0652
G1 X2.9966 Y-18.8247 Z1.0484
G1 X2.9892 Y-18.8255 Z1.0181
G1 X2.9862 Y-18.8258 Z1.0041
G1 X2.9833 Y-18.8261 Z0.9870
G1 X2.9810 Y-18.8263 Z0.9697
G1 X2.9788 Y-18.8266 Z0.9438
G1 X2.9766 Y-18.8268 Z0.9142
G1 X2.9758 Y-18.8269 Z0.9142
G0 Z1.8900
G0 X2.9758 Y-18.8269 
G0 Z1.8900
G0 X6.2722 Y-18.4987 
G1 X6.2722 Y-18.4987 Z1.8650 F75.
G1 X6.2647 Y-18.4996 Z1.8268 F25.
G1 X6.2431 Y-18.5020 Z1.7943
G1 X6.2109 Y-18.5057 Z1.7726
G1 X6.1729 Y-18.5099 Z1.7650
G1 X5.6372 Y-18.5704 Z1.7650 F150.
G1 X5.6139 Y-18.5731 Z1.7644
G1 X5.5906 Y-18.5757 Z1.7630
G1 X5.5674 Y-18.5783 Z1.7609
G1 X5.5477 Y-18.5806 Z1.7586
G1 X5.4684 Y-18.5895 Z1.7556
G1 X5.3810 Y-18.5994 Z1.7501
G1 X5.2908 Y-18.6096 Z1.7421
G1 X5.2064 Y-18.6191 Z1.7326
G1 X5.0550 Y-18.6362 Z1.7129
G1 X4.7988 Y-18.6651 Z1.6783
G1 X4.7289 Y-18.6730 Z1.6686
G1 X4.6824 Y-18.6783 Z1.6619
G1 X4.4364 Y-18.7061 Z1.6253
G1 X4.4029 Y-18.7099 Z1.6198
G1 X4.1627 Y-18.7370 Z1.5813
G1 X4.1234 Y-18.7414 Z1.5743
G1 X3.8862 Y-18.7682 Z1.5331
G1 X3.7508 Y-18.7835 Z1.5072
G1 X3.5499 Y-18.8062 Z1.4691
G1 X3.4131 Y-18.8216 Z1.4410
G1 X3.4014 Y-18.8230 Z1.4383
G1 X3.3840 Y-18.8249 Z1.4336
G1 X3.3549 Y-18.8282 Z1.4249
G1 X3.3316 Y-18.8309 Z1.4167
G1 X3.3083 Y-18.8335 Z1.4069
G1 X3.2734 Y-18.8374 Z1.3897
G1 X3.2617 Y-18.8387 Z1.3836
G1 X3.2501 Y-18.8401 Z1.3770
G1 X3.2384 Y-18.8414 Z1.3699
G1 X3.2268 Y-18.8427 Z1.3622
G1 X3.2151 Y-18.8440 Z1.3538
G1 X3.1918 Y-18.8466 Z1.3365
G1 X3.1783 Y-18.8482 Z1.3259
G1 X3.1649 Y-18.8497 Z1.3142
G1 X3.1514 Y-18.8512 Z1.3015
G1 X3.1379 Y-18.8527 Z1.2875
G1 X3.1176 Y-18.8550 Z1.2659
G1 X3.1109 Y-18.8558 Z1.2583
G1 X3.0974 Y-18.8573 Z1.2419
G1 X3.0907 Y-18.8581 Z1.2330
G1 X3.0839 Y-18.8588 Z1.2236
G1 X3.0569 Y-18.8619 Z1.1825
G1 X3.0502 Y-18.8626 Z1.1713
G1 X3.0434 Y-18.8634 Z1.1591
G1 X3.0367 Y-18.8642 Z1.1460
G1 X3.0299 Y-18.8649 Z1.1315
G1 X3.0165 Y-18.8664 Z1.1004
G1 X3.0131 Y-18.8668 Z1.0922
G1 X3.0097 Y-18.8672 Z1.0835
G1 X3.0063 Y-18.8676 Z1.0741
G1 X3.0030 Y-18.8680 Z1.0639
G1 X2.9996 Y-18.8684 Z1.0528
G1 X2.9954 Y-18.8688 Z1.0369
G1 X2.9878 Y-18.8697 Z1.0061
G1 X2.9844 Y-18.8701 Z0.9902
G1 X2.9827 Y-18.8703 Z0.9808
G1 X2.9802 Y-18.8705 Z0.9633
G1 X2.9785 Y-18.8707 Z0.9466
G1 X2.9760 Y-18.8710 Z0.9119
G1 X2.9751 Y-18.8711 Z0.9025
G1 X2.9743 Y-18.8712 Z0.9025
G0 Z1.8900
G0 X2.9743 Y-18.8712 
G0 Z1.8900
G0 X6.2939 Y-18.5153 
G1 X6.2939 Y-18.5153 Z1.8650 F75.
G1 X6.2863 Y-18.5162 Z1.8268 F25.
G1 X6.2648 Y-18.5188 Z1.7943
G1 X6.2326 Y-18.5227 Z1.7726
G1 X6.1946 Y-18.5273 Z1.7650
G1 X5.6594 Y-18.5918 Z1.7649 F150.
G1 X5.6362 Y-18.5946 Z1.7642
G1 X5.6129 Y-18.5974 Z1.7627
G1 X5.5896 Y-18.6002 Z1.7604
G1 X5.5751 Y-18.6019 Z1.7586
G1 X5.4965 Y-18.6114 Z1.7556
G1 X5.4151 Y-18.6212 Z1.7505
G1 X5.3337 Y-18.6310 Z1.7434
G1 X5.3046 Y-18.6345 Z1.7404
G1 X5.2348 Y-18.6430 Z1.7324
G1 X5.1940 Y-18.6479 Z1.7269
G1 X5.0777 Y-18.6619 Z1.7117
G1 X4.9614 Y-18.6759 Z1.6961
G1 X4.7054 Y-18.7068 Z1.6597
G1 X4.4683 Y-18.7353 Z1.6242
G1 X4.3331 Y-18.7517 Z1.6019
G1 X4.1978 Y-18.7680 Z1.5801
G1 X4.0539 Y-18.7853 Z1.5543
G1 X3.9259 Y-18.8007 Z1.5321
G1 X3.6118 Y-18.8386 Z1.4717
G1 X3.4198 Y-18.8617 Z1.4318
G1 X3.4023 Y-18.8638 Z1.4280
G1 X3.3907 Y-18.8653 Z1.4251
G1 X3.3558 Y-18.8695 Z1.4146
G1 X3.3325 Y-18.8723 Z1.4065
G1 X3.3093 Y-18.8751 Z1.3968
G1 X3.2976 Y-18.8765 Z1.3912
G1 X3.2685 Y-18.8800 Z1.3765
G1 X3.2627 Y-18.8807 Z1.3734
G1 X3.2511 Y-18.8821 Z1.3668
G1 X3.2394 Y-18.8835 Z1.3597
G1 X3.2278 Y-18.8849 Z1.3521
G1 X3.2124 Y-18.8867 Z1.3410
G1 X3.1861 Y-18.8899 Z1.3212
G1 X3.1710 Y-18.8917 Z1.3089
G1 X3.1559 Y-18.8936 Z1.2952
G1 X3.1409 Y-18.8954 Z1.2801
G1 X3.1183 Y-18.8981 Z1.2560
G1 X3.1107 Y-18.8990 Z1.2477
G1 X3.1032 Y-18.8999 Z1.2388
G1 X3.0957 Y-18.9008 Z1.2294
G1 X3.0882 Y-18.9017 Z1.2194
G1 X3.0806 Y-18.9026 Z1.2087
G1 X3.0580 Y-18.9054 Z1.1743
G1 X3.0505 Y-18.9063 Z1.1620
G1 X3.0430 Y-18.9072 Z1.1486
G1 X3.0354 Y-18.9081 Z1.1340
G1 X3.0260 Y-18.9092 Z1.1134
G1 X3.0128 Y-18.9108 Z1.0828
G1 X3.0091 Y-18.9113 Z1.0731
G1 X3.0053 Y-18.9117 Z1.0625
G1 X3.0015 Y-18.9122 Z1.0509
G1 X2.9978 Y-18.9126 Z1.0379
G1 X2.9940 Y-18.9131 Z1.0231
G1 X2.9865 Y-18.9140 Z0.9915
G1 X2.9846 Y-18.9142 Z0.9824
G1 X2.9818 Y-18.9145 Z0.9663
G1 X2.9799 Y-18.9148 Z0.9527
G1 X2.9781 Y-18.9150 Z0.9349
G1 X2.9757 Y-18.9153 Z0.9021
G1 X2.9752 Y-18.9153 Z0.8922
G1 X2.9742 Y-18.9155 Z0.8908
G0 Z1.8900
G0 X2.9742 Y-18.9155 
G0 Z1.8900
G0 X6.3152 Y-18.5316 
G1 X6.3152 Y-18.5316 Z1.8650 F75.
G1 X6.3077 Y-18.5326 Z1.8268 F25.
G1 X6.2862 Y-18.5353 Z1.7943
G1 X6.2540 Y-18.5394 Z1.7726
G1 X6.2160 Y-18.5443 Z1.7650
G1 X5.6930 Y-18.6113 Z1.7650 F150.
G1 X5.6813 Y-18.6128 Z1.7649
G1 X5.6581 Y-18.6158 Z1.7640
G1 X5.6348 Y-18.6188 Z1.7623
G1 X5.6014 Y-18.6231 Z1.7586
G1 X5.5244 Y-18.6329 Z1.7556
G1 X5.4372 Y-18.6441 Z1.7501
G1 X5.3486 Y-18.6555 Z1.7421
G1 X5.2629 Y-18.6665 Z1.7322
G1 X5.2396 Y-18.6694 Z1.7289
G1 X5.1002 Y-18.6873 Z1.7105
G1 X5.0188 Y-18.6977 Z1.6994
G1 X4.9839 Y-18.7022 Z1.6942
G1 X4.7282 Y-18.7350 Z1.6574
G1 X4.5015 Y-18.7640 Z1.6234
G1 X4.3562 Y-18.7827 Z1.5991
G1 X4.2313 Y-18.7987 Z1.5787
G1 X4.0773 Y-18.8184 Z1.5509
G1 X3.9596 Y-18.8335 Z1.5300
G1 X3.6646 Y-18.8713 Z1.4726
G1 X3.5193 Y-18.8899 Z1.4420
G1 X3.4031 Y-18.9048 Z1.4172
G1 X3.3799 Y-18.9078 Z1.4109
G1 X3.3508 Y-18.9115 Z1.4019
G1 X3.3334 Y-18.9137 Z1.3958
G1 X3.3101 Y-18.9167 Z1.3862
G1 X3.2941 Y-18.9188 Z1.3785
G1 X3.2636 Y-18.9227 Z1.3629
G1 X3.2520 Y-18.9242 Z1.3564
G1 X3.2404 Y-18.9257 Z1.3494
G1 X3.2238 Y-18.9278 Z1.3384
G1 X3.2113 Y-18.9294 Z1.3293
G1 X3.1906 Y-18.9320 Z1.3137
G1 X3.1740 Y-18.9342 Z1.3006
G1 X3.1574 Y-18.9363 Z1.2859
G1 X3.1387 Y-18.9387 Z1.2672
G1 X3.1159 Y-18.9416 Z1.2428
G1 X3.1076 Y-18.9427 Z1.2335
G1 X3.0993 Y-18.9437 Z1.2235
G1 X3.0910 Y-18.9448 Z1.2129
G1 X3.0827 Y-18.9459 Z1.2014
G1 X3.0744 Y-18.9469 Z1.1890
G1 X3.0578 Y-18.9491 Z1.1632
G1 X3.0495 Y-18.9501 Z1.1495
G1 X3.0412 Y-18.9512 Z1.1345
G1 X3.0329 Y-18.9523 Z1.1177
G1 X3.0267 Y-18.9531 Z1.1038
G1 X3.0121 Y-18.9549 Z1.0694
G1 X3.0080 Y-18.9554 Z1.0585
G1 X3.0038 Y-18.9560 Z1.0466
G1 X2.9997 Y-18.9565 Z1.0334
G1 X2.9955 Y-18.9570 Z1.0182
G1 X2.9872 Y-18.9581 Z0.9840
G1 X2.9852 Y-18.9584 Z0.9746
G1 X2.9821 Y-18.9588 Z0.9581
G1 X2.9800 Y-18.9590 Z0.9441
G1 X2.9784 Y-18.9592 Z0.9305
G1 X2.9753 Y-18.9596 Z0.8918
G1 X2.9748 Y-18.9597 Z0.8821
G1 X2.9743 Y-18.9598 Z0.8791
G0 Z1.8900
G0 X2.9743 Y-18.9598 
G0 Z1.8900
G0 X6.3362 Y-18.5477 
G1 X6.3362 Y-18.5477 Z1.8650 F75.
G1 X6.3287 Y-18.5487 Z1.8268 F25.
G1 X6.3072 Y-18.5516 Z1.7943
G1 X6.2751 Y-18.5560 Z1.7726
G1 X6.2371 Y-18.5611 Z1.7650
G1 X5.7146 Y-18.6321 Z1.7650 F150.
G1 X5.7030 Y-18.6336 Z1.7648
G1 X5.6797 Y-18.6368 Z1.7637
G1 X5.6565 Y-18.6400 Z1.7619
G1 X5.6275 Y-18.6439 Z1.7586
G1 X5.5520 Y-18.6541 Z1.7557
G1 X5.4635 Y-18.6662 Z1.7500
G1 X5.3778 Y-18.6778 Z1.7422
G1 X5.2965 Y-18.6888 Z1.7328
G1 X5.0179 Y-18.7267 Z1.6946
G1 X4.9482 Y-18.7361 Z1.6839
G1 X4.6927 Y-18.7708 Z1.6467
G1 X4.5330 Y-18.7925 Z1.6223
G1 X4.3792 Y-18.8134 Z1.5962
G1 X4.2645 Y-18.8290 Z1.5773
G1 X4.1005 Y-18.8512 Z1.5474
G1 X3.9960 Y-18.8654 Z1.5286
G1 X3.7202 Y-18.9029 Z1.4743
G1 X3.4038 Y-18.9458 Z1.4063
G1 X3.3776 Y-18.9494 Z1.3992
G1 X3.3457 Y-18.9537 Z1.3891
G1 X3.3341 Y-18.9553 Z1.3850
G1 X3.3109 Y-18.9585 Z1.3755
G1 X3.2993 Y-18.9600 Z1.3700
G1 X3.2644 Y-18.9648 Z1.3522
G1 X3.2463 Y-18.9672 Z1.3420
G1 X3.2282 Y-18.9697 Z1.3304
G1 X3.2146 Y-18.9715 Z1.3209
G1 X3.1828 Y-18.9758 Z1.2968
G1 X3.1738 Y-18.9771 Z1.2894
G1 X3.1556 Y-18.9795 Z1.2731
G1 X3.1466 Y-18.9808 Z1.2642
G1 X3.1375 Y-18.9820 Z1.2547
G1 X3.1148 Y-18.9851 Z1.2301
G1 X3.1103 Y-18.9857 Z1.2250
G1 X3.1012 Y-18.9869 Z1.2142
G1 X3.0922 Y-18.9882 Z1.2026
G1 X3.0831 Y-18.9894 Z1.1901
G1 X3.0740 Y-18.9906 Z1.1765
G1 X3.0559 Y-18.9931 Z1.1482
G1 X3.0468 Y-18.9943 Z1.1329
G1 X3.0378 Y-18.9955 Z1.1159
G1 X3.0332 Y-18.9962 Z1.1066
G1 X3.0264 Y-18.9971 Z1.0915
G1 X3.0151 Y-18.9986 Z1.0649
G1 X3.0106 Y-18.9992 Z1.0537
G1 X3.0060 Y-18.9999 Z1.0415
G1 X3.0015 Y-19.0005 Z1.0279
G1 X2.9970 Y-19.0011 Z1.0124
G1 X2.9924 Y-19.0017 Z0.9944
G1 X2.9856 Y-19.0026 Z0.9661
G1 X2.9822 Y-19.0031 Z0.9489
G1 X2.9800 Y-19.0034 Z0.9345
G1 X2.9783 Y-19.0036 Z0.9206
G1 X2.9749 Y-19.0041 Z0.8796
G1 X2.9743 Y-19.0042 Z0.8682
G0 Z1.8900
G0 X2.9743 Y-19.0042 
G0 Z1.8900
G0 X6.3569 Y-18.5635 
G1 X6.3569 Y-18.5635 Z1.8650 F75.
G1 X6.3494 Y-18.5646 Z1.8268 F25.
G1 X6.3279 Y-18.5676 Z1.7943
G1 X6.2958 Y-18.5723 Z1.7726
G1 X6.2579 Y-18.5777 Z1.7650
G1 X5.7475 Y-18.6509 Z1.7650 F150.
G1 X5.7243 Y-18.6542 Z1.7646
G1 X5.7011 Y-18.6575 Z1.7635
G1 X5.6779 Y-18.6609 Z1.7615
G1 X5.6533 Y-18.6644 Z1.7586
G1 X5.5764 Y-18.6754 Z1.7556
G1 X5.4909 Y-18.6877 Z1.7500
G1 X5.4111 Y-18.6991 Z1.7428
G1 X5.3763 Y-18.7041 Z1.7388
G1 X5.3198 Y-18.7122 Z1.7321
G1 X5.2835 Y-18.7174 Z1.7267
G1 X5.2371 Y-18.7241 Z1.7201
G1 X5.0167 Y-18.7557 Z1.6898
G1 X4.9007 Y-18.7723 Z1.6717
G1 X4.6919 Y-18.8023 Z1.6410
G1 X4.5643 Y-18.8206 Z1.6213
G1 X4.4019 Y-18.8439 Z1.5935
G1 X4.2975 Y-18.8589 Z1.5760
G1 X4.0307 Y-18.8971 Z1.5270
G1 X3.7610 Y-18.9358 Z1.4733
G1 X3.4739 Y-18.9770 Z1.4104
G1 X3.4043 Y-18.9870 Z1.3954
G1 X3.3811 Y-18.9903 Z1.3892
G1 X3.3463 Y-18.9953 Z1.3782
G1 X3.3347 Y-18.9970 Z1.3741
