( MOP:  wheel-slot-s25PT5-01 )
( FILE: G:\Shared drives\AlloyProjectFiles\Customer CAD files\Alloy-Standard-Builds-CAM\Fingerboards-in\TRWheelSlots\wheel-slot-s25PT5-01.nc)
G90
(  BEGIN TOOL LIST )
(  TOOL 5 - Downcut PT375 - DESC: 0.3750 DIA, 2 FLUTE,  CARBIDE MAT )
(  ENDOF TOOL LIST )
( wheel-slot-s25PT5-01)
( Max Depth 1.75)
T05
S12000
M3
G0 Z4.0000
G0 X4.3746 Y-22.9675 
G1 X4.3746 Y-22.9675 Z0.0000 F75.
G1 X4.4996 Y-22.9675 Z0.0000 F25.
G1 X4.7132 Y-22.9675 Z0.0000 F50.
G1 X4.7132 Y-22.6314 Z0.0000
G1 X4.4996 Y-22.6314 Z0.0000
G1 X4.3746 Y-22.6314 Z0.0000
G0 Z4.0000
G0 X4.3746 Y-22.6314 
M5
G53 Z
X2Y0
