( MOP:  wheel-slot-s25PT5Ext-02 )
( FILE: G:\Shared drives\AlloyProjectFiles\Customer CAD files\Alloy-Standard-Builds-CAM\Fingerboards-in\TRWheelSlots\wheel-slot-s25PT5Ext-02.nc)
G90
(  BEGIN TOOL LIST )
(  TOOL 20 - Downcut 2MM - DESC: 0.0787 DIA, 2 FLUTE,  CARBIDE MAT )
(  ENDOF TOOL LIST )
( wheel-slot-s25PT5Ext-02)
T20
S14000
M3
G0 Z4.0000
G0 X3.2720 Y-23.1406 
G1 X3.2720 Y-23.1406 Z0.0000 F75.
G1 X3.3970 Y-23.1406 Z0.0000 F25.
G1 X3.7838 Y-23.1406 Z0.0000
G1 X3.7838 Y-22.4582 Z0.0000
G1 X3.3970 Y-22.4582 Z0.0000
G1 X3.2720 Y-22.4582 Z0.0000 F75.
G0 Z4.0000
G0 X3.2720 Y-22.4582 
M5
G53 Z
X2Y0
