( MOP:  10-FullBody-DStyle-01 )
( FILE: G:\Shared drives\AlloyProjectFiles\Customer CAD files\Alloy-Standard-Builds-CAM\s-in\FullD-Style-Specific\10-FullBody-DStyle-01.nc)
G90
(  BEGIN TOOL LIST )
(  TOOL 13 - Straight PT750 - DESC: 0.7500 DIA, 2 FLUTE,  CARBIDE MAT )
(  ENDOF TOOL LIST )
( 10-FullBody-DStyle-01)
T13
S14000
M3
G0 Z5.1450
G0 X2.6515 Y-18.1402 
G1 X2.6515 Y-18.1402 Z0.0000 F30.
G17
G2X3.1594Y-18.6427Z0.0000I0.0079J-0.5000
G3X3.3906Y-20.0807Z0.0000I4.4115J-0.0282
G3X4.3876Y-21.5943Z0.0000I3.4002J1.1544
G3X5.5109Y-22.2833Z0.0000I2.5491J2.8960
G3X7.0608Y-22.6584Z0.0000I2.1107J5.3310
G3X7.6864Y-22.6990Z0.0000I0.8246J7.8708
G3X11.8894Y-22.6777Z0.0000I1.7602J67.3355
G3X13.5990Y-22.3794Z0.0000I-0.2441J6.4461
G3X14.7641Y-21.7989Z0.0000I-1.2998J4.0683
G3X15.9807Y-20.2417Z0.0000I-2.0637J2.8663
G3X16.2797Y-18.6412Z0.0000I-3.9891J1.5733
G3X16.0967Y-17.2205Z0.0000I-5.8854J-0.0361
G3X15.8303Y-16.3313Z0.0000I-9.6470J-2.4051
G3X15.2900Y-14.9155Z0.0000I-24.2867J-8.4579
G1 X14.8351 Y-13.8121 Z0.0000
G2X14.4757Y-12.8615Z0.0000I13.1360J5.5086
G2X14.3084Y-12.2006Z0.0000I4.0838J1.3855
G2X14.3490Y-11.1504Z0.0000I2.8350J0.4162
G2X14.5863Y-10.3417Z0.0000I6.2197J-1.3857
G1 X14.6875 Y-10.0648 Z0.0000
G3X15.0919Y-8.9326Z0.0000I-28.3511J10.7653
G3X15.3883Y-7.8955Z0.0000I-10.5302J3.5696
G3X15.5801Y-6.1785Z0.0000I-6.8432J1.6339
G3X15.3448Y-4.8847Z0.0000I-3.9968J-0.0586
G3X14.9750Y-4.2497Z0.0000I-1.9077J-0.6859
G3X14.5804Y-3.9729Z0.0000I-0.7448J-0.6420
G3X13.8869Y-4.0514Z0.0000I-0.2698J-0.7188
G3X13.6097Y-4.4473Z0.0000I0.3879J-0.5666
G3X13.5736Y-4.6581Z0.0000I1.0943J-0.2957
G1 X13.5610 Y-4.8220 Z0.0000
G2X13.5251Y-5.4074Z0.0000I-11.9943J0.4419
G2X13.2318Y-6.5898Z0.0000I-4.0201J0.3699
G2X12.5453Y-7.5174Z0.0000I-2.2949J0.9805
G2X11.9139Y-7.8539Z0.0000I-1.0709J1.2489
G2X11.5212Y-7.8563Z0.0000I-0.2009J0.7561
G2X11.2908Y-7.6716Z0.0000I0.0954J0.3551
G2X11.2035Y-7.4622Z0.0000I1.1115J0.5861
G2X11.1864Y-7.3554Z0.0000I0.3537J0.1114
G3X11.1562Y-7.0916Z0.0000I-0.7701J0.0454
G3X10.5616Y-6.6505Z0.0000I-0.6068J-0.1966
G1 X8.9190 Y-6.6501 Z0.0000
G3X8.2808Y-7.2539Z0.0000I-0.0045J-0.6344
G1 X8.2579 Y-9.0977 Z0.0000
G2X8.2119Y-9.2722Z0.0000I-0.3689J0.0040
G2X8.0241Y-9.4947Z0.0000I-0.6272J0.3387
G2X7.7793Y-9.5979Z0.0000I-0.3349J0.4527
G2X7.1930Y-9.5558Z0.0000I-0.2072J1.2196
G2X6.3337Y-8.9000Z0.0000I0.4779J1.5170
G2X6.0317Y-8.1331Z0.0000I1.7960J1.1500
G1 X6.0160 Y-8.0488 Z0.0000
G1 X5.9883 Y-7.8672 Z0.0000
G1 X5.9402 Y-7.4849 Z0.0000
G3X5.8322Y-7.0201Z0.0000I-2.1466J-0.2537
G3X5.5854Y-6.6617Z0.0000I-0.8127J-0.2953
G3X4.8486Y-6.5440Z0.0000I-0.4664J-0.5550
G3X4.4574Y-6.8426Z0.0000I0.3393J-0.8501
G3X4.2358Y-7.2453Z0.0000I1.1406J-0.8900
G3X4.0938Y-7.9175Z0.0000I2.4430J-0.8670
G3X4.1530Y-9.0830Z0.0000I4.5032J-0.3557
G3X4.4768Y-10.2753Z0.0000I7.4578J1.3853
G1 X4.5433 Y-10.4633 Z0.0000
G2X4.9952Y-11.7401Z0.0000I-43.1689J-15.9994
G2X5.1253Y-12.2454Z0.0000I-3.0105J-1.0440
G2X5.0722Y-12.8459Z0.0000I-1.2102J-0.1957
G2X4.8537Y-13.4026Z0.0000I-5.2891J1.7550
G1 X4.7561 Y-13.6218 Z0.0000
G1 X4.6541 Y-13.8380 Z0.0000
G3X4.1205Y-14.9323Z0.0000I22.7668J-11.7784
G3X3.7665Y-15.8616Z0.0000I14.7617J-6.1559
G3X3.3994Y-17.0023Z0.0000I14.7217J-5.3666
G3X3.1641Y-18.4265Z0.0000I6.3120J-1.7743
G3X3.1852Y-19.1418Z0.0000I4.7125J-0.2187
G2X2.7477Y-19.6979Z0.0000I-0.4964J-0.0596
G0 Z5.1450
G0 X2.7477 Y-19.6979 
M5
G53 Z
X2Y0
