( MOP:  Hum-PUP-Bridge-front-02 )
( FILE: G:\Shared drives\AlloyProjectFiles\Customer CAD files\Alloy-Standard-Builds-CAM\t-in\PUPS\Hum-PUP-Bridge-front-02.nc)
G90
(  BEGIN TOOL LIST )
(  TOOL 6 - Downcut PT250 - DESC: 0.2500 DIA, 2 FLUTE,  CARBIDE MAT )
(  ENDOF TOOL LIST )
( Hum-PUP-Bridge-front-02)
( Max Depth 1.75)
T06
S12000
M3
G0 Z4.0000
G0 X10.4830 Y-16.0660 
G1 X10.4830 Y-16.0660 Z1.0100 F75.
G17
G3X10.7330Y-16.3160Z1.0100I0.2500J0.0000 F25.
G1 X11.9825 Y-16.3160 Z1.0100 F75.
G3X12.0408Y-16.2918Z1.0100I0.0000J0.0825
G3X12.0650Y-16.2335Z1.0100I-0.0583J0.0583
G1 X12.0650 Y-16.0273 Z1.0100
G2X12.1700Y-15.9223Z1.0100I0.1050J0.0000
G1 X12.2327 Y-15.9223 Z1.0100
G3X12.2910Y-15.8981Z1.0100I0.0000J0.0825
G3X12.3152Y-15.8398Z1.0100I-0.0583J0.0583
G1 X12.3152 Y-15.4274 Z1.0100
G3X12.2327Y-15.3449Z1.0100I-0.0825J0.0000
G1 X12.1700 Y-15.3449 Z1.0100
G2X12.0650Y-15.2399Z1.0100I0.0000J0.1050
G1 X12.0650 Y-15.0337 Z1.0100
G3X11.9825Y-14.9512Z1.0100I-0.0825J0.0000
G1 X9.4835 Y-14.9512 Z1.0100
G3X9.4252Y-14.9753Z1.0100I0.0000J-0.0825
G3X9.4010Y-15.0337Z1.0100I0.0583J-0.0584
G1 X9.4010 Y-15.2399 Z1.0100
G2X9.2960Y-15.3449Z1.0100I-0.1050J0.0000
G1 X9.2330 Y-15.3449 Z1.0100
G3X9.1747Y-15.3690Z1.0100I0.0000J-0.0825
G3X9.1505Y-15.4274Z1.0100I0.0583J-0.0584
G1 X9.1505 Y-15.8398 Z1.0100
G3X9.1747Y-15.8981Z1.0100I0.0825J0.0000
G3X9.2330Y-15.9223Z1.0100I0.0583J0.0583
G1 X9.2960 Y-15.9223 Z1.0100
G2X9.4010Y-16.0273Z1.0100I0.0000J-0.1050
G1 X9.4010 Y-16.2335 Z1.0100
G3X9.4252Y-16.2918Z1.0100I0.0825J0.0000
G3X9.4835Y-16.3160Z1.0100I0.0583J0.0583
G1 X10.7330 Y-16.3160 Z1.0100
G1 X11.2330 Y-16.3160 Z1.0100
G3X11.4830Y-16.0660Z1.0100I0.0000J0.2500
G0 Z4.0000
G0 X11.4830 Y-16.0660 
M5
G53 Z
X2Y0
