( MOP:  Hum-PUP-Middle-front-02 )
( FILE: G:\Shared drives\AlloyProjectFiles\Customer CAD files\Alloy-Standard-Builds-CAM\t-in\PUPS\Hum-PUP-Middle-front-02.nc)
G90
(  BEGIN TOOL LIST )
(  TOOL 6 - Downcut PT250 - DESC: 0.2500 DIA, 2 FLUTE,  CARBIDE MAT )
(  ENDOF TOOL LIST )
( Hum-PUP-Middle-front-02)
( Max Depth 1.75)
T06
S12000
M3
G0 Z4.0000
G0 X10.4830 Y-13.8625 
G1 X10.4830 Y-13.8625 Z1.0100 F75.
G17
G3X10.7330Y-14.1125Z1.0100I0.2500J0.0000 F25.
G1 X11.9825 Y-14.1125 Z1.0100 F75.
G3X12.0267Y-14.0942Z1.0100I0.0000J0.0625
G3X12.0450Y-14.0500Z1.0100I-0.0442J0.0442
G1 X12.0450 Y-13.8063 Z1.0100
G2X12.1700Y-13.6813Z1.0100I0.1250J0.0000
G1 X12.2327 Y-13.6813 Z1.0100
G3X12.2769Y-13.6630Z1.0100I0.0000J0.0625
G3X12.2952Y-13.6188Z1.0100I-0.0442J0.0442
G1 X12.2952 Y-13.2064 Z1.0100
G3X12.2327Y-13.1439Z1.0100I-0.0625J0.0000
G1 X12.1700 Y-13.1439 Z1.0100
G2X12.0450Y-13.0189Z1.0100I0.0000J0.1250
G1 X12.0450 Y-12.7752 Z1.0100
G3X11.9825Y-12.7127Z1.0100I-0.0625J0.0000
G1 X9.4835 Y-12.7127 Z1.0100
G3X9.4393Y-12.7310Z1.0100I0.0000J-0.0625
G3X9.4210Y-12.7752Z1.0100I0.0442J-0.0442
G1 X9.4210 Y-13.0189 Z1.0100
G2X9.2960Y-13.1439Z1.0100I-0.1250J0.0000
G1 X9.2330 Y-13.1439 Z1.0100
G3X9.1888Y-13.1622Z1.0100I0.0000J-0.0625
G3X9.1705Y-13.2064Z1.0100I0.0442J-0.0442
G1 X9.1705 Y-13.6188 Z1.0100
G3X9.1888Y-13.6630Z1.0100I0.0625J0.0000
G3X9.2330Y-13.6813Z1.0100I0.0442J0.0442
G1 X9.2960 Y-13.6813 Z1.0100
G2X9.4210Y-13.8063Z1.0100I0.0000J-0.1250
G1 X9.4210 Y-14.0500 Z1.0100
G3X9.4393Y-14.0942Z1.0100I0.0625J0.0000
G3X9.4835Y-14.1125Z1.0100I0.0442J0.0442
G1 X10.7330 Y-14.1125 Z1.0100
G1 X11.2330 Y-14.1125 Z1.0100
G3X11.4830Y-13.8625Z1.0100I0.0000J0.2500
G0 Z4.0000
G0 X11.4830 Y-13.8625 
M5
G53 Z
X2Y0
