( MOP:  Hum-PUP-Middle-front-03 )
( FILE: G:\Shared drives\AlloyProjectFiles\Customer CAD files\Alloy-Standard-Builds-CAM\t-in\PUPS\Hum-PUP-Middle-front-03.nc)
G90
(  BEGIN TOOL LIST )
(  TOOL 6 - Downcut PT250 - DESC: 0.2500 DIA, 2 FLUTE,  CARBIDE MAT )
(  ENDOF TOOL LIST )
( Hum-PUP-Middle-front-03)
( Max Depth 1.75)
T06
S12000
M3
G0 Z4.0000
G0 X9.2933 Y-13.4757 
G1 X9.2933 Y-13.4757 Z1.0933 F75.
G1 X9.2894 Y-13.4808 Z1.0922 F25.
G1 X9.2854 Y-13.4872 Z1.0909
G1 X9.2824 Y-13.4941 Z1.0895
G1 X9.2801 Y-13.5013 Z1.0882
G1 X9.2787 Y-13.5088 Z1.0869
G1 X9.2783 Y-13.5163 Z1.0855
G1 X9.2787 Y-13.5238 Z1.0842
G1 X9.2801 Y-13.5312 Z1.0829
G1 X9.2824 Y-13.5385 Z1.0815
G1 X9.2854 Y-13.5453 Z1.0802
G1 X9.2894 Y-13.5518 Z1.0789
G1 X9.2940 Y-13.5577 Z1.0776
G1 X9.2993 Y-13.5631 Z1.0762
G1 X9.3053 Y-13.5677 Z1.0749
G1 X9.3117 Y-13.5716 Z1.0736
G1 X9.3186 Y-13.5747 Z1.0722
G1 X9.3258 Y-13.5770 Z1.0709
G1 X9.3333 Y-13.5783 Z1.0696
G1 X9.3408 Y-13.5788 Z1.0682
G1 X9.3483 Y-13.5783 Z1.0669
G1 X9.3557 Y-13.5770 Z1.0656
G1 X9.3630 Y-13.5747 Z1.0642
G1 X9.3698 Y-13.5716 Z1.0629
G1 X9.3763 Y-13.5677 Z1.0616
G1 X9.3822 Y-13.5631 Z1.0603
G1 X9.3876 Y-13.5577 Z1.0589
G1 X9.3922 Y-13.5518 Z1.0576
G1 X9.3961 Y-13.5453 Z1.0563
G1 X9.3992 Y-13.5385 Z1.0549
G1 X9.4015 Y-13.5312 Z1.0536
G1 X9.4028 Y-13.5238 Z1.0523
G1 X9.4033 Y-13.5163 Z1.0509
G1 X9.4028 Y-13.5088 Z1.0496
G1 X9.4015 Y-13.5013 Z1.0483
G1 X9.3992 Y-13.4941 Z1.0469
G1 X9.3961 Y-13.4872 Z1.0456
G1 X9.3922 Y-13.4808 Z1.0443
G1 X9.3876 Y-13.4748 Z1.0430
G1 X9.3822 Y-13.4695 Z1.0416
G1 X9.3763 Y-13.4649 Z1.0403
G1 X9.3698 Y-13.4609 Z1.0390
G1 X9.3630 Y-13.4578 Z1.0376
G1 X9.3557 Y-13.4556 Z1.0363
G1 X9.3483 Y-13.4542 Z1.0350
G1 X9.3408 Y-13.4538 Z1.0336
G1 X9.3333 Y-13.4542 Z1.0323
G1 X9.3258 Y-13.4556 Z1.0310
G1 X9.3186 Y-13.4578 Z1.0296
G1 X9.3117 Y-13.4609 Z1.0283
G1 X9.3053 Y-13.4649 Z1.0270
G1 X9.2993 Y-13.4695 Z1.0257
G1 X9.2940 Y-13.4748 Z1.0243
G1 X9.2894 Y-13.4808 Z1.0230
G1 X9.2854 Y-13.4872 Z1.0217
G1 X9.2824 Y-13.4941 Z1.0203
G1 X9.2801 Y-13.5013 Z1.0190
G1 X9.2787 Y-13.5088 Z1.0177
G1 X9.2783 Y-13.5163 Z1.0163
G1 X9.2787 Y-13.5238 Z1.0150
G1 X9.2801 Y-13.5312 Z1.0137
G1 X9.2824 Y-13.5385 Z1.0123
G1 X9.2854 Y-13.5453 Z1.0110
G1 X9.2894 Y-13.5518 Z1.0097
G1 X9.2940 Y-13.5577 Z1.0084
G1 X9.2993 Y-13.5631 Z1.0070
G1 X9.3053 Y-13.5677 Z1.0057
G1 X9.3117 Y-13.5716 Z1.0044
G1 X9.3186 Y-13.5747 Z1.0030
G1 X9.3258 Y-13.5770 Z1.0017
G1 X9.3333 Y-13.5783 Z1.0004
G1 X9.3408 Y-13.5788 Z0.9990
G1 X9.3483 Y-13.5783 Z0.9977
G1 X9.3557 Y-13.5770 Z0.9964
G1 X9.3630 Y-13.5747 Z0.9950
G1 X9.3698 Y-13.5716 Z0.9937
G1 X9.3763 Y-13.5677 Z0.9924
G1 X9.3822 Y-13.5631 Z0.9911
G1 X9.3876 Y-13.5577 Z0.9897
G1 X9.3922 Y-13.5518 Z0.9884
G1 X9.3961 Y-13.5453 Z0.9871
G1 X9.3992 Y-13.5385 Z0.9857
G1 X9.4015 Y-13.5312 Z0.9844
G1 X9.4028 Y-13.5238 Z0.9831
G1 X9.4033 Y-13.5163 Z0.9817
G1 X9.4028 Y-13.5088 Z0.9804
G1 X9.4015 Y-13.5013 Z0.9791
G1 X9.3992 Y-13.4941 Z0.9777
G1 X9.3961 Y-13.4872 Z0.9764
G1 X9.3922 Y-13.4808 Z0.9751
G1 X9.3876 Y-13.4748 Z0.9738
G1 X9.3822 Y-13.4695 Z0.9724
G1 X9.3763 Y-13.4649 Z0.9711
G1 X9.3698 Y-13.4609 Z0.9698
G1 X9.3630 Y-13.4578 Z0.9684
G1 X9.3557 Y-13.4556 Z0.9671
G1 X9.3483 Y-13.4542 Z0.9658
G1 X9.3408 Y-13.4538 Z0.9644
G1 X9.3333 Y-13.4542 Z0.9631
G1 X9.3258 Y-13.4556 Z0.9618
G1 X9.3186 Y-13.4578 Z0.9604
G1 X9.3117 Y-13.4609 Z0.9591
G1 X9.3053 Y-13.4649 Z0.9578
G1 X9.2993 Y-13.4695 Z0.9565
G1 X9.2940 Y-13.4748 Z0.9551
G1 X9.2894 Y-13.4808 Z0.9538
G1 X9.2854 Y-13.4872 Z0.9525
G1 X9.2824 Y-13.4941 Z0.9511
G1 X9.2801 Y-13.5013 Z0.9498
G1 X9.2787 Y-13.5088 Z0.9485
G1 X9.2783 Y-13.5163 Z0.9471
G1 X9.2787 Y-13.5238 Z0.9458
G1 X9.2801 Y-13.5312 Z0.9445
G1 X9.2824 Y-13.5385 Z0.9431
G1 X9.2854 Y-13.5453 Z0.9418
G1 X9.2894 Y-13.5518 Z0.9405
G1 X9.2940 Y-13.5577 Z0.9392
G1 X9.2993 Y-13.5631 Z0.9378
G1 X9.3053 Y-13.5677 Z0.9365
G1 X9.3117 Y-13.5716 Z0.9352
G1 X9.3186 Y-13.5747 Z0.9338
G1 X9.3258 Y-13.5770 Z0.9325
G1 X9.3333 Y-13.5783 Z0.9312
G1 X9.3408 Y-13.5788 Z0.9298
G1 X9.3483 Y-13.5783 Z0.9285
G1 X9.3557 Y-13.5770 Z0.9272
G1 X9.3630 Y-13.5747 Z0.9258
G1 X9.3698 Y-13.5716 Z0.9245
G1 X9.3763 Y-13.5677 Z0.9232
G1 X9.3822 Y-13.5631 Z0.9219
G1 X9.3876 Y-13.5577 Z0.9205
G1 X9.3922 Y-13.5518 Z0.9192
G1 X9.3961 Y-13.5453 Z0.9179
G1 X9.3992 Y-13.5385 Z0.9165
G1 X9.4015 Y-13.5312 Z0.9152
G1 X9.4028 Y-13.5238 Z0.9139
G1 X9.4033 Y-13.5163 Z0.9125
G1 X9.4028 Y-13.5088 Z0.9112
G1 X9.4015 Y-13.5013 Z0.9099
G1 X9.3992 Y-13.4941 Z0.9085
G1 X9.3961 Y-13.4872 Z0.9072
G1 X9.3922 Y-13.4808 Z0.9059
G1 X9.3876 Y-13.4748 Z0.9045
G1 X9.3822 Y-13.4695 Z0.9032
G1 X9.3763 Y-13.4649 Z0.9019
G1 X9.3698 Y-13.4609 Z0.9006
G1 X9.3630 Y-13.4578 Z0.8992
G1 X9.3557 Y-13.4556 Z0.8979
G1 X9.3483 Y-13.4542 Z0.8966
G1 X9.3408 Y-13.4538 Z0.8952
G1 X9.3333 Y-13.4542 Z0.8939
G1 X9.3258 Y-13.4556 Z0.8926
G1 X9.3186 Y-13.4578 Z0.8912
G1 X9.3117 Y-13.4609 Z0.8899
G1 X9.3053 Y-13.4649 Z0.8886
G1 X9.2993 Y-13.4695 Z0.8872
G1 X9.2940 Y-13.4748 Z0.8859
G1 X9.2894 Y-13.4808 Z0.8846
G1 X9.2854 Y-13.4872 Z0.8833
G1 X9.2824 Y-13.4941 Z0.8819
G1 X9.2801 Y-13.5013 Z0.8806
G1 X9.2787 Y-13.5088 Z0.8793
G1 X9.2783 Y-13.5163 Z0.8779
G1 X9.2787 Y-13.5238 Z0.8766
G1 X9.2801 Y-13.5312 Z0.8753
G1 X9.2824 Y-13.5385 Z0.8739
G1 X9.2854 Y-13.5453 Z0.8726
G1 X9.2894 Y-13.5518 Z0.8713
G1 X9.2940 Y-13.5577 Z0.8699
G1 X9.2993 Y-13.5631 Z0.8686
G1 X9.3053 Y-13.5677 Z0.8673
G1 X9.3117 Y-13.5716 Z0.8660
G1 X9.3186 Y-13.5747 Z0.8646
G1 X9.3258 Y-13.5770 Z0.8633
G1 X9.3333 Y-13.5783 Z0.8620
G1 X9.3408 Y-13.5788 Z0.8606
G1 X9.3483 Y-13.5783 Z0.8593
G1 X9.3557 Y-13.5770 Z0.8580
G1 X9.3630 Y-13.5747 Z0.8566
G1 X9.3698 Y-13.5716 Z0.8553
G1 X9.3763 Y-13.5677 Z0.8540
G1 X9.3822 Y-13.5631 Z0.8526
G1 X9.3876 Y-13.5577 Z0.8513
G1 X9.3922 Y-13.5518 Z0.8500
G1 X9.3961 Y-13.5453 Z0.8487
G1 X9.3992 Y-13.5385 Z0.8473
G1 X9.4015 Y-13.5312 Z0.8460
G1 X9.4028 Y-13.5238 Z0.8447
G1 X9.4033 Y-13.5163 Z0.8433
G1 X9.4028 Y-13.5109 Z0.8433
G1 X9.4014 Y-13.5056 Z0.8433
G1 X9.3991 Y-13.5007 Z0.8433
G1 X9.3960 Y-13.4962 Z0.8433
G1 X9.3921 Y-13.4923 Z0.8433
G1 X9.3877 Y-13.4892 Z0.8433
G1 X9.3827 Y-13.4869 Z0.8433
G1 X9.3775 Y-13.4855 Z0.8433
G1 X9.3720 Y-13.4850 Z0.8433
G1 X9.3666 Y-13.4855 Z0.8433
G1 X9.3614 Y-13.4869 Z0.8433
G1 X9.3564 Y-13.4892 Z0.8433
G1 X9.3520 Y-13.4923 Z0.8433
G1 X9.3481 Y-13.4962 Z0.8433
G1 X9.3450 Y-13.5007 Z0.8433
G1 X9.3427 Y-13.5056 Z0.8433
G1 X9.3413 Y-13.5109 Z0.8433
G1 X9.3408 Y-13.5163 Z0.8433
G1 X9.3461 Y-13.5163 Z0.8433 F75.
G1 X9.3461 Y-13.3089 Z0.8433
G1 X9.3355 Y-13.3089 Z0.8433
G1 X9.3355 Y-13.5163 Z0.8433
G1 X9.3408 Y-13.5163 Z0.8433
G1 X9.3408 Y-13.5988 Z0.8433
G1 X9.4286 Y-13.5988 Z0.8433
G1 X9.4286 Y-13.2264 Z0.8433
G1 X9.2530 Y-13.2264 Z0.8433
G1 X9.2530 Y-13.5988 Z0.8433
G1 X9.3408 Y-13.5988 Z0.8433
G1 X9.3408 Y-13.6813 Z0.8433
G1 X9.4486 Y-13.6813 Z0.8433
G17
G3X9.5111Y-13.6188Z0.8433I0.0000J0.0625
G1 X9.5111 Y-13.2064 Z0.8433
G3X9.4486Y-13.1439Z0.8433I-0.0625J0.0000
G1 X9.2330 Y-13.1439 Z0.8433
G3X9.1705Y-13.2064Z0.8433I0.0000J-0.0625
G1 X9.1705 Y-13.6188 Z0.8433
G3X9.2330Y-13.6813Z0.8433I0.0625J0.0000
G1 X9.3408 Y-13.6813 Z0.8433
G0 Z0.9267
G0 X9.3408 Y-13.6813 
G0 Z0.9267
G0 X9.2933 Y-13.4757 
G1 X9.2894 Y-13.4808 Z0.9255 F25.
G1 X9.2854 Y-13.4872 Z0.9242
G1 X9.2824 Y-13.4941 Z0.9229
G1 X9.2801 Y-13.5013 Z0.9215
G1 X9.2787 Y-13.5088 Z0.9202
G1 X9.2783 Y-13.5163 Z0.9189
G1 X9.2787 Y-13.5238 Z0.9175
G1 X9.2801 Y-13.5312 Z0.9162
G1 X9.2824 Y-13.5385 Z0.9149
G1 X9.2854 Y-13.5453 Z0.9135
G1 X9.2894 Y-13.5518 Z0.9122
G1 X9.2940 Y-13.5577 Z0.9109
G1 X9.2993 Y-13.5631 Z0.9096
G1 X9.3053 Y-13.5677 Z0.9082
G1 X9.3117 Y-13.5716 Z0.9069
G1 X9.3186 Y-13.5747 Z0.9056
G1 X9.3258 Y-13.5770 Z0.9042
G1 X9.3333 Y-13.5783 Z0.9029
G1 X9.3408 Y-13.5788 Z0.9016
G1 X9.3483 Y-13.5783 Z0.9002
G1 X9.3557 Y-13.5770 Z0.8989
G1 X9.3630 Y-13.5747 Z0.8976
G1 X9.3698 Y-13.5716 Z0.8962
G1 X9.3763 Y-13.5677 Z0.8949
G1 X9.3822 Y-13.5631 Z0.8936
G1 X9.3876 Y-13.5577 Z0.8923
G1 X9.3922 Y-13.5518 Z0.8909
G1 X9.3961 Y-13.5453 Z0.8896
G1 X9.3992 Y-13.5385 Z0.8883
G1 X9.4015 Y-13.5312 Z0.8869
G1 X9.4028 Y-13.5238 Z0.8856
G1 X9.4033 Y-13.5163 Z0.8843
G1 X9.4028 Y-13.5088 Z0.8829
G1 X9.4015 Y-13.5013 Z0.8816
G1 X9.3992 Y-13.4941 Z0.8803
G1 X9.3961 Y-13.4872 Z0.8789
G1 X9.3922 Y-13.4808 Z0.8776
G1 X9.3876 Y-13.4748 Z0.8763
G1 X9.3822 Y-13.4695 Z0.8750
G1 X9.3763 Y-13.4649 Z0.8736
G1 X9.3698 Y-13.4609 Z0.8723
G1 X9.3630 Y-13.4578 Z0.8710
G1 X9.3557 Y-13.4556 Z0.8696
G1 X9.3483 Y-13.4542 Z0.8683
G1 X9.3408 Y-13.4538 Z0.8670
G1 X9.3333 Y-13.4542 Z0.8656
G1 X9.3258 Y-13.4556 Z0.8643
G1 X9.3186 Y-13.4578 Z0.8630
G1 X9.3117 Y-13.4609 Z0.8616
G1 X9.3053 Y-13.4649 Z0.8603
G1 X9.2993 Y-13.4695 Z0.8590
G1 X9.2940 Y-13.4748 Z0.8577
G1 X9.2894 Y-13.4808 Z0.8563
G1 X9.2854 Y-13.4872 Z0.8550
G1 X9.2824 Y-13.4941 Z0.8537
G1 X9.2801 Y-13.5013 Z0.8523
G1 X9.2787 Y-13.5088 Z0.8510
G1 X9.2783 Y-13.5163 Z0.8497
G1 X9.2787 Y-13.5238 Z0.8483
G1 X9.2801 Y-13.5312 Z0.8470
G1 X9.2824 Y-13.5385 Z0.8457
G1 X9.2854 Y-13.5453 Z0.8443
G1 X9.2894 Y-13.5518 Z0.8430
G1 X9.2940 Y-13.5577 Z0.8417
G1 X9.2993 Y-13.5631 Z0.8404
G1 X9.3053 Y-13.5677 Z0.8390
G1 X9.3117 Y-13.5716 Z0.8377
G1 X9.3186 Y-13.5747 Z0.8364
G1 X9.3258 Y-13.5770 Z0.8350
G1 X9.3333 Y-13.5783 Z0.8337
G1 X9.3408 Y-13.5788 Z0.8324
G1 X9.3483 Y-13.5783 Z0.8310
G1 X9.3557 Y-13.5770 Z0.8297
G1 X9.3630 Y-13.5747 Z0.8284
G1 X9.3698 Y-13.5716 Z0.8270
G1 X9.3763 Y-13.5677 Z0.8257
G1 X9.3822 Y-13.5631 Z0.8244
G1 X9.3876 Y-13.5577 Z0.8231
G1 X9.3922 Y-13.5518 Z0.8217
G1 X9.3961 Y-13.5453 Z0.8204
G1 X9.3992 Y-13.5385 Z0.8191
G1 X9.4015 Y-13.5312 Z0.8177
G1 X9.4028 Y-13.5238 Z0.8164
G1 X9.4033 Y-13.5163 Z0.8151
G1 X9.4028 Y-13.5088 Z0.8137
G1 X9.4015 Y-13.5013 Z0.8124
G1 X9.3992 Y-13.4941 Z0.8111
G1 X9.3961 Y-13.4872 Z0.8097
G1 X9.3922 Y-13.4808 Z0.8084
G1 X9.3876 Y-13.4748 Z0.8071
G1 X9.3822 Y-13.4695 Z0.8058
G1 X9.3763 Y-13.4649 Z0.8044
G1 X9.3698 Y-13.4609 Z0.8031
G1 X9.3630 Y-13.4578 Z0.8018
G1 X9.3557 Y-13.4556 Z0.8004
G1 X9.3483 Y-13.4542 Z0.7991
G1 X9.3408 Y-13.4538 Z0.7978
G1 X9.3333 Y-13.4542 Z0.7964
G1 X9.3258 Y-13.4556 Z0.7951
G1 X9.3186 Y-13.4578 Z0.7938
G1 X9.3117 Y-13.4609 Z0.7924
G1 X9.3053 Y-13.4649 Z0.7911
G1 X9.2993 Y-13.4695 Z0.7898
G1 X9.2940 Y-13.4748 Z0.7885
G1 X9.2894 Y-13.4808 Z0.7871
G1 X9.2854 Y-13.4872 Z0.7858
G1 X9.2824 Y-13.4941 Z0.7845
G1 X9.2801 Y-13.5013 Z0.7831
G1 X9.2787 Y-13.5088 Z0.7818
G1 X9.2783 Y-13.5163 Z0.7805
G1 X9.2787 Y-13.5238 Z0.7791
G1 X9.2801 Y-13.5312 Z0.7778
G1 X9.2824 Y-13.5385 Z0.7765
G1 X9.2854 Y-13.5453 Z0.7751
G1 X9.2894 Y-13.5518 Z0.7738
G1 X9.2940 Y-13.5577 Z0.7725
G1 X9.2993 Y-13.5631 Z0.7712
G1 X9.3053 Y-13.5677 Z0.7698
G1 X9.3117 Y-13.5716 Z0.7685
G1 X9.3186 Y-13.5747 Z0.7672
G1 X9.3258 Y-13.5770 Z0.7658
G1 X9.3333 Y-13.5783 Z0.7645
G1 X9.3408 Y-13.5788 Z0.7632
G1 X9.3483 Y-13.5783 Z0.7618
G1 X9.3557 Y-13.5770 Z0.7605
G1 X9.3630 Y-13.5747 Z0.7592
G1 X9.3698 Y-13.5716 Z0.7578
G1 X9.3763 Y-13.5677 Z0.7565
G1 X9.3822 Y-13.5631 Z0.7552
G1 X9.3876 Y-13.5577 Z0.7539
G1 X9.3922 Y-13.5518 Z0.7525
G1 X9.3961 Y-13.5453 Z0.7512
G1 X9.3992 Y-13.5385 Z0.7499
G1 X9.4015 Y-13.5312 Z0.7485
G1 X9.4028 Y-13.5238 Z0.7472
G1 X9.4033 Y-13.5163 Z0.7459
G1 X9.4028 Y-13.5088 Z0.7445
G1 X9.4015 Y-13.5013 Z0.7432
G1 X9.3992 Y-13.4941 Z0.7419
G1 X9.3961 Y-13.4872 Z0.7405
G1 X9.3922 Y-13.4808 Z0.7392
G1 X9.3876 Y-13.4748 Z0.7379
G1 X9.3822 Y-13.4695 Z0.7366
G1 X9.3763 Y-13.4649 Z0.7352
G1 X9.3698 Y-13.4609 Z0.7339
G1 X9.3630 Y-13.4578 Z0.7326
G1 X9.3557 Y-13.4556 Z0.7312
G1 X9.3483 Y-13.4542 Z0.7299
G1 X9.3408 Y-13.4538 Z0.7286
G1 X9.3333 Y-13.4542 Z0.7272
G1 X9.3258 Y-13.4556 Z0.7259
G1 X9.3186 Y-13.4578 Z0.7246
G1 X9.3117 Y-13.4609 Z0.7232
G1 X9.3053 Y-13.4649 Z0.7219
G1 X9.2993 Y-13.4695 Z0.7206
G1 X9.2940 Y-13.4748 Z0.7193
G1 X9.2894 Y-13.4808 Z0.7179
G1 X9.2854 Y-13.4872 Z0.7166
G1 X9.2824 Y-13.4941 Z0.7153
G1 X9.2801 Y-13.5013 Z0.7139
G1 X9.2787 Y-13.5088 Z0.7126
G1 X9.2783 Y-13.5163 Z0.7113
G1 X9.2787 Y-13.5238 Z0.7099
G1 X9.2801 Y-13.5312 Z0.7086
G1 X9.2824 Y-13.5385 Z0.7073
G1 X9.2854 Y-13.5453 Z0.7059
G1 X9.2894 Y-13.5518 Z0.7046
G1 X9.2940 Y-13.5577 Z0.7033
G1 X9.2993 Y-13.5631 Z0.7020
G1 X9.3053 Y-13.5677 Z0.7006
G1 X9.3117 Y-13.5716 Z0.6993
G1 X9.3186 Y-13.5747 Z0.6980
G1 X9.3258 Y-13.5770 Z0.6966
G1 X9.3333 Y-13.5783 Z0.6953
G1 X9.3408 Y-13.5788 Z0.6940
G1 X9.3483 Y-13.5783 Z0.6926
G1 X9.3557 Y-13.5770 Z0.6913
G1 X9.3630 Y-13.5747 Z0.6900
G1 X9.3698 Y-13.5716 Z0.6886
G1 X9.3763 Y-13.5677 Z0.6873
G1 X9.3822 Y-13.5631 Z0.6860
G1 X9.3876 Y-13.5577 Z0.6847
G1 X9.3922 Y-13.5518 Z0.6833
G1 X9.3961 Y-13.5453 Z0.6820
G1 X9.3992 Y-13.5385 Z0.6807
G1 X9.4015 Y-13.5312 Z0.6793
G1 X9.4028 Y-13.5238 Z0.6780
G1 X9.4033 Y-13.5163 Z0.6767
G1 X9.4028 Y-13.5109 Z0.6767
G1 X9.4014 Y-13.5056 Z0.6767
G1 X9.3991 Y-13.5007 Z0.6767
G1 X9.3960 Y-13.4962 Z0.6767
G1 X9.3921 Y-13.4923 Z0.6767
G1 X9.3877 Y-13.4892 Z0.6767
G1 X9.3827 Y-13.4869 Z0.6767
G1 X9.3775 Y-13.4855 Z0.6767
G1 X9.3720 Y-13.4850 Z0.6767
G1 X9.3666 Y-13.4855 Z0.6767
G1 X9.3614 Y-13.4869 Z0.6767
G1 X9.3564 Y-13.4892 Z0.6767
G1 X9.3520 Y-13.4923 Z0.6767
G1 X9.3481 Y-13.4962 Z0.6767
G1 X9.3450 Y-13.5007 Z0.6767
G1 X9.3427 Y-13.5056 Z0.6767
G1 X9.3413 Y-13.5109 Z0.6767
G1 X9.3408 Y-13.5163 Z0.6767
G1 X9.3461 Y-13.5163 Z0.6767 F75.
G1 X9.3461 Y-13.3089 Z0.6767
G1 X9.3355 Y-13.3089 Z0.6767
G1 X9.3355 Y-13.5163 Z0.6767
G1 X9.3408 Y-13.5163 Z0.6767
G1 X9.3408 Y-13.5988 Z0.6767
G1 X9.4286 Y-13.5988 Z0.6767
G1 X9.4286 Y-13.2264 Z0.6767
G1 X9.2530 Y-13.2264 Z0.6767
G1 X9.2530 Y-13.5988 Z0.6767
G1 X9.3408 Y-13.5988 Z0.6767
G1 X9.3408 Y-13.6813 Z0.6767
G1 X9.4486 Y-13.6813 Z0.6767
G3X9.5111Y-13.6188Z0.6767I0.0000J0.0625
G1 X9.5111 Y-13.2064 Z0.6767
G3X9.4486Y-13.1439Z0.6767I-0.0625J0.0000
G1 X9.2330 Y-13.1439 Z0.6767
G3X9.1705Y-13.2064Z0.6767I0.0000J-0.0625
G1 X9.1705 Y-13.6188 Z0.6767
G3X9.2330Y-13.6813Z0.6767I0.0625J0.0000
G1 X9.3408 Y-13.6813 Z0.6767
G0 Z0.7600
G0 X9.3408 Y-13.6813 
G0 Z0.7600
G0 X9.2933 Y-13.4757 
G1 X9.2894 Y-13.4808 Z0.7589 F25.
G1 X9.2854 Y-13.4872 Z0.7575
G1 X9.2824 Y-13.4941 Z0.7562
G1 X9.2801 Y-13.5013 Z0.7549
G1 X9.2787 Y-13.5088 Z0.7535
G1 X9.2783 Y-13.5163 Z0.7522
G1 X9.2787 Y-13.5238 Z0.7509
G1 X9.2801 Y-13.5312 Z0.7495
G1 X9.2824 Y-13.5385 Z0.7482
G1 X9.2854 Y-13.5453 Z0.7469
G1 X9.2894 Y-13.5518 Z0.7456
G1 X9.2940 Y-13.5577 Z0.7442
G1 X9.2993 Y-13.5631 Z0.7429
G1 X9.3053 Y-13.5677 Z0.7416
G1 X9.3117 Y-13.5716 Z0.7402
G1 X9.3186 Y-13.5747 Z0.7389
G1 X9.3258 Y-13.5770 Z0.7376
G1 X9.3333 Y-13.5783 Z0.7362
G1 X9.3408 Y-13.5788 Z0.7349
G1 X9.3483 Y-13.5783 Z0.7336
G1 X9.3557 Y-13.5770 Z0.7322
G1 X9.3630 Y-13.5747 Z0.7309
G1 X9.3698 Y-13.5716 Z0.7296
G1 X9.3763 Y-13.5677 Z0.7283
G1 X9.3822 Y-13.5631 Z0.7269
G1 X9.3876 Y-13.5577 Z0.7256
G1 X9.3922 Y-13.5518 Z0.7243
G1 X9.3961 Y-13.5453 Z0.7229
G1 X9.3992 Y-13.5385 Z0.7216
G1 X9.4015 Y-13.5312 Z0.7203
G1 X9.4028 Y-13.5238 Z0.7189
G1 X9.4033 Y-13.5163 Z0.7176
G1 X9.4028 Y-13.5088 Z0.7163
G1 X9.4015 Y-13.5013 Z0.7149
G1 X9.3992 Y-13.4941 Z0.7136
G1 X9.3961 Y-13.4872 Z0.7123
G1 X9.3922 Y-13.4808 Z0.7110
G1 X9.3876 Y-13.4748 Z0.7096
G1 X9.3822 Y-13.4695 Z0.7083
G1 X9.3763 Y-13.4649 Z0.7070
G1 X9.3698 Y-13.4609 Z0.7056
G1 X9.3630 Y-13.4578 Z0.7043
G1 X9.3557 Y-13.4556 Z0.7030
G1 X9.3483 Y-13.4542 Z0.7016
G1 X9.3408 Y-13.4538 Z0.7003
G1 X9.3333 Y-13.4542 Z0.6990
G1 X9.3258 Y-13.4556 Z0.6976
G1 X9.3186 Y-13.4578 Z0.6963
G1 X9.3117 Y-13.4609 Z0.6950
G1 X9.3053 Y-13.4649 Z0.6936
G1 X9.2993 Y-13.4695 Z0.6923
G1 X9.2940 Y-13.4748 Z0.6910
G1 X9.2894 Y-13.4808 Z0.6897
G1 X9.2854 Y-13.4872 Z0.6883
G1 X9.2824 Y-13.4941 Z0.6870
G1 X9.2801 Y-13.5013 Z0.6857
G1 X9.2787 Y-13.5088 Z0.6843
G1 X9.2783 Y-13.5163 Z0.6830
G1 X9.2787 Y-13.5238 Z0.6817
G1 X9.2801 Y-13.5312 Z0.6803
G1 X9.2824 Y-13.5385 Z0.6790
G1 X9.2854 Y-13.5453 Z0.6777
G1 X9.2894 Y-13.5518 Z0.6763
G1 X9.2940 Y-13.5577 Z0.6750
G1 X9.2993 Y-13.5631 Z0.6737
G1 X9.3053 Y-13.5677 Z0.6724
G1 X9.3117 Y-13.5716 Z0.6710
G1 X9.3186 Y-13.5747 Z0.6697
G1 X9.3258 Y-13.5770 Z0.6684
G1 X9.3333 Y-13.5783 Z0.6670
G1 X9.3408 Y-13.5788 Z0.6657
G1 X9.3483 Y-13.5783 Z0.6644
G1 X9.3557 Y-13.5770 Z0.6630
G1 X9.3630 Y-13.5747 Z0.6617
G1 X9.3698 Y-13.5716 Z0.6604
G1 X9.3763 Y-13.5677 Z0.6590
G1 X9.3822 Y-13.5631 Z0.6577
G1 X9.3876 Y-13.5577 Z0.6564
G1 X9.3922 Y-13.5518 Z0.6551
G1 X9.3961 Y-13.5453 Z0.6537
G1 X9.3992 Y-13.5385 Z0.6524
G1 X9.4015 Y-13.5312 Z0.6511
G1 X9.4028 Y-13.5238 Z0.6497
G1 X9.4033 Y-13.5163 Z0.6484
G1 X9.4028 Y-13.5088 Z0.6471
G1 X9.4015 Y-13.5013 Z0.6457
G1 X9.3992 Y-13.4941 Z0.6444
G1 X9.3961 Y-13.4872 Z0.6431
G1 X9.3922 Y-13.4808 Z0.6417
G1 X9.3876 Y-13.4748 Z0.6404
G1 X9.3822 Y-13.4695 Z0.6391
G1 X9.3763 Y-13.4649 Z0.6378
G1 X9.3698 Y-13.4609 Z0.6364
G1 X9.3630 Y-13.4578 Z0.6351
G1 X9.3557 Y-13.4556 Z0.6338
G1 X9.3483 Y-13.4542 Z0.6324
G1 X9.3408 Y-13.4538 Z0.6311
G1 X9.3333 Y-13.4542 Z0.6298
G1 X9.3258 Y-13.4556 Z0.6284
G1 X9.3186 Y-13.4578 Z0.6271
G1 X9.3117 Y-13.4609 Z0.6258
G1 X9.3053 Y-13.4649 Z0.6244
G1 X9.2993 Y-13.4695 Z0.6231
G1 X9.2940 Y-13.4748 Z0.6218
G1 X9.2894 Y-13.4808 Z0.6205
G1 X9.2854 Y-13.4872 Z0.6191
G1 X9.2824 Y-13.4941 Z0.6178
G1 X9.2801 Y-13.5013 Z0.6165
G1 X9.2787 Y-13.5088 Z0.6151
G1 X9.2783 Y-13.5163 Z0.6138
G1 X9.2787 Y-13.5238 Z0.6125
G1 X9.2801 Y-13.5312 Z0.6111
G1 X9.2824 Y-13.5385 Z0.6098
G1 X9.2854 Y-13.5453 Z0.6085
G1 X9.2894 Y-13.5518 Z0.6071
G1 X9.2940 Y-13.5577 Z0.6058
G1 X9.2993 Y-13.5631 Z0.6045
G1 X9.3053 Y-13.5677 Z0.6032
G1 X9.3117 Y-13.5716 Z0.6018
G1 X9.3186 Y-13.5747 Z0.6005
G1 X9.3258 Y-13.5770 Z0.5992
G1 X9.3333 Y-13.5783 Z0.5978
G1 X9.3408 Y-13.5788 Z0.5965
G1 X9.3483 Y-13.5783 Z0.5952
G1 X9.3557 Y-13.5770 Z0.5938
G1 X9.3630 Y-13.5747 Z0.5925
G1 X9.3698 Y-13.5716 Z0.5912
G1 X9.3763 Y-13.5677 Z0.5898
G1 X9.3822 Y-13.5631 Z0.5885
G1 X9.3876 Y-13.5577 Z0.5872
G1 X9.3922 Y-13.5518 Z0.5859
G1 X9.3961 Y-13.5453 Z0.5845
G1 X9.3992 Y-13.5385 Z0.5832
G1 X9.4015 Y-13.5312 Z0.5819
G1 X9.4028 Y-13.5238 Z0.5805
G1 X9.4033 Y-13.5163 Z0.5792
G1 X9.4028 Y-13.5088 Z0.5779
G1 X9.4015 Y-13.5013 Z0.5765
G1 X9.3992 Y-13.4941 Z0.5752
G1 X9.3961 Y-13.4872 Z0.5739
G1 X9.3922 Y-13.4808 Z0.5725
G1 X9.3876 Y-13.4748 Z0.5712
G1 X9.3822 Y-13.4695 Z0.5699
G1 X9.3763 Y-13.4649 Z0.5686
G1 X9.3698 Y-13.4609 Z0.5672
G1 X9.3630 Y-13.4578 Z0.5659
G1 X9.3557 Y-13.4556 Z0.5646
G1 X9.3483 Y-13.4542 Z0.5632
G1 X9.3408 Y-13.4538 Z0.5619
G1 X9.3333 Y-13.4542 Z0.5606
G1 X9.3258 Y-13.4556 Z0.5592
G1 X9.3186 Y-13.4578 Z0.5579
G1 X9.3117 Y-13.4609 Z0.5566
G1 X9.3053 Y-13.4649 Z0.5552
G1 X9.2993 Y-13.4695 Z0.5539
G1 X9.2940 Y-13.4748 Z0.5526
G1 X9.2894 Y-13.4808 Z0.5513
G1 X9.2854 Y-13.4872 Z0.5499
G1 X9.2824 Y-13.4941 Z0.5486
G1 X9.2801 Y-13.5013 Z0.5473
G1 X9.2787 Y-13.5088 Z0.5459
G1 X9.2783 Y-13.5163 Z0.5446
G1 X9.2787 Y-13.5238 Z0.5433
G1 X9.2801 Y-13.5312 Z0.5419
G1 X9.2824 Y-13.5385 Z0.5406
G1 X9.2854 Y-13.5453 Z0.5393
G1 X9.2894 Y-13.5518 Z0.5379
G1 X9.2940 Y-13.5577 Z0.5366
G1 X9.2993 Y-13.5631 Z0.5353
G1 X9.3053 Y-13.5677 Z0.5340
G1 X9.3117 Y-13.5716 Z0.5326
G1 X9.3186 Y-13.5747 Z0.5313
G1 X9.3258 Y-13.5770 Z0.5300
G1 X9.3333 Y-13.5783 Z0.5286
G1 X9.3408 Y-13.5788 Z0.5273
G1 X9.3483 Y-13.5783 Z0.5260
G1 X9.3557 Y-13.5770 Z0.5246
G1 X9.3630 Y-13.5747 Z0.5233
G1 X9.3698 Y-13.5716 Z0.5220
G1 X9.3763 Y-13.5677 Z0.5206
G1 X9.3822 Y-13.5631 Z0.5193
G1 X9.3876 Y-13.5577 Z0.5180
G1 X9.3922 Y-13.5518 Z0.5167
G1 X9.3961 Y-13.5453 Z0.5153
G1 X9.3992 Y-13.5385 Z0.5140
G1 X9.4015 Y-13.5312 Z0.5127
G1 X9.4028 Y-13.5238 Z0.5113
G1 X9.4033 Y-13.5163 Z0.5100
G1 X9.4028 Y-13.5109 Z0.5100
G1 X9.4014 Y-13.5056 Z0.5100
G1 X9.3991 Y-13.5007 Z0.5100
G1 X9.3960 Y-13.4962 Z0.5100
G1 X9.3921 Y-13.4923 Z0.5100
G1 X9.3877 Y-13.4892 Z0.5100
G1 X9.3827 Y-13.4869 Z0.5100
G1 X9.3775 Y-13.4855 Z0.5100
G1 X9.3720 Y-13.4850 Z0.5100
G1 X9.3666 Y-13.4855 Z0.5100
G1 X9.3614 Y-13.4869 Z0.5100
G1 X9.3564 Y-13.4892 Z0.5100
G1 X9.3520 Y-13.4923 Z0.5100
G1 X9.3481 Y-13.4962 Z0.5100
G1 X9.3450 Y-13.5007 Z0.5100
G1 X9.3427 Y-13.5056 Z0.5100
G1 X9.3413 Y-13.5109 Z0.5100
G1 X9.3408 Y-13.5163 Z0.5100
G1 X9.3461 Y-13.5163 Z0.5100 F75.
G1 X9.3461 Y-13.3089 Z0.5100
G1 X9.3355 Y-13.3089 Z0.5100
G1 X9.3355 Y-13.5163 Z0.5100
G1 X9.3408 Y-13.5163 Z0.5100
G1 X9.3408 Y-13.5988 Z0.5100
G1 X9.4286 Y-13.5988 Z0.5100
G1 X9.4286 Y-13.2264 Z0.5100
G1 X9.2530 Y-13.2264 Z0.5100
G1 X9.2530 Y-13.5988 Z0.5100
G1 X9.3408 Y-13.5988 Z0.5100
G1 X9.3408 Y-13.6813 Z0.5100
G1 X9.4486 Y-13.6813 Z0.5100
G3X9.5111Y-13.6188Z0.5100I0.0000J0.0625
G1 X9.5111 Y-13.2064 Z0.5100
G3X9.4486Y-13.1439Z0.5100I-0.0625J0.0000
G1 X9.2330 Y-13.1439 Z0.5100
G3X9.1705Y-13.2064Z0.5100I0.0000J-0.0625
G1 X9.1705 Y-13.6188 Z0.5100
G3X9.2330Y-13.6813Z0.5100I0.0625J0.0000
G1 X9.3408 Y-13.6813 Z0.5100
G0 Z1.3433
G0 X9.3408 Y-13.6813 
G0 Z1.3433
G0 X12.0775 Y-13.4757 
G1 X12.0775 Y-13.4757 Z1.0933 F75.
G1 X12.0735 Y-13.4808 Z1.0922 F25.
G1 X12.0696 Y-13.4872 Z1.0909
G1 X12.0665 Y-13.4941 Z1.0895
G1 X12.0642 Y-13.5013 Z1.0882
G1 X12.0629 Y-13.5088 Z1.0869
G1 X12.0624 Y-13.5163 Z1.0855
G1 X12.0629 Y-13.5238 Z1.0842
G1 X12.0642 Y-13.5312 Z1.0829
G1 X12.0665 Y-13.5385 Z1.0815
G1 X12.0696 Y-13.5453 Z1.0802
G1 X12.0735 Y-13.5518 Z1.0789
G1 X12.0781 Y-13.5577 Z1.0776
G1 X12.0835 Y-13.5631 Z1.0762
G1 X12.0894 Y-13.5677 Z1.0749
G1 X12.0959 Y-13.5716 Z1.0736
G1 X12.1027 Y-13.5747 Z1.0722
G1 X12.1099 Y-13.5770 Z1.0709
G1 X12.1174 Y-13.5783 Z1.0696
G1 X12.1249 Y-13.5788 Z1.0682
G1 X12.1324 Y-13.5783 Z1.0669
G1 X12.1399 Y-13.5770 Z1.0656
G1 X12.1471 Y-13.5747 Z1.0642
G1 X12.1540 Y-13.5716 Z1.0629
G1 X12.1604 Y-13.5677 Z1.0616
G1 X12.1664 Y-13.5631 Z1.0603
G1 X12.1717 Y-13.5577 Z1.0589
G1 X12.1763 Y-13.5518 Z1.0576
G1 X12.1802 Y-13.5453 Z1.0563
G1 X12.1833 Y-13.5385 Z1.0549
G1 X12.1856 Y-13.5312 Z1.0536
G1 X12.1869 Y-13.5238 Z1.0523
G1 X12.1874 Y-13.5163 Z1.0509
G1 X12.1869 Y-13.5088 Z1.0496
G1 X12.1856 Y-13.5013 Z1.0483
G1 X12.1833 Y-13.4941 Z1.0469
G1 X12.1802 Y-13.4872 Z1.0456
G1 X12.1763 Y-13.4808 Z1.0443
G1 X12.1717 Y-13.4748 Z1.0430
G1 X12.1664 Y-13.4695 Z1.0416
G1 X12.1604 Y-13.4649 Z1.0403
G1 X12.1540 Y-13.4609 Z1.0390
G1 X12.1471 Y-13.4578 Z1.0376
G1 X12.1399 Y-13.4556 Z1.0363
G1 X12.1324 Y-13.4542 Z1.0350
G1 X12.1249 Y-13.4538 Z1.0336
G1 X12.1174 Y-13.4542 Z1.0323
G1 X12.1099 Y-13.4556 Z1.0310
G1 X12.1027 Y-13.4578 Z1.0296
G1 X12.0959 Y-13.4609 Z1.0283
G1 X12.0894 Y-13.4649 Z1.0270
G1 X12.0835 Y-13.4695 Z1.0257
G1 X12.0781 Y-13.4748 Z1.0243
G1 X12.0735 Y-13.4808 Z1.0230
G1 X12.0696 Y-13.4872 Z1.0217
G1 X12.0665 Y-13.4941 Z1.0203
G1 X12.0642 Y-13.5013 Z1.0190
G1 X12.0629 Y-13.5088 Z1.0177
G1 X12.0624 Y-13.5163 Z1.0163
G1 X12.0629 Y-13.5238 Z1.0150
G1 X12.0642 Y-13.5312 Z1.0137
G1 X12.0665 Y-13.5385 Z1.0123
G1 X12.0696 Y-13.5453 Z1.0110
G1 X12.0735 Y-13.5518 Z1.0097
G1 X12.0781 Y-13.5577 Z1.0084
G1 X12.0835 Y-13.5631 Z1.0070
G1 X12.0894 Y-13.5677 Z1.0057
G1 X12.0959 Y-13.5716 Z1.0044
G1 X12.1027 Y-13.5747 Z1.0030
G1 X12.1099 Y-13.5770 Z1.0017
G1 X12.1174 Y-13.5783 Z1.0004
G1 X12.1249 Y-13.5788 Z0.9990
G1 X12.1324 Y-13.5783 Z0.9977
G1 X12.1399 Y-13.5770 Z0.9964
G1 X12.1471 Y-13.5747 Z0.9950
G1 X12.1540 Y-13.5716 Z0.9937
G1 X12.1604 Y-13.5677 Z0.9924
G1 X12.1664 Y-13.5631 Z0.9911
G1 X12.1717 Y-13.5577 Z0.9897
G1 X12.1763 Y-13.5518 Z0.9884
G1 X12.1802 Y-13.5453 Z0.9871
G1 X12.1833 Y-13.5385 Z0.9857
G1 X12.1856 Y-13.5312 Z0.9844
G1 X12.1869 Y-13.5238 Z0.9831
G1 X12.1874 Y-13.5163 Z0.9817
G1 X12.1869 Y-13.5088 Z0.9804
G1 X12.1856 Y-13.5013 Z0.9791
G1 X12.1833 Y-13.4941 Z0.9777
G1 X12.1802 Y-13.4872 Z0.9764
G1 X12.1763 Y-13.4808 Z0.9751
G1 X12.1717 Y-13.4748 Z0.9738
G1 X12.1664 Y-13.4695 Z0.9724
G1 X12.1604 Y-13.4649 Z0.9711
G1 X12.1540 Y-13.4609 Z0.9698
G1 X12.1471 Y-13.4578 Z0.9684
G1 X12.1399 Y-13.4556 Z0.9671
G1 X12.1324 Y-13.4542 Z0.9658
G1 X12.1249 Y-13.4538 Z0.9644
G1 X12.1174 Y-13.4542 Z0.9631
G1 X12.1099 Y-13.4556 Z0.9618
G1 X12.1027 Y-13.4578 Z0.9604
G1 X12.0959 Y-13.4609 Z0.9591
G1 X12.0894 Y-13.4649 Z0.9578
G1 X12.0835 Y-13.4695 Z0.9565
G1 X12.0781 Y-13.4748 Z0.9551
G1 X12.0735 Y-13.4808 Z0.9538
G1 X12.0696 Y-13.4872 Z0.9525
G1 X12.0665 Y-13.4941 Z0.9511
G1 X12.0642 Y-13.5013 Z0.9498
G1 X12.0629 Y-13.5088 Z0.9485
G1 X12.0624 Y-13.5163 Z0.9471
G1 X12.0629 Y-13.5238 Z0.9458
G1 X12.0642 Y-13.5312 Z0.9445
G1 X12.0665 Y-13.5385 Z0.9431
G1 X12.0696 Y-13.5453 Z0.9418
G1 X12.0735 Y-13.5518 Z0.9405
G1 X12.0781 Y-13.5577 Z0.9392
G1 X12.0835 Y-13.5631 Z0.9378
G1 X12.0894 Y-13.5677 Z0.9365
G1 X12.0959 Y-13.5716 Z0.9352
G1 X12.1027 Y-13.5747 Z0.9338
G1 X12.1099 Y-13.5770 Z0.9325
G1 X12.1174 Y-13.5783 Z0.9312
G1 X12.1249 Y-13.5788 Z0.9298
G1 X12.1324 Y-13.5783 Z0.9285
G1 X12.1399 Y-13.5770 Z0.9272
G1 X12.1471 Y-13.5747 Z0.9258
G1 X12.1540 Y-13.5716 Z0.9245
G1 X12.1604 Y-13.5677 Z0.9232
G1 X12.1664 Y-13.5631 Z0.9219
G1 X12.1717 Y-13.5577 Z0.9205
G1 X12.1763 Y-13.5518 Z0.9192
G1 X12.1802 Y-13.5453 Z0.9179
G1 X12.1833 Y-13.5385 Z0.9165
G1 X12.1856 Y-13.5312 Z0.9152
G1 X12.1869 Y-13.5238 Z0.9139
G1 X12.1874 Y-13.5163 Z0.9125
G1 X12.1869 Y-13.5088 Z0.9112
G1 X12.1856 Y-13.5013 Z0.9099
G1 X12.1833 Y-13.4941 Z0.9085
G1 X12.1802 Y-13.4872 Z0.9072
G1 X12.1763 Y-13.4808 Z0.9059
G1 X12.1717 Y-13.4748 Z0.9045
G1 X12.1664 Y-13.4695 Z0.9032
G1 X12.1604 Y-13.4649 Z0.9019
G1 X12.1540 Y-13.4609 Z0.9006
G1 X12.1471 Y-13.4578 Z0.8992
G1 X12.1399 Y-13.4556 Z0.8979
G1 X12.1324 Y-13.4542 Z0.8966
G1 X12.1249 Y-13.4538 Z0.8952
G1 X12.1174 Y-13.4542 Z0.8939
G1 X12.1099 Y-13.4556 Z0.8926
G1 X12.1027 Y-13.4578 Z0.8912
G1 X12.0959 Y-13.4609 Z0.8899
G1 X12.0894 Y-13.4649 Z0.8886
G1 X12.0835 Y-13.4695 Z0.8872
G1 X12.0781 Y-13.4748 Z0.8859
G1 X12.0735 Y-13.4808 Z0.8846
G1 X12.0696 Y-13.4872 Z0.8833
G1 X12.0665 Y-13.4941 Z0.8819
G1 X12.0642 Y-13.5013 Z0.8806
G1 X12.0629 Y-13.5088 Z0.8793
G1 X12.0624 Y-13.5163 Z0.8779
G1 X12.0629 Y-13.5238 Z0.8766
G1 X12.0642 Y-13.5312 Z0.8753
G1 X12.0665 Y-13.5385 Z0.8739
G1 X12.0696 Y-13.5453 Z0.8726
G1 X12.0735 Y-13.5518 Z0.8713
G1 X12.0781 Y-13.5577 Z0.8699
G1 X12.0835 Y-13.5631 Z0.8686
G1 X12.0894 Y-13.5677 Z0.8673
G1 X12.0959 Y-13.5716 Z0.8660
G1 X12.1027 Y-13.5747 Z0.8646
G1 X12.1099 Y-13.5770 Z0.8633
G1 X12.1174 Y-13.5783 Z0.8620
G1 X12.1249 Y-13.5788 Z0.8606
G1 X12.1324 Y-13.5783 Z0.8593
G1 X12.1399 Y-13.5770 Z0.8580
G1 X12.1471 Y-13.5747 Z0.8566
G1 X12.1540 Y-13.5716 Z0.8553
G1 X12.1604 Y-13.5677 Z0.8540
G1 X12.1664 Y-13.5631 Z0.8526
G1 X12.1717 Y-13.5577 Z0.8513
G1 X12.1763 Y-13.5518 Z0.8500
G1 X12.1802 Y-13.5453 Z0.8487
G1 X12.1833 Y-13.5385 Z0.8473
G1 X12.1856 Y-13.5312 Z0.8460
G1 X12.1869 Y-13.5238 Z0.8447
G1 X12.1874 Y-13.5163 Z0.8433
G1 X12.1869 Y-13.5109 Z0.8433
G1 X12.1855 Y-13.5056 Z0.8433
G1 X12.1832 Y-13.5007 Z0.8433
G1 X12.1801 Y-13.4962 Z0.8433
G1 X12.1762 Y-13.4923 Z0.8433
G1 X12.1718 Y-13.4892 Z0.8433
G1 X12.1668 Y-13.4869 Z0.8433
G1 X12.1616 Y-13.4855 Z0.8433
G1 X12.1562 Y-13.4850 Z0.8433
G1 X12.1507 Y-13.4855 Z0.8433
G1 X12.1455 Y-13.4869 Z0.8433
G1 X12.1405 Y-13.4892 Z0.8433
G1 X12.1361 Y-13.4923 Z0.8433
G1 X12.1322 Y-13.4962 Z0.8433
G1 X12.1291 Y-13.5007 Z0.8433
G1 X12.1268 Y-13.5056 Z0.8433
G1 X12.1254 Y-13.5109 Z0.8433
G1 X12.1249 Y-13.5163 Z0.8433
G1 X12.1302 Y-13.5163 Z0.8433 F75.
G1 X12.1302 Y-13.3089 Z0.8433
G1 X12.1196 Y-13.3089 Z0.8433
G1 X12.1196 Y-13.5163 Z0.8433
G1 X12.1249 Y-13.5163 Z0.8433
G1 X12.1249 Y-13.5988 Z0.8433
G1 X12.2127 Y-13.5988 Z0.8433
G1 X12.2127 Y-13.2264 Z0.8433
G1 X12.0371 Y-13.2264 Z0.8433
G1 X12.0371 Y-13.5988 Z0.8433
G1 X12.1249 Y-13.5988 Z0.8433
G1 X12.1249 Y-13.6813 Z0.8433
G1 X12.2327 Y-13.6813 Z0.8433
G3X12.2952Y-13.6188Z0.8433I0.0000J0.0625
G1 X12.2952 Y-13.2064 Z0.8433
G3X12.2327Y-13.1439Z0.8433I-0.0625J0.0000
G1 X12.0171 Y-13.1439 Z0.8433
G3X11.9546Y-13.2064Z0.8433I0.0000J-0.0625
G1 X11.9546 Y-13.6188 Z0.8433
G3X12.0171Y-13.6813Z0.8433I0.0625J0.0000
G1 X12.1249 Y-13.6813 Z0.8433
G0 Z0.9267
G0 X12.1249 Y-13.6813 
G0 Z0.9267
G0 X12.0775 Y-13.4757 
G1 X12.0735 Y-13.4808 Z0.9255 F25.
G1 X12.0696 Y-13.4872 Z0.9242
G1 X12.0665 Y-13.4941 Z0.9229
G1 X12.0642 Y-13.5013 Z0.9215
G1 X12.0629 Y-13.5088 Z0.9202
G1 X12.0624 Y-13.5163 Z0.9189
G1 X12.0629 Y-13.5238 Z0.9175
G1 X12.0642 Y-13.5312 Z0.9162
G1 X12.0665 Y-13.5385 Z0.9149
G1 X12.0696 Y-13.5453 Z0.9135
G1 X12.0735 Y-13.5518 Z0.9122
G1 X12.0781 Y-13.5577 Z0.9109
G1 X12.0835 Y-13.5631 Z0.9096
G1 X12.0894 Y-13.5677 Z0.9082
G1 X12.0959 Y-13.5716 Z0.9069
G1 X12.1027 Y-13.5747 Z0.9056
G1 X12.1099 Y-13.5770 Z0.9042
G1 X12.1174 Y-13.5783 Z0.9029
G1 X12.1249 Y-13.5788 Z0.9016
G1 X12.1324 Y-13.5783 Z0.9002
G1 X12.1399 Y-13.5770 Z0.8989
G1 X12.1471 Y-13.5747 Z0.8976
G1 X12.1540 Y-13.5716 Z0.8962
G1 X12.1604 Y-13.5677 Z0.8949
G1 X12.1664 Y-13.5631 Z0.8936
G1 X12.1717 Y-13.5577 Z0.8923
G1 X12.1763 Y-13.5518 Z0.8909
G1 X12.1802 Y-13.5453 Z0.8896
G1 X12.1833 Y-13.5385 Z0.8883
G1 X12.1856 Y-13.5312 Z0.8869
G1 X12.1869 Y-13.5238 Z0.8856
G1 X12.1874 Y-13.5163 Z0.8843
G1 X12.1869 Y-13.5088 Z0.8829
G1 X12.1856 Y-13.5013 Z0.8816
G1 X12.1833 Y-13.4941 Z0.8803
G1 X12.1802 Y-13.4872 Z0.8789
G1 X12.1763 Y-13.4808 Z0.8776
G1 X12.1717 Y-13.4748 Z0.8763
G1 X12.1664 Y-13.4695 Z0.8750
G1 X12.1604 Y-13.4649 Z0.8736
G1 X12.1540 Y-13.4609 Z0.8723
G1 X12.1471 Y-13.4578 Z0.8710
G1 X12.1399 Y-13.4556 Z0.8696
G1 X12.1324 Y-13.4542 Z0.8683
G1 X12.1249 Y-13.4538 Z0.8670
G1 X12.1174 Y-13.4542 Z0.8656
G1 X12.1099 Y-13.4556 Z0.8643
G1 X12.1027 Y-13.4578 Z0.8630
G1 X12.0959 Y-13.4609 Z0.8616
G1 X12.0894 Y-13.4649 Z0.8603
G1 X12.0835 Y-13.4695 Z0.8590
G1 X12.0781 Y-13.4748 Z0.8577
G1 X12.0735 Y-13.4808 Z0.8563
G1 X12.0696 Y-13.4872 Z0.8550
G1 X12.0665 Y-13.4941 Z0.8537
G1 X12.0642 Y-13.5013 Z0.8523
G1 X12.0629 Y-13.5088 Z0.8510
G1 X12.0624 Y-13.5163 Z0.8497
G1 X12.0629 Y-13.5238 Z0.8483
G1 X12.0642 Y-13.5312 Z0.8470
G1 X12.0665 Y-13.5385 Z0.8457
G1 X12.0696 Y-13.5453 Z0.8443
G1 X12.0735 Y-13.5518 Z0.8430
G1 X12.0781 Y-13.5577 Z0.8417
G1 X12.0835 Y-13.5631 Z0.8404
G1 X12.0894 Y-13.5677 Z0.8390
G1 X12.0959 Y-13.5716 Z0.8377
G1 X12.1027 Y-13.5747 Z0.8364
G1 X12.1099 Y-13.5770 Z0.8350
G1 X12.1174 Y-13.5783 Z0.8337
G1 X12.1249 Y-13.5788 Z0.8324
G1 X12.1324 Y-13.5783 Z0.8310
G1 X12.1399 Y-13.5770 Z0.8297
G1 X12.1471 Y-13.5747 Z0.8284
G1 X12.1540 Y-13.5716 Z0.8270
G1 X12.1604 Y-13.5677 Z0.8257
G1 X12.1664 Y-13.5631 Z0.8244
G1 X12.1717 Y-13.5577 Z0.8231
G1 X12.1763 Y-13.5518 Z0.8217
G1 X12.1802 Y-13.5453 Z0.8204
G1 X12.1833 Y-13.5385 Z0.8191
G1 X12.1856 Y-13.5312 Z0.8177
G1 X12.1869 Y-13.5238 Z0.8164
G1 X12.1874 Y-13.5163 Z0.8151
G1 X12.1869 Y-13.5088 Z0.8137
G1 X12.1856 Y-13.5013 Z0.8124
G1 X12.1833 Y-13.4941 Z0.8111
G1 X12.1802 Y-13.4872 Z0.8097
G1 X12.1763 Y-13.4808 Z0.8084
G1 X12.1717 Y-13.4748 Z0.8071
G1 X12.1664 Y-13.4695 Z0.8058
G1 X12.1604 Y-13.4649 Z0.8044
G1 X12.1540 Y-13.4609 Z0.8031
G1 X12.1471 Y-13.4578 Z0.8018
G1 X12.1399 Y-13.4556 Z0.8004
G1 X12.1324 Y-13.4542 Z0.7991
G1 X12.1249 Y-13.4538 Z0.7978
G1 X12.1174 Y-13.4542 Z0.7964
G1 X12.1099 Y-13.4556 Z0.7951
G1 X12.1027 Y-13.4578 Z0.7938
G1 X12.0959 Y-13.4609 Z0.7924
G1 X12.0894 Y-13.4649 Z0.7911
G1 X12.0835 Y-13.4695 Z0.7898
G1 X12.0781 Y-13.4748 Z0.7885
G1 X12.0735 Y-13.4808 Z0.7871
G1 X12.0696 Y-13.4872 Z0.7858
G1 X12.0665 Y-13.4941 Z0.7845
G1 X12.0642 Y-13.5013 Z0.7831
G1 X12.0629 Y-13.5088 Z0.7818
G1 X12.0624 Y-13.5163 Z0.7805
G1 X12.0629 Y-13.5238 Z0.7791
G1 X12.0642 Y-13.5312 Z0.7778
G1 X12.0665 Y-13.5385 Z0.7765
G1 X12.0696 Y-13.5453 Z0.7751
G1 X12.0735 Y-13.5518 Z0.7738
G1 X12.0781 Y-13.5577 Z0.7725
G1 X12.0835 Y-13.5631 Z0.7712
G1 X12.0894 Y-13.5677 Z0.7698
G1 X12.0959 Y-13.5716 Z0.7685
G1 X12.1027 Y-13.5747 Z0.7672
G1 X12.1099 Y-13.5770 Z0.7658
G1 X12.1174 Y-13.5783 Z0.7645
G1 X12.1249 Y-13.5788 Z0.7632
G1 X12.1324 Y-13.5783 Z0.7618
G1 X12.1399 Y-13.5770 Z0.7605
G1 X12.1471 Y-13.5747 Z0.7592
G1 X12.1540 Y-13.5716 Z0.7578
G1 X12.1604 Y-13.5677 Z0.7565
G1 X12.1664 Y-13.5631 Z0.7552
G1 X12.1717 Y-13.5577 Z0.7539
G1 X12.1763 Y-13.5518 Z0.7525
G1 X12.1802 Y-13.5453 Z0.7512
G1 X12.1833 Y-13.5385 Z0.7499
G1 X12.1856 Y-13.5312 Z0.7485
G1 X12.1869 Y-13.5238 Z0.7472
G1 X12.1874 Y-13.5163 Z0.7459
G1 X12.1869 Y-13.5088 Z0.7445
G1 X12.1856 Y-13.5013 Z0.7432
G1 X12.1833 Y-13.4941 Z0.7419
G1 X12.1802 Y-13.4872 Z0.7405
G1 X12.1763 Y-13.4808 Z0.7392
G1 X12.1717 Y-13.4748 Z0.7379
G1 X12.1664 Y-13.4695 Z0.7366
G1 X12.1604 Y-13.4649 Z0.7352
G1 X12.1540 Y-13.4609 Z0.7339
G1 X12.1471 Y-13.4578 Z0.7326
G1 X12.1399 Y-13.4556 Z0.7312
G1 X12.1324 Y-13.4542 Z0.7299
G1 X12.1249 Y-13.4538 Z0.7286
G1 X12.1174 Y-13.4542 Z0.7272
G1 X12.1099 Y-13.4556 Z0.7259
G1 X12.1027 Y-13.4578 Z0.7246
G1 X12.0959 Y-13.4609 Z0.7232
G1 X12.0894 Y-13.4649 Z0.7219
G1 X12.0835 Y-13.4695 Z0.7206
G1 X12.0781 Y-13.4748 Z0.7193
G1 X12.0735 Y-13.4808 Z0.7179
G1 X12.0696 Y-13.4872 Z0.7166
G1 X12.0665 Y-13.4941 Z0.7153
G1 X12.0642 Y-13.5013 Z0.7139
G1 X12.0629 Y-13.5088 Z0.7126
G1 X12.0624 Y-13.5163 Z0.7113
G1 X12.0629 Y-13.5238 Z0.7099
G1 X12.0642 Y-13.5312 Z0.7086
G1 X12.0665 Y-13.5385 Z0.7073
G1 X12.0696 Y-13.5453 Z0.7059
G1 X12.0735 Y-13.5518 Z0.7046
G1 X12.0781 Y-13.5577 Z0.7033
G1 X12.0835 Y-13.5631 Z0.7020
G1 X12.0894 Y-13.5677 Z0.7006
G1 X12.0959 Y-13.5716 Z0.6993
G1 X12.1027 Y-13.5747 Z0.6980
G1 X12.1099 Y-13.5770 Z0.6966
G1 X12.1174 Y-13.5783 Z0.6953
G1 X12.1249 Y-13.5788 Z0.6940
G1 X12.1324 Y-13.5783 Z0.6926
G1 X12.1399 Y-13.5770 Z0.6913
G1 X12.1471 Y-13.5747 Z0.6900
G1 X12.1540 Y-13.5716 Z0.6886
G1 X12.1604 Y-13.5677 Z0.6873
G1 X12.1664 Y-13.5631 Z0.6860
G1 X12.1717 Y-13.5577 Z0.6847
G1 X12.1763 Y-13.5518 Z0.6833
G1 X12.1802 Y-13.5453 Z0.6820
G1 X12.1833 Y-13.5385 Z0.6807
G1 X12.1856 Y-13.5312 Z0.6793
G1 X12.1869 Y-13.5238 Z0.6780
G1 X12.1874 Y-13.5163 Z0.6767
G1 X12.1869 Y-13.5109 Z0.6767
G1 X12.1855 Y-13.5056 Z0.6767
G1 X12.1832 Y-13.5007 Z0.6767
G1 X12.1801 Y-13.4962 Z0.6767
G1 X12.1762 Y-13.4923 Z0.6767
G1 X12.1718 Y-13.4892 Z0.6767
G1 X12.1668 Y-13.4869 Z0.6767
G1 X12.1616 Y-13.4855 Z0.6767
G1 X12.1562 Y-13.4850 Z0.6767
G1 X12.1507 Y-13.4855 Z0.6767
G1 X12.1455 Y-13.4869 Z0.6767
G1 X12.1405 Y-13.4892 Z0.6767
G1 X12.1361 Y-13.4923 Z0.6767
G1 X12.1322 Y-13.4962 Z0.6767
G1 X12.1291 Y-13.5007 Z0.6767
G1 X12.1268 Y-13.5056 Z0.6767
G1 X12.1254 Y-13.5109 Z0.6767
G1 X12.1249 Y-13.5163 Z0.6767
G1 X12.1302 Y-13.5163 Z0.6767 F75.
G1 X12.1302 Y-13.3089 Z0.6767
G1 X12.1196 Y-13.3089 Z0.6767
G1 X12.1196 Y-13.5163 Z0.6767
G1 X12.1249 Y-13.5163 Z0.6767
G1 X12.1249 Y-13.5988 Z0.6767
G1 X12.2127 Y-13.5988 Z0.6767
G1 X12.2127 Y-13.2264 Z0.6767
G1 X12.0371 Y-13.2264 Z0.6767
G1 X12.0371 Y-13.5988 Z0.6767
G1 X12.1249 Y-13.5988 Z0.6767
G1 X12.1249 Y-13.6813 Z0.6767
G1 X12.2327 Y-13.6813 Z0.6767
G3X12.2952Y-13.6188Z0.6767I0.0000J0.0625
G1 X12.2952 Y-13.2064 Z0.6767
G3X12.2327Y-13.1439Z0.6767I-0.0625J0.0000
G1 X12.0171 Y-13.1439 Z0.6767
G3X11.9546Y-13.2064Z0.6767I0.0000J-0.0625
G1 X11.9546 Y-13.6188 Z0.6767
G3X12.0171Y-13.6813Z0.6767I0.0625J0.0000
G1 X12.1249 Y-13.6813 Z0.6767
G0 Z0.7600
G0 X12.1249 Y-13.6813 
G0 Z0.7600
G0 X12.0775 Y-13.4757 
G1 X12.0735 Y-13.4808 Z0.7589 F25.
G1 X12.0696 Y-13.4872 Z0.7575
G1 X12.0665 Y-13.4941 Z0.7562
G1 X12.0642 Y-13.5013 Z0.7549
G1 X12.0629 Y-13.5088 Z0.7535
G1 X12.0624 Y-13.5163 Z0.7522
G1 X12.0629 Y-13.5238 Z0.7509
G1 X12.0642 Y-13.5312 Z0.7495
G1 X12.0665 Y-13.5385 Z0.7482
G1 X12.0696 Y-13.5453 Z0.7469
G1 X12.0735 Y-13.5518 Z0.7456
G1 X12.0781 Y-13.5577 Z0.7442
G1 X12.0835 Y-13.5631 Z0.7429
G1 X12.0894 Y-13.5677 Z0.7416
G1 X12.0959 Y-13.5716 Z0.7402
G1 X12.1027 Y-13.5747 Z0.7389
G1 X12.1099 Y-13.5770 Z0.7376
G1 X12.1174 Y-13.5783 Z0.7362
G1 X12.1249 Y-13.5788 Z0.7349
G1 X12.1324 Y-13.5783 Z0.7336
G1 X12.1399 Y-13.5770 Z0.7322
G1 X12.1471 Y-13.5747 Z0.7309
G1 X12.1540 Y-13.5716 Z0.7296
G1 X12.1604 Y-13.5677 Z0.7283
G1 X12.1664 Y-13.5631 Z0.7269
G1 X12.1717 Y-13.5577 Z0.7256
G1 X12.1763 Y-13.5518 Z0.7243
G1 X12.1802 Y-13.5453 Z0.7229
G1 X12.1833 Y-13.5385 Z0.7216
G1 X12.1856 Y-13.5312 Z0.7203
G1 X12.1869 Y-13.5238 Z0.7189
G1 X12.1874 Y-13.5163 Z0.7176
G1 X12.1869 Y-13.5088 Z0.7163
G1 X12.1856 Y-13.5013 Z0.7149
G1 X12.1833 Y-13.4941 Z0.7136
G1 X12.1802 Y-13.4872 Z0.7123
G1 X12.1763 Y-13.4808 Z0.7110
G1 X12.1717 Y-13.4748 Z0.7096
G1 X12.1664 Y-13.4695 Z0.7083
G1 X12.1604 Y-13.4649 Z0.7070
G1 X12.1540 Y-13.4609 Z0.7056
G1 X12.1471 Y-13.4578 Z0.7043
G1 X12.1399 Y-13.4556 Z0.7030
G1 X12.1324 Y-13.4542 Z0.7016
G1 X12.1249 Y-13.4538 Z0.7003
G1 X12.1174 Y-13.4542 Z0.6990
G1 X12.1099 Y-13.4556 Z0.6976
G1 X12.1027 Y-13.4578 Z0.6963
G1 X12.0959 Y-13.4609 Z0.6950
G1 X12.0894 Y-13.4649 Z0.6936
G1 X12.0835 Y-13.4695 Z0.6923
G1 X12.0781 Y-13.4748 Z0.6910
G1 X12.0735 Y-13.4808 Z0.6897
G1 X12.0696 Y-13.4872 Z0.6883
G1 X12.0665 Y-13.4941 Z0.6870
G1 X12.0642 Y-13.5013 Z0.6857
G1 X12.0629 Y-13.5088 Z0.6843
G1 X12.0624 Y-13.5163 Z0.6830
G1 X12.0629 Y-13.5238 Z0.6817
G1 X12.0642 Y-13.5312 Z0.6803
G1 X12.0665 Y-13.5385 Z0.6790
G1 X12.0696 Y-13.5453 Z0.6777
G1 X12.0735 Y-13.5518 Z0.6763
G1 X12.0781 Y-13.5577 Z0.6750
G1 X12.0835 Y-13.5631 Z0.6737
G1 X12.0894 Y-13.5677 Z0.6724
G1 X12.0959 Y-13.5716 Z0.6710
G1 X12.1027 Y-13.5747 Z0.6697
G1 X12.1099 Y-13.5770 Z0.6684
G1 X12.1174 Y-13.5783 Z0.6670
G1 X12.1249 Y-13.5788 Z0.6657
G1 X12.1324 Y-13.5783 Z0.6644
G1 X12.1399 Y-13.5770 Z0.6630
G1 X12.1471 Y-13.5747 Z0.6617
G1 X12.1540 Y-13.5716 Z0.6604
G1 X12.1604 Y-13.5677 Z0.6590
G1 X12.1664 Y-13.5631 Z0.6577
G1 X12.1717 Y-13.5577 Z0.6564
G1 X12.1763 Y-13.5518 Z0.6551
G1 X12.1802 Y-13.5453 Z0.6537
G1 X12.1833 Y-13.5385 Z0.6524
G1 X12.1856 Y-13.5312 Z0.6511
G1 X12.1869 Y-13.5238 Z0.6497
G1 X12.1874 Y-13.5163 Z0.6484
G1 X12.1869 Y-13.5088 Z0.6471
G1 X12.1856 Y-13.5013 Z0.6457
G1 X12.1833 Y-13.4941 Z0.6444
G1 X12.1802 Y-13.4872 Z0.6431
G1 X12.1763 Y-13.4808 Z0.6417
G1 X12.1717 Y-13.4748 Z0.6404
G1 X12.1664 Y-13.4695 Z0.6391
G1 X12.1604 Y-13.4649 Z0.6378
G1 X12.1540 Y-13.4609 Z0.6364
G1 X12.1471 Y-13.4578 Z0.6351
G1 X12.1399 Y-13.4556 Z0.6338
G1 X12.1324 Y-13.4542 Z0.6324
G1 X12.1249 Y-13.4538 Z0.6311
G1 X12.1174 Y-13.4542 Z0.6298
G1 X12.1099 Y-13.4556 Z0.6284
G1 X12.1027 Y-13.4578 Z0.6271
G1 X12.0959 Y-13.4609 Z0.6258
G1 X12.0894 Y-13.4649 Z0.6244
G1 X12.0835 Y-13.4695 Z0.6231
G1 X12.0781 Y-13.4748 Z0.6218
G1 X12.0735 Y-13.4808 Z0.6205
G1 X12.0696 Y-13.4872 Z0.6191
G1 X12.0665 Y-13.4941 Z0.6178
G1 X12.0642 Y-13.5013 Z0.6165
G1 X12.0629 Y-13.5088 Z0.6151
G1 X12.0624 Y-13.5163 Z0.6138
G1 X12.0629 Y-13.5238 Z0.6125
G1 X12.0642 Y-13.5312 Z0.6111
G1 X12.0665 Y-13.5385 Z0.6098
G1 X12.0696 Y-13.5453 Z0.6085
G1 X12.0735 Y-13.5518 Z0.6071
G1 X12.0781 Y-13.5577 Z0.6058
G1 X12.0835 Y-13.5631 Z0.6045
G1 X12.0894 Y-13.5677 Z0.6032
G1 X12.0959 Y-13.5716 Z0.6018
G1 X12.1027 Y-13.5747 Z0.6005
G1 X12.1099 Y-13.5770 Z0.5992
G1 X12.1174 Y-13.5783 Z0.5978
G1 X12.1249 Y-13.5788 Z0.5965
G1 X12.1324 Y-13.5783 Z0.5952
G1 X12.1399 Y-13.5770 Z0.5938
G1 X12.1471 Y-13.5747 Z0.5925
G1 X12.1540 Y-13.5716 Z0.5912
G1 X12.1604 Y-13.5677 Z0.5898
G1 X12.1664 Y-13.5631 Z0.5885
G1 X12.1717 Y-13.5577 Z0.5872
G1 X12.1763 Y-13.5518 Z0.5859
G1 X12.1802 Y-13.5453 Z0.5845
G1 X12.1833 Y-13.5385 Z0.5832
G1 X12.1856 Y-13.5312 Z0.5819
G1 X12.1869 Y-13.5238 Z0.5805
G1 X12.1874 Y-13.5163 Z0.5792
G1 X12.1869 Y-13.5088 Z0.5779
G1 X12.1856 Y-13.5013 Z0.5765
G1 X12.1833 Y-13.4941 Z0.5752
G1 X12.1802 Y-13.4872 Z0.5739
G1 X12.1763 Y-13.4808 Z0.5725
G1 X12.1717 Y-13.4748 Z0.5712
G1 X12.1664 Y-13.4695 Z0.5699
G1 X12.1604 Y-13.4649 Z0.5686
G1 X12.1540 Y-13.4609 Z0.5672
G1 X12.1471 Y-13.4578 Z0.5659
G1 X12.1399 Y-13.4556 Z0.5646
G1 X12.1324 Y-13.4542 Z0.5632
G1 X12.1249 Y-13.4538 Z0.5619
G1 X12.1174 Y-13.4542 Z0.5606
G1 X12.1099 Y-13.4556 Z0.5592
G1 X12.1027 Y-13.4578 Z0.5579
G1 X12.0959 Y-13.4609 Z0.5566
G1 X12.0894 Y-13.4649 Z0.5552
G1 X12.0835 Y-13.4695 Z0.5539
G1 X12.0781 Y-13.4748 Z0.5526
G1 X12.0735 Y-13.4808 Z0.5513
G1 X12.0696 Y-13.4872 Z0.5499
G1 X12.0665 Y-13.4941 Z0.5486
G1 X12.0642 Y-13.5013 Z0.5473
G1 X12.0629 Y-13.5088 Z0.5459
G1 X12.0624 Y-13.5163 Z0.5446
G1 X12.0629 Y-13.5238 Z0.5433
G1 X12.0642 Y-13.5312 Z0.5419
G1 X12.0665 Y-13.5385 Z0.5406
G1 X12.0696 Y-13.5453 Z0.5393
G1 X12.0735 Y-13.5518 Z0.5379
G1 X12.0781 Y-13.5577 Z0.5366
G1 X12.0835 Y-13.5631 Z0.5353
G1 X12.0894 Y-13.5677 Z0.5340
G1 X12.0959 Y-13.5716 Z0.5326
G1 X12.1027 Y-13.5747 Z0.5313
G1 X12.1099 Y-13.5770 Z0.5300
G1 X12.1174 Y-13.5783 Z0.5286
G1 X12.1249 Y-13.5788 Z0.5273
G1 X12.1324 Y-13.5783 Z0.5260
G1 X12.1399 Y-13.5770 Z0.5246
G1 X12.1471 Y-13.5747 Z0.5233
G1 X12.1540 Y-13.5716 Z0.5220
G1 X12.1604 Y-13.5677 Z0.5206
G1 X12.1664 Y-13.5631 Z0.5193
G1 X12.1717 Y-13.5577 Z0.5180
G1 X12.1763 Y-13.5518 Z0.5167
G1 X12.1802 Y-13.5453 Z0.5153
G1 X12.1833 Y-13.5385 Z0.5140
G1 X12.1856 Y-13.5312 Z0.5127
G1 X12.1869 Y-13.5238 Z0.5113
G1 X12.1874 Y-13.5163 Z0.5100
G1 X12.1869 Y-13.5109 Z0.5100
G1 X12.1855 Y-13.5056 Z0.5100
G1 X12.1832 Y-13.5007 Z0.5100
G1 X12.1801 Y-13.4962 Z0.5100
G1 X12.1762 Y-13.4923 Z0.5100
G1 X12.1718 Y-13.4892 Z0.5100
G1 X12.1668 Y-13.4869 Z0.5100
G1 X12.1616 Y-13.4855 Z0.5100
G1 X12.1562 Y-13.4850 Z0.5100
G1 X12.1507 Y-13.4855 Z0.5100
G1 X12.1455 Y-13.4869 Z0.5100
G1 X12.1405 Y-13.4892 Z0.5100
G1 X12.1361 Y-13.4923 Z0.5100
G1 X12.1322 Y-13.4962 Z0.5100
G1 X12.1291 Y-13.5007 Z0.5100
G1 X12.1268 Y-13.5056 Z0.5100
G1 X12.1254 Y-13.5109 Z0.5100
G1 X12.1249 Y-13.5163 Z0.5100
G1 X12.1302 Y-13.5163 Z0.5100 F75.
G1 X12.1302 Y-13.3089 Z0.5100
G1 X12.1196 Y-13.3089 Z0.5100
G1 X12.1196 Y-13.5163 Z0.5100
G1 X12.1249 Y-13.5163 Z0.5100
G1 X12.1249 Y-13.5988 Z0.5100
G1 X12.2127 Y-13.5988 Z0.5100
G1 X12.2127 Y-13.2264 Z0.5100
G1 X12.0371 Y-13.2264 Z0.5100
G1 X12.0371 Y-13.5988 Z0.5100
G1 X12.1249 Y-13.5988 Z0.5100
G1 X12.1249 Y-13.6813 Z0.5100
G1 X12.2327 Y-13.6813 Z0.5100
G3X12.2952Y-13.6188Z0.5100I0.0000J0.0625
G1 X12.2952 Y-13.2064 Z0.5100
G3X12.2327Y-13.1439Z0.5100I-0.0625J0.0000
G1 X12.0171 Y-13.1439 Z0.5100
G3X11.9546Y-13.2064Z0.5100I0.0000J-0.0625
G1 X11.9546 Y-13.6188 Z0.5100
G3X12.0171Y-13.6813Z0.5100I0.0625J0.0000
G1 X12.1249 Y-13.6813 Z0.5100
G0 Z4.0000
G0 X12.1249 Y-13.6813 
M5
G53 Z
X2Y0
