( MOP:  Hum-PUP-Neck-front-02 )
( FILE: G:\Shared drives\AlloyProjectFiles\Customer CAD files\Alloy-Standard-Builds-CAM\t-in\PUPS\Hum-PUP-Neck-front-02.nc)
G90
(  BEGIN TOOL LIST )
(  TOOL 6 - Downcut PT250 - DESC: 0.2500 DIA, 2 FLUTE,  CARBIDE MAT )
(  ENDOF TOOL LIST )
( Hum-PUP-Neck-front-02)
( Max Depth 1.75)
T06
S12000
M3
G0 Z4.0000
G0 X10.4830 Y-11.8240 
G1 X10.4830 Y-11.8240 Z1.0100 F75.
G17
G3X10.7330Y-12.0740Z1.0100I0.2500J0.0000 F25.
G1 X11.9825 Y-12.0740 Z1.0100 F75.
G3X12.0267Y-12.0557Z1.0100I0.0000J0.0625
G3X12.0450Y-12.0115Z1.0100I-0.0442J0.0442
G1 X12.0450 Y-11.7678 Z1.0100
G2X12.1700Y-11.6428Z1.0100I0.1250J0.0000
G1 X12.2327 Y-11.6428 Z1.0100
G3X12.2769Y-11.6245Z1.0100I0.0000J0.0625
G3X12.2952Y-11.5803Z1.0100I-0.0442J0.0442
G1 X12.2952 Y-11.1679 Z1.0100
G3X12.2769Y-11.1237Z1.0100I-0.0625J0.0000
G3X12.2327Y-11.1054Z1.0100I-0.0442J-0.0442
G1 X12.1700 Y-11.1054 Z1.0100
G2X12.0450Y-10.9804Z1.0100I0.0000J0.1250
G1 X12.0450 Y-10.7367 Z1.0100
G3X12.0267Y-10.6925Z1.0100I-0.0625J0.0000
G3X11.9825Y-10.6742Z1.0100I-0.0442J-0.0442
G1 X9.4835 Y-10.6742 Z1.0100
G3X9.4210Y-10.7367Z1.0100I0.0000J-0.0625
G1 X9.4210 Y-10.9804 Z1.0100
G2X9.2960Y-11.1054Z1.0100I-0.1250J0.0000
G1 X9.2330 Y-11.1054 Z1.0100
G3X9.1705Y-11.1679Z1.0100I0.0000J-0.0625
G1 X9.1705 Y-11.5803 Z1.0100
G3X9.1888Y-11.6245Z1.0100I0.0625J0.0000
G3X9.2330Y-11.6428Z1.0100I0.0442J0.0442
G1 X9.2960 Y-11.6428 Z1.0100
G2X9.4210Y-11.7678Z1.0100I0.0000J-0.1250
G1 X9.4210 Y-12.0115 Z1.0100
G3X9.4393Y-12.0557Z1.0100I0.0625J0.0000
G3X9.4835Y-12.0740Z1.0100I0.0442J0.0442
G1 X10.7330 Y-12.0740 Z1.0100
G1 X11.2330 Y-12.0740 Z1.0100
G3X11.4830Y-11.8240Z1.0100I0.0000J0.2500
G0 Z4.0000
G0 X11.4830 Y-11.8240 
M5
G53 Z
X2Y0
