( MOP:  Hum-PUP-Bridge-front-03 )
( FILE: G:\Shared drives\AlloyProjectFiles\Customer CAD files\Alloy-Standard-Builds-CAM\t-in\PUPS\Hum-PUP-Bridge-front-03.nc)
G90
(  BEGIN TOOL LIST )
(  TOOL 6 - Downcut PT250 - DESC: 0.2500 DIA, 2 FLUTE,  CARBIDE MAT )
(  ENDOF TOOL LIST )
( Hum-PUP-Bridge-front-03)
( Max Depth 1.75)
T06
S12000
M3
G0 Z4.0000
G0 X9.3753 Y-15.4598 
G1 X9.3753 Y-15.4598 Z1.0100 F75.
G1 X9.3661 Y-15.4574 Z1.0083 F25.
G1 X9.3155 Y-15.4574 Z0.9994
G1 X9.2893 Y-15.4644 Z0.9946
G1 X9.2700 Y-15.4836 Z0.9898
G1 X9.2630 Y-15.5099 Z0.9850
G1 X9.2630 Y-15.7573 Z0.9414
G1 X9.2700 Y-15.7835 Z0.9366
G1 X9.2893 Y-15.8028 Z0.9318
G1 X9.3155 Y-15.8098 Z0.9270
G1 X9.3408 Y-15.8098 Z0.9226
G1 X9.3661 Y-15.8098 Z0.9181
G1 X9.3923 Y-15.8028 Z0.9133
G1 X9.4115 Y-15.7835 Z0.9085
G1 X9.4186 Y-15.7573 Z0.9037
G1 X9.4186 Y-15.5099 Z0.8601
G1 X9.4115 Y-15.4836 Z0.8553
G1 X9.3923 Y-15.4644 Z0.8505
G1 X9.3661 Y-15.4574 Z0.8457
G1 X9.3155 Y-15.4574 Z0.8368
G1 X9.2893 Y-15.4644 Z0.8320
G1 X9.2700 Y-15.4836 Z0.8272
G1 X9.2630 Y-15.5099 Z0.8225
G1 X9.2630 Y-15.7573 Z0.7788
G1 X9.2700 Y-15.7835 Z0.7740
G1 X9.2893 Y-15.8028 Z0.7692
G1 X9.3155 Y-15.8098 Z0.7645
G1 X9.3408 Y-15.8098 Z0.7600
G1 X9.3408 Y-15.7573 Z0.7600
G1 X9.3661 Y-15.7573 Z0.7600 F75.
G1 X9.3661 Y-15.5099 Z0.7600
G1 X9.3155 Y-15.5099 Z0.7600
G1 X9.3155 Y-15.7573 Z0.7600
G1 X9.3408 Y-15.7573 Z0.7600
G1 X9.3408 Y-15.8398 Z0.7600
G1 X9.4486 Y-15.8398 Z0.7600
G1 X9.4486 Y-15.4274 Z0.7600
G1 X9.2330 Y-15.4274 Z0.7600
G1 X9.2330 Y-15.8398 Z0.7600
G1 X9.3408 Y-15.8398 Z0.7600
G1 X9.3408 Y-15.9223 Z0.7600
G1 X9.4486 Y-15.9223 Z0.7600
G17
G3X9.5311Y-15.8398Z0.7600I0.0000J0.0825
G1 X9.5311 Y-15.4274 Z0.7600
G3X9.4486Y-15.3449Z0.7600I-0.0825J0.0000
G1 X9.2330 Y-15.3449 Z0.7600
G3X9.1505Y-15.4274Z0.7600I0.0000J-0.0825
G1 X9.1505 Y-15.8398 Z0.7600
G3X9.2330Y-15.9223Z0.7600I0.0825J0.0000
G1 X9.3408 Y-15.9223 Z0.7600
G0 Z1.0100
G0 X9.3408 Y-15.9223 
G0 Z1.0100
G0 X9.3753 Y-15.4598 
G1 X9.3753 Y-15.4598 Z0.7600 F75.
G1 X9.3661 Y-15.4574 Z0.7583 F25.
G1 X9.3155 Y-15.4574 Z0.7494
G1 X9.2893 Y-15.4644 Z0.7446
G1 X9.2700 Y-15.4836 Z0.7398
G1 X9.2630 Y-15.5099 Z0.7350
G1 X9.2630 Y-15.7573 Z0.6914
G1 X9.2700 Y-15.7835 Z0.6866
G1 X9.2893 Y-15.8028 Z0.6818
G1 X9.3155 Y-15.8098 Z0.6770
G1 X9.3408 Y-15.8098 Z0.6726
G1 X9.3661 Y-15.8098 Z0.6681
G1 X9.3923 Y-15.8028 Z0.6633
G1 X9.4115 Y-15.7835 Z0.6585
G1 X9.4186 Y-15.7573 Z0.6537
G1 X9.4186 Y-15.5099 Z0.6101
G1 X9.4115 Y-15.4836 Z0.6053
G1 X9.3923 Y-15.4644 Z0.6005
G1 X9.3661 Y-15.4574 Z0.5957
G1 X9.3155 Y-15.4574 Z0.5868
G1 X9.2893 Y-15.4644 Z0.5820
G1 X9.2700 Y-15.4836 Z0.5772
G1 X9.2630 Y-15.5099 Z0.5725
G1 X9.2630 Y-15.7573 Z0.5288
G1 X9.2700 Y-15.7835 Z0.5240
G1 X9.2893 Y-15.8028 Z0.5192
G1 X9.3155 Y-15.8098 Z0.5145
G1 X9.3408 Y-15.8098 Z0.5100
G1 X9.3408 Y-15.7573 Z0.5100
G1 X9.3661 Y-15.7573 Z0.5100 F75.
G1 X9.3661 Y-15.5099 Z0.5100
G1 X9.3155 Y-15.5099 Z0.5100
G1 X9.3155 Y-15.7573 Z0.5100
G1 X9.3408 Y-15.7573 Z0.5100
G1 X9.3408 Y-15.8398 Z0.5100
G1 X9.4486 Y-15.8398 Z0.5100
G1 X9.4486 Y-15.4274 Z0.5100
G1 X9.2330 Y-15.4274 Z0.5100
G1 X9.2330 Y-15.8398 Z0.5100
G1 X9.3408 Y-15.8398 Z0.5100
G1 X9.3408 Y-15.9223 Z0.5100
G1 X9.4486 Y-15.9223 Z0.5100
G3X9.5311Y-15.8398Z0.5100I0.0000J0.0825
G1 X9.5311 Y-15.4274 Z0.5100
G3X9.4486Y-15.3449Z0.5100I-0.0825J0.0000
G1 X9.2330 Y-15.3449 Z0.5100
G3X9.1505Y-15.4274Z0.5100I0.0000J-0.0825
G1 X9.1505 Y-15.8398 Z0.5100
G3X9.2330Y-15.9223Z0.5100I0.0825J0.0000
G1 X9.3408 Y-15.9223 Z0.5100
G0 Z1.2600
G0 X9.3408 Y-15.9223 
G0 Z1.2600
G0 X12.1594 Y-15.4598 
G1 X12.1594 Y-15.4598 Z1.0100 F75.
G1 X12.1502 Y-15.4574 Z1.0083 F25.
G1 X12.0996 Y-15.4574 Z0.9994
G1 X12.0734 Y-15.4644 Z0.9946
G1 X12.0542 Y-15.4836 Z0.9898
G1 X12.0471 Y-15.5099 Z0.9850
G1 X12.0471 Y-15.7573 Z0.9414
G1 X12.0542 Y-15.7835 Z0.9366
G1 X12.0734 Y-15.8028 Z0.9318
G1 X12.0996 Y-15.8098 Z0.9270
G1 X12.1249 Y-15.8098 Z0.9226
G1 X12.1502 Y-15.8098 Z0.9181
G1 X12.1764 Y-15.8028 Z0.9133
G1 X12.1956 Y-15.7835 Z0.9085
G1 X12.2027 Y-15.7573 Z0.9037
G1 X12.2027 Y-15.5099 Z0.8601
G1 X12.1956 Y-15.4836 Z0.8553
G1 X12.1764 Y-15.4644 Z0.8505
G1 X12.1502 Y-15.4574 Z0.8457
G1 X12.0996 Y-15.4574 Z0.8368
G1 X12.0734 Y-15.4644 Z0.8320
G1 X12.0542 Y-15.4836 Z0.8272
G1 X12.0471 Y-15.5099 Z0.8225
G1 X12.0471 Y-15.7573 Z0.7788
G1 X12.0542 Y-15.7835 Z0.7740
G1 X12.0734 Y-15.8028 Z0.7692
G1 X12.0996 Y-15.8098 Z0.7645
G1 X12.1249 Y-15.8098 Z0.7600
G1 X12.1249 Y-15.7573 Z0.7600
G1 X12.1502 Y-15.7573 Z0.7600 F75.
G1 X12.1502 Y-15.5099 Z0.7600
G1 X12.0996 Y-15.5099 Z0.7600
G1 X12.0996 Y-15.7573 Z0.7600
G1 X12.1249 Y-15.7573 Z0.7600
G1 X12.1249 Y-15.8398 Z0.7600
G1 X12.2327 Y-15.8398 Z0.7600
G1 X12.2327 Y-15.4274 Z0.7600
G1 X12.0171 Y-15.4274 Z0.7600
G1 X12.0171 Y-15.8398 Z0.7600
G1 X12.1249 Y-15.8398 Z0.7600
G1 X12.1249 Y-15.9223 Z0.7600
G1 X12.2327 Y-15.9223 Z0.7600
G3X12.3152Y-15.8398Z0.7600I0.0000J0.0825
G1 X12.3152 Y-15.4274 Z0.7600
G3X12.2327Y-15.3449Z0.7600I-0.0825J0.0000
G1 X12.0171 Y-15.3449 Z0.7600
G3X11.9346Y-15.4274Z0.7600I0.0000J-0.0825
G1 X11.9346 Y-15.8398 Z0.7600
G3X12.0171Y-15.9223Z0.7600I0.0825J0.0000
G1 X12.1249 Y-15.9223 Z0.7600
G0 Z1.0100
G0 X12.1249 Y-15.9223 
G0 Z1.0100
G0 X12.1594 Y-15.4598 
G1 X12.1594 Y-15.4598 Z0.7600 F75.
G1 X12.1502 Y-15.4574 Z0.7583 F25.
G1 X12.0996 Y-15.4574 Z0.7494
G1 X12.0734 Y-15.4644 Z0.7446
G1 X12.0542 Y-15.4836 Z0.7398
G1 X12.0471 Y-15.5099 Z0.7350
G1 X12.0471 Y-15.7573 Z0.6914
G1 X12.0542 Y-15.7835 Z0.6866
G1 X12.0734 Y-15.8028 Z0.6818
G1 X12.0996 Y-15.8098 Z0.6770
G1 X12.1249 Y-15.8098 Z0.6726
G1 X12.1502 Y-15.8098 Z0.6681
G1 X12.1764 Y-15.8028 Z0.6633
G1 X12.1956 Y-15.7835 Z0.6585
G1 X12.2027 Y-15.7573 Z0.6537
G1 X12.2027 Y-15.5099 Z0.6101
G1 X12.1956 Y-15.4836 Z0.6053
G1 X12.1764 Y-15.4644 Z0.6005
G1 X12.1502 Y-15.4574 Z0.5957
G1 X12.0996 Y-15.4574 Z0.5868
G1 X12.0734 Y-15.4644 Z0.5820
G1 X12.0542 Y-15.4836 Z0.5772
G1 X12.0471 Y-15.5099 Z0.5725
G1 X12.0471 Y-15.7573 Z0.5288
G1 X12.0542 Y-15.7835 Z0.5240
G1 X12.0734 Y-15.8028 Z0.5192
G1 X12.0996 Y-15.8098 Z0.5145
G1 X12.1249 Y-15.8098 Z0.5100
G1 X12.1249 Y-15.7573 Z0.5100
G1 X12.1502 Y-15.7573 Z0.5100 F75.
G1 X12.1502 Y-15.5099 Z0.5100
G1 X12.0996 Y-15.5099 Z0.5100
G1 X12.0996 Y-15.7573 Z0.5100
G1 X12.1249 Y-15.7573 Z0.5100
G1 X12.1249 Y-15.8398 Z0.5100
G1 X12.2327 Y-15.8398 Z0.5100
G1 X12.2327 Y-15.4274 Z0.5100
G1 X12.0171 Y-15.4274 Z0.5100
G1 X12.0171 Y-15.8398 Z0.5100
G1 X12.1249 Y-15.8398 Z0.5100
G1 X12.1249 Y-15.9223 Z0.5100
G1 X12.2327 Y-15.9223 Z0.5100
G3X12.3152Y-15.8398Z0.5100I0.0000J0.0825
G1 X12.3152 Y-15.4274 Z0.5100
G3X12.2327Y-15.3449Z0.5100I-0.0825J0.0000
G1 X12.0171 Y-15.3449 Z0.5100
G3X11.9346Y-15.4274Z0.5100I0.0000J-0.0825
G1 X11.9346 Y-15.8398 Z0.5100
G3X12.0171Y-15.9223Z0.5100I0.0825J0.0000
G1 X12.1249 Y-15.9223 Z0.5100
G0 Z4.0000
G0 X12.1249 Y-15.9223 
M5
G53 Z
X2Y0
