( MOP:  Hum-PUP-Bridge-front-01 )
( FILE: G:\Shared drives\AlloyProjectFiles\Customer CAD files\Alloy-Standard-Builds-CAM\t-in\PUPS\Hum-PUP-Bridge-front-01.nc)
G90
(  BEGIN TOOL LIST )
(  TOOL 11 - Downcut PT750 ROUGH - DESC: 0.7500 DIA, 2 FLUTE,  CARBIDE MAT )
(  ENDOF TOOL LIST )
( Hum-PUP-Bridge-front-01)
T11
S14000
M3
G0 Z4.0000
G0 X9.9188 Y-15.5187 
G1 X9.9188 Y-15.5187 Z1.7600 F75.
G1 X9.9080 Y-15.5187 Z1.7581 F50.
G1 X9.9042 Y-15.5267 Z1.7565
G1 X9.9004 Y-15.5347 Z1.7550
G1 X9.8965 Y-15.5427 Z1.7534
G1 X9.8924 Y-15.5506 Z1.7518
G1 X9.8883 Y-15.5584 Z1.7503
G1 X9.8840 Y-15.5662 Z1.7487
G1 X9.8797 Y-15.5739 Z1.7471
G1 X9.8752 Y-15.5816 Z1.7456
G1 X9.8706 Y-15.5892 Z1.7440
G1 X9.8660 Y-15.5968 Z1.7424
G1 X9.8612 Y-15.6043 Z1.7409
G1 X9.8564 Y-15.6117 Z1.7393
G1 X9.8514 Y-15.6191 Z1.7378
G1 X9.8463 Y-15.6264 Z1.7362
G1 X9.8412 Y-15.6336 Z1.7346
G1 X9.8463 Y-15.6408 Z1.7331
G1 X9.8514 Y-15.6481 Z1.7315
G1 X9.8564 Y-15.6555 Z1.7299
G1 X9.8612 Y-15.6629 Z1.7284
G1 X9.8660 Y-15.6704 Z1.7268
G1 X9.8706 Y-15.6779 Z1.7252
G1 X9.8752 Y-15.6856 Z1.7237
G1 X9.8797 Y-15.6932 Z1.7221
G1 X9.8840 Y-15.7010 Z1.7205
G1 X9.8883 Y-15.7087 Z1.7190
G1 X9.8924 Y-15.7166 Z1.7174
G1 X9.8965 Y-15.7245 Z1.7158
G1 X9.9004 Y-15.7324 Z1.7143
G1 X9.9042 Y-15.7404 Z1.7127
G1 X9.9080 Y-15.7485 Z1.7112
G1 X11.5580 Y-15.7485 Z1.4202
G1 X11.5618 Y-15.7404 Z1.4186
G1 X11.5656 Y-15.7324 Z1.4171
G1 X11.5695 Y-15.7245 Z1.4155
G1 X11.5736 Y-15.7166 Z1.4139
G1 X11.5777 Y-15.7087 Z1.4124
G1 X11.5820 Y-15.7010 Z1.4108
G1 X11.5863 Y-15.6932 Z1.4093
G1 X11.5908 Y-15.6856 Z1.4077
G1 X11.5954 Y-15.6779 Z1.4061
G1 X11.6000 Y-15.6704 Z1.4046
G1 X11.6048 Y-15.6629 Z1.4030
G1 X11.6096 Y-15.6555 Z1.4014
G1 X11.6146 Y-15.6481 Z1.3999
G1 X11.6196 Y-15.6408 Z1.3983
G1 X11.6248 Y-15.6336 Z1.3967
G1 X11.6222 Y-15.6300 Z1.3960
G1 X11.6196 Y-15.6264 Z1.3952
G1 X11.6171 Y-15.6227 Z1.3944
G1 X11.6146 Y-15.6191 Z1.3936
G1 X11.6121 Y-15.6154 Z1.3928
G1 X11.6096 Y-15.6117 Z1.3920
G1 X11.6072 Y-15.6080 Z1.3913
G1 X11.6048 Y-15.6043 Z1.3905
G1 X11.6024 Y-15.6005 Z1.3897
G1 X11.6000 Y-15.5968 Z1.3889
G1 X11.5977 Y-15.5930 Z1.3881
G1 X11.5954 Y-15.5892 Z1.3873
G1 X11.5931 Y-15.5854 Z1.3866
G1 X11.5908 Y-15.5816 Z1.3858
G1 X11.5886 Y-15.5778 Z1.3850
G17
G2X11.5580Y-15.5187Z1.3850I0.5814J0.3379 F150.
G1 X9.9080 Y-15.5187 Z1.3850
G2X9.8412Y-15.6336Z1.3850I-0.6120J0.2788
G2X9.9080Y-15.7485Z1.3850I-0.5452J-0.3937
G1 X11.5580 Y-15.7485 Z1.3850
G2X11.6248Y-15.6336Z1.3850I0.6120J-0.2788
G2X11.5886Y-15.5778Z1.3850I0.5452J0.3937
G1 X11.8025 Y-15.4534 Z1.3850
G2X11.7462Y-15.2712Z1.3850I0.3675J0.2135
G1 X9.7198 Y-15.2712 Z1.3850
G2X9.4705Y-15.6274Z1.3850I-0.4238J0.0313
G1 X9.4705 Y-15.6398 Z1.3850
G2X9.7198Y-15.9960Z1.3850I-0.1745J-0.3875
G1 X11.7462 Y-15.9960 Z1.3850
G2X11.9952Y-15.6399Z1.3850I0.4238J-0.0313
G1 X11.9952 Y-15.6273 Z1.3850
G2X11.8025Y-15.4534Z1.3850I0.1748J0.3874
G0 Z1.6350
G0 X11.8025 Y-15.4534 
G0 Z1.6350
G0 X9.9188 Y-15.5187 
G1 X9.9188 Y-15.5187 Z1.3850 F75.
G1 X9.9080 Y-15.5187 Z1.3831 F50.
G1 X9.9042 Y-15.5267 Z1.3815
G1 X9.9004 Y-15.5347 Z1.3800
G1 X9.8965 Y-15.5427 Z1.3784
G1 X9.8924 Y-15.5506 Z1.3768
G1 X9.8883 Y-15.5584 Z1.3753
G1 X9.8840 Y-15.5662 Z1.3737
G1 X9.8797 Y-15.5739 Z1.3721
G1 X9.8752 Y-15.5816 Z1.3706
G1 X9.8706 Y-15.5892 Z1.3690
G1 X9.8660 Y-15.5968 Z1.3674
G1 X9.8612 Y-15.6043 Z1.3659
G1 X9.8564 Y-15.6117 Z1.3643
G1 X9.8514 Y-15.6191 Z1.3628
G1 X9.8463 Y-15.6264 Z1.3612
G1 X9.8412 Y-15.6336 Z1.3596
G1 X9.8463 Y-15.6408 Z1.3581
G1 X9.8514 Y-15.6481 Z1.3565
G1 X9.8564 Y-15.6555 Z1.3549
G1 X9.8612 Y-15.6629 Z1.3534
G1 X9.8660 Y-15.6704 Z1.3518
G1 X9.8706 Y-15.6779 Z1.3502
G1 X9.8752 Y-15.6856 Z1.3487
G1 X9.8797 Y-15.6932 Z1.3471
G1 X9.8840 Y-15.7010 Z1.3455
G1 X9.8883 Y-15.7087 Z1.3440
G1 X9.8924 Y-15.7166 Z1.3424
G1 X9.8965 Y-15.7245 Z1.3408
G1 X9.9004 Y-15.7324 Z1.3393
G1 X9.9042 Y-15.7404 Z1.3377
G1 X9.9080 Y-15.7485 Z1.3362
G1 X11.5580 Y-15.7485 Z1.0452
G1 X11.5618 Y-15.7404 Z1.0436
G1 X11.5656 Y-15.7324 Z1.0421
G1 X11.5695 Y-15.7245 Z1.0405
G1 X11.5736 Y-15.7166 Z1.0389
G1 X11.5777 Y-15.7087 Z1.0374
G1 X11.5820 Y-15.7010 Z1.0358
G1 X11.5863 Y-15.6932 Z1.0343
G1 X11.5908 Y-15.6856 Z1.0327
G1 X11.5954 Y-15.6779 Z1.0311
G1 X11.6000 Y-15.6704 Z1.0296
G1 X11.6048 Y-15.6629 Z1.0280
G1 X11.6096 Y-15.6555 Z1.0264
G1 X11.6146 Y-15.6481 Z1.0249
G1 X11.6196 Y-15.6408 Z1.0233
G1 X11.6248 Y-15.6336 Z1.0217
G1 X11.6222 Y-15.6300 Z1.0210
G1 X11.6196 Y-15.6264 Z1.0202
G1 X11.6171 Y-15.6227 Z1.0194
G1 X11.6146 Y-15.6191 Z1.0186
G1 X11.6121 Y-15.6154 Z1.0178
G1 X11.6096 Y-15.6117 Z1.0170
G1 X11.6072 Y-15.6080 Z1.0163
G1 X11.6048 Y-15.6043 Z1.0155
G1 X11.6024 Y-15.6005 Z1.0147
G1 X11.6000 Y-15.5968 Z1.0139
G1 X11.5977 Y-15.5930 Z1.0131
G1 X11.5954 Y-15.5892 Z1.0123
G1 X11.5931 Y-15.5854 Z1.0116
G1 X11.5908 Y-15.5816 Z1.0108
G1 X11.5886 Y-15.5778 Z1.0100
G2X11.5580Y-15.5187Z1.0100I0.5814J0.3379 F150.
G1 X9.9080 Y-15.5187 Z1.0100
G2X9.8412Y-15.6336Z1.0100I-0.6120J0.2788
G2X9.9080Y-15.7485Z1.0100I-0.5452J-0.3937
G1 X11.5580 Y-15.7485 Z1.0100
G2X11.6248Y-15.6336Z1.0100I0.6120J-0.2788
G2X11.5886Y-15.5778Z1.0100I0.5452J0.3937
G1 X11.8025 Y-15.4534 Z1.0100
G2X11.7462Y-15.2712Z1.0100I0.3675J0.2135
G1 X9.7198 Y-15.2712 Z1.0100
G2X9.4705Y-15.6274Z1.0100I-0.4238J0.0313
G1 X9.4705 Y-15.6398 Z1.0100
G2X9.7198Y-15.9960Z1.0100I-0.1745J-0.3875
G1 X11.7462 Y-15.9960 Z1.0100
G2X11.9952Y-15.6399Z1.0100I0.4238J-0.0313
G1 X11.9952 Y-15.6273 Z1.0100
G2X11.8025Y-15.4534Z1.0100I0.1748J0.3874
G0 Z4.0000
G0 X11.8025 Y-15.4534 
M5
G53 Z
X2Y0
