( MOP:  P90-PUP-Neck-front-01 )
( FILE: G:\Shared drives\AlloyProjectFiles\Customer CAD files\Alloy-Standard-Builds-CAM\t-in\PUPS\P90-PUP-Neck-front-01.nc)
G90
(  BEGIN TOOL LIST )
(  TOOL 11 - Downcut PT750 ROUGH - DESC: 0.7500 DIA, 2 FLUTE,  CARBIDE MAT )
(  ENDOF TOOL LIST )
( P90-PUP-Neck-front-01)
T11
S14000
M3
G0 Z4.0000
G0 X9.7019 Y-11.3079 
G1 X9.7019 Y-11.3079 Z1.7850 F75.
G1 X9.7019 Y-11.3079 Z1.7600 F50.
G1 X11.7730 Y-11.3079 Z1.3948
G1 X11.7730 Y-11.2523 Z1.3850
G1 X11.7730 Y-11.1967 Z1.3850 F150.
G1 X9.6930 Y-11.1967 Z1.3850
G1 X9.6930 Y-11.3079 Z1.3850
G1 X11.7730 Y-11.3079 Z1.3850
G1 X11.7730 Y-11.2523 Z1.3850
G1 X12.0205 Y-11.2523 Z1.3850
G1 X12.0205 Y-10.9492 Z1.3850
G1 X9.4455 Y-10.9492 Z1.3850
G1 X9.4455 Y-11.5554 Z1.3850
G1 X12.0205 Y-11.5554 Z1.3850
G1 X12.0205 Y-11.2523 Z1.3850
G0 Z1.6600
G0 X12.0205 Y-11.2523 
G0 Z1.6600
G0 X9.7019 Y-11.3079 
G1 X9.7019 Y-11.3079 Z1.4100 F75.
G1 X9.7019 Y-11.3079 Z1.3850 F50.
G1 X11.7730 Y-11.3079 Z1.0198
G1 X11.7730 Y-11.2523 Z1.0100
G1 X11.7730 Y-11.1967 Z1.0100 F150.
G1 X9.6930 Y-11.1967 Z1.0100
G1 X9.6930 Y-11.3079 Z1.0100
G1 X11.7730 Y-11.3079 Z1.0100
G1 X11.7730 Y-11.2523 Z1.0100
G1 X12.0205 Y-11.2523 Z1.0100
G1 X12.0205 Y-10.9492 Z1.0100
G1 X9.4455 Y-10.9492 Z1.0100
G1 X9.4455 Y-11.5554 Z1.0100
G1 X12.0205 Y-11.5554 Z1.0100
G1 X12.0205 Y-11.2523 Z1.0100
G0 Z4.0000
G0 X12.0205 Y-11.2523 
M5
G53 Z
X2Y0
