( MOP:  P90-PUP-Neck-front-02 )
( FILE: G:\Shared drives\AlloyProjectFiles\Customer CAD files\Alloy-Standard-Builds-CAM\t-in\PUPS\P90-PUP-Neck-front-02.nc)
G90
(  BEGIN TOOL LIST )
(  TOOL 6 - Downcut PT250 - DESC: 0.2500 DIA, 2 FLUTE,  CARBIDE MAT )
(  ENDOF TOOL LIST )
( P90-PUP-Neck-front-02)
( Max Depth 1.75)
T06
S12000
M3
G0 Z4.0000
G0 X10.9830 Y-10.9242 
G1 X10.9830 Y-10.9242 Z1.0100 F75.
G17
G3X10.7330Y-10.6742Z1.0100I-0.2500J0.0000 F25.
G1 X9.2330 Y-10.6742 Z1.0100 F75.
G3X9.1705Y-10.7367Z1.0100I0.0000J-0.0625
G1 X9.1705 Y-11.7679 Z1.0100
G3X9.2330Y-11.8304Z1.0100I0.0625J0.0000
G1 X12.2330 Y-11.8304 Z1.0100
G3X12.2955Y-11.7679Z1.0100I0.0000J0.0625
G1 X12.2955 Y-10.7367 Z1.0100
G3X12.2330Y-10.6742Z1.0100I-0.0625J0.0000
G1 X10.7330 Y-10.6742 Z1.0100
G1 X10.2330 Y-10.6742 Z1.0100
G3X9.9830Y-10.9242Z1.0100I0.0000J-0.2500
G0 Z4.0000
G0 X9.9830 Y-10.9242 
M5
G53 Z
X2Y0
