( MOP:  T-PUP-Neck-front-01 )
( FILE: G:\Shared drives\AlloyProjectFiles\Customer CAD files\Alloy-Standard-Builds-CAM\t-in\PUPS\T-PUP-Neck-front-01.nc)
G90
(  BEGIN TOOL LIST )
(  TOOL 4 - Downcut PT500 - DESC: 0.5000 DIA, 2 FLUTE,  CARBIDE MAT )
(  ENDOF TOOL LIST )
( T-PUP-Neck-front-01)
T04
S12000
M3
G0 Z4.0000
G0 X10.1069 Y-10.9290 
G1 X10.1069 Y-10.9290 Z1.8017 F75.
G1 X9.9907 Y-10.9290 Z1.7812 F45.
G1 X10.4076 Y-11.0518 Z1.7046
G1 X11.0582 Y-11.0518 Z1.5898
G1 X11.2658 Y-10.9904 Z1.5517
G1 X11.4734 Y-10.9289 Z1.5517 F100.
G1 X9.9907 Y-10.9290 Z1.5517
G1 X10.4076 Y-11.0518 Z1.5517
G1 X11.0582 Y-11.0518 Z1.5517
G1 X11.2658 Y-10.9904 Z1.5517
G1 X11.3126 Y-11.1485 Z1.5517
G1 X12.0207 Y-10.9390 Z1.5517
G1 X12.0282 Y-10.9369 Z1.5517
G17
G3X12.0928Y-10.8407Z1.5517I-0.0225J0.0849
G1 X12.0927 Y-10.8405 Z1.5517
G3X12.0055Y-10.7639Z1.5517I-0.0872J-0.0114
G1 X9.4567 Y-10.7641 Z1.5517
G3X9.3694Y-10.8408Z1.5517I0.0000J-0.0880
G1 X9.3694 Y-10.8409 Z1.5517
G3X9.4341Y-10.9371Z1.5517I0.0871J-0.0113
G1 X9.4415 Y-10.9392 Z1.5517
G1 X10.3838 Y-11.2168 Z1.5517
G1 X11.0821 Y-11.2168 Z1.5517
G1 X11.3126 Y-11.1485 Z1.5517
G0 Z1.8433
G0 X11.3126 Y-11.1485 
G0 Z1.8433
G0 X10.1069 Y-10.9290 
G1 X10.1069 Y-10.9290 Z1.5933 F75.
G1 X9.9907 Y-10.9290 Z1.5728 F45.
G1 X10.4076 Y-11.0518 Z1.4962
G1 X11.0582 Y-11.0518 Z1.3815
G1 X11.2658 Y-10.9904 Z1.3433
G1 X11.4734 Y-10.9289 Z1.3433 F100.
G1 X9.9907 Y-10.9290 Z1.3433
G1 X10.4076 Y-11.0518 Z1.3433
G1 X11.0582 Y-11.0518 Z1.3433
G1 X11.2658 Y-10.9904 Z1.3433
G1 X11.3126 Y-11.1485 Z1.3433
G1 X12.0207 Y-10.9390 Z1.3433
G1 X12.0282 Y-10.9369 Z1.3433
G3X12.0928Y-10.8407Z1.3433I-0.0225J0.0849
G1 X12.0927 Y-10.8405 Z1.3433
G3X12.0055Y-10.7639Z1.3433I-0.0872J-0.0114
G1 X9.4567 Y-10.7641 Z1.3433
G3X9.3694Y-10.8408Z1.3433I0.0000J-0.0880
G1 X9.3694 Y-10.8409 Z1.3433
G3X9.4341Y-10.9371Z1.3433I0.0871J-0.0113
G1 X9.4415 Y-10.9392 Z1.3433
G1 X10.3838 Y-11.2168 Z1.3433
G1 X11.0821 Y-11.2168 Z1.3433
G1 X11.3126 Y-11.1485 Z1.3433
G0 Z1.6350
G0 X11.3126 Y-11.1485 
G0 Z1.6350
G0 X10.1069 Y-10.9290 
G1 X10.1069 Y-10.9290 Z1.3850 F75.
G1 X9.9907 Y-10.9290 Z1.3645 F45.
G1 X10.4076 Y-11.0518 Z1.2879
G1 X11.0582 Y-11.0518 Z1.1732
G1 X11.2658 Y-10.9904 Z1.1350
G1 X11.4734 Y-10.9289 Z1.1350 F100.
G1 X9.9907 Y-10.9290 Z1.1350
G1 X10.4076 Y-11.0518 Z1.1350
G1 X11.0582 Y-11.0518 Z1.1350
G1 X11.2658 Y-10.9904 Z1.1350
G1 X11.3126 Y-11.1485 Z1.1350
G1 X12.0207 Y-10.9390 Z1.1350
G1 X12.0282 Y-10.9369 Z1.1350
G3X12.0928Y-10.8407Z1.1350I-0.0225J0.0849
G1 X12.0927 Y-10.8405 Z1.1350
G3X12.0055Y-10.7639Z1.1350I-0.0872J-0.0114
G1 X9.4567 Y-10.7641 Z1.1350
G3X9.3694Y-10.8408Z1.1350I0.0000J-0.0880
G1 X9.3694 Y-10.8409 Z1.1350
G3X9.4341Y-10.9371Z1.1350I0.0871J-0.0113
G1 X9.4415 Y-10.9392 Z1.1350
G1 X10.3838 Y-11.2168 Z1.1350
G1 X11.0821 Y-11.2168 Z1.1350
G1 X11.3126 Y-11.1485 Z1.1350
G0 Z4.0000
G0 X11.3126 Y-11.1485 
M5
G53 Z
X2Y0
