( MOP:  T-PUP-Bridge-front-02 )
( FILE: G:\Shared drives\AlloyProjectFiles\Customer CAD files\Alloy-Standard-Builds-CAM\t-in\PUPS\T-PUP-Bridge-front-02.nc)
G90
(  BEGIN TOOL LIST )
(  TOOL 5 - Downcut PT375 - DESC: 0.3750 DIA, 2 FLUTE,  CARBIDE MAT )
(  ENDOF TOOL LIST )
( T-PUP-Bridge-front-02)
( Max Depth 1.75)
T05
S12000
M3
G0 Z4.0000
G0 X10.3427 Y-15.9158 
G1 X10.3427 Y-15.9158 Z0.9100 F75.
G17
G3X10.5033Y-16.2308Z0.9100I0.2378J-0.0772 F35.
G1 X11.3275 Y-16.4984 Z0.9100 F60.
G3X11.4235Y-16.4775Z0.9100I0.0301J0.0927
G1 X11.9170 Y-16.0249 Z0.9100
G3X12.0021Y-15.8195Z0.9100I-0.1771J0.1938
G1 X12.0021 Y-15.8195 Z0.9100
G3X11.8992Y-15.6225Z0.9100I-0.2622J-0.0116
G1 X10.9647 Y-14.9091 Z0.9100
G3X10.9017Y-14.8891Z0.9100I-0.0591J-0.0775
G1 X9.7118 Y-14.9365 Z0.9100
G3X9.5133Y-15.0399Z0.9100I0.0104J-0.2623
G1 X9.5133 Y-15.0399 Z0.9100
G3X9.4666Y-15.2587Z0.9100I0.2089J-0.1589
G1 X9.6143 Y-15.8926 Z0.9100
G3X9.6791Y-15.9633Z0.9100I0.0949J0.0221
G1 X10.5033 Y-16.2308 Z0.9100
G1 X10.9789 Y-16.3852 Z0.9100
G3X11.2939Y-16.2246Z0.9100I0.0772J0.2378
G0 Z4.0000
G0 X11.2939 Y-16.2246 
M5
G53 Z
X2Y0
