( MOP:  T-PUP-Neck-front-02 )
( FILE: G:\Shared drives\AlloyProjectFiles\Customer CAD files\Alloy-Standard-Builds-CAM\t-in\PUPS\T-PUP-Neck-front-02.nc)
G90
(  BEGIN TOOL LIST )
(  TOOL 4 - Downcut PT500 - DESC: 0.5000 DIA, 2 FLUTE,  CARBIDE MAT )
(  ENDOF TOOL LIST )
( T-PUP-Neck-front-02)
T04
S12000
M3
G0 Z4.0000
G0 X10.9811 Y-10.9890 
G1 X10.9811 Y-10.9890 Z1.1350 F75.
G17
G3X10.7311Y-10.7390Z1.1350I-0.2500J0.0000 F40.
G1 X9.4567 Y-10.7391 Z1.1350 F60.
G3X9.3447Y-10.8375Z1.1350I0.0000J-0.1130
G1 X9.3446 Y-10.8376 Z1.1350
G3X9.4277Y-10.9613Z1.1350I0.1119J-0.0146
G1 X10.3802 Y-11.2418 Z1.1350
G1 X11.0857 Y-11.2418 Z1.1350
G1 X12.0346 Y-10.9611 Z1.1350
G3X12.1176Y-10.8374Z1.1350I-0.0289J0.1091
G1 X12.1175 Y-10.8373 Z1.1350
G3X12.0055Y-10.7389Z1.1350I-0.1120J-0.0146
G1 X10.7311 Y-10.7390 Z1.1350
G1 X10.2311 Y-10.7390 Z1.1350
G3X9.9811Y-10.9890Z1.1350I0.0000J-0.2500
G0 Z4.0000
G0 X9.9811 Y-10.9890 
M5
G53 Z
X2Y0
