( MOP:  T-PUP-Bridge-front-01 )
( FILE: G:\Shared drives\AlloyProjectFiles\Customer CAD files\Alloy-Standard-Builds-CAM\t-in\PUPS\T-PUP-Bridge-front-01.nc)
G90
(  BEGIN TOOL LIST )
(  TOOL 11 - Downcut PT750 ROUGH - DESC: 0.7500 DIA, 2 FLUTE,  CARBIDE MAT )
(  ENDOF TOOL LIST )
( T-PUP-Bridge-front-01)
T11
S14000
M3
G0 Z4.0000
G0 X10.0340 Y-15.3840 
G1 X10.0340 Y-15.3840 Z1.7767 F75.
G1 X9.9687 Y-15.3866 Z1.7651 F50.
G1 X10.0158 Y-15.5889 Z1.7285
G1 X11.2684 Y-15.9956 Z1.4963
G1 X11.3505 Y-15.9203 Z1.4767
G1 X11.4326 Y-15.8450 Z1.4767 F150.
G1 X10.7895 Y-15.3540 Z1.4767
G1 X9.9687 Y-15.3866 Z1.4767
G1 X10.0158 Y-15.5889 Z1.4767
G1 X11.2684 Y-15.9956 Z1.4767
G1 X11.3505 Y-15.9203 Z1.4767
G1 X11.5178 Y-16.1027 Z1.4767
G1 X11.7731 Y-15.8685 Z1.4767
G1 X11.7736 Y-15.8680 Z1.4767
G17
G3X11.7898Y-15.8289Z1.4767I-0.0337J0.0369
G1 X11.7898 Y-15.8289 Z1.4767
G3X11.7702Y-15.7914Z1.4767I-0.0499J-0.0022
G1 X10.8687 Y-15.1031 Z1.4767
G1 X9.7202 Y-15.1488 Z1.4767
G3X9.6824Y-15.1685Z1.4767I0.0020J-0.0500
G1 X9.6824 Y-15.1685 Z1.4767
G3X9.6735Y-15.2102Z1.4767I0.0398J-0.0303
G1 X9.6737 Y-15.2108 Z1.4767
G1 X9.8065 Y-15.7812 Z1.4767
G1 X10.5689 Y-16.0287 Z1.4767
G1 X11.3293 Y-16.2756 Z1.4767
G1 X11.5178 Y-16.1027 Z1.4767
G0 Z1.7433
G0 X11.5178 Y-16.1027 
G0 Z1.7433
G0 X10.0340 Y-15.3840 
G1 X10.0340 Y-15.3840 Z1.4933 F75.
G1 X9.9687 Y-15.3866 Z1.4818 F50.
G1 X10.0158 Y-15.5889 Z1.4452
G1 X11.2684 Y-15.9956 Z1.2130
G1 X11.3505 Y-15.9203 Z1.1933
G1 X11.4326 Y-15.8450 Z1.1933 F150.
G1 X10.7895 Y-15.3540 Z1.1933
G1 X9.9687 Y-15.3866 Z1.1933
G1 X10.0158 Y-15.5889 Z1.1933
G1 X11.2684 Y-15.9956 Z1.1933
G1 X11.3505 Y-15.9203 Z1.1933
G1 X11.5178 Y-16.1027 Z1.1933
G1 X11.7731 Y-15.8685 Z1.1933
G1 X11.7736 Y-15.8680 Z1.1933
G3X11.7898Y-15.8289Z1.1933I-0.0337J0.0369
G1 X11.7898 Y-15.8289 Z1.1933
G3X11.7702Y-15.7914Z1.1933I-0.0499J-0.0022
G1 X10.8687 Y-15.1031 Z1.1933
G1 X9.7202 Y-15.1488 Z1.1933
G3X9.6824Y-15.1685Z1.1933I0.0020J-0.0500
G1 X9.6824 Y-15.1685 Z1.1933
G3X9.6735Y-15.2102Z1.1933I0.0398J-0.0303
G1 X9.6737 Y-15.2108 Z1.1933
G1 X9.8065 Y-15.7812 Z1.1933
G1 X10.5689 Y-16.0287 Z1.1933
G1 X11.3293 Y-16.2756 Z1.1933
G1 X11.5178 Y-16.1027 Z1.1933
G0 Z1.4600
G0 X11.5178 Y-16.1027 
G0 Z1.4600
G0 X10.0340 Y-15.3840 
G1 X10.0340 Y-15.3840 Z1.2100 F75.
G1 X9.9687 Y-15.3866 Z1.1985 F50.
G1 X10.0158 Y-15.5889 Z1.1619
G1 X11.2684 Y-15.9956 Z0.9296
G1 X11.3505 Y-15.9203 Z0.9100
G1 X11.4326 Y-15.8450 Z0.9100 F150.
G1 X10.7895 Y-15.3540 Z0.9100
G1 X9.9687 Y-15.3866 Z0.9100
G1 X10.0158 Y-15.5889 Z0.9100
G1 X11.2684 Y-15.9956 Z0.9100
G1 X11.3505 Y-15.9203 Z0.9100
G1 X11.5178 Y-16.1027 Z0.9100
G1 X11.7731 Y-15.8685 Z0.9100
G1 X11.7736 Y-15.8680 Z0.9100
G3X11.7898Y-15.8289Z0.9100I-0.0337J0.0369
G1 X11.7898 Y-15.8289 Z0.9100
G3X11.7702Y-15.7914Z0.9100I-0.0499J-0.0022
G1 X10.8687 Y-15.1031 Z0.9100
G1 X9.7202 Y-15.1488 Z0.9100
G3X9.6824Y-15.1685Z0.9100I0.0020J-0.0500
G1 X9.6824 Y-15.1685 Z0.9100
G3X9.6735Y-15.2102Z0.9100I0.0398J-0.0303
G1 X9.6737 Y-15.2108 Z0.9100
G1 X9.8065 Y-15.7812 Z0.9100
G1 X10.5689 Y-16.0287 Z0.9100
G1 X11.3293 Y-16.2756 Z0.9100
G1 X11.5178 Y-16.1027 Z0.9100
G0 Z4.0000
G0 X11.5178 Y-16.1027 
M5
G53 Z
X2Y0
