( MOP:  01-backprep-s34-ftPT30-01 )
( FILE: G:\Shared drives\AlloyProjectFiles\Customer CAD files\Alloy-Standard-Builds-CAM\Fingerboards-in\01-backprep-s34-ftPT30-01.nc)
G90
(  BEGIN TOOL LIST )
(  TOOL 1 - Surface 2PT500 - DESC: 2.5000 DIA, 2 FLUTE,  CARBIDE MAT )
(  ENDOF TOOL LIST )
( 01-backprep-s34-ftPT30-01)
T01
S12000
M3
G0 Z6.0000
G0 X33.2957 Y-19.2500 
G1 X33.2957 Y-19.2500 Z0.3000 F75.
G1 X32.2957 Y-19.2500 Z0.3000 F50.
G1 X4.0000 Y-19.2500 Z0.3000 F150.
G0 Z0.5500
G0 X4.0000 Y-19.2500 
G0 Z0.5500
G0 X33.7957 Y-18.5000 
G1 X33.7957 Y-18.5000 Z0.3000 F75.
G1 X32.7957 Y-18.5000 Z0.3000 F50.
G1 X3.5000 Y-18.5000 Z0.3000 F150.
G0 Z0.5500
G0 X3.5000 Y-18.5000 
G0 Z0.5500
G0 X33.7957 Y-17.7500 
G1 X33.7957 Y-17.7500 Z0.3000 F75.
G1 X32.7957 Y-17.7500 Z0.3000 F50.
G1 X3.5000 Y-17.7500 Z0.3000 F150.
G0 Z0.5500
G0 X3.5000 Y-17.7500 
G0 Z0.5500
G0 X33.7957 Y-17.0000 
G1 X33.7957 Y-17.0000 Z0.3000 F75.
G1 X32.7957 Y-17.0000 Z0.3000 F50.
G1 X3.5000 Y-17.0000 Z0.3000 F150.
G0 Z0.5500
G0 X3.5000 Y-17.0000 
G0 Z0.5500
G0 X33.7957 Y-16.2500 
G1 X33.7957 Y-16.2500 Z0.3000 F75.
G1 X32.7957 Y-16.2500 Z0.3000 F50.
G1 X3.5000 Y-16.2500 Z0.3000 F150.
G0 Z0.5500
G0 X3.5000 Y-16.2500 
G0 Z0.5500
G0 X33.7957 Y-15.5000 
G1 X33.7957 Y-15.5000 Z0.3000 F75.
G1 X32.7957 Y-15.5000 Z0.3000 F50.
G1 X3.5000 Y-15.5000 Z0.3000 F150.
G0 Z0.5500
G0 X3.5000 Y-15.5000 
G0 Z0.5500
G0 X33.2957 Y-14.7500 
G1 X33.2957 Y-14.7500 Z0.3000 F75.
G1 X32.2957 Y-14.7500 Z0.3000 F50.
G1 X4.0000 Y-14.7500 Z0.3000 F150.
G0 Z6.0000
G0 X4.0000 Y-14.7500 
M5
G53 Z
X2Y0
