( MOP:  01-backprep-Pins-s22-ftPT21-AnyCustomer-NOMIRROR )
( FILE: G:\Shared drives\AlloyProjectFiles\Customer CAD files\Alloy-Standard-Builds-CAM\Fingerboards-in\01-backprep-Pins-s22-ftPT21-AnyCustomer-NOMIRROR.nc)
G90
(  BEGIN TOOL LIST )
(  TOOL 7 - Downcut PT125 - DESC: 0.1250 DIA, 2 FLUTE,  CARBIDE MAT )
(  ENDOF TOOL LIST )
( 01-backprep-Pins-s22-ftPT21-AnyCustomer-NOMIRROR)
T07
S11000
M3
G0 Z4.0000
G0 X45.7089 Y-23.0750 
G0 Z0.3100
G81 X45.7089 Y-23.0750 Z0.0630 R0.3100 F40.0
G80
G0 Z0.4600
G0 X45.7089 Y-22.5238 
G0 Z0.3100
G81 X45.7089 Y-22.5238 Z0.0630 R0.3100 F40.0
G80
G0 Z0.4600
G0 X37.0475 Y-22.1301 
G0 Z0.3100
G81 X37.0475 Y-22.1301 Z0.0630 R0.3100 F40.0
G80
G0 Z0.4600
G0 X37.0475 Y-23.4687 
G0 Z0.3100
G81 X37.0475 Y-23.4687 Z0.0630 R0.3100 F40.0
G80
G0 Z0.4600
G0 X30.6302 Y-23.5475 
G0 Z0.3100
G81 X30.6302 Y-23.5475 Z0.0630 R0.3100 F40.0
G80
G0 Z0.4600
G0 X30.6302 Y-22.0514 
G0 Z0.3100
G81 X30.6302 Y-22.0514 Z0.0630 R0.3100 F40.0
G80
G0 Z4.0000
G0 X30.6302 Y-22.0514 
M5
G53 Z
X2Y0
