( MOP:  01-backprep-Pins-s24PT75-ftPT3125-AnyCustomer-NOMIRROR )
( FILE: G:\Shared drives\AlloyProjectFiles\Customer CAD files\Alloy-Standard-Builds-CAM\Fingerboards-in\01-backprep-Pins-s24PT75-ftPT3125-AnyCustomer-NOMIRROR.nc)
G90
(  BEGIN TOOL LIST )
(  TOOL 7 - Downcut PT125 - DESC: 0.1250 DIA, 2 FLUTE,  CARBIDE MAT )
(  ENDOF TOOL LIST )
( 01-backprep-Pins-s24PT75-ftPT3125-AnyCustomer-NOMIRROR)
T07
S11000
M3
G0 Z2.0000
G0 X44.2916 Y-23.0357 
G0 Z0.4125
G81 X44.2916 Y-23.0357 Z0.1655 R0.4125 F40.0
G80
G0 Z0.5625
G0 X44.2916 Y-22.5632 
G0 Z0.4125
G81 X44.2916 Y-22.5632 Z0.1655 R0.4125 F40.0
G80
G0 Z0.5625
G0 X35.6302 Y-22.1301 
G0 Z0.4125
G81 X35.6302 Y-22.1301 Z0.1655 R0.4125 F40.0
G80
G0 Z0.5625
G0 X35.6302 Y-23.4687 
G0 Z0.4125
G81 X35.6302 Y-23.4687 Z0.1655 R0.4125 F40.0
G80
G0 Z0.5625
G0 X28.5436 Y-23.5475 
G0 Z0.4125
G81 X28.5436 Y-23.5475 Z0.1655 R0.4125 F40.0
G80
G0 Z0.5625
G0 X28.5436 Y-22.0514 
G0 Z0.4125
G81 X28.5436 Y-22.0514 Z0.1655 R0.4125 F40.0
G80
G0 Z2.0000
G0 X28.5436 Y-22.0514 
M5
G53 Z
X2Y0
