( MOP:  02-inlay-InglewoodDiamondsDulc-idPT06-s21-00 )
( FILE: G:\Shared drives\AlloyProjectFiles\Customer CAD files\Alloy-Standard-Builds-CAM\Fingerboards-in\02-inlay-InglewoodDiamondsDulc-idPT06-s21-00.nc)
G90
(  BEGIN TOOL LIST )
(  TOOL 1 - Surface 2PT500 - DESC: 2.5000 DIA, 2 FLUTE,  CARBIDE MAT )
(  ENDOF TOOL LIST )
( 02-inlay-InglewoodDiamondsDulc-idPT06-s21-00)
T01
S12000
M3
G0 Z6.0000
G0 X49.0000 Y-25.0482 
G1 X49.0000 Y-25.0482 Z0.2700 F75.
G1 X48.0000 Y-25.0482 Z0.2700 F50.
G1 X26.0000 Y-25.0482 Z0.2700 F150.
G0 Z0.5200
G0 X26.0000 Y-25.0482 
G0 Z0.5200
G0 X49.5000 Y-24.2982 
G1 X49.5000 Y-24.2982 Z0.2700 F75.
G1 X48.5000 Y-24.2982 Z0.2700 F50.
G1 X25.5000 Y-24.2982 Z0.2700 F150.
G0 Z0.5200
G0 X25.5000 Y-24.2982 
G0 Z0.5200
G0 X49.5000 Y-23.5482 
G1 X49.5000 Y-23.5482 Z0.2700 F75.
G1 X48.5000 Y-23.5482 Z0.2700 F50.
G1 X25.5000 Y-23.5482 Z0.2700 F150.
G0 Z0.5200
G0 X25.5000 Y-23.5482 
G0 Z0.5200
G0 X49.5000 Y-22.7982 
G1 X49.5000 Y-22.7982 Z0.2700 F75.
G1 X48.5000 Y-22.7982 Z0.2700 F50.
G1 X25.5000 Y-22.7982 Z0.2700 F150.
G0 Z0.5200
G0 X25.5000 Y-22.7982 
G0 Z0.5200
G0 X49.5000 Y-22.0482 
G1 X49.5000 Y-22.0482 Z0.2700 F75.
G1 X48.5000 Y-22.0482 Z0.2700 F50.
G1 X25.5000 Y-22.0482 Z0.2700 F150.
G0 Z0.5200
G0 X25.5000 Y-22.0482 
G0 Z0.5200
G0 X49.5000 Y-21.2982 
G1 X49.5000 Y-21.2982 Z0.2700 F75.
G1 X48.5000 Y-21.2982 Z0.2700 F50.
G1 X25.5000 Y-21.2982 Z0.2700 F150.
G0 Z0.5200
G0 X25.5000 Y-21.2982 
G0 Z0.5200
G0 X49.0000 Y-20.5482 
G1 X49.0000 Y-20.5482 Z0.2700 F75.
G1 X48.0000 Y-20.5482 Z0.2700 F50.
G1 X26.0000 Y-20.5482 Z0.2700 F150.
G0 Z6.0000
G0 X26.0000 Y-20.5482 
M5
G53 Z
X2Y0
