( MOP:  02-inlay-Foley-idPT09-s24PT75 )
( FILE: G:\Shared drives\AlloyProjectFiles\Customer CAD files\Alloy-Standard-Builds-CAM\Fingerboards-in\02-inlay-Foley-idPT09-s24PT75.nc)
G90
(  BEGIN TOOL LIST )
(  TOOL 7 - Downcut PT125 - DESC: 0.1250 DIA, 2 FLUTE,  CARBIDE MAT )
(  ENDOF TOOL LIST )
( 02-inlay-Foley-idPT09-s24PT75)
T07
S11000
M3
G0 Z1.0000
G0 X29.0308 Y-22.0755 
G1 X29.0308 Y-22.0755 Z0.2550 F75.
G1 X29.0287 Y-22.0808 Z0.2540 F25.
G1 X29.0271 Y-22.0878 Z0.2527
G1 X29.0263 Y-22.0948 Z0.2515
G1 X29.0264 Y-22.1020 Z0.2502
G1 X29.0274 Y-22.1090 Z0.2490
G1 X29.0294 Y-22.1159 Z0.2477
G1 X29.0322 Y-22.1224 Z0.2465
G1 X29.0358 Y-22.1286 Z0.2452
G1 X29.0401 Y-22.1342 Z0.2440
G1 X29.0452 Y-22.1392 Z0.2427
G1 X29.0508 Y-22.1436 Z0.2414
G1 X29.0570 Y-22.1472 Z0.2402
G1 X29.0636 Y-22.1499 Z0.2389
G1 X29.0704 Y-22.1518 Z0.2377
G1 X29.0775 Y-22.1528 Z0.2364
G1 X29.0846 Y-22.1529 Z0.2352
G1 X29.0917 Y-22.1521 Z0.2339
G1 X29.0986 Y-22.1504 Z0.2326
G1 X29.1053 Y-22.1478 Z0.2314
G1 X29.1115 Y-22.1444 Z0.2301
G1 X29.1173 Y-22.1402 Z0.2289
G1 X29.1225 Y-22.1353 Z0.2276
G1 X29.1270 Y-22.1298 Z0.2264
G1 X29.1308 Y-22.1238 Z0.2251
G1 X29.1337 Y-22.1173 Z0.2238
G1 X29.1359 Y-22.1105 Z0.2226
G1 X29.1371 Y-22.1035 Z0.2213
G1 X29.1374 Y-22.0964 Z0.2201
G1 X29.1368 Y-22.0893 Z0.2188
G1 X29.1354 Y-22.0823 Z0.2176
G1 X29.1330 Y-22.0756 Z0.2163
G1 X29.1298 Y-22.0692 Z0.2151
G1 X29.1258 Y-22.0633 Z0.2138
G1 X29.1211 Y-22.0580 Z0.2125
G1 X29.1157 Y-22.0533 Z0.2113
G1 X29.1098 Y-22.0493 Z0.2100
G1 X29.1034 Y-22.0461 Z0.2088
G1 X29.0967 Y-22.0438 Z0.2075
G1 X29.0897 Y-22.0423 Z0.2063
G1 X29.0826 Y-22.0418 Z0.2050
G17
G3X29.0811Y-22.1530Z0.2050I-0.0008J-0.0556 F60.
G3X29.0826Y-22.0418Z0.2050I0.0007J0.0556
G0 Z0.2100
G0 X29.0826 Y-22.0418 
G0 Z0.2100
G0 X29.1335 Y-22.0770 
G1 X29.1354 Y-22.0823 Z0.2090 F25.
G1 X29.1368 Y-22.0893 Z0.2077
G1 X29.1374 Y-22.0964 Z0.2065
G1 X29.1371 Y-22.1035 Z0.2052
G1 X29.1359 Y-22.1105 Z0.2040
G1 X29.1337 Y-22.1173 Z0.2027
G1 X29.1308 Y-22.1238 Z0.2015
G1 X29.1270 Y-22.1298 Z0.2002
G1 X29.1225 Y-22.1353 Z0.1990
G1 X29.1173 Y-22.1402 Z0.1977
G1 X29.1115 Y-22.1444 Z0.1964
G1 X29.1053 Y-22.1478 Z0.1952
G1 X29.0986 Y-22.1504 Z0.1939
G1 X29.0917 Y-22.1521 Z0.1927
G1 X29.0846 Y-22.1529 Z0.1914
G1 X29.0775 Y-22.1528 Z0.1902
G1 X29.0704 Y-22.1518 Z0.1889
G1 X29.0636 Y-22.1499 Z0.1876
G1 X29.0570 Y-22.1472 Z0.1864
G1 X29.0508 Y-22.1436 Z0.1851
G1 X29.0452 Y-22.1392 Z0.1839
G1 X29.0401 Y-22.1342 Z0.1826
G1 X29.0358 Y-22.1286 Z0.1814
G1 X29.0322 Y-22.1224 Z0.1801
G1 X29.0294 Y-22.1159 Z0.1788
G1 X29.0274 Y-22.1090 Z0.1776
G1 X29.0264 Y-22.1020 Z0.1763
G1 X29.0263 Y-22.0948 Z0.1751
G1 X29.0271 Y-22.0878 Z0.1738
G1 X29.0287 Y-22.0808 Z0.1726
G1 X29.0313 Y-22.0742 Z0.1713
G1 X29.0347 Y-22.0679 Z0.1701
G1 X29.0388 Y-22.0621 Z0.1688
G1 X29.0437 Y-22.0569 Z0.1675
G1 X29.0492 Y-22.0524 Z0.1663
G1 X29.0552 Y-22.0486 Z0.1650
G1 X29.0617 Y-22.0456 Z0.1638
G1 X29.0685 Y-22.0434 Z0.1625
G1 X29.0755 Y-22.0421 Z0.1613
G1 X29.0826 Y-22.0418 Z0.1600
G2X29.0811Y-22.1530Z0.1600I-0.0008J-0.0556 F60.
G2X29.0826Y-22.0418Z0.1600I0.0007J0.0556
G0 Z0.5050
G0 X29.0826 Y-22.0418 
G0 Z0.5050
G0 X29.9586 Y-22.0885 
G1 X29.9586 Y-22.0885 Z0.2550 F75.
G1 X29.9566 Y-22.0938 Z0.2540 F25.
G1 X29.9549 Y-22.1007 Z0.2527
G1 X29.9541 Y-22.1078 Z0.2515
G1 X29.9542 Y-22.1149 Z0.2502
G1 X29.9553 Y-22.1219 Z0.2490
G1 X29.9572 Y-22.1288 Z0.2477
G1 X29.9600 Y-22.1353 Z0.2465
G1 X29.9636 Y-22.1415 Z0.2452
G1 X29.9680 Y-22.1471 Z0.2440
G1 X29.9730 Y-22.1522 Z0.2427
G1 X29.9787 Y-22.1565 Z0.2414
G1 X29.9848 Y-22.1601 Z0.2402
G1 X29.9914 Y-22.1628 Z0.2389
G1 X29.9983 Y-22.1647 Z0.2377
G1 X30.0053 Y-22.1658 Z0.2364
G1 X30.0124 Y-22.1659 Z0.2352
G1 X30.0195 Y-22.1650 Z0.2339
G1 X30.0264 Y-22.1633 Z0.2326
G1 X30.0331 Y-22.1607 Z0.2314
G1 X30.0393 Y-22.1573 Z0.2301
G1 X30.0451 Y-22.1532 Z0.2289
G1 X30.0503 Y-22.1483 Z0.2276
G1 X30.0548 Y-22.1428 Z0.2264
G1 X30.0586 Y-22.1367 Z0.2251
G1 X30.0616 Y-22.1302 Z0.2238
G1 X30.0637 Y-22.1234 Z0.2226
G1 X30.0649 Y-22.1164 Z0.2213
G1 X30.0652 Y-22.1093 Z0.2201
G1 X30.0647 Y-22.1022 Z0.2188
G1 X30.0632 Y-22.0952 Z0.2176
G1 X30.0608 Y-22.0885 Z0.2163
G1 X30.0576 Y-22.0822 Z0.2151
G1 X30.0536 Y-22.0763 Z0.2138
G1 X30.0489 Y-22.0709 Z0.2125
G1 X30.0435 Y-22.0662 Z0.2113
G1 X30.0376 Y-22.0622 Z0.2100
G1 X30.0312 Y-22.0591 Z0.2088
G1 X30.0245 Y-22.0567 Z0.2075
G1 X30.0175 Y-22.0553 Z0.2063
G1 X30.0104 Y-22.0547 Z0.2050
G3X30.0089Y-22.1659Z0.2050I-0.0008J-0.0556 F60.
G3X30.0104Y-22.0547Z0.2050I0.0007J0.0556
G0 Z0.2100
G0 X30.0104 Y-22.0547 
G0 Z0.2100
G0 X30.0613 Y-22.0899 
G1 X30.0632 Y-22.0952 Z0.2090 F25.
G1 X30.0647 Y-22.1022 Z0.2077
G1 X30.0652 Y-22.1093 Z0.2065
G1 X30.0649 Y-22.1164 Z0.2052
G1 X30.0637 Y-22.1234 Z0.2040
G1 X30.0616 Y-22.1302 Z0.2027
G1 X30.0586 Y-22.1367 Z0.2015
G1 X30.0548 Y-22.1428 Z0.2002
G1 X30.0503 Y-22.1483 Z0.1990
G1 X30.0451 Y-22.1532 Z0.1977
G1 X30.0393 Y-22.1573 Z0.1964
G1 X30.0331 Y-22.1607 Z0.1952
G1 X30.0264 Y-22.1633 Z0.1939
G1 X30.0195 Y-22.1650 Z0.1927
G1 X30.0124 Y-22.1659 Z0.1914
G1 X30.0053 Y-22.1658 Z0.1902
G1 X29.9983 Y-22.1647 Z0.1889
G1 X29.9914 Y-22.1628 Z0.1876
G1 X29.9848 Y-22.1601 Z0.1864
G1 X29.9787 Y-22.1565 Z0.1851
G1 X29.9730 Y-22.1522 Z0.1839
G1 X29.9680 Y-22.1471 Z0.1826
G1 X29.9636 Y-22.1415 Z0.1814
G1 X29.9600 Y-22.1353 Z0.1801
G1 X29.9572 Y-22.1288 Z0.1788
G1 X29.9553 Y-22.1219 Z0.1776
G1 X29.9542 Y-22.1149 Z0.1763
G1 X29.9541 Y-22.1078 Z0.1751
G1 X29.9549 Y-22.1007 Z0.1738
G1 X29.9566 Y-22.0938 Z0.1726
G1 X29.9591 Y-22.0871 Z0.1713
G1 X29.9625 Y-22.0808 Z0.1701
G1 X29.9667 Y-22.0750 Z0.1688
G1 X29.9715 Y-22.0698 Z0.1675
G1 X29.9770 Y-22.0653 Z0.1663
G1 X29.9830 Y-22.0615 Z0.1650
G1 X29.9895 Y-22.0585 Z0.1638
G1 X29.9963 Y-22.0563 Z0.1625
G1 X30.0033 Y-22.0551 Z0.1613
G1 X30.0104 Y-22.0547 Z0.1600
G2X30.0089Y-22.1659Z0.1600I-0.0008J-0.0556 F60.
G2X30.0104Y-22.0547Z0.1600I0.0007J0.0556
G0 Z0.5050
G0 X30.0104 Y-22.0547 
G0 Z0.5050
G0 X31.0000 Y-22.1030 
G1 X31.0000 Y-22.1030 Z0.2550 F75.
G1 X30.9980 Y-22.1083 Z0.2540 F25.
G1 X30.9963 Y-22.1152 Z0.2527
G1 X30.9955 Y-22.1223 Z0.2515
G1 X30.9957 Y-22.1294 Z0.2502
G1 X30.9967 Y-22.1364 Z0.2490
G1 X30.9986 Y-22.1433 Z0.2477
G1 X31.0014 Y-22.1499 Z0.2465
G1 X31.0050 Y-22.1560 Z0.2452
G1 X31.0094 Y-22.1616 Z0.2440
G1 X31.0145 Y-22.1667 Z0.2427
G1 X31.0201 Y-22.1710 Z0.2414
G1 X31.0263 Y-22.1746 Z0.2402
G1 X31.0328 Y-22.1774 Z0.2389
G1 X31.0397 Y-22.1793 Z0.2377
G1 X31.0468 Y-22.1803 Z0.2364
G1 X31.0539 Y-22.1804 Z0.2352
G1 X31.0610 Y-22.1796 Z0.2339
G1 X31.0679 Y-22.1778 Z0.2326
G1 X31.0745 Y-22.1753 Z0.2314
G1 X31.0808 Y-22.1718 Z0.2301
G1 X31.0865 Y-22.1677 Z0.2289
G1 X31.0917 Y-22.1628 Z0.2276
G1 X31.0963 Y-22.1573 Z0.2264
G1 X31.1000 Y-22.1512 Z0.2251
G1 X31.1030 Y-22.1448 Z0.2238
G1 X31.1051 Y-22.1380 Z0.2226
G1 X31.1064 Y-22.1309 Z0.2213
G1 X31.1067 Y-22.1238 Z0.2201
G1 X31.1061 Y-22.1167 Z0.2188
G1 X31.1046 Y-22.1097 Z0.2176
G1 X31.1022 Y-22.1030 Z0.2163
G1 X31.0990 Y-22.0967 Z0.2151
G1 X31.0950 Y-22.0908 Z0.2138
G1 X31.0903 Y-22.0854 Z0.2125
G1 X31.0850 Y-22.0807 Z0.2113
G1 X31.0791 Y-22.0768 Z0.2100
G1 X31.0727 Y-22.0736 Z0.2088
G1 X31.0659 Y-22.0712 Z0.2075
G1 X31.0590 Y-22.0698 Z0.2063
G1 X31.0519 Y-22.0692 Z0.2050
G3X31.0503Y-22.1804Z0.2050I-0.0008J-0.0556 F60.
G3X31.0519Y-22.0692Z0.2050I0.0008J0.0556
G0 Z0.2100
G0 X31.0519 Y-22.0692 
G0 Z0.2100
G0 X31.1027 Y-22.1044 
G1 X31.1046 Y-22.1097 Z0.2090 F25.
G1 X31.1061 Y-22.1167 Z0.2077
G1 X31.1067 Y-22.1238 Z0.2065
G1 X31.1064 Y-22.1309 Z0.2052
G1 X31.1051 Y-22.1380 Z0.2040
G1 X31.1030 Y-22.1448 Z0.2027
G1 X31.1000 Y-22.1512 Z0.2015
G1 X31.0963 Y-22.1573 Z0.2002
G1 X31.0917 Y-22.1628 Z0.1990
G1 X31.0865 Y-22.1677 Z0.1977
G1 X31.0808 Y-22.1718 Z0.1964
G1 X31.0745 Y-22.1753 Z0.1952
G1 X31.0679 Y-22.1778 Z0.1939
G1 X31.0610 Y-22.1796 Z0.1927
G1 X31.0539 Y-22.1804 Z0.1914
G1 X31.0468 Y-22.1803 Z0.1902
G1 X31.0397 Y-22.1793 Z0.1889
G1 X31.0328 Y-22.1774 Z0.1876
G1 X31.0263 Y-22.1746 Z0.1864
G1 X31.0201 Y-22.1710 Z0.1851
G1 X31.0145 Y-22.1667 Z0.1839
G1 X31.0094 Y-22.1616 Z0.1826
G1 X31.0050 Y-22.1560 Z0.1814
G1 X31.0014 Y-22.1499 Z0.1801
G1 X30.9986 Y-22.1433 Z0.1788
G1 X30.9967 Y-22.1364 Z0.1776
G1 X30.9957 Y-22.1294 Z0.1763
G1 X30.9955 Y-22.1223 Z0.1751
G1 X30.9963 Y-22.1152 Z0.1738
G1 X30.9980 Y-22.1083 Z0.1726
G1 X31.0006 Y-22.1016 Z0.1713
G1 X31.0039 Y-22.0953 Z0.1701
G1 X31.0081 Y-22.0895 Z0.1688
G1 X31.0130 Y-22.0843 Z0.1675
G1 X31.0185 Y-22.0798 Z0.1663
G1 X31.0245 Y-22.0760 Z0.1650
G1 X31.0309 Y-22.0730 Z0.1638
G1 X31.0377 Y-22.0708 Z0.1625
G1 X31.0447 Y-22.0696 Z0.1613
G1 X31.0519 Y-22.0692 Z0.1600
G2X31.0503Y-22.1804Z0.1600I-0.0008J-0.0556 F60.
G2X31.0519Y-22.0692Z0.1600I0.0008J0.0556
G0 Z0.5050
G0 X31.0519 Y-22.0692 
G0 Z0.5050
G0 X32.1690 Y-22.1193 
G1 X32.1690 Y-22.1193 Z0.2550 F75.
G1 X32.1669 Y-22.1245 Z0.2540 F25.
G1 X32.1653 Y-22.1315 Z0.2527
G1 X32.1645 Y-22.1386 Z0.2515
G1 X32.1646 Y-22.1457 Z0.2502
G1 X32.1656 Y-22.1527 Z0.2490
G1 X32.1676 Y-22.1596 Z0.2477
G1 X32.1704 Y-22.1661 Z0.2465
G1 X32.1740 Y-22.1723 Z0.2452
G1 X32.1783 Y-22.1779 Z0.2440
G1 X32.1834 Y-22.1829 Z0.2427
G1 X32.1890 Y-22.1873 Z0.2414
G1 X32.1952 Y-22.1909 Z0.2402
G1 X32.2018 Y-22.1936 Z0.2389
G1 X32.2086 Y-22.1955 Z0.2377
G1 X32.2157 Y-22.1965 Z0.2364
G1 X32.2228 Y-22.1966 Z0.2352
G1 X32.2299 Y-22.1958 Z0.2339
G1 X32.2368 Y-22.1941 Z0.2326
G1 X32.2435 Y-22.1915 Z0.2314
G1 X32.2497 Y-22.1881 Z0.2301
G1 X32.2555 Y-22.1839 Z0.2289
G1 X32.2607 Y-22.1791 Z0.2276
G1 X32.2652 Y-22.1736 Z0.2264
G1 X32.2690 Y-22.1675 Z0.2251
G1 X32.2719 Y-22.1610 Z0.2238
G1 X32.2741 Y-22.1542 Z0.2226
G1 X32.2753 Y-22.1472 Z0.2213
G1 X32.2756 Y-22.1401 Z0.2201
G1 X32.2750 Y-22.1330 Z0.2188
G1 X32.2736 Y-22.1260 Z0.2176
G1 X32.2712 Y-22.1193 Z0.2163
G1 X32.2680 Y-22.1129 Z0.2151
G1 X32.2640 Y-22.1070 Z0.2138
G1 X32.2593 Y-22.1017 Z0.2125
G1 X32.2539 Y-22.0970 Z0.2113
G1 X32.2480 Y-22.0930 Z0.2100
G1 X32.2416 Y-22.0899 Z0.2088
G1 X32.2349 Y-22.0875 Z0.2075
G1 X32.2279 Y-22.0861 Z0.2063
G1 X32.2208 Y-22.0855 Z0.2050
G3X32.2193Y-22.1967Z0.2050I-0.0008J-0.0556 F60.
G3X32.2208Y-22.0855Z0.2050I0.0007J0.0556
G0 Z0.2100
G0 X32.2208 Y-22.0855 
G0 Z0.2100
G0 X32.2717 Y-22.1207 
G1 X32.2736 Y-22.1260 Z0.2090 F25.
G1 X32.2750 Y-22.1330 Z0.2077
G1 X32.2756 Y-22.1401 Z0.2065
G1 X32.2753 Y-22.1472 Z0.2052
G1 X32.2741 Y-22.1542 Z0.2040
G1 X32.2719 Y-22.1610 Z0.2027
G1 X32.2690 Y-22.1675 Z0.2015
G1 X32.2652 Y-22.1736 Z0.2002
G1 X32.2607 Y-22.1791 Z0.1990
G1 X32.2555 Y-22.1839 Z0.1977
G1 X32.2497 Y-22.1881 Z0.1964
G1 X32.2435 Y-22.1915 Z0.1952
G1 X32.2368 Y-22.1941 Z0.1939
G1 X32.2299 Y-22.1958 Z0.1927
G1 X32.2228 Y-22.1966 Z0.1914
G1 X32.2157 Y-22.1965 Z0.1902
G1 X32.2086 Y-22.1955 Z0.1889
G1 X32.2018 Y-22.1936 Z0.1876
G1 X32.1952 Y-22.1909 Z0.1864
G1 X32.1890 Y-22.1873 Z0.1851
G1 X32.1834 Y-22.1829 Z0.1839
G1 X32.1783 Y-22.1779 Z0.1826
G1 X32.1740 Y-22.1723 Z0.1814
G1 X32.1704 Y-22.1661 Z0.1801
G1 X32.1676 Y-22.1596 Z0.1788
G1 X32.1656 Y-22.1527 Z0.1776
G1 X32.1646 Y-22.1457 Z0.1763
G1 X32.1645 Y-22.1386 Z0.1751
G1 X32.1653 Y-22.1315 Z0.1738
G1 X32.1669 Y-22.1245 Z0.1726
G1 X32.1695 Y-22.1179 Z0.1713
G1 X32.1729 Y-22.1116 Z0.1701
G1 X32.1770 Y-22.1058 Z0.1688
G1 X32.1819 Y-22.1006 Z0.1675
G1 X32.1874 Y-22.0961 Z0.1663
G1 X32.1934 Y-22.0923 Z0.1650
G1 X32.1999 Y-22.0893 Z0.1638
G1 X32.2067 Y-22.0871 Z0.1625
G1 X32.2137 Y-22.0859 Z0.1613
G1 X32.2208 Y-22.0855 Z0.1600
G2X32.2193Y-22.1967Z0.1600I-0.0008J-0.0556 F60.
G2X32.2208Y-22.0855Z0.1600I0.0007J0.0556
G0 Z0.5050
G0 X32.2208 Y-22.0855 
G0 Z0.5050
G0 X34.2020 Y-22.1475 
G1 X34.2020 Y-22.1475 Z0.2550 F75.
G1 X34.1999 Y-22.1528 Z0.2540 F25.
G1 X34.1983 Y-22.1597 Z0.2527
G1 X34.1975 Y-22.1668 Z0.2515
G1 X34.1976 Y-22.1739 Z0.2502
G1 X34.1986 Y-22.1809 Z0.2490
G1 X34.2006 Y-22.1878 Z0.2477
G1 X34.2034 Y-22.1944 Z0.2465
G1 X34.2070 Y-22.2005 Z0.2452
G1 X34.2113 Y-22.2061 Z0.2440
G1 X34.2164 Y-22.2112 Z0.2427
G1 X34.2220 Y-22.2155 Z0.2414
G1 X34.2282 Y-22.2191 Z0.2402
G1 X34.2347 Y-22.2219 Z0.2389
G1 X34.2416 Y-22.2238 Z0.2377
G1 X34.2487 Y-22.2248 Z0.2364
G1 X34.2558 Y-22.2249 Z0.2352
G1 X34.2629 Y-22.2241 Z0.2339
G1 X34.2698 Y-22.2224 Z0.2326
G1 X34.2764 Y-22.2198 Z0.2314
G1 X34.2827 Y-22.2164 Z0.2301
G1 X34.2885 Y-22.2122 Z0.2289
G1 X34.2937 Y-22.2073 Z0.2276
G1 X34.2982 Y-22.2018 Z0.2264
G1 X34.3020 Y-22.1958 Z0.2251
G1 X34.3049 Y-22.1893 Z0.2238
G1 X34.3071 Y-22.1825 Z0.2226
G1 X34.3083 Y-22.1755 Z0.2213
G1 X34.3086 Y-22.1684 Z0.2201
G1 X34.3080 Y-22.1613 Z0.2188
G1 X34.3066 Y-22.1543 Z0.2176
G1 X34.3042 Y-22.1476 Z0.2163
G1 X34.3010 Y-22.1412 Z0.2151
G1 X34.2970 Y-22.1353 Z0.2138
G1 X34.2923 Y-22.1300 Z0.2125
G1 X34.2869 Y-22.1253 Z0.2113
G1 X34.2810 Y-22.1213 Z0.2100
G1 X34.2746 Y-22.1181 Z0.2088
G1 X34.2679 Y-22.1158 Z0.2075
G1 X34.2609 Y-22.1143 Z0.2063
G1 X34.2538 Y-22.1137 Z0.2050
G3X34.2522Y-22.2249Z0.2050I-0.0008J-0.0556 F60.
G3X34.2538Y-22.1137Z0.2050I0.0008J0.0556
G0 Z0.2100
G0 X34.2538 Y-22.1137 
G0 Z0.2100
G0 X34.3047 Y-22.1490 
G1 X34.3066 Y-22.1543 Z0.2090 F25.
G1 X34.3080 Y-22.1613 Z0.2077
G1 X34.3086 Y-22.1684 Z0.2065
G1 X34.3083 Y-22.1755 Z0.2052
G1 X34.3071 Y-22.1825 Z0.2040
G1 X34.3049 Y-22.1893 Z0.2027
G1 X34.3020 Y-22.1958 Z0.2015
G1 X34.2982 Y-22.2018 Z0.2002
G1 X34.2937 Y-22.2073 Z0.1990
G1 X34.2885 Y-22.2122 Z0.1977
G1 X34.2827 Y-22.2164 Z0.1964
G1 X34.2764 Y-22.2198 Z0.1952
G1 X34.2698 Y-22.2224 Z0.1939
G1 X34.2629 Y-22.2241 Z0.1927
G1 X34.2558 Y-22.2249 Z0.1914
G1 X34.2487 Y-22.2248 Z0.1902
G1 X34.2416 Y-22.2238 Z0.1889
G1 X34.2347 Y-22.2219 Z0.1876
G1 X34.2282 Y-22.2191 Z0.1864
G1 X34.2220 Y-22.2155 Z0.1851
G1 X34.2164 Y-22.2112 Z0.1839
G1 X34.2113 Y-22.2061 Z0.1826
G1 X34.2070 Y-22.2005 Z0.1814
G1 X34.2034 Y-22.1944 Z0.1801
G1 X34.2006 Y-22.1878 Z0.1788
G1 X34.1986 Y-22.1809 Z0.1776
G1 X34.1976 Y-22.1739 Z0.1763
G1 X34.1975 Y-22.1668 Z0.1751
G1 X34.1983 Y-22.1597 Z0.1738
G1 X34.1999 Y-22.1528 Z0.1726
G1 X34.2025 Y-22.1461 Z0.1713
G1 X34.2059 Y-22.1398 Z0.1701
G1 X34.2101 Y-22.1340 Z0.1688
G1 X34.2149 Y-22.1288 Z0.1675
G1 X34.2204 Y-22.1243 Z0.1663
G1 X34.2264 Y-22.1205 Z0.1650
G1 X34.2329 Y-22.1175 Z0.1638
G1 X34.2397 Y-22.1154 Z0.1625
G1 X34.2467 Y-22.1141 Z0.1613
G1 X34.2538 Y-22.1137 Z0.1600
G2X34.2522Y-22.2249Z0.1600I-0.0008J-0.0556 F60.
G2X34.2538Y-22.1137Z0.1600I0.0008J0.0556
G0 Z0.5050
G0 X34.2538 Y-22.1137 
G0 Z0.5050
G0 X34.2003 Y-22.6015 
G1 X34.2003 Y-22.6015 Z0.2550 F75.
G1 X34.1982 Y-22.6068 Z0.2540 F25.
G1 X34.1966 Y-22.6137 Z0.2527
G1 X34.1958 Y-22.6208 Z0.2515
G1 X34.1959 Y-22.6279 Z0.2502
G1 X34.1969 Y-22.6349 Z0.2490
G1 X34.1989 Y-22.6418 Z0.2477
G1 X34.2017 Y-22.6484 Z0.2465
G1 X34.2053 Y-22.6545 Z0.2452
G1 X34.2096 Y-22.6601 Z0.2440
G1 X34.2147 Y-22.6652 Z0.2427
G1 X34.2203 Y-22.6695 Z0.2414
G1 X34.2265 Y-22.6731 Z0.2402
G1 X34.2330 Y-22.6759 Z0.2389
G1 X34.2399 Y-22.6778 Z0.2377
G1 X34.2470 Y-22.6788 Z0.2364
G1 X34.2541 Y-22.6789 Z0.2352
G1 X34.2612 Y-22.6781 Z0.2339
G1 X34.2681 Y-22.6764 Z0.2326
G1 X34.2747 Y-22.6738 Z0.2314
G1 X34.2810 Y-22.6704 Z0.2301
G1 X34.2868 Y-22.6662 Z0.2289
G1 X34.2919 Y-22.6613 Z0.2276
G1 X34.2965 Y-22.6558 Z0.2264
G1 X34.3003 Y-22.6498 Z0.2251
G1 X34.3032 Y-22.6433 Z0.2238
G1 X34.3054 Y-22.6365 Z0.2226
G1 X34.3066 Y-22.6295 Z0.2213
G1 X34.3069 Y-22.6224 Z0.2201
G1 X34.3063 Y-22.6153 Z0.2188
G1 X34.3049 Y-22.6083 Z0.2176
G1 X34.3025 Y-22.6016 Z0.2163
G1 X34.2993 Y-22.5952 Z0.2151
G1 X34.2953 Y-22.5893 Z0.2138
G1 X34.2906 Y-22.5840 Z0.2125
G1 X34.2852 Y-22.5793 Z0.2113
G1 X34.2793 Y-22.5753 Z0.2100
G1 X34.2729 Y-22.5721 Z0.2088
G1 X34.2662 Y-22.5698 Z0.2075
G1 X34.2592 Y-22.5683 Z0.2063
G1 X34.2521 Y-22.5677 Z0.2050
G3X34.2505Y-22.6790Z0.2050I-0.0008J-0.0557 F60.
G3X34.2521Y-22.5677Z0.2050I0.0008J0.0556
G0 Z0.2100
G0 X34.2521 Y-22.5677 
G0 Z0.2100
G0 X34.3030 Y-22.6030 
G1 X34.3049 Y-22.6083 Z0.2090 F25.
G1 X34.3063 Y-22.6153 Z0.2077
G1 X34.3069 Y-22.6224 Z0.2065
G1 X34.3066 Y-22.6295 Z0.2052
G1 X34.3054 Y-22.6365 Z0.2040
G1 X34.3032 Y-22.6433 Z0.2027
G1 X34.3003 Y-22.6498 Z0.2015
G1 X34.2965 Y-22.6558 Z0.2002
G1 X34.2919 Y-22.6613 Z0.1990
G1 X34.2868 Y-22.6662 Z0.1977
G1 X34.2810 Y-22.6704 Z0.1964
G1 X34.2747 Y-22.6738 Z0.1952
G1 X34.2681 Y-22.6764 Z0.1939
G1 X34.2612 Y-22.6781 Z0.1927
G1 X34.2541 Y-22.6789 Z0.1914
G1 X34.2470 Y-22.6788 Z0.1902
G1 X34.2399 Y-22.6778 Z0.1889
G1 X34.2330 Y-22.6759 Z0.1876
G1 X34.2265 Y-22.6731 Z0.1864
G1 X34.2203 Y-22.6695 Z0.1851
G1 X34.2147 Y-22.6652 Z0.1839
G1 X34.2096 Y-22.6601 Z0.1826
G1 X34.2053 Y-22.6545 Z0.1814
G1 X34.2017 Y-22.6484 Z0.1801
G1 X34.1989 Y-22.6418 Z0.1788
G1 X34.1969 Y-22.6349 Z0.1776
G1 X34.1959 Y-22.6279 Z0.1763
G1 X34.1958 Y-22.6208 Z0.1751
G1 X34.1966 Y-22.6137 Z0.1738
G1 X34.1982 Y-22.6068 Z0.1726
G1 X34.2008 Y-22.6001 Z0.1713
G1 X34.2042 Y-22.5938 Z0.1701
G1 X34.2084 Y-22.5881 Z0.1688
G1 X34.2132 Y-22.5829 Z0.1675
G1 X34.2187 Y-22.5783 Z0.1663
G1 X34.2247 Y-22.5745 Z0.1650
G1 X34.2312 Y-22.5715 Z0.1638
G1 X34.2380 Y-22.5694 Z0.1625
G1 X34.2450 Y-22.5681 Z0.1613
G1 X34.2521 Y-22.5677 Z0.1600
G2X34.2505Y-22.6790Z0.1600I-0.0008J-0.0557 F60.
G2X34.2521Y-22.5677Z0.1600I0.0008J0.0556
G0 Z0.5050
G0 X34.2521 Y-22.5677 
G0 Z0.5050
G0 X36.6137 Y-22.1871 
G1 X36.6137 Y-22.1871 Z0.2550 F75.
G1 X36.6116 Y-22.1924 Z0.2540 F25.
G1 X36.6100 Y-22.1993 Z0.2527
G1 X36.6092 Y-22.2064 Z0.2515
G1 X36.6093 Y-22.2135 Z0.2502
G1 X36.6103 Y-22.2206 Z0.2490
G1 X36.6123 Y-22.2274 Z0.2477
G1 X36.6151 Y-22.2340 Z0.2465
G1 X36.6187 Y-22.2402 Z0.2452
G1 X36.6230 Y-22.2458 Z0.2440
G1 X36.6281 Y-22.2508 Z0.2427
G1 X36.6337 Y-22.2552 Z0.2414
G1 X36.6399 Y-22.2587 Z0.2402
G1 X36.6464 Y-22.2615 Z0.2389
G1 X36.6533 Y-22.2634 Z0.2377
G1 X36.6604 Y-22.2644 Z0.2364
G1 X36.6675 Y-22.2645 Z0.2352
G1 X36.6746 Y-22.2637 Z0.2339
G1 X36.6815 Y-22.2620 Z0.2326
G1 X36.6881 Y-22.2594 Z0.2314
G1 X36.6944 Y-22.2560 Z0.2301
G1 X36.7002 Y-22.2519 Z0.2289
G1 X36.7054 Y-22.2470 Z0.2276
G1 X36.7099 Y-22.2415 Z0.2264
G1 X36.7137 Y-22.2354 Z0.2251
G1 X36.7166 Y-22.2290 Z0.2238
G1 X36.7188 Y-22.2222 Z0.2226
G1 X36.7200 Y-22.2151 Z0.2213
G1 X36.7203 Y-22.2080 Z0.2201
G1 X36.7197 Y-22.2009 Z0.2188
G1 X36.7183 Y-22.1939 Z0.2176
G1 X36.7159 Y-22.1872 Z0.2163
G1 X36.7127 Y-22.1809 Z0.2151
G1 X36.7087 Y-22.1750 Z0.2138
G1 X36.7040 Y-22.1696 Z0.2125
G1 X36.6986 Y-22.1649 Z0.2113
G1 X36.6927 Y-22.1609 Z0.2100
G1 X36.6863 Y-22.1578 Z0.2088
G1 X36.6796 Y-22.1554 Z0.2075
G1 X36.6726 Y-22.1540 Z0.2063
G1 X36.6655 Y-22.1534 Z0.2050
G3X36.6639Y-22.2646Z0.2050I-0.0008J-0.0556 F60.
G3X36.6655Y-22.1534Z0.2050I0.0008J0.0556
G0 Z0.2100
G0 X36.6655 Y-22.1534 
G0 Z0.2100
G0 X36.7164 Y-22.1886 
G1 X36.7183 Y-22.1939 Z0.2090 F25.
G1 X36.7197 Y-22.2009 Z0.2077
G1 X36.7203 Y-22.2080 Z0.2065
G1 X36.7200 Y-22.2151 Z0.2052
G1 X36.7188 Y-22.2222 Z0.2040
G1 X36.7166 Y-22.2290 Z0.2027
G1 X36.7137 Y-22.2354 Z0.2015
G1 X36.7099 Y-22.2415 Z0.2002
G1 X36.7054 Y-22.2470 Z0.1990
G1 X36.7002 Y-22.2519 Z0.1977
G1 X36.6944 Y-22.2560 Z0.1964
G1 X36.6881 Y-22.2594 Z0.1952
G1 X36.6815 Y-22.2620 Z0.1939
G1 X36.6746 Y-22.2637 Z0.1927
G1 X36.6675 Y-22.2645 Z0.1914
G1 X36.6604 Y-22.2644 Z0.1902
G1 X36.6533 Y-22.2634 Z0.1889
G1 X36.6464 Y-22.2615 Z0.1876
G1 X36.6399 Y-22.2587 Z0.1864
G1 X36.6337 Y-22.2552 Z0.1851
G1 X36.6281 Y-22.2508 Z0.1839
G1 X36.6230 Y-22.2458 Z0.1826
G1 X36.6187 Y-22.2402 Z0.1814
G1 X36.6151 Y-22.2340 Z0.1801
G1 X36.6123 Y-22.2274 Z0.1788
G1 X36.6103 Y-22.2206 Z0.1776
G1 X36.6093 Y-22.2135 Z0.1763
G1 X36.6092 Y-22.2064 Z0.1751
G1 X36.6100 Y-22.1993 Z0.1738
G1 X36.6116 Y-22.1924 Z0.1726
G1 X36.6142 Y-22.1858 Z0.1713
G1 X36.6176 Y-22.1795 Z0.1701
G1 X36.6218 Y-22.1737 Z0.1688
G1 X36.6266 Y-22.1685 Z0.1675
G1 X36.6321 Y-22.1640 Z0.1663
G1 X36.6381 Y-22.1602 Z0.1650
G1 X36.6446 Y-22.1572 Z0.1638
G1 X36.6514 Y-22.1550 Z0.1625
G1 X36.6584 Y-22.1537 Z0.1613
G1 X36.6655 Y-22.1534 Z0.1600
G2X36.6639Y-22.2646Z0.1600I-0.0008J-0.0556 F60.
G2X36.6655Y-22.1534Z0.1600I0.0008J0.0556
G0 Z0.5050
G0 X36.6655 Y-22.1534 
G0 Z0.5050
G0 X38.4692 Y-22.2139 
G1 X38.4692 Y-22.2139 Z0.2550 F75.
G1 X38.4672 Y-22.2191 Z0.2540 F25.
G1 X38.4655 Y-22.2261 Z0.2527
G1 X38.4647 Y-22.2332 Z0.2515
G1 X38.4649 Y-22.2403 Z0.2502
G1 X38.4659 Y-22.2473 Z0.2490
G1 X38.4678 Y-22.2542 Z0.2477
G1 X38.4706 Y-22.2607 Z0.2465
G1 X38.4742 Y-22.2669 Z0.2452
G1 X38.4786 Y-22.2725 Z0.2440
G1 X38.4836 Y-22.2776 Z0.2427
G1 X38.4893 Y-22.2819 Z0.2414
G1 X38.4954 Y-22.2855 Z0.2402
G1 X38.5020 Y-22.2883 Z0.2389
G1 X38.5089 Y-22.2902 Z0.2377
G1 X38.5159 Y-22.2912 Z0.2364
G1 X38.5230 Y-22.2913 Z0.2352
G1 X38.5301 Y-22.2905 Z0.2339
G1 X38.5370 Y-22.2888 Z0.2326
G1 X38.5437 Y-22.2862 Z0.2314
G1 X38.5499 Y-22.2828 Z0.2301
G1 X38.5557 Y-22.2786 Z0.2289
G1 X38.5609 Y-22.2737 Z0.2276
G1 X38.5654 Y-22.2682 Z0.2264
G1 X38.5692 Y-22.2622 Z0.2251
G1 X38.5722 Y-22.2557 Z0.2238
G1 X38.5743 Y-22.2489 Z0.2226
G1 X38.5756 Y-22.2419 Z0.2213
G1 X38.5759 Y-22.2348 Z0.2201
G1 X38.5753 Y-22.2277 Z0.2188
G1 X38.5738 Y-22.2207 Z0.2176
G1 X38.5715 Y-22.2140 Z0.2163
G1 X38.5683 Y-22.2076 Z0.2151
G1 X38.5643 Y-22.2017 Z0.2138
G1 X38.5595 Y-22.1963 Z0.2125
G1 X38.5542 Y-22.1917 Z0.2113
G1 X38.5483 Y-22.1877 Z0.2100
G1 X38.5419 Y-22.1845 Z0.2088
G1 X38.5352 Y-22.1822 Z0.2075
G1 X38.5282 Y-22.1807 Z0.2063
G1 X38.5211 Y-22.1801 Z0.2050
G3X38.5195Y-22.2913Z0.2050I-0.0008J-0.0556 F60.
G3X38.5211Y-22.1801Z0.2050I0.0008J0.0556
G0 Z0.2100
G0 X38.5211 Y-22.1801 
G0 Z0.2100
G0 X38.5719 Y-22.2153 
G1 X38.5738 Y-22.2207 Z0.2090 F25.
G1 X38.5753 Y-22.2277 Z0.2077
G1 X38.5759 Y-22.2348 Z0.2065
G1 X38.5756 Y-22.2419 Z0.2052
G1 X38.5743 Y-22.2489 Z0.2040
G1 X38.5722 Y-22.2557 Z0.2027
G1 X38.5692 Y-22.2622 Z0.2015
G1 X38.5654 Y-22.2682 Z0.2002
G1 X38.5609 Y-22.2737 Z0.1990
G1 X38.5557 Y-22.2786 Z0.1977
G1 X38.5499 Y-22.2828 Z0.1964
G1 X38.5437 Y-22.2862 Z0.1952
G1 X38.5370 Y-22.2888 Z0.1939
G1 X38.5301 Y-22.2905 Z0.1927
G1 X38.5230 Y-22.2913 Z0.1914
G1 X38.5159 Y-22.2912 Z0.1902
G1 X38.5089 Y-22.2902 Z0.1889
G1 X38.5020 Y-22.2883 Z0.1876
G1 X38.4954 Y-22.2855 Z0.1864
G1 X38.4893 Y-22.2819 Z0.1851
G1 X38.4836 Y-22.2776 Z0.1839
G1 X38.4786 Y-22.2725 Z0.1826
G1 X38.4742 Y-22.2669 Z0.1814
G1 X38.4706 Y-22.2607 Z0.1801
G1 X38.4678 Y-22.2542 Z0.1788
G1 X38.4659 Y-22.2473 Z0.1776
G1 X38.4649 Y-22.2403 Z0.1763
G1 X38.4647 Y-22.2332 Z0.1751
G1 X38.4655 Y-22.2261 Z0.1738
G1 X38.4672 Y-22.2191 Z0.1726
G1 X38.4698 Y-22.2125 Z0.1713
G1 X38.4732 Y-22.2062 Z0.1701
G1 X38.4773 Y-22.2004 Z0.1688
G1 X38.4822 Y-22.1952 Z0.1675
G1 X38.4877 Y-22.1907 Z0.1663
G1 X38.4937 Y-22.1869 Z0.1650
G1 X38.5002 Y-22.1839 Z0.1638
G1 X38.5070 Y-22.1817 Z0.1625
G1 X38.5140 Y-22.1805 Z0.1613
G1 X38.5211 Y-22.1801 Z0.1600
G2X38.5195Y-22.2913Z0.1600I-0.0008J-0.0556 F60.
G2X38.5211Y-22.1801Z0.1600I0.0008J0.0556
G0 Z0.5050
G0 X38.5211 Y-22.1801 
G0 Z0.5050
G0 X40.5521 Y-22.2439 
G1 X40.5521 Y-22.2439 Z0.2550 F75.
G1 X40.5500 Y-22.2492 Z0.2540 F25.
G1 X40.5484 Y-22.2561 Z0.2527
G1 X40.5476 Y-22.2632 Z0.2515
G1 X40.5477 Y-22.2703 Z0.2502
G1 X40.5487 Y-22.2773 Z0.2490
G1 X40.5507 Y-22.2842 Z0.2477
G1 X40.5534 Y-22.2908 Z0.2465
G1 X40.5571 Y-22.2969 Z0.2452
G1 X40.5614 Y-22.3025 Z0.2440
G1 X40.5665 Y-22.3076 Z0.2427
G1 X40.5721 Y-22.3119 Z0.2414
G1 X40.5783 Y-22.3155 Z0.2402
G1 X40.5848 Y-22.3183 Z0.2389
G1 X40.5917 Y-22.3202 Z0.2377
G1 X40.5988 Y-22.3212 Z0.2364
G1 X40.6059 Y-22.3213 Z0.2352
G1 X40.6130 Y-22.3205 Z0.2339
G1 X40.6199 Y-22.3188 Z0.2326
G1 X40.6265 Y-22.3162 Z0.2314
G1 X40.6328 Y-22.3128 Z0.2301
G1 X40.6386 Y-22.3086 Z0.2289
G1 X40.6437 Y-22.3037 Z0.2276
G1 X40.6483 Y-22.2982 Z0.2264
G1 X40.6520 Y-22.2922 Z0.2251
G1 X40.6550 Y-22.2857 Z0.2238
G1 X40.6572 Y-22.2789 Z0.2226
G1 X40.6584 Y-22.2719 Z0.2213
G1 X40.6587 Y-22.2648 Z0.2201
G1 X40.6581 Y-22.2577 Z0.2188
G1 X40.6567 Y-22.2507 Z0.2176
G1 X40.6543 Y-22.2440 Z0.2163
G1 X40.6511 Y-22.2376 Z0.2151
G1 X40.6471 Y-22.2317 Z0.2138
G1 X40.6424 Y-22.2264 Z0.2125
G1 X40.6370 Y-22.2217 Z0.2113
G1 X40.6311 Y-22.2177 Z0.2100
G1 X40.6247 Y-22.2145 Z0.2088
G1 X40.6180 Y-22.2122 Z0.2075
G1 X40.6110 Y-22.2107 Z0.2063
G1 X40.6039 Y-22.2101 Z0.2050
G3X40.6023Y-22.3214Z0.2050I-0.0008J-0.0556 F60.
G3X40.6039Y-22.2101Z0.2050I0.0008J0.0557
G0 Z0.2100
G0 X40.6039 Y-22.2101 
G0 Z0.2100
G0 X40.6548 Y-22.2454 
G1 X40.6567 Y-22.2507 Z0.2090 F25.
G1 X40.6581 Y-22.2577 Z0.2077
G1 X40.6587 Y-22.2648 Z0.2065
G1 X40.6584 Y-22.2719 Z0.2052
G1 X40.6572 Y-22.2789 Z0.2040
G1 X40.6550 Y-22.2857 Z0.2027
G1 X40.6520 Y-22.2922 Z0.2015
G1 X40.6483 Y-22.2982 Z0.2002
G1 X40.6437 Y-22.3037 Z0.1990
G1 X40.6386 Y-22.3086 Z0.1977
G1 X40.6328 Y-22.3128 Z0.1964
G1 X40.6265 Y-22.3162 Z0.1952
G1 X40.6199 Y-22.3188 Z0.1939
G1 X40.6130 Y-22.3205 Z0.1927
G1 X40.6059 Y-22.3213 Z0.1914
G1 X40.5988 Y-22.3212 Z0.1902
G1 X40.5917 Y-22.3202 Z0.1889
G1 X40.5848 Y-22.3183 Z0.1876
G1 X40.5783 Y-22.3155 Z0.1864
G1 X40.5721 Y-22.3119 Z0.1851
G1 X40.5665 Y-22.3076 Z0.1839
G1 X40.5614 Y-22.3025 Z0.1826
G1 X40.5571 Y-22.2969 Z0.1814
G1 X40.5534 Y-22.2908 Z0.1801
G1 X40.5507 Y-22.2842 Z0.1788
G1 X40.5487 Y-22.2773 Z0.1776
G1 X40.5477 Y-22.2703 Z0.1763
G1 X40.5476 Y-22.2632 Z0.1751
G1 X40.5484 Y-22.2561 Z0.1738
G1 X40.5500 Y-22.2492 Z0.1726
G1 X40.5526 Y-22.2425 Z0.1713
G1 X40.5560 Y-22.2362 Z0.1701
G1 X40.5601 Y-22.2305 Z0.1688
G1 X40.5650 Y-22.2252 Z0.1675
G1 X40.5705 Y-22.2207 Z0.1663
G1 X40.5765 Y-22.2169 Z0.1650
G1 X40.5830 Y-22.2139 Z0.1638
G1 X40.5898 Y-22.2118 Z0.1625
G1 X40.5968 Y-22.2105 Z0.1613
G1 X40.6039 Y-22.2101 Z0.1600
G2X40.6023Y-22.3214Z0.1600I-0.0008J-0.0556 F60.
G2X40.6039Y-22.2101Z0.1600I0.0008J0.0557
G0 Z0.5050
G0 X40.6039 Y-22.2101 
G0 Z0.5050
G0 X42.8900 Y-22.2776 
G1 X42.8900 Y-22.2776 Z0.2550 F75.
G1 X42.8880 Y-22.2828 Z0.2540 F25.
G1 X42.8863 Y-22.2898 Z0.2527
G1 X42.8855 Y-22.2969 Z0.2515
G1 X42.8857 Y-22.3040 Z0.2502
G1 X42.8867 Y-22.3110 Z0.2490
G1 X42.8886 Y-22.3179 Z0.2477
G1 X42.8914 Y-22.3244 Z0.2465
G1 X42.8950 Y-22.3306 Z0.2452
G1 X42.8994 Y-22.3362 Z0.2440
G1 X42.9044 Y-22.3413 Z0.2427
G1 X42.9101 Y-22.3456 Z0.2414
G1 X42.9162 Y-22.3492 Z0.2402
G1 X42.9228 Y-22.3520 Z0.2389
G1 X42.9297 Y-22.3539 Z0.2377
G1 X42.9367 Y-22.3549 Z0.2364
G1 X42.9438 Y-22.3550 Z0.2352
G1 X42.9509 Y-22.3542 Z0.2339
G1 X42.9578 Y-22.3525 Z0.2326
G1 X42.9645 Y-22.3499 Z0.2314
G1 X42.9707 Y-22.3465 Z0.2301
G1 X42.9765 Y-22.3423 Z0.2289
G1 X42.9817 Y-22.3374 Z0.2276
G1 X42.9862 Y-22.3319 Z0.2264
G1 X42.9900 Y-22.3259 Z0.2251
G1 X42.9930 Y-22.3194 Z0.2238
G1 X42.9951 Y-22.3126 Z0.2226
G1 X42.9963 Y-22.3056 Z0.2213
G1 X42.9967 Y-22.2985 Z0.2201
G1 X42.9961 Y-22.2914 Z0.2188
G1 X42.9946 Y-22.2844 Z0.2176
G1 X42.9922 Y-22.2777 Z0.2163
G1 X42.9890 Y-22.2713 Z0.2151
G1 X42.9850 Y-22.2654 Z0.2138
G1 X42.9803 Y-22.2600 Z0.2125
G1 X42.9750 Y-22.2554 Z0.2113
G1 X42.9691 Y-22.2514 Z0.2100
G1 X42.9627 Y-22.2482 Z0.2088
G1 X42.9560 Y-22.2459 Z0.2075
G1 X42.9490 Y-22.2444 Z0.2063
G1 X42.9419 Y-22.2438 Z0.2050
G3X42.9403Y-22.3550Z0.2050I-0.0008J-0.0556 F60.
G3X42.9419Y-22.2438Z0.2050I0.0008J0.0556
G0 Z0.2100
G0 X42.9419 Y-22.2438 
G0 Z0.2100
G0 X42.9927 Y-22.2790 
G1 X42.9946 Y-22.2844 Z0.2090 F25.
G1 X42.9961 Y-22.2914 Z0.2077
G1 X42.9967 Y-22.2985 Z0.2065
G1 X42.9963 Y-22.3056 Z0.2052
G1 X42.9951 Y-22.3126 Z0.2040
G1 X42.9930 Y-22.3194 Z0.2027
G1 X42.9900 Y-22.3259 Z0.2015
G1 X42.9862 Y-22.3319 Z0.2002
G1 X42.9817 Y-22.3374 Z0.1990
G1 X42.9765 Y-22.3423 Z0.1977
G1 X42.9707 Y-22.3465 Z0.1964
G1 X42.9645 Y-22.3499 Z0.1952
G1 X42.9578 Y-22.3525 Z0.1939
G1 X42.9509 Y-22.3542 Z0.1927
G1 X42.9438 Y-22.3550 Z0.1914
G1 X42.9367 Y-22.3549 Z0.1902
G1 X42.9297 Y-22.3539 Z0.1889
G1 X42.9228 Y-22.3520 Z0.1876
G1 X42.9162 Y-22.3492 Z0.1864
G1 X42.9101 Y-22.3456 Z0.1851
G1 X42.9044 Y-22.3413 Z0.1839
G1 X42.8994 Y-22.3362 Z0.1826
G1 X42.8950 Y-22.3306 Z0.1814
G1 X42.8914 Y-22.3244 Z0.1801
G1 X42.8886 Y-22.3179 Z0.1788
G1 X42.8867 Y-22.3110 Z0.1776
G1 X42.8857 Y-22.3040 Z0.1763
G1 X42.8855 Y-22.2969 Z0.1751
G1 X42.8863 Y-22.2898 Z0.1738
G1 X42.8880 Y-22.2828 Z0.1726
G1 X42.8906 Y-22.2762 Z0.1713
G1 X42.8939 Y-22.2699 Z0.1701
G1 X42.8981 Y-22.2641 Z0.1688
G1 X42.9030 Y-22.2589 Z0.1675
G1 X42.9085 Y-22.2544 Z0.1663
G1 X42.9145 Y-22.2506 Z0.1650
G1 X42.9210 Y-22.2476 Z0.1638
G1 X42.9277 Y-22.2454 Z0.1625
G1 X42.9348 Y-22.2442 Z0.1613
G1 X42.9419 Y-22.2438 Z0.1600
G2X42.9403Y-22.3550Z0.1600I-0.0008J-0.0556 F60.
G2X42.9419Y-22.2438Z0.1600I0.0008J0.0556
G0 Z1.0000
G0 X42.9419 Y-22.2438 
M5
G53 Z
X2Y0
