( MOP:  02-inlay-Dot6mmDulc-idPT09-s21 )
( FILE: G:\Shared drives\AlloyProjectFiles\Customer CAD files\Alloy-Standard-Builds-CAM\Fingerboards-in\02-inlay-Dot6mmDulc-idPT09-s21.nc)
G90
(  BEGIN TOOL LIST )
(  TOOL 7 - Downcut PT125 - DESC: 0.1250 DIA, 2 FLUTE,  CARBIDE MAT )
(  ENDOF TOOL LIST )
( 02-inlay-Dot6mmDulc-idPT09-s21)
T07
S11000
M3
G0 Z1.0000
G0 X33.3390 Y-22.8508 
G1 X33.3390 Y-22.8508 Z0.2600 F75.
G1 X33.3443 Y-22.8527 Z0.2590 F25.
G1 X33.3513 Y-22.8543 Z0.2577
G1 X33.3583 Y-22.8550 Z0.2565
G1 X33.3655 Y-22.8548 Z0.2552
G1 X33.3725 Y-22.8537 Z0.2540
G1 X33.3793 Y-22.8516 Z0.2527
G1 X33.3858 Y-22.8487 Z0.2515
G1 X33.3919 Y-22.8450 Z0.2502
G1 X33.3975 Y-22.8406 Z0.2490
G1 X33.4025 Y-22.8355 Z0.2477
G1 X33.4067 Y-22.8298 Z0.2464
G1 X33.4102 Y-22.8236 Z0.2452
G1 X33.4129 Y-22.8170 Z0.2439
G1 X33.4147 Y-22.8101 Z0.2427
G1 X33.4156 Y-22.8030 Z0.2414
G1 X33.4156 Y-22.7959 Z0.2402
G1 X33.4147 Y-22.7888 Z0.2389
G1 X33.4129 Y-22.7819 Z0.2376
G1 X33.4102 Y-22.7753 Z0.2364
G1 X33.4067 Y-22.7691 Z0.2351
G1 X33.4025 Y-22.7634 Z0.2339
G1 X33.3975 Y-22.7583 Z0.2326
G1 X33.3919 Y-22.7538 Z0.2314
G1 X33.3858 Y-22.7501 Z0.2301
G1 X33.3793 Y-22.7472 Z0.2288
G1 X33.3725 Y-22.7452 Z0.2276
G1 X33.3655 Y-22.7441 Z0.2263
G1 X33.3583 Y-22.7439 Z0.2251
G1 X33.3513 Y-22.7445 Z0.2238
G1 X33.3443 Y-22.7461 Z0.2226
G1 X33.3376 Y-22.7486 Z0.2213
G1 X33.3313 Y-22.7519 Z0.2201
G1 X33.3255 Y-22.7560 Z0.2188
G1 X33.3202 Y-22.7607 Z0.2175
G1 X33.3156 Y-22.7662 Z0.2163
G1 X33.3117 Y-22.7721 Z0.2150
G1 X33.3086 Y-22.7786 Z0.2138
G1 X33.3063 Y-22.7853 Z0.2125
G1 X33.3050 Y-22.7923 Z0.2113
G1 X33.3045 Y-22.7994 Z0.2100
G17
G3X33.4157Y-22.7994Z0.2100I0.0556J0.0000 F60.
G3X33.3045Y-22.7994Z0.2100I-0.0556J0.0000
G0 Z0.2200
G0 X33.3045 Y-22.7994 
G0 Z0.2200
G0 X33.3390 Y-22.7481 
G1 X33.3443 Y-22.7461 Z0.2190 F25.
G1 X33.3513 Y-22.7445 Z0.2177
G1 X33.3583 Y-22.7439 Z0.2165
G1 X33.3655 Y-22.7441 Z0.2152
G1 X33.3725 Y-22.7452 Z0.2140
G1 X33.3793 Y-22.7472 Z0.2127
G1 X33.3858 Y-22.7501 Z0.2115
G1 X33.3919 Y-22.7538 Z0.2102
G1 X33.3975 Y-22.7583 Z0.2090
G1 X33.4025 Y-22.7634 Z0.2077
G1 X33.4067 Y-22.7691 Z0.2064
G1 X33.4102 Y-22.7753 Z0.2052
G1 X33.4129 Y-22.7819 Z0.2039
G1 X33.4147 Y-22.7888 Z0.2027
G1 X33.4156 Y-22.7959 Z0.2014
G1 X33.4156 Y-22.8030 Z0.2002
G1 X33.4147 Y-22.8101 Z0.1989
G1 X33.4129 Y-22.8170 Z0.1976
G1 X33.4102 Y-22.8236 Z0.1964
G1 X33.4067 Y-22.8298 Z0.1951
G1 X33.4025 Y-22.8355 Z0.1939
G1 X33.3975 Y-22.8406 Z0.1926
G1 X33.3919 Y-22.8450 Z0.1914
G1 X33.3858 Y-22.8487 Z0.1901
G1 X33.3793 Y-22.8516 Z0.1888
G1 X33.3725 Y-22.8537 Z0.1876
G1 X33.3655 Y-22.8548 Z0.1863
G1 X33.3583 Y-22.8550 Z0.1851
G1 X33.3513 Y-22.8543 Z0.1838
G1 X33.3443 Y-22.8527 Z0.1826
G1 X33.3376 Y-22.8503 Z0.1813
G1 X33.3313 Y-22.8470 Z0.1801
G1 X33.3255 Y-22.8429 Z0.1788
G1 X33.3202 Y-22.8381 Z0.1775
G1 X33.3156 Y-22.8327 Z0.1763
G1 X33.3117 Y-22.8267 Z0.1750
G1 X33.3086 Y-22.8203 Z0.1738
G1 X33.3063 Y-22.8135 Z0.1725
G1 X33.3050 Y-22.8065 Z0.1713
G1 X33.3045 Y-22.7994 Z0.1700
G2X33.4157Y-22.7994Z0.1700I0.0556J0.0000 F60.
G2X33.3045Y-22.7994Z0.1700I-0.0556J0.0000
G0 Z0.5100
G0 X33.3045 Y-22.7994 
G0 Z0.5100
G0 X36.0510 Y-22.5031 
G1 X36.0510 Y-22.5031 Z0.2600 F75.
G1 X36.0563 Y-22.5051 Z0.2590 F25.
G1 X36.0633 Y-22.5066 Z0.2577
G1 X36.0703 Y-22.5073 Z0.2565
G1 X36.0775 Y-22.5071 Z0.2552
G1 X36.0845 Y-22.5060 Z0.2540
G1 X36.0913 Y-22.5039 Z0.2527
G1 X36.0978 Y-22.5010 Z0.2515
G1 X36.1039 Y-22.4974 Z0.2502
G1 X36.1095 Y-22.4929 Z0.2490
G1 X36.1145 Y-22.4878 Z0.2477
G1 X36.1187 Y-22.4821 Z0.2464
G1 X36.1222 Y-22.4759 Z0.2452
G1 X36.1249 Y-22.4693 Z0.2439
G1 X36.1267 Y-22.4624 Z0.2427
G1 X36.1276 Y-22.4553 Z0.2414
G1 X36.1276 Y-22.4482 Z0.2402
G1 X36.1267 Y-22.4411 Z0.2389
G1 X36.1249 Y-22.4342 Z0.2376
G1 X36.1222 Y-22.4276 Z0.2364
G1 X36.1187 Y-22.4214 Z0.2351
G1 X36.1145 Y-22.4157 Z0.2339
G1 X36.1095 Y-22.4106 Z0.2326
G1 X36.1039 Y-22.4061 Z0.2314
G1 X36.0978 Y-22.4024 Z0.2301
G1 X36.0913 Y-22.3996 Z0.2288
G1 X36.0845 Y-22.3975 Z0.2276
G1 X36.0775 Y-22.3964 Z0.2263
G1 X36.0703 Y-22.3962 Z0.2251
G1 X36.0633 Y-22.3968 Z0.2238
G1 X36.0563 Y-22.3984 Z0.2226
G1 X36.0496 Y-22.4009 Z0.2213
G1 X36.0433 Y-22.4042 Z0.2201
G1 X36.0375 Y-22.4083 Z0.2188
G1 X36.0322 Y-22.4131 Z0.2175
G1 X36.0276 Y-22.4185 Z0.2163
G1 X36.0237 Y-22.4245 Z0.2150
G1 X36.0206 Y-22.4309 Z0.2138
G1 X36.0183 Y-22.4376 Z0.2125
G1 X36.0170 Y-22.4446 Z0.2113
G1 X36.0165 Y-22.4517 Z0.2100
G3X36.1277Y-22.4517Z0.2100I0.0556J0.0000 F60.
G3X36.0165Y-22.4517Z0.2100I-0.0556J0.0000
G0 Z0.2200
G0 X36.0165 Y-22.4517 
G0 Z0.2200
G0 X36.0510 Y-22.4004 
G1 X36.0563 Y-22.3984 Z0.2190 F25.
G1 X36.0633 Y-22.3968 Z0.2177
G1 X36.0703 Y-22.3962 Z0.2165
G1 X36.0775 Y-22.3964 Z0.2152
G1 X36.0845 Y-22.3975 Z0.2140
G1 X36.0913 Y-22.3996 Z0.2127
G1 X36.0978 Y-22.4024 Z0.2115
G1 X36.1039 Y-22.4061 Z0.2102
G1 X36.1095 Y-22.4106 Z0.2090
G1 X36.1145 Y-22.4157 Z0.2077
G1 X36.1187 Y-22.4214 Z0.2064
G1 X36.1222 Y-22.4276 Z0.2052
G1 X36.1249 Y-22.4342 Z0.2039
G1 X36.1267 Y-22.4411 Z0.2027
G1 X36.1276 Y-22.4482 Z0.2014
G1 X36.1276 Y-22.4553 Z0.2002
G1 X36.1267 Y-22.4624 Z0.1989
G1 X36.1249 Y-22.4693 Z0.1976
G1 X36.1222 Y-22.4759 Z0.1964
G1 X36.1187 Y-22.4821 Z0.1951
G1 X36.1145 Y-22.4878 Z0.1939
G1 X36.1095 Y-22.4929 Z0.1926
G1 X36.1039 Y-22.4974 Z0.1914
G1 X36.0978 Y-22.5010 Z0.1901
G1 X36.0913 Y-22.5039 Z0.1888
G1 X36.0845 Y-22.5060 Z0.1876
G1 X36.0775 Y-22.5071 Z0.1863
G1 X36.0703 Y-22.5073 Z0.1851
G1 X36.0633 Y-22.5066 Z0.1838
G1 X36.0563 Y-22.5051 Z0.1826
G1 X36.0496 Y-22.5026 Z0.1813
G1 X36.0433 Y-22.4993 Z0.1801
G1 X36.0375 Y-22.4952 Z0.1788
G1 X36.0322 Y-22.4904 Z0.1775
G1 X36.0276 Y-22.4850 Z0.1763
G1 X36.0237 Y-22.4790 Z0.1750
G1 X36.0206 Y-22.4726 Z0.1738
G1 X36.0183 Y-22.4658 Z0.1725
G1 X36.0170 Y-22.4589 Z0.1713
G1 X36.0165 Y-22.4517 Z0.1700
G2X36.1277Y-22.4517Z0.1700I0.0556J0.0000 F60.
G2X36.0165Y-22.4517Z0.1700I-0.0556J0.0000
G0 Z0.5100
G0 X36.0165 Y-22.4517 
G0 Z0.5100
G0 X36.0510 Y-23.1985 
G1 X36.0510 Y-23.1985 Z0.2600 F75.
G1 X36.0563 Y-23.2004 Z0.2590 F25.
G1 X36.0633 Y-23.2020 Z0.2577
G1 X36.0703 Y-23.2027 Z0.2565
G1 X36.0775 Y-23.2025 Z0.2552
G1 X36.0845 Y-23.2013 Z0.2540
G1 X36.0913 Y-23.1993 Z0.2527
G1 X36.0978 Y-23.1964 Z0.2515
G1 X36.1039 Y-23.1927 Z0.2502
G1 X36.1095 Y-23.1883 Z0.2490
G1 X36.1145 Y-23.1832 Z0.2477
G1 X36.1187 Y-23.1775 Z0.2464
G1 X36.1222 Y-23.1713 Z0.2452
G1 X36.1249 Y-23.1647 Z0.2439
G1 X36.1267 Y-23.1578 Z0.2427
G1 X36.1276 Y-23.1507 Z0.2414
G1 X36.1276 Y-23.1436 Z0.2402
G1 X36.1267 Y-23.1365 Z0.2389
G1 X36.1249 Y-23.1296 Z0.2376
G1 X36.1222 Y-23.1230 Z0.2364
G1 X36.1187 Y-23.1168 Z0.2351
G1 X36.1145 Y-23.1111 Z0.2339
G1 X36.1095 Y-23.1060 Z0.2326
G1 X36.1039 Y-23.1015 Z0.2314
G1 X36.0978 Y-23.0978 Z0.2301
G1 X36.0913 Y-23.0949 Z0.2288
G1 X36.0845 Y-23.0929 Z0.2276
G1 X36.0775 Y-23.0918 Z0.2263
G1 X36.0703 Y-23.0915 Z0.2251
G1 X36.0633 Y-23.0922 Z0.2238
G1 X36.0563 Y-23.0938 Z0.2226
G1 X36.0496 Y-23.0963 Z0.2213
G1 X36.0433 Y-23.0996 Z0.2201
G1 X36.0375 Y-23.1037 Z0.2188
G1 X36.0322 Y-23.1084 Z0.2175
G1 X36.0276 Y-23.1139 Z0.2163
G1 X36.0237 Y-23.1198 Z0.2150
G1 X36.0206 Y-23.1263 Z0.2138
G1 X36.0183 Y-23.1330 Z0.2125
G1 X36.0170 Y-23.1400 Z0.2113
G1 X36.0165 Y-23.1471 Z0.2100
G3X36.1277Y-23.1471Z0.2100I0.0556J0.0000 F60.
G3X36.0165Y-23.1471Z0.2100I-0.0556J0.0000
G0 Z0.2200
G0 X36.0165 Y-23.1471 
G0 Z0.2200
G0 X36.0510 Y-23.0958 
G1 X36.0563 Y-23.0938 Z0.2190 F25.
G1 X36.0633 Y-23.0922 Z0.2177
G1 X36.0703 Y-23.0915 Z0.2165
G1 X36.0775 Y-23.0918 Z0.2152
G1 X36.0845 Y-23.0929 Z0.2140
G1 X36.0913 Y-23.0949 Z0.2127
G1 X36.0978 Y-23.0978 Z0.2115
G1 X36.1039 Y-23.1015 Z0.2102
G1 X36.1095 Y-23.1060 Z0.2090
G1 X36.1145 Y-23.1111 Z0.2077
G1 X36.1187 Y-23.1168 Z0.2064
G1 X36.1222 Y-23.1230 Z0.2052
G1 X36.1249 Y-23.1296 Z0.2039
G1 X36.1267 Y-23.1365 Z0.2027
G1 X36.1276 Y-23.1436 Z0.2014
G1 X36.1276 Y-23.1507 Z0.2002
G1 X36.1267 Y-23.1578 Z0.1989
G1 X36.1249 Y-23.1647 Z0.1976
G1 X36.1222 Y-23.1713 Z0.1964
G1 X36.1187 Y-23.1775 Z0.1951
G1 X36.1145 Y-23.1832 Z0.1939
G1 X36.1095 Y-23.1883 Z0.1926
G1 X36.1039 Y-23.1927 Z0.1914
G1 X36.0978 Y-23.1964 Z0.1901
G1 X36.0913 Y-23.1993 Z0.1888
G1 X36.0845 Y-23.2013 Z0.1876
G1 X36.0775 Y-23.2025 Z0.1863
G1 X36.0703 Y-23.2027 Z0.1851
G1 X36.0633 Y-23.2020 Z0.1838
G1 X36.0563 Y-23.2004 Z0.1826
G1 X36.0496 Y-23.1980 Z0.1813
G1 X36.0433 Y-23.1947 Z0.1801
G1 X36.0375 Y-23.1906 Z0.1788
G1 X36.0322 Y-23.1858 Z0.1775
G1 X36.0276 Y-23.1804 Z0.1763
G1 X36.0237 Y-23.1744 Z0.1750
G1 X36.0206 Y-23.1680 Z0.1738
G1 X36.0183 Y-23.1612 Z0.1725
G1 X36.0170 Y-23.1542 Z0.1713
G1 X36.0165 Y-23.1471 Z0.1700
G2X36.1277Y-23.1471Z0.1700I0.0556J0.0000 F60.
G2X36.0165Y-23.1471Z0.1700I-0.0556J0.0000
G0 Z0.5100
G0 X36.0165 Y-23.1471 
G0 Z0.5100
G0 X41.4390 Y-22.8508 
G1 X41.4390 Y-22.8508 Z0.2600 F75.
G1 X41.4443 Y-22.8527 Z0.2590 F25.
G1 X41.4513 Y-22.8543 Z0.2577
G1 X41.4583 Y-22.8550 Z0.2565
G1 X41.4655 Y-22.8548 Z0.2552
G1 X41.4725 Y-22.8537 Z0.2540
G1 X41.4793 Y-22.8516 Z0.2527
G1 X41.4858 Y-22.8487 Z0.2515
G1 X41.4919 Y-22.8450 Z0.2502
G1 X41.4975 Y-22.8406 Z0.2490
G1 X41.5025 Y-22.8355 Z0.2477
G1 X41.5067 Y-22.8298 Z0.2464
G1 X41.5102 Y-22.8236 Z0.2452
G1 X41.5129 Y-22.8170 Z0.2439
G1 X41.5147 Y-22.8101 Z0.2427
G1 X41.5156 Y-22.8030 Z0.2414
G1 X41.5156 Y-22.7959 Z0.2402
G1 X41.5147 Y-22.7888 Z0.2389
G1 X41.5129 Y-22.7819 Z0.2376
G1 X41.5102 Y-22.7753 Z0.2364
G1 X41.5067 Y-22.7691 Z0.2351
G1 X41.5025 Y-22.7634 Z0.2339
G1 X41.4975 Y-22.7583 Z0.2326
G1 X41.4919 Y-22.7538 Z0.2314
G1 X41.4858 Y-22.7501 Z0.2301
G1 X41.4793 Y-22.7472 Z0.2288
G1 X41.4725 Y-22.7452 Z0.2276
G1 X41.4655 Y-22.7441 Z0.2263
G1 X41.4583 Y-22.7439 Z0.2251
G1 X41.4513 Y-22.7445 Z0.2238
G1 X41.4443 Y-22.7461 Z0.2226
G1 X41.4376 Y-22.7486 Z0.2213
G1 X41.4313 Y-22.7519 Z0.2201
G1 X41.4255 Y-22.7560 Z0.2188
G1 X41.4202 Y-22.7607 Z0.2175
G1 X41.4156 Y-22.7662 Z0.2163
G1 X41.4117 Y-22.7721 Z0.2150
G1 X41.4086 Y-22.7786 Z0.2138
G1 X41.4063 Y-22.7853 Z0.2125
G1 X41.4050 Y-22.7923 Z0.2113
G1 X41.4045 Y-22.7994 Z0.2100
G3X41.5157Y-22.7994Z0.2100I0.0556J0.0000 F60.
G3X41.4045Y-22.7994Z0.2100I-0.0556J0.0000
G0 Z0.2200
G0 X41.4045 Y-22.7994 
G0 Z0.2200
G0 X41.4390 Y-22.7481 
G1 X41.4443 Y-22.7461 Z0.2190 F25.
G1 X41.4513 Y-22.7445 Z0.2177
G1 X41.4583 Y-22.7439 Z0.2165
G1 X41.4655 Y-22.7441 Z0.2152
G1 X41.4725 Y-22.7452 Z0.2140
G1 X41.4793 Y-22.7472 Z0.2127
G1 X41.4858 Y-22.7501 Z0.2115
G1 X41.4919 Y-22.7538 Z0.2102
G1 X41.4975 Y-22.7583 Z0.2090
G1 X41.5025 Y-22.7634 Z0.2077
G1 X41.5067 Y-22.7691 Z0.2064
G1 X41.5102 Y-22.7753 Z0.2052
G1 X41.5129 Y-22.7819 Z0.2039
G1 X41.5147 Y-22.7888 Z0.2027
G1 X41.5156 Y-22.7959 Z0.2014
G1 X41.5156 Y-22.8030 Z0.2002
G1 X41.5147 Y-22.8101 Z0.1989
G1 X41.5129 Y-22.8170 Z0.1976
G1 X41.5102 Y-22.8236 Z0.1964
G1 X41.5067 Y-22.8298 Z0.1951
G1 X41.5025 Y-22.8355 Z0.1939
G1 X41.4975 Y-22.8406 Z0.1926
G1 X41.4919 Y-22.8450 Z0.1914
G1 X41.4858 Y-22.8487 Z0.1901
G1 X41.4793 Y-22.8516 Z0.1888
G1 X41.4725 Y-22.8537 Z0.1876
G1 X41.4655 Y-22.8548 Z0.1863
G1 X41.4583 Y-22.8550 Z0.1851
G1 X41.4513 Y-22.8543 Z0.1838
G1 X41.4443 Y-22.8527 Z0.1826
G1 X41.4376 Y-22.8503 Z0.1813
G1 X41.4313 Y-22.8470 Z0.1801
G1 X41.4255 Y-22.8429 Z0.1788
G1 X41.4202 Y-22.8381 Z0.1775
G1 X41.4156 Y-22.8327 Z0.1763
G1 X41.4117 Y-22.8267 Z0.1750
G1 X41.4086 Y-22.8203 Z0.1738
G1 X41.4063 Y-22.8135 Z0.1725
G1 X41.4050 Y-22.8065 Z0.1713
G1 X41.4045 Y-22.7994 Z0.1700
G2X41.5157Y-22.7994Z0.1700I0.0556J0.0000 F60.
G2X41.4045Y-22.7994Z0.1700I-0.0556J0.0000
G0 Z1.0000
G0 X41.4045 Y-22.7994 
M5
G53 Z
X2Y0
