( MOP:  02-inlay-Pinter-idPT09-s24PT75-02 )
( FILE: G:\Shared drives\AlloyProjectFiles\Customer CAD files\Alloy-Standard-Builds-CAM\Fingerboards-in\02-inlay-Pinter-idPT09-s24PT75-02.nc)
G90
(  BEGIN TOOL LIST )
(  TOOL 7 - Downcut PT125 - DESC: 0.1250 DIA, 2 FLUTE,  CARBIDE MAT )
(  ENDOF TOOL LIST )
( 02-inlay-Pinter-idPT09-s24PT75-02)
T07
S11000
M3
G0 Z1.0000
G0 X29.1158 Y-22.7644 
G1 X29.1158 Y-22.7644 Z0.2370 F75.
G1 X29.1158 Y-22.7644 Z0.2120 F25.
G1 X29.1018 Y-22.6321 Z0.1885
G1 X29.0561 Y-22.4887 Z0.1620
G1 X29.0561 Y-23.1102 Z0.1620 F60.
G17
G3X29.0561Y-22.4887Z0.1620I-0.7290J0.3108
G0 Z0.3370
G0 X29.0561 Y-22.4887 
G0 Z0.3370
G0 X29.9884 Y-23.4050 
G1 X29.9884 Y-23.4050 Z0.2370 F75.
G1 X29.9884 Y-23.4050 Z0.2120 F25.
G1 X29.9890 Y-23.4031 Z0.2116
G1 X29.9674 Y-23.2985 Z0.1928
G1 X29.9674 Y-23.4732 Z0.1620
G1 X29.9890 Y-23.4031 Z0.1620 F60.
G1 X29.9674 Y-23.2985 Z0.1620
G1 X29.9674 Y-23.4732 Z0.1620
G0 Z0.3370
G0 X29.9674 Y-23.4732 
G0 Z0.3370
G0 X29.9680 Y-22.1276 
G1 X29.9680 Y-22.1276 Z0.2370 F75.
G1 X29.9680 Y-22.1276 Z0.2120 F25.
G1 X29.9674 Y-22.1256 Z0.2116
G1 X29.9674 Y-22.3004 Z0.1808
G1 X29.9890 Y-22.1958 Z0.1620
G1 X29.9674 Y-22.1256 Z0.1620 F60.
G1 X29.9674 Y-22.3004 Z0.1620
G1 X29.9890 Y-22.1958 Z0.1620
G0 Z0.3370
G0 X29.9890 Y-22.1958 
G0 Z0.3370
G0 X29.9674 Y-22.5159 
G1 X29.9674 Y-22.5159 Z0.2370 F75.
G1 X29.9674 Y-22.5159 Z0.2120 F25.
G1 X29.9674 Y-22.7994 Z0.1620
G1 X29.9674 Y-23.1675 Z0.1620 F60.
G3X29.9674Y-22.4314Z0.1620I-0.6537J0.3681
G1 X29.9674 Y-22.7994 Z0.1620
G0 Z0.3370
G0 X29.9674 Y-22.7994 
G0 Z0.3370
G0 X31.0562 Y-22.8401 
G1 X31.0562 Y-22.8401 Z0.2370 F75.
G1 X31.0562 Y-22.8401 Z0.2120 F25.
G1 X31.0519 Y-22.8712 Z0.2065
G1 X31.0519 Y-22.7277 Z0.1812
G1 X31.0619 Y-22.7994 Z0.1684
G1 X31.0569 Y-22.8353 Z0.1620
G1 X31.0519 Y-22.8712 Z0.1620 F60.
G1 X31.0519 Y-22.7277 Z0.1620
G1 X31.0619 Y-22.7994 Z0.1620
G1 X31.0569 Y-22.8353 Z0.1620
G1 X31.1064 Y-22.8422 Z0.1620
G1 X31.1123 Y-22.7994 Z0.1620
G1 X31.0909 Y-22.6444 Z0.1620
G1 X31.0077 Y-22.4374 Z0.1620
G1 X31.0071 Y-22.3278 Z0.1620
G1 X31.0326 Y-22.2117 Z0.1620
G1 X31.0019 Y-22.1251 Z0.1620
G1 X31.0019 Y-23.4738 Z0.1620
G1 X31.0326 Y-23.3872 Z0.1620
G1 X31.0071 Y-23.2711 Z0.1620
G1 X31.0077 Y-23.1615 Z0.1620
G1 X31.0909 Y-22.9545 Z0.1620
G1 X31.1064 Y-22.8422 Z0.1620
G0 Z0.3370
G0 X31.1064 Y-22.8422 
G0 Z0.3370
G0 X32.1931 Y-22.9747 
G1 X32.1931 Y-22.9747 Z0.2370 F75.
G1 X32.1931 Y-22.9747 Z0.2120 F25.
G1 X32.1931 Y-22.7994 Z0.1811
G1 X32.1931 Y-22.6911 Z0.1620
G1 X32.1931 Y-22.5828 Z0.1620 F60.
G2X32.1931Y-23.0161Z0.1620I-0.3280J-0.2166
G1 X32.1931 Y-22.7994 Z0.1620
G1 X32.1931 Y-22.6911 Z0.1620
G1 X32.1431 Y-22.6911 Z0.1620
G1 X32.1431 Y-22.7994 Z0.1620
G1 X32.1431 Y-23.4742 Z0.1620
G3X32.2113Y-23.3859Z0.1620I-0.0246J0.0896
G1 X32.1795 Y-23.2562 Z0.1620
G1 X32.1746 Y-23.1858 Z0.1620
G2X32.1816Y-23.1510Z0.1620I0.0673J0.0046
G1 X32.2834 Y-22.9474 Z0.1620
G1 X32.3089 Y-22.7994 Z0.1620
G1 X32.2834 Y-22.6515 Z0.1620
G1 X32.1816 Y-22.4479 Z0.1620
G2X32.1746Y-22.4130Z0.1620I0.0603J0.0302
G1 X32.1814 Y-22.3307 Z0.1620
G1 X32.2113 Y-22.2130 Z0.1620
G3X32.1431Y-22.1247Z0.1620I-0.1055J-0.0110
G1 X32.1431 Y-22.6911 Z0.1620
G0 Z0.3370
G0 X32.1431 Y-22.6911 
G0 Z0.3370
G0 X34.2533 Y-22.8548 
G1 X34.2533 Y-22.8548 Z0.2370 F75.
G1 X34.2533 Y-22.8548 Z0.2120 F25.
G1 X34.2648 Y-22.7994 Z0.2020
G1 X34.2426 Y-22.6927 Z0.1828
G1 X34.2395 Y-22.6875 Z0.1817
G1 X34.2395 Y-22.7994 Z0.1620
G1 X34.2395 Y-22.9114 Z0.1620 F60.
G1 X34.2426 Y-22.9062 Z0.1620
G3X34.2395Y-22.6875Z0.1620I-0.2410J0.1059
G1 X34.2395 Y-22.7994 Z0.1620
G1 X34.1895 Y-22.7994 Z0.1620
G1 X34.1895 Y-22.5069 Z0.1620
G1 X34.2898 Y-22.6742 Z0.1620
G1 X34.3159 Y-22.7994 Z0.1620
G1 X34.2898 Y-22.9246 Z0.1620
G1 X34.1895 Y-23.0920 Z0.1620
G1 X34.1895 Y-22.7994 Z0.1620
G0 Z0.3370
G0 X34.1895 Y-22.7994 
G0 Z0.3370
G0 X34.1992 Y-23.4279 
G1 X34.1992 Y-23.4279 Z0.2370 F75.
G1 X34.1992 Y-23.4279 Z0.2120 F25.
G1 X34.1904 Y-23.4319 Z0.2103
G1 X34.1659 Y-23.4223 Z0.2057
G1 X34.1557 Y-23.3982 Z0.2010
G1 X34.1557 Y-23.3408 Z0.1909
G1 X34.1687 Y-23.3142 Z0.1857
G1 X34.1977 Y-23.3081 Z0.1805
G1 X34.2203 Y-23.3271 Z0.1753
G1 X34.2265 Y-23.3410 Z0.1726
G1 X34.2291 Y-23.3500 Z0.1709
G1 X34.2322 Y-23.3724 Z0.1670
G1 X34.2301 Y-23.3898 Z0.1639
G1 X34.2261 Y-23.3996 Z0.1620
G1 X34.1949 Y-23.3869 Z0.1620
G1 X34.1909 Y-23.3966 Z0.1620 F60.
G1 X34.1895 Y-23.3982 Z0.1620
G1 X34.1895 Y-23.3408 Z0.1620
G1 X34.1957 Y-23.3548 Z0.1620
G1 X34.1988 Y-23.3771 Z0.1620
G1 X34.1949 Y-23.3869 Z0.1620
G0 Z0.3370
G0 X34.1949 Y-23.3869 
G0 Z0.3370
G0 X34.2304 Y-22.2395 
G1 X34.2304 Y-22.2395 Z0.2370 F75.
G1 X34.2304 Y-22.2395 Z0.2120 F25.
G1 X34.2291 Y-22.2489 Z0.2103
G1 X34.2265 Y-22.2578 Z0.2087
G1 X34.2203 Y-22.2717 Z0.2060
G1 X34.1977 Y-22.2908 Z0.2008
G1 X34.1687 Y-22.2846 Z0.1956
G1 X34.1557 Y-22.2580 Z0.1903
G1 X34.1557 Y-22.2007 Z0.1802
G1 X34.1659 Y-22.1765 Z0.1756
G1 X34.1904 Y-22.1670 Z0.1710
G1 X34.2142 Y-22.1778 Z0.1664
G1 X34.2157 Y-22.1793 Z0.1660
G1 X34.2222 Y-22.1896 Z0.1639
G1 X34.2261 Y-22.1993 Z0.1620
G1 X34.1949 Y-22.2120 Z0.1620
G1 X34.1988 Y-22.2217 Z0.1620 F60.
G1 X34.1957 Y-22.2441 Z0.1620
G1 X34.1895 Y-22.2580 Z0.1620
G1 X34.1895 Y-22.2007 Z0.1620
G1 X34.1909 Y-22.2023 Z0.1620
G1 X34.1949 Y-22.2120 Z0.1620
G1 X34.2412 Y-22.1932 Z0.1620
G3X34.1395Y-22.1088Z0.1620I-0.1164J-0.0367
G1 X34.1395 Y-22.7994 Z0.1620
G1 X34.1395 Y-23.4901 Z0.1620
G3X34.2176Y-23.2811Z0.1620I-0.0180J0.1258
G2X34.2121Y-23.2603Z0.1620I0.0617J0.0275
G1 X34.2051 Y-23.1889 Z0.1620
G2X34.2131Y-23.1498Z0.1620I0.0672J0.0066
G1 X34.3370 Y-22.9431 Z0.1620
G1 X34.3670 Y-22.7994 Z0.1620
G1 X34.3370 Y-22.6558 Z0.1620
G1 X34.2131 Y-22.4490 Z0.1620
G2X34.2051Y-22.4099Z0.1620I0.0592J0.0324
G1 X34.2121 Y-22.3386 Z0.1620
G2X34.2176Y-22.3178Z0.1620I0.0672J-0.0066
G3X34.2412Y-22.1932Z0.1620I-0.1126J0.0858
G0 Z0.3370
G0 X34.2412 Y-22.1932 
G0 Z0.3370
G0 X36.6794 Y-22.7078 
G1 X36.6794 Y-22.7078 Z0.2370 F75.
G1 X36.6794 Y-22.7078 Z0.2120 F25.
G1 X36.6605 Y-22.6776 Z0.2057
G1 X36.6111 Y-22.6242 Z0.1929
G1 X36.6111 Y-22.7994 Z0.1620
G1 X36.6111 Y-22.9747 Z0.1620 F60.
G3X36.6605Y-22.6776Z0.1620I-0.0992J0.1692
G1 X36.6111 Y-22.6242 Z0.1620
G1 X36.6111 Y-22.7994 Z0.1620
G1 X36.5611 Y-22.7994 Z0.1620
G1 X36.5611 Y-22.2306 Z0.1620
G1 X36.5961 Y-22.2508 Z0.1620
G1 X36.6203 Y-22.2887 Z0.1620
G1 X36.6061 Y-22.3095 Z0.1620
G3X36.5896Y-22.3455Z0.1620I0.0970J-0.0663
G1 X36.5740 Y-22.4037 Z0.1620
G3X36.5821Y-22.4858Z0.1620I0.1136J-0.0303
G1 X36.6094 Y-22.5414 Z0.1620
G3X36.6286Y-22.5694Z0.1620I0.1055J0.0517
G2X36.7483Y-22.8749Z0.1620I-0.1372J-0.2300
G1 X36.7004 Y-22.9517 Z0.1620
G1 X36.6286 Y-23.0294 Z0.1620
G3X36.6094Y-23.0575Z0.1620I0.0863J-0.0798
G1 X36.5821 Y-23.1131 Z0.1620
G3X36.5740Y-23.1952Z0.1620I0.1055J-0.0518
G1 X36.5896 Y-23.2534 Z0.1620
G3X36.6061Y-23.2893Z0.1620I0.1135J0.0303
G1 X36.6203 Y-23.3102 Z0.1620
G1 X36.5961 Y-23.3481 Z0.1620
G1 X36.5611 Y-23.3682 Z0.1620
G1 X36.5611 Y-22.7994 Z0.1620
G1 X36.5111 Y-22.7994 Z0.1620
G1 X36.5111 Y-23.4339 Z0.1620
G3X36.6719Y-23.2971Z0.1620I0.0083J0.1531
G1 X36.6474 Y-23.2612 Z0.1620
G2X36.6379Y-23.2405Z0.1620I0.0557J0.0381
G1 X36.6224 Y-23.1823 Z0.1620
G2X36.6270Y-23.1351Z0.1620I0.0652J0.0174
G1 X36.6543 Y-23.0795 Z0.1620
G2X36.6653Y-23.0634Z0.1620I0.0606J-0.0297
G3X36.7404Y-22.6167Z0.1620I-0.1587J0.2563
G1 X36.6653 Y-22.5355 Z0.1620
G2X36.6543Y-22.5194Z0.1620I0.0496J0.0458
G1 X36.6270 Y-22.4637 Z0.1620
G2X36.6224Y-22.4166Z0.1620I0.0606J0.0297
G1 X36.6379 Y-22.3584 Z0.1620
G2X36.6474Y-22.3377Z0.1620I0.0652J-0.0174
G1 X36.6719 Y-22.3018 Z0.1620
G1 X36.6742 Y-22.2801 Z0.1620
G3X36.5111Y-22.1649Z0.1620I-0.1624J-0.0569
G1 X36.5111 Y-22.7994 Z0.1620
G0 Z0.3370
G0 X36.5111 Y-22.7994 
G0 Z0.3370
G0 X38.5381 Y-22.8287 
G1 X38.5381 Y-22.8287 Z0.2370 F75.
G1 X38.5381 Y-22.8287 Z0.2120 F25.
G1 X38.5044 Y-22.8749 Z0.2019
G1 X38.4851 Y-22.8928 Z0.1973
G1 X38.4851 Y-22.7059 Z0.1643
G1 X38.4948 Y-22.7149 Z0.1620
G2X38.5044Y-22.8749Z0.1620I-0.0437J-0.0829 F60.
G1 X38.4851 Y-22.8928 Z0.1620
G1 X38.4851 Y-22.7059 Z0.1620
G1 X38.4948 Y-22.7149 Z0.1620
G1 X38.5289 Y-22.6783 Z0.1620
G2X38.4351Y-22.5847Z0.1620I0.2805J0.3746
G1 X38.4351 Y-23.0141 Z0.1620
G2X38.4626Y-22.9819Z0.1620I0.1235J-0.0774
G3X38.6004Y-22.7994Z0.1620I-0.1973J0.2923
G3X38.5289Y-22.6783Z0.1620I-0.1790J-0.0241
G1 X38.5629 Y-22.6417 Z0.1620
G2X38.5795Y-22.9417Z0.1620I-0.1056J-0.1563
G1 X38.4966 Y-23.0186 Z0.1620
G3X38.4734Y-23.0484Z0.1620I0.0799J-0.0861
G1 X38.4431 Y-23.1039 Z0.1620
G3X38.4351Y-23.1985Z0.1620I0.1031J-0.0563
G1 X38.4547 Y-23.2554 Z0.1620
G3X38.4732Y-23.2894Z0.1620I0.1111J0.0383
G1 X38.4876 Y-23.3079 Z0.1620
G1 X38.4863 Y-23.3104 Z0.1620
G1 X38.4676 Y-23.3279 Z0.1620
G1 X38.3890 Y-23.3658 Z0.1620
G1 X38.3851 Y-23.3662 Z0.1620
G1 X38.3851 Y-22.2327 Z0.1620
G2X38.4876Y-22.2909Z0.1620I-0.0287J-0.1698
G1 X38.4732 Y-22.3095 Z0.1620
G3X38.4547Y-22.3435Z0.1620I0.0926J-0.0722
G1 X38.4351 Y-22.4004 Z0.1620
G3X38.4431Y-22.4950Z0.1620I0.1111J-0.0382
G1 X38.4734 Y-22.5505 Z0.1620
G3X38.4966Y-22.5803Z0.1620I0.1031J0.0563
G1 X38.5629 Y-22.6417 Z0.1620
G1 X38.5969 Y-22.6051 Z0.1620
G1 X38.5306 Y-22.5436 Z0.1620
G2X38.5173Y-22.5265Z0.1620I0.0459J0.0494
G1 X38.4870 Y-22.4710 Z0.1620
G2X38.4824Y-22.4166Z0.1620I0.0592J0.0324
G1 X38.5020 Y-22.3598 Z0.1620
G2X38.5126Y-22.3402Z0.1620I0.0638J-0.0219
G3X38.4962Y-22.2292Z0.1620I-0.0328J0.0518
G1 X38.4031 Y-22.1844 Z0.1620
G1 X38.3351 Y-22.1766 Z0.1620
G1 X38.3351 Y-23.4223 Z0.1620
G3X38.5411Y-23.3142Z0.1620I0.0195J0.2130
G1 X38.5391 Y-23.2926 Z0.1620
G1 X38.5126 Y-23.2586 Z0.1620
G2X38.5020Y-23.2391Z0.1620I0.0532J0.0415
G1 X38.4824 Y-23.1822 Z0.1620
G2X38.4870Y-23.1279Z0.1620I0.0638J0.0220
G1 X38.5173 Y-23.0724 Z0.1620
G2X38.5306Y-23.0552Z0.1620I0.0592J-0.0323
G3X38.7041Y-22.7994Z0.1620I-0.2500J0.3562
G3X38.5969Y-22.6051Z0.1620I-0.2807J-0.0281
G0 Z0.3370
G0 X38.5969 Y-22.6051 
G0 Z0.3370
G0 X40.6316 Y-22.7706 
G1 X40.6316 Y-22.7706 Z0.2370 F75.
G1 X40.6316 Y-22.7706 Z0.2120 F25.
G1 X40.6298 Y-22.7666 Z0.2112
G1 X40.6223 Y-22.7569 Z0.2091
G1 X40.5984 Y-22.7439 Z0.2043
G1 X40.5727 Y-22.7527 Z0.1995
G1 X40.5618 Y-22.7776 Z0.1947
G1 X40.5619 Y-22.8213 Z0.1870
G1 X40.5728 Y-22.8461 Z0.1822
G1 X40.5985 Y-22.8549 Z0.1774
G1 X40.6223 Y-22.8419 Z0.1726
G1 X40.6298 Y-22.8323 Z0.1705
G1 X40.6360 Y-22.8190 Z0.1679
G1 X40.6387 Y-22.8067 Z0.1657
G1 X40.6387 Y-22.7921 Z0.1631
G1 X40.6374 Y-22.7860 Z0.1620
G1 X40.6044 Y-22.7933 Z0.1620
G1 X40.6030 Y-22.7872 Z0.1620 F60.
G1 X40.5956 Y-22.7775 Z0.1620
G1 X40.5956 Y-22.8213 Z0.1620
G1 X40.6030 Y-22.8117 Z0.1620
G1 X40.6058 Y-22.7994 Z0.1620
G1 X40.6044 Y-22.7933 Z0.1620
G1 X40.6532 Y-22.7825 Z0.1620
G2X40.6192Y-22.8725Z0.1620I-0.0710J-0.0246
G1 X40.5458 Y-22.9306 Z0.1620
G1 X40.5454 Y-22.9309 Z0.1620
G1 X40.5454 Y-22.6680 Z0.1620
G2X40.6532Y-22.7825Z0.1620I-0.0994J-0.2016
G1 X40.7020 Y-22.7716 Z0.1620
G1 X40.6958 Y-22.7437 Z0.1620
G1 X40.6550 Y-22.6909 Z0.1620
G1 X40.5768 Y-22.6290 Z0.1620
G2X40.5187Y-22.5405Z0.1620I0.1039J0.1313
G1 X40.4999 Y-22.4667 Z0.1620
G1 X40.4954 Y-22.4490 Z0.1620
G1 X40.4954 Y-22.7994 Z0.1620
G1 X40.4954 Y-23.1497 Z0.1620
G2X40.5024Y-23.1202Z0.1620I0.0707J-0.0011
G1 X40.5187 Y-23.0584 Z0.1620
G2X40.5768Y-22.9698Z0.1620I0.1620J-0.0428
G3X40.7082Y-22.7994Z0.1620I-0.1123J0.2225
G1 X40.7020 Y-22.7716 Z0.1620
G0 Z0.3370
G0 X40.7020 Y-22.7716 
G0 Z0.3370
G0 X40.5215 Y-22.4627 
G1 X40.5215 Y-22.4627 Z0.2370 F75.
G1 X40.5215 Y-22.4627 Z0.2120 F25.
G1 X40.5229 Y-22.4612 Z0.2116
G1 X40.5263 Y-22.4551 Z0.2104
G1 X40.5285 Y-22.4485 Z0.2092
G1 X40.5292 Y-22.4415 Z0.2080
G1 X40.5292 Y-22.4273 Z0.2054
G1 X40.5324 Y-22.4065 Z0.2017
G1 X40.5434 Y-22.3786 Z0.1964
G1 X40.5446 Y-22.3761 Z0.1960
G1 X40.5474 Y-22.3695 Z0.1947
G1 X40.5488 Y-22.3657 Z0.1940
G1 X40.5497 Y-22.3618 Z0.1933
G1 X40.5501 Y-22.3577 Z0.1925
G1 X40.5500 Y-22.3537 Z0.1918
G1 X40.5495 Y-22.3497 Z0.1911
G1 X40.5485 Y-22.3458 Z0.1904
G1 X40.5470 Y-22.3421 Z0.1897
G1 X40.5451 Y-22.3385 Z0.1890
G1 X40.5428 Y-22.3352 Z0.1883
G1 X40.5401 Y-22.3322 Z0.1876
G1 X40.5370 Y-22.3296 Z0.1869
G1 X40.5337 Y-22.3273 Z0.1862
G1 X40.5301 Y-22.3254 Z0.1854
G1 X40.5264 Y-22.3240 Z0.1847
G1 X40.5225 Y-22.3231 Z0.1840
G1 X40.5015 Y-22.3192 Z0.1803
G1 X40.4976 Y-22.3187 Z0.1796
G1 X40.4937 Y-22.3187 Z0.1789
G1 X40.4898 Y-22.3191 Z0.1782
G1 X40.4859 Y-22.3200 Z0.1775
G1 X40.4822 Y-22.3214 Z0.1768
G1 X40.4787 Y-22.3231 Z0.1761
G1 X40.4754 Y-22.3253 Z0.1754
G1 X40.4724 Y-22.3278 Z0.1747
G1 X40.4696 Y-22.3306 Z0.1740
G1 X40.4673 Y-22.3338 Z0.1733
G1 X40.4653 Y-22.3372 Z0.1726
G1 X40.4637 Y-22.3408 Z0.1719
G1 X40.4626 Y-22.3446 Z0.1712
G1 X40.4619 Y-22.3485 Z0.1705
G1 X40.4617 Y-22.3524 Z0.1698
G1 X40.4616 Y-22.3969 Z0.1620
G1 X40.4954 Y-22.3970 Z0.1620
G1 X40.4954 Y-22.4415 Z0.1620 F60.
G2X40.5135Y-22.3629Z0.1620I0.1467J0.0076
G1 X40.5164 Y-22.3562 Z0.1620
G1 X40.4954 Y-22.3524 Z0.1620
G1 X40.4954 Y-22.3970 Z0.1620
G0 Z0.3370
G0 X40.4954 Y-22.3970 
G0 Z0.3370
G0 X40.5242 Y-23.2754 
G1 X40.5242 Y-23.2754 Z0.2370 F75.
G1 X40.5242 Y-23.2754 Z0.2120 F25.
G1 X40.5264 Y-23.2749 Z0.2116
G1 X40.5301 Y-23.2734 Z0.2109
G1 X40.5337 Y-23.2716 Z0.2102
G1 X40.5370 Y-23.2693 Z0.2095
G1 X40.5401 Y-23.2666 Z0.2088
G1 X40.5428 Y-23.2636 Z0.2081
G1 X40.5451 Y-23.2603 Z0.2074
G1 X40.5470 Y-23.2568 Z0.2066
G1 X40.5485 Y-23.2530 Z0.2059
G1 X40.5495 Y-23.2491 Z0.2052
G1 X40.5500 Y-23.2452 Z0.2045
G1 X40.5501 Y-23.2411 Z0.2038
G1 X40.5497 Y-23.2371 Z0.2031
G1 X40.5488 Y-23.2332 Z0.2024
G1 X40.5474 Y-23.2294 Z0.2017
G1 X40.5446 Y-23.2228 Z0.2004
G1 X40.5444 Y-23.2223 Z0.2003
G1 X40.5424 Y-23.2178 Z0.1994
G1 X40.5328 Y-23.1879 Z0.1939
G1 X40.5292 Y-23.1563 Z0.1883
G1 X40.5282 Y-23.1494 Z0.1871
G1 X40.5258 Y-23.1429 Z0.1858
G1 X40.5222 Y-23.1369 Z0.1846
G1 X40.5174 Y-23.1319 Z0.1834
G1 X40.5116 Y-23.1279 Z0.1821
G1 X40.5052 Y-23.1252 Z0.1809
G1 X40.4983 Y-23.1239 Z0.1797
G1 X40.4914 Y-23.1240 Z0.1785
G1 X40.4846 Y-23.1256 Z0.1772
G1 X40.4782 Y-23.1285 Z0.1760
G1 X40.4726 Y-23.1326 Z0.1748
G1 X40.4680 Y-23.1379 Z0.1735
G1 X40.4645 Y-23.1439 Z0.1723
G1 X40.4624 Y-23.1506 Z0.1711
G1 X40.4617 Y-23.1575 Z0.1698
G1 X40.4617 Y-23.2020 Z0.1620
G1 X40.4954 Y-23.2020 Z0.1620
G1 X40.4954 Y-23.2465 Z0.1620 F60.
G1 X40.5164 Y-23.2426 Z0.1620
G1 X40.5135 Y-23.2360 Z0.1620
G2X40.4954Y-23.1575Z0.1620I0.1790J0.0826
G1 X40.4954 Y-23.2020 Z0.1620
G1 X40.4454 Y-23.2020 Z0.1620
G1 X40.4454 Y-22.7994 Z0.1620
G1 X40.4454 Y-22.2924 Z0.1620
G1 X40.5389 Y-22.3096 Z0.1620
G1 X40.5800 Y-22.3344 Z0.1620
G1 X40.5590 Y-22.3838 Z0.1620
G3X40.5507Y-22.4659Z0.1620I0.1054J-0.0520
G1 X40.5671 Y-22.5277 Z0.1620
G3X40.6078Y-22.5898Z0.1620I0.1136J0.0300
G2X40.7594Y-22.7994Z0.1620I-0.1372J-0.2589
G2X40.6078Y-23.0090Z0.1620I-0.2374J0.0120
G3X40.5671Y-23.0712Z0.1620I0.0729J-0.0922
G1 X40.5507 Y-23.1330 Z0.1620
G3X40.5590Y-23.2151Z0.1620I0.1135J-0.0301
G1 X40.5800 Y-23.2644 Z0.1620
G1 X40.5389 Y-23.2893 Z0.1620
G1 X40.4454 Y-23.3065 Z0.1620
G1 X40.4454 Y-23.2020 Z0.1620
G1 X40.3954 Y-23.2020 Z0.1620
G1 X40.3954 Y-23.3665 Z0.1620
G1 X40.5570 Y-23.3368 Z0.1620
G1 X40.6316 Y-23.2916 Z0.1620
G1 X40.6394 Y-23.2763 Z0.1620
G1 X40.6043 Y-23.1939 Z0.1620
G2X40.5991Y-23.1458Z0.1620I0.0600J0.0309
G1 X40.6154 Y-23.0840 Z0.1620
G2X40.6388Y-23.0483Z0.1620I0.0653J-0.0172
G3X40.8106Y-22.7994Z0.1620I-0.1627J0.2961
G3X40.6388Y-22.5506Z0.1620I-0.2811J-0.0104
G2X40.6154Y-22.5149Z0.1620I0.0419J0.0529
G1 X40.5991 Y-22.4531 Z0.1620
G2X40.6043Y-22.4050Z0.1620I0.0652J0.0173
G1 X40.6394 Y-22.3226 Z0.1620
G1 X40.6316 Y-22.3072 Z0.1620
G1 X40.5570 Y-22.2620 Z0.1620
G1 X40.3954 Y-22.2324 Z0.1620
G1 X40.3954 Y-22.7994 Z0.1620
G1 X40.3954 Y-23.2020 Z0.1620
G0 Z0.3370
G0 X40.3954 Y-23.2020 
G0 Z0.3370
G0 X42.8944 Y-22.8339 
G1 X42.8944 Y-22.8339 Z0.2370 F75.
G1 X42.8944 Y-22.8339 Z0.2120 F25.
G1 X42.8944 Y-22.8584 Z0.2077
G1 X42.9617 Y-22.8135 Z0.1934
G1 X42.9747 Y-22.7994 Z0.1900
G1 X42.9617 Y-22.7853 Z0.1867
G1 X42.8944 Y-22.7405 Z0.1724
G1 X42.8944 Y-22.7994 Z0.1620
G1 X42.8944 Y-22.8584 Z0.1620 F60.
G1 X42.9617 Y-22.8135 Z0.1620
G1 X42.9747 Y-22.7994 Z0.1620
G1 X42.9617 Y-22.7853 Z0.1620
G1 X42.8944 Y-22.7405 Z0.1620
G1 X42.8944 Y-22.7994 Z0.1620
G1 X42.8444 Y-22.7994 Z0.1620
G1 X42.8444 Y-22.6242 Z0.1620
G3X42.9078Y-22.6893Z0.1620I0.1841J0.1159
G2X43.0322Y-22.7994Z0.1620I-0.0850J-0.2213
G1 X43.0279 Y-22.8155 Z0.1620
G1 X42.9944 Y-22.8518 Z0.1620
G1 X42.9078 Y-22.9096 Z0.1620
G3X42.8444Y-22.9747Z0.1620I0.1207J-0.1809
G1 X42.8444 Y-22.7994 Z0.1620
G1 X42.7944 Y-22.7994 Z0.1620
G1 X42.7944 Y-23.2268 Z0.1620
G1 X42.8567 Y-23.2175 Z0.1620
G2X42.8503Y-23.1056Z0.1620I0.1458J0.0645
G1 X42.8672 Y-23.0453 Z0.1620
G2X42.9356Y-22.9512Z0.1620I0.1613J-0.0452
G3X43.0839Y-22.7994Z0.1620I-0.0944J0.2406
G1 X43.0731 Y-22.7586 Z0.1620
G1 X43.0271 Y-22.7088 Z0.1620
G1 X42.9356 Y-22.6477 Z0.1620
G2X42.8672Y-22.5536Z0.1620I0.0929J0.1394
G1 X42.8503 Y-22.4933 Z0.1620
G2X42.8567Y-22.3814Z0.1620I0.1716J0.0463
G1 X42.7944 Y-22.3721 Z0.1620
G1 X42.7944 Y-22.7994 Z0.1620
G1 X42.7444 Y-22.7994 Z0.1620
G1 X42.7444 Y-22.3140 Z0.1620
G1 X42.8773 Y-22.3339 Z0.1620
G1 X42.9262 Y-22.3583 Z0.1620
G1 X42.9110 Y-22.3872 Z0.1620
G3X42.8984Y-22.4798Z0.1620I0.1007J-0.0608
G1 X42.9154 Y-22.5401 Z0.1620
G3X42.9633Y-22.6061Z0.1620I0.1131J0.0318
G2X43.1356Y-22.7994Z0.1620I-0.1134J-0.2745
G1 X43.1182 Y-22.8651 Z0.1620
G1 X43.0598 Y-22.9284 Z0.1620
G1 X42.9633 Y-22.9928 Z0.1620
G3X42.9154Y-23.0588Z0.1620I0.0652J-0.0977
G1 X42.8984 Y-23.1191 Z0.1620
G3X42.9110Y-23.2117Z0.1620I0.1131J-0.0318
G1 X42.9262 Y-23.2406 Z0.1620
G1 X42.8773 Y-23.2650 Z0.1620
G1 X42.7444 Y-23.2848 Z0.1620
G1 X42.7444 Y-22.7994 Z0.1620
G1 X42.6944 Y-22.7994 Z0.1620
G1 X42.6944 Y-23.3429 Z0.1620
G1 X42.8925 Y-23.3133 Z0.1620
G1 X42.9836 Y-23.2679 Z0.1620
G1 X42.9910 Y-23.2565 Z0.1620
G1 X42.9544 Y-23.1867 Z0.1620
G2X42.9466Y-23.1326Z0.1620I0.0572J0.0359
G1 X42.9635 Y-23.0723 Z0.1620
G2X42.9910Y-23.0344Z0.1620I0.0650J-0.0182
G3X43.1874Y-22.7994Z0.1620I-0.1349J0.3123
G1 X43.1634 Y-22.7090 Z0.1620
G1 X43.0925 Y-22.6322 Z0.1620
G1 X42.9910 Y-22.5645 Z0.1620
G2X42.9635Y-22.5266Z0.1620I0.0375J0.0562
G1 X42.9466 Y-22.4663 Z0.1620
G2X42.9544Y-22.4121Z0.1620I0.0650J0.0183
G1 X42.9910 Y-22.3424 Z0.1620
G1 X42.9836 Y-22.3310 Z0.1620
G1 X42.8925 Y-22.2856 Z0.1620
G1 X42.6944 Y-22.2560 Z0.1620
G1 X42.6944 Y-22.7994 Z0.1620
G0 Z1.0000
G0 X42.6944 Y-22.7994 
M5
G53 Z
X2Y0
