( MOP:  02-inlay-Dot6mm-idPT04-s25PT5 )
( FILE: G:\Shared drives\AlloyProjectFiles\Customer CAD files\Alloy-Standard-Builds-CAM\Fingerboards-in\02-inlay-Dot6mm-idPT04-s25PT5.nc)
G90
(  BEGIN TOOL LIST )
(  TOOL 7 - Downcut PT125 - DESC: 0.1250 DIA, 2 FLUTE,  CARBIDE MAT )
(  ENDOF TOOL LIST )
( 02-inlay-Dot6mm-idPT04-s25PT5)
T07
S11000
M3
G0 Z4.0000
G0 X27.3045 Y-23.3508 
G1 X27.3045 Y-23.3508 Z0.2700 F75.
G1 X27.3098 Y-23.3527 Z0.2690 F25.
G1 X27.3167 Y-23.3543 Z0.2677
G1 X27.3238 Y-23.3550 Z0.2665
G1 X27.3309 Y-23.3548 Z0.2652
G1 X27.3380 Y-23.3537 Z0.2640
G1 X27.3448 Y-23.3516 Z0.2627
G1 X27.3513 Y-23.3487 Z0.2615
G1 X27.3574 Y-23.3450 Z0.2602
G1 X27.3630 Y-23.3406 Z0.2590
G1 X27.3679 Y-23.3355 Z0.2577
G1 X27.3722 Y-23.3298 Z0.2564
G1 X27.3757 Y-23.3236 Z0.2552
G1 X27.3784 Y-23.3170 Z0.2539
G1 X27.3802 Y-23.3101 Z0.2527
G1 X27.3811 Y-23.3030 Z0.2514
G1 X27.3811 Y-23.2959 Z0.2502
G1 X27.3802 Y-23.2888 Z0.2489
G1 X27.3784 Y-23.2819 Z0.2476
G1 X27.3757 Y-23.2753 Z0.2464
G1 X27.3722 Y-23.2691 Z0.2451
G1 X27.3679 Y-23.2634 Z0.2439
G1 X27.3630 Y-23.2583 Z0.2426
G1 X27.3574 Y-23.2538 Z0.2414
G1 X27.3513 Y-23.2501 Z0.2401
G1 X27.3448 Y-23.2472 Z0.2388
G1 X27.3380 Y-23.2452 Z0.2376
G1 X27.3309 Y-23.2441 Z0.2363
G1 X27.3238 Y-23.2439 Z0.2351
G1 X27.3167 Y-23.2445 Z0.2338
G1 X27.3098 Y-23.2461 Z0.2326
G1 X27.3031 Y-23.2486 Z0.2313
G1 X27.2968 Y-23.2519 Z0.2301
G1 X27.2909 Y-23.2560 Z0.2288
G1 X27.2856 Y-23.2607 Z0.2275
G1 X27.2810 Y-23.2662 Z0.2263
G1 X27.2771 Y-23.2721 Z0.2250
G1 X27.2740 Y-23.2786 Z0.2238
G1 X27.2718 Y-23.2853 Z0.2225
G1 X27.2704 Y-23.2923 Z0.2213
G1 X27.2700 Y-23.2994 Z0.2200
G17
G3X27.3812Y-23.2994Z0.2200I0.0556J0.0000 F60.
G3X27.2700Y-23.2994Z0.2200I-0.0556J0.0000
G0 Z0.4995
G0 X27.2700 Y-23.2994 
G0 Z0.4995
G0 X27.3045 Y-22.3508 
G1 X27.3045 Y-22.3508 Z0.2700 F75.
G1 X27.3098 Y-22.3527 Z0.2690 F25.
G1 X27.3167 Y-22.3543 Z0.2677
G1 X27.3238 Y-22.3550 Z0.2665
G1 X27.3309 Y-22.3548 Z0.2652
G1 X27.3380 Y-22.3537 Z0.2640
G1 X27.3448 Y-22.3516 Z0.2627
G1 X27.3513 Y-22.3487 Z0.2615
G1 X27.3574 Y-22.3450 Z0.2602
G1 X27.3630 Y-22.3406 Z0.2590
G1 X27.3679 Y-22.3355 Z0.2577
G1 X27.3722 Y-22.3298 Z0.2564
G1 X27.3757 Y-22.3236 Z0.2552
G1 X27.3784 Y-22.3170 Z0.2539
G1 X27.3802 Y-22.3101 Z0.2527
G1 X27.3811 Y-22.3030 Z0.2514
G1 X27.3811 Y-22.2959 Z0.2502
G1 X27.3802 Y-22.2888 Z0.2489
G1 X27.3784 Y-22.2819 Z0.2476
G1 X27.3757 Y-22.2753 Z0.2464
G1 X27.3722 Y-22.2691 Z0.2451
G1 X27.3679 Y-22.2634 Z0.2439
G1 X27.3630 Y-22.2583 Z0.2426
G1 X27.3574 Y-22.2538 Z0.2414
G1 X27.3513 Y-22.2501 Z0.2401
G1 X27.3448 Y-22.2472 Z0.2388
G1 X27.3380 Y-22.2452 Z0.2376
G1 X27.3309 Y-22.2441 Z0.2363
G1 X27.3238 Y-22.2439 Z0.2351
G1 X27.3167 Y-22.2445 Z0.2338
G1 X27.3098 Y-22.2461 Z0.2326
G1 X27.3031 Y-22.2486 Z0.2313
G1 X27.2968 Y-22.2519 Z0.2301
G1 X27.2909 Y-22.2560 Z0.2288
G1 X27.2856 Y-22.2607 Z0.2275
G1 X27.2810 Y-22.2662 Z0.2263
G1 X27.2771 Y-22.2721 Z0.2250
G1 X27.2740 Y-22.2786 Z0.2238
G1 X27.2718 Y-22.2853 Z0.2225
G1 X27.2704 Y-22.2923 Z0.2213
G1 X27.2700 Y-22.2994 Z0.2200
G3X27.3812Y-22.2994Z0.2200I0.0556J0.0000 F60.
G3X27.2700Y-22.2994Z0.2200I-0.0556J0.0000
G0 Z0.4995
G0 X27.2700 Y-22.2994 
G0 Z0.4995
G0 X28.5465 Y-22.8510 
G1 X28.5465 Y-22.8510 Z0.2700 F75.
G1 X28.5518 Y-22.8530 Z0.2690 F25.
G1 X28.5588 Y-22.8546 Z0.2677
G1 X28.5658 Y-22.8552 Z0.2665
G1 X28.5730 Y-22.8550 Z0.2652
G1 X28.5800 Y-22.8539 Z0.2640
G1 X28.5868 Y-22.8518 Z0.2627
G1 X28.5933 Y-22.8490 Z0.2615
G1 X28.5994 Y-22.8453 Z0.2602
G1 X28.6050 Y-22.8408 Z0.2590
G1 X28.6100 Y-22.8357 Z0.2577
G1 X28.6142 Y-22.8300 Z0.2564
G1 X28.6177 Y-22.8238 Z0.2552
G1 X28.6204 Y-22.8172 Z0.2539
G1 X28.6222 Y-22.8103 Z0.2527
G1 X28.6231 Y-22.8032 Z0.2514
G1 X28.6231 Y-22.7961 Z0.2502
G1 X28.6222 Y-22.7890 Z0.2489
G1 X28.6204 Y-22.7821 Z0.2476
G1 X28.6177 Y-22.7755 Z0.2464
G1 X28.6142 Y-22.7693 Z0.2451
G1 X28.6100 Y-22.7636 Z0.2439
G1 X28.6050 Y-22.7585 Z0.2426
G1 X28.5994 Y-22.7541 Z0.2414
G1 X28.5933 Y-22.7504 Z0.2401
G1 X28.5868 Y-22.7475 Z0.2388
G1 X28.5800 Y-22.7454 Z0.2376
G1 X28.5730 Y-22.7443 Z0.2363
G1 X28.5658 Y-22.7441 Z0.2351
G1 X28.5588 Y-22.7448 Z0.2338
G1 X28.5518 Y-22.7463 Z0.2326
G1 X28.5451 Y-22.7488 Z0.2313
G1 X28.5388 Y-22.7521 Z0.2301
G1 X28.5330 Y-22.7562 Z0.2288
G1 X28.5277 Y-22.7610 Z0.2275
G1 X28.5231 Y-22.7664 Z0.2263
G1 X28.5192 Y-22.7724 Z0.2250
G1 X28.5161 Y-22.7788 Z0.2238
G1 X28.5138 Y-22.7856 Z0.2225
G1 X28.5125 Y-22.7925 Z0.2213
G1 X28.5120 Y-22.7997 Z0.2200
G3X28.6232Y-22.7997Z0.2200I0.0556J0.0000 F60.
G3X28.5120Y-22.7997Z0.2200I-0.0556J0.0000
G0 Z0.4995
G0 X28.5120 Y-22.7997 
G0 Z0.4995
G0 X29.5025 Y-22.8510 
G1 X29.5025 Y-22.8510 Z0.2700 F75.
G1 X29.5078 Y-22.8530 Z0.2690 F25.
G1 X29.5148 Y-22.8546 Z0.2677
G1 X29.5218 Y-22.8552 Z0.2665
G1 X29.5290 Y-22.8550 Z0.2652
G1 X29.5360 Y-22.8539 Z0.2640
G1 X29.5428 Y-22.8518 Z0.2627
G1 X29.5493 Y-22.8490 Z0.2615
G1 X29.5554 Y-22.8453 Z0.2602
G1 X29.5610 Y-22.8408 Z0.2590
G1 X29.5660 Y-22.8357 Z0.2577
G1 X29.5702 Y-22.8300 Z0.2564
G1 X29.5737 Y-22.8238 Z0.2552
G1 X29.5764 Y-22.8172 Z0.2539
G1 X29.5782 Y-22.8103 Z0.2527
G1 X29.5791 Y-22.8032 Z0.2514
G1 X29.5791 Y-22.7961 Z0.2502
G1 X29.5782 Y-22.7890 Z0.2489
G1 X29.5764 Y-22.7821 Z0.2476
G1 X29.5737 Y-22.7755 Z0.2464
G1 X29.5702 Y-22.7693 Z0.2451
G1 X29.5660 Y-22.7636 Z0.2439
G1 X29.5610 Y-22.7585 Z0.2426
G1 X29.5554 Y-22.7541 Z0.2414
G1 X29.5493 Y-22.7504 Z0.2401
G1 X29.5428 Y-22.7475 Z0.2388
G1 X29.5360 Y-22.7454 Z0.2376
G1 X29.5290 Y-22.7443 Z0.2363
G1 X29.5218 Y-22.7441 Z0.2351
G1 X29.5148 Y-22.7448 Z0.2338
G1 X29.5078 Y-22.7463 Z0.2326
G1 X29.5011 Y-22.7488 Z0.2313
G1 X29.4948 Y-22.7521 Z0.2301
G1 X29.4890 Y-22.7562 Z0.2288
G1 X29.4837 Y-22.7610 Z0.2275
G1 X29.4791 Y-22.7664 Z0.2263
G1 X29.4752 Y-22.7724 Z0.2250
G1 X29.4721 Y-22.7788 Z0.2238
G1 X29.4698 Y-22.7856 Z0.2225
G1 X29.4685 Y-22.7925 Z0.2213
G1 X29.4680 Y-22.7997 Z0.2200
G3X29.5792Y-22.7997Z0.2200I0.0556J0.0000 F60.
G3X29.4680Y-22.7997Z0.2200I-0.0556J0.0000
G0 Z0.4995
G0 X29.4680 Y-22.7997 
G0 Z0.4995
G0 X30.5756 Y-22.8510 
G1 X30.5756 Y-22.8510 Z0.2700 F75.
G1 X30.5809 Y-22.8530 Z0.2690 F25.
G1 X30.5879 Y-22.8546 Z0.2677
G1 X30.5949 Y-22.8552 Z0.2665
G1 X30.6021 Y-22.8550 Z0.2652
G1 X30.6091 Y-22.8539 Z0.2640
G1 X30.6159 Y-22.8518 Z0.2627
G1 X30.6224 Y-22.8490 Z0.2615
G1 X30.6285 Y-22.8453 Z0.2602
G1 X30.6341 Y-22.8408 Z0.2590
G1 X30.6391 Y-22.8357 Z0.2577
G1 X30.6433 Y-22.8300 Z0.2564
G1 X30.6468 Y-22.8238 Z0.2552
G1 X30.6495 Y-22.8172 Z0.2539
G1 X30.6513 Y-22.8103 Z0.2527
G1 X30.6522 Y-22.8032 Z0.2514
G1 X30.6522 Y-22.7961 Z0.2502
G1 X30.6513 Y-22.7890 Z0.2489
G1 X30.6495 Y-22.7821 Z0.2476
G1 X30.6468 Y-22.7755 Z0.2464
G1 X30.6433 Y-22.7693 Z0.2451
G1 X30.6391 Y-22.7636 Z0.2439
G1 X30.6341 Y-22.7585 Z0.2426
G1 X30.6285 Y-22.7541 Z0.2414
G1 X30.6224 Y-22.7504 Z0.2401
G1 X30.6159 Y-22.7475 Z0.2388
G1 X30.6091 Y-22.7454 Z0.2376
G1 X30.6021 Y-22.7443 Z0.2363
G1 X30.5949 Y-22.7441 Z0.2351
G1 X30.5879 Y-22.7448 Z0.2338
G1 X30.5809 Y-22.7463 Z0.2326
G1 X30.5742 Y-22.7488 Z0.2313
G1 X30.5679 Y-22.7521 Z0.2301
G1 X30.5621 Y-22.7562 Z0.2288
G1 X30.5568 Y-22.7610 Z0.2275
G1 X30.5522 Y-22.7664 Z0.2263
G1 X30.5483 Y-22.7724 Z0.2250
G1 X30.5452 Y-22.7788 Z0.2238
G1 X30.5429 Y-22.7856 Z0.2225
G1 X30.5416 Y-22.7925 Z0.2213
G1 X30.5411 Y-22.7997 Z0.2200
G3X30.6523Y-22.7997Z0.2200I0.0556J0.0000 F60.
G3X30.5411Y-22.7997Z0.2200I-0.0556J0.0000
G0 Z0.4995
G0 X30.5411 Y-22.7997 
G0 Z0.4995
G0 X31.7801 Y-22.8510 
G1 X31.7801 Y-22.8510 Z0.2700 F75.
G1 X31.7854 Y-22.8530 Z0.2690 F25.
G1 X31.7924 Y-22.8546 Z0.2677
G1 X31.7994 Y-22.8552 Z0.2665
G1 X31.8066 Y-22.8550 Z0.2652
G1 X31.8136 Y-22.8539 Z0.2640
G1 X31.8204 Y-22.8518 Z0.2627
G1 X31.8269 Y-22.8490 Z0.2615
G1 X31.8330 Y-22.8453 Z0.2602
G1 X31.8386 Y-22.8408 Z0.2590
G1 X31.8436 Y-22.8357 Z0.2577
G1 X31.8478 Y-22.8300 Z0.2564
G1 X31.8513 Y-22.8238 Z0.2552
G1 X31.8540 Y-22.8172 Z0.2539
G1 X31.8558 Y-22.8103 Z0.2527
G1 X31.8567 Y-22.8032 Z0.2514
G1 X31.8567 Y-22.7961 Z0.2502
G1 X31.8558 Y-22.7890 Z0.2489
G1 X31.8540 Y-22.7821 Z0.2476
G1 X31.8513 Y-22.7755 Z0.2464
G1 X31.8478 Y-22.7693 Z0.2451
G1 X31.8436 Y-22.7636 Z0.2439
G1 X31.8386 Y-22.7585 Z0.2426
G1 X31.8330 Y-22.7541 Z0.2414
G1 X31.8269 Y-22.7504 Z0.2401
G1 X31.8204 Y-22.7475 Z0.2388
G1 X31.8136 Y-22.7454 Z0.2376
G1 X31.8066 Y-22.7443 Z0.2363
G1 X31.7994 Y-22.7441 Z0.2351
G1 X31.7924 Y-22.7448 Z0.2338
G1 X31.7854 Y-22.7463 Z0.2326
G1 X31.7787 Y-22.7488 Z0.2313
G1 X31.7724 Y-22.7521 Z0.2301
G1 X31.7666 Y-22.7562 Z0.2288
G1 X31.7613 Y-22.7610 Z0.2275
G1 X31.7567 Y-22.7664 Z0.2263
G1 X31.7528 Y-22.7724 Z0.2250
G1 X31.7497 Y-22.7788 Z0.2238
G1 X31.7474 Y-22.7856 Z0.2225
G1 X31.7461 Y-22.7925 Z0.2213
G1 X31.7456 Y-22.7997 Z0.2200
G3X31.8568Y-22.7997Z0.2200I0.0556J0.0000 F60.
G3X31.7456Y-22.7997Z0.2200I-0.0556J0.0000
G0 Z0.4995
G0 X31.7456 Y-22.7997 
G0 Z0.4995
G0 X33.8690 Y-23.3508 
G1 X33.8690 Y-23.3508 Z0.2700 F75.
G1 X33.8743 Y-23.3527 Z0.2690 F25.
G1 X33.8813 Y-23.3543 Z0.2677
G1 X33.8883 Y-23.3550 Z0.2665
G1 X33.8955 Y-23.3548 Z0.2652
G1 X33.9025 Y-23.3537 Z0.2640
G1 X33.9093 Y-23.3516 Z0.2627
G1 X33.9158 Y-23.3487 Z0.2615
G1 X33.9219 Y-23.3450 Z0.2602
G1 X33.9275 Y-23.3406 Z0.2590
G1 X33.9325 Y-23.3355 Z0.2577
G1 X33.9367 Y-23.3298 Z0.2564
G1 X33.9402 Y-23.3236 Z0.2552
G1 X33.9429 Y-23.3170 Z0.2539
G1 X33.9447 Y-23.3101 Z0.2527
G1 X33.9456 Y-23.3030 Z0.2514
G1 X33.9456 Y-23.2959 Z0.2502
G1 X33.9447 Y-23.2888 Z0.2489
G1 X33.9429 Y-23.2819 Z0.2476
G1 X33.9402 Y-23.2753 Z0.2464
G1 X33.9367 Y-23.2691 Z0.2451
G1 X33.9325 Y-23.2634 Z0.2439
G1 X33.9275 Y-23.2583 Z0.2426
G1 X33.9219 Y-23.2538 Z0.2414
G1 X33.9158 Y-23.2501 Z0.2401
G1 X33.9093 Y-23.2472 Z0.2388
G1 X33.9025 Y-23.2452 Z0.2376
G1 X33.8955 Y-23.2441 Z0.2363
G1 X33.8883 Y-23.2439 Z0.2351
G1 X33.8813 Y-23.2445 Z0.2338
G1 X33.8743 Y-23.2461 Z0.2326
G1 X33.8676 Y-23.2486 Z0.2313
G1 X33.8613 Y-23.2519 Z0.2301
G1 X33.8555 Y-23.2560 Z0.2288
G1 X33.8502 Y-23.2607 Z0.2275
G1 X33.8456 Y-23.2662 Z0.2263
G1 X33.8417 Y-23.2721 Z0.2250
G1 X33.8386 Y-23.2786 Z0.2238
G1 X33.8363 Y-23.2853 Z0.2225
G1 X33.8350 Y-23.2923 Z0.2213
G1 X33.8345 Y-23.2994 Z0.2200
G3X33.9457Y-23.2994Z0.2200I0.0556J0.0000 F60.
G3X33.8345Y-23.2994Z0.2200I-0.0556J0.0000
G0 Z0.4995
G0 X33.8345 Y-23.2994 
G0 Z0.4995
G0 X33.8690 Y-22.3508 
G1 X33.8690 Y-22.3508 Z0.2700 F75.
G1 X33.8743 Y-22.3527 Z0.2690 F25.
G1 X33.8813 Y-22.3543 Z0.2677
G1 X33.8883 Y-22.3550 Z0.2665
G1 X33.8955 Y-22.3548 Z0.2652
G1 X33.9025 Y-22.3537 Z0.2640
G1 X33.9093 Y-22.3516 Z0.2627
G1 X33.9158 Y-22.3487 Z0.2615
G1 X33.9219 Y-22.3450 Z0.2602
G1 X33.9275 Y-22.3406 Z0.2590
G1 X33.9325 Y-22.3355 Z0.2577
G1 X33.9367 Y-22.3298 Z0.2564
G1 X33.9402 Y-22.3236 Z0.2552
G1 X33.9429 Y-22.3170 Z0.2539
G1 X33.9447 Y-22.3101 Z0.2527
G1 X33.9456 Y-22.3030 Z0.2514
G1 X33.9456 Y-22.2959 Z0.2502
G1 X33.9447 Y-22.2888 Z0.2489
G1 X33.9429 Y-22.2819 Z0.2476
G1 X33.9402 Y-22.2753 Z0.2464
G1 X33.9367 Y-22.2691 Z0.2451
G1 X33.9325 Y-22.2634 Z0.2439
G1 X33.9275 Y-22.2583 Z0.2426
G1 X33.9219 Y-22.2538 Z0.2414
G1 X33.9158 Y-22.2501 Z0.2401
G1 X33.9093 Y-22.2472 Z0.2388
G1 X33.9025 Y-22.2452 Z0.2376
G1 X33.8955 Y-22.2441 Z0.2363
G1 X33.8883 Y-22.2439 Z0.2351
G1 X33.8813 Y-22.2445 Z0.2338
G1 X33.8743 Y-22.2461 Z0.2326
G1 X33.8676 Y-22.2486 Z0.2313
G1 X33.8613 Y-22.2519 Z0.2301
G1 X33.8555 Y-22.2560 Z0.2288
G1 X33.8502 Y-22.2607 Z0.2275
G1 X33.8456 Y-22.2662 Z0.2263
G1 X33.8417 Y-22.2721 Z0.2250
G1 X33.8386 Y-22.2786 Z0.2238
G1 X33.8363 Y-22.2853 Z0.2225
G1 X33.8350 Y-22.2923 Z0.2213
G1 X33.8345 Y-22.2994 Z0.2200
G3X33.9457Y-22.2994Z0.2200I0.0556J0.0000 F60.
G3X33.8345Y-22.2994Z0.2200I-0.0556J0.0000
G0 Z0.4995
G0 X33.8345 Y-22.2994 
G0 Z0.4995
G0 X36.3531 Y-22.8510 
G1 X36.3531 Y-22.8510 Z0.2700 F75.
G1 X36.3584 Y-22.8530 Z0.2690 F25.
G1 X36.3654 Y-22.8546 Z0.2677
G1 X36.3724 Y-22.8552 Z0.2665
G1 X36.3796 Y-22.8550 Z0.2652
G1 X36.3866 Y-22.8539 Z0.2640
G1 X36.3934 Y-22.8518 Z0.2627
G1 X36.3999 Y-22.8490 Z0.2615
G1 X36.4060 Y-22.8453 Z0.2602
G1 X36.4116 Y-22.8408 Z0.2590
G1 X36.4166 Y-22.8357 Z0.2577
G1 X36.4208 Y-22.8300 Z0.2564
G1 X36.4243 Y-22.8238 Z0.2552
G1 X36.4270 Y-22.8172 Z0.2539
G1 X36.4288 Y-22.8103 Z0.2527
G1 X36.4297 Y-22.8032 Z0.2514
G1 X36.4297 Y-22.7961 Z0.2502
G1 X36.4288 Y-22.7890 Z0.2489
G1 X36.4270 Y-22.7821 Z0.2476
G1 X36.4243 Y-22.7755 Z0.2464
G1 X36.4208 Y-22.7693 Z0.2451
G1 X36.4166 Y-22.7636 Z0.2439
G1 X36.4116 Y-22.7585 Z0.2426
G1 X36.4060 Y-22.7541 Z0.2414
G1 X36.3999 Y-22.7504 Z0.2401
G1 X36.3934 Y-22.7475 Z0.2388
G1 X36.3866 Y-22.7454 Z0.2376
G1 X36.3796 Y-22.7443 Z0.2363
G1 X36.3724 Y-22.7441 Z0.2351
G1 X36.3654 Y-22.7448 Z0.2338
G1 X36.3584 Y-22.7463 Z0.2326
G1 X36.3517 Y-22.7488 Z0.2313
G1 X36.3454 Y-22.7521 Z0.2301
G1 X36.3396 Y-22.7562 Z0.2288
G1 X36.3343 Y-22.7610 Z0.2275
G1 X36.3297 Y-22.7664 Z0.2263
G1 X36.3258 Y-22.7724 Z0.2250
G1 X36.3227 Y-22.7788 Z0.2238
G1 X36.3204 Y-22.7856 Z0.2225
G1 X36.3191 Y-22.7925 Z0.2213
G1 X36.3186 Y-22.7997 Z0.2200
G3X36.4298Y-22.7997Z0.2200I0.0556J0.0000 F60.
G3X36.3186Y-22.7997Z0.2200I-0.0556J0.0000
G0 Z0.4995
G0 X36.3186 Y-22.7997 
G0 Z0.4995
G0 X38.2651 Y-22.8510 
G1 X38.2651 Y-22.8510 Z0.2700 F75.
G1 X38.2705 Y-22.8530 Z0.2690 F25.
G1 X38.2774 Y-22.8546 Z0.2677
G1 X38.2845 Y-22.8552 Z0.2665
G1 X38.2916 Y-22.8550 Z0.2652
G1 X38.2987 Y-22.8539 Z0.2640
G1 X38.3055 Y-22.8518 Z0.2627
G1 X38.3120 Y-22.8490 Z0.2615
G1 X38.3181 Y-22.8453 Z0.2602
G1 X38.3237 Y-22.8408 Z0.2590
G1 X38.3286 Y-22.8357 Z0.2577
G1 X38.3329 Y-22.8300 Z0.2564
G1 X38.3364 Y-22.8238 Z0.2552
G1 X38.3391 Y-22.8172 Z0.2539
G1 X38.3409 Y-22.8103 Z0.2527
G1 X38.3418 Y-22.8032 Z0.2514
G1 X38.3418 Y-22.7961 Z0.2502
G1 X38.3409 Y-22.7890 Z0.2489
G1 X38.3391 Y-22.7821 Z0.2476
G1 X38.3364 Y-22.7755 Z0.2464
G1 X38.3329 Y-22.7693 Z0.2451
G1 X38.3286 Y-22.7636 Z0.2439
G1 X38.3237 Y-22.7585 Z0.2426
G1 X38.3181 Y-22.7541 Z0.2414
G1 X38.3120 Y-22.7504 Z0.2401
G1 X38.3055 Y-22.7475 Z0.2388
G1 X38.2987 Y-22.7454 Z0.2376
G1 X38.2916 Y-22.7443 Z0.2363
G1 X38.2845 Y-22.7441 Z0.2351
G1 X38.2774 Y-22.7448 Z0.2338
G1 X38.2705 Y-22.7463 Z0.2326
G1 X38.2638 Y-22.7488 Z0.2313
G1 X38.2574 Y-22.7521 Z0.2301
G1 X38.2516 Y-22.7562 Z0.2288
G1 X38.2463 Y-22.7610 Z0.2275
G1 X38.2417 Y-22.7664 Z0.2263
G1 X38.2378 Y-22.7724 Z0.2250
G1 X38.2347 Y-22.7788 Z0.2238
G1 X38.2325 Y-22.7856 Z0.2225
G1 X38.2311 Y-22.7925 Z0.2213
G1 X38.2307 Y-22.7997 Z0.2200
G3X38.3419Y-22.7997Z0.2200I0.0556J0.0000 F60.
G3X38.2307Y-22.7997Z0.2200I-0.0556J0.0000
G0 Z0.4995
G0 X38.2307 Y-22.7997 
G0 Z0.4995
G0 X40.4113 Y-22.8510 
G1 X40.4113 Y-22.8510 Z0.2700 F75.
G1 X40.4167 Y-22.8530 Z0.2690 F25.
G1 X40.4236 Y-22.8546 Z0.2677
G1 X40.4307 Y-22.8552 Z0.2665
G1 X40.4378 Y-22.8550 Z0.2652
G1 X40.4449 Y-22.8539 Z0.2640
G1 X40.4517 Y-22.8518 Z0.2627
G1 X40.4582 Y-22.8490 Z0.2615
G1 X40.4643 Y-22.8453 Z0.2602
G1 X40.4699 Y-22.8408 Z0.2590
G1 X40.4748 Y-22.8357 Z0.2577
G1 X40.4791 Y-22.8300 Z0.2564
G1 X40.4826 Y-22.8238 Z0.2552
G1 X40.4853 Y-22.8172 Z0.2539
G1 X40.4871 Y-22.8103 Z0.2527
G1 X40.4880 Y-22.8032 Z0.2514
G1 X40.4880 Y-22.7961 Z0.2502
G1 X40.4871 Y-22.7890 Z0.2489
G1 X40.4853 Y-22.7821 Z0.2476
G1 X40.4826 Y-22.7755 Z0.2464
G1 X40.4791 Y-22.7693 Z0.2451
G1 X40.4748 Y-22.7636 Z0.2439
G1 X40.4699 Y-22.7585 Z0.2426
G1 X40.4643 Y-22.7541 Z0.2414
G1 X40.4582 Y-22.7504 Z0.2401
G1 X40.4517 Y-22.7475 Z0.2388
G1 X40.4449 Y-22.7454 Z0.2376
G1 X40.4378 Y-22.7443 Z0.2363
G1 X40.4307 Y-22.7441 Z0.2351
G1 X40.4236 Y-22.7448 Z0.2338
G1 X40.4167 Y-22.7463 Z0.2326
G1 X40.4100 Y-22.7488 Z0.2313
G1 X40.4036 Y-22.7521 Z0.2301
G1 X40.3978 Y-22.7562 Z0.2288
G1 X40.3925 Y-22.7610 Z0.2275
G1 X40.3879 Y-22.7664 Z0.2263
G1 X40.3840 Y-22.7724 Z0.2250
G1 X40.3809 Y-22.7788 Z0.2238
G1 X40.3787 Y-22.7856 Z0.2225
G1 X40.3773 Y-22.7925 Z0.2213
G1 X40.3769 Y-22.7997 Z0.2200
G3X40.4881Y-22.7997Z0.2200I0.0556J0.0000 F60.
G3X40.3769Y-22.7997Z0.2200I-0.0556J0.0000
G0 Z0.4995
G0 X40.3769 Y-22.7997 
G0 Z0.4995
G0 X42.8203 Y-22.8510 
G1 X42.8203 Y-22.8510 Z0.2700 F75.
G1 X42.8257 Y-22.8530 Z0.2690 F25.
G1 X42.8326 Y-22.8546 Z0.2677
G1 X42.8397 Y-22.8552 Z0.2665
G1 X42.8468 Y-22.8550 Z0.2652
G1 X42.8539 Y-22.8539 Z0.2640
G1 X42.8607 Y-22.8518 Z0.2627
G1 X42.8672 Y-22.8490 Z0.2615
G1 X42.8733 Y-22.8453 Z0.2602
G1 X42.8789 Y-22.8408 Z0.2590
G1 X42.8838 Y-22.8357 Z0.2577
G1 X42.8881 Y-22.8300 Z0.2564
G1 X42.8916 Y-22.8238 Z0.2552
G1 X42.8943 Y-22.8172 Z0.2539
G1 X42.8961 Y-22.8103 Z0.2527
G1 X42.8970 Y-22.8032 Z0.2514
G1 X42.8970 Y-22.7961 Z0.2502
G1 X42.8961 Y-22.7890 Z0.2489
G1 X42.8943 Y-22.7821 Z0.2476
G1 X42.8916 Y-22.7755 Z0.2464
G1 X42.8881 Y-22.7693 Z0.2451
G1 X42.8838 Y-22.7636 Z0.2439
G1 X42.8789 Y-22.7585 Z0.2426
G1 X42.8733 Y-22.7541 Z0.2414
G1 X42.8672 Y-22.7504 Z0.2401
G1 X42.8607 Y-22.7475 Z0.2388
G1 X42.8539 Y-22.7454 Z0.2376
G1 X42.8468 Y-22.7443 Z0.2363
G1 X42.8397 Y-22.7441 Z0.2351
G1 X42.8326 Y-22.7448 Z0.2338
G1 X42.8257 Y-22.7463 Z0.2326
G1 X42.8190 Y-22.7488 Z0.2313
G1 X42.8126 Y-22.7521 Z0.2301
G1 X42.8068 Y-22.7562 Z0.2288
G1 X42.8015 Y-22.7610 Z0.2275
G1 X42.7969 Y-22.7664 Z0.2263
G1 X42.7930 Y-22.7724 Z0.2250
G1 X42.7899 Y-22.7788 Z0.2238
G1 X42.7877 Y-22.7856 Z0.2225
G1 X42.7863 Y-22.7925 Z0.2213
G1 X42.7859 Y-22.7997 Z0.2200
G3X42.8971Y-22.7997Z0.2200I0.0556J0.0000 F60.
G3X42.7859Y-22.7997Z0.2200I-0.0556J0.0000
G0 Z4.0000
G0 X42.7859 Y-22.7997 
M5
G53 Z
X2Y0
