( MOP:  02-inlay-Dot6mm-idPT06-s27 )
( FILE: G:\Shared drives\AlloyProjectFiles\Customer CAD files\Alloy-Standard-Builds-CAM\Fingerboards-in\02-inlay-Dot6mm-idPT06-s27.nc)
G90
(  BEGIN TOOL LIST )
(  TOOL 7 - Downcut PT125 - DESC: 0.1250 DIA, 2 FLUTE,  CARBIDE MAT )
(  ENDOF TOOL LIST )
( 02-inlay-Dot6mm-idPT06-s27)
T07
S11000
M3
G0 Z1.0000
G0 X26.1910 Y-23.3508 
G1 X26.1910 Y-23.3508 Z0.2710 F75.
G1 X26.1963 Y-23.3527 Z0.2700 F25.
G1 X26.2032 Y-23.3543 Z0.2687
G1 X26.2103 Y-23.3550 Z0.2675
G1 X26.2175 Y-23.3548 Z0.2662
G1 X26.2245 Y-23.3537 Z0.2650
G1 X26.2313 Y-23.3516 Z0.2637
G1 X26.2378 Y-23.3487 Z0.2625
G1 X26.2439 Y-23.3450 Z0.2612
G1 X26.2495 Y-23.3406 Z0.2600
G1 X26.2545 Y-23.3355 Z0.2587
G1 X26.2587 Y-23.3298 Z0.2574
G1 X26.2622 Y-23.3236 Z0.2562
G1 X26.2649 Y-23.3170 Z0.2549
G1 X26.2667 Y-23.3101 Z0.2537
G1 X26.2676 Y-23.3030 Z0.2524
G1 X26.2676 Y-23.2959 Z0.2512
G1 X26.2667 Y-23.2888 Z0.2499
G1 X26.2649 Y-23.2819 Z0.2486
G1 X26.2622 Y-23.2753 Z0.2474
G1 X26.2587 Y-23.2691 Z0.2461
G1 X26.2545 Y-23.2634 Z0.2449
G1 X26.2495 Y-23.2583 Z0.2436
G1 X26.2439 Y-23.2538 Z0.2424
G1 X26.2378 Y-23.2501 Z0.2411
G1 X26.2313 Y-23.2472 Z0.2398
G1 X26.2245 Y-23.2452 Z0.2386
G1 X26.2175 Y-23.2441 Z0.2373
G1 X26.2103 Y-23.2439 Z0.2361
G1 X26.2032 Y-23.2445 Z0.2348
G1 X26.1963 Y-23.2461 Z0.2336
G1 X26.1896 Y-23.2486 Z0.2323
G1 X26.1833 Y-23.2519 Z0.2311
G1 X26.1774 Y-23.2560 Z0.2298
G1 X26.1722 Y-23.2607 Z0.2285
G1 X26.1675 Y-23.2662 Z0.2273
G1 X26.1637 Y-23.2721 Z0.2260
G1 X26.1606 Y-23.2786 Z0.2248
G1 X26.1583 Y-23.2853 Z0.2235
G1 X26.1570 Y-23.2923 Z0.2223
G1 X26.1565 Y-23.2994 Z0.2210
G17
G3X26.2677Y-23.2994Z0.2210I0.0556J0.0000 F60.
G3X26.1565Y-23.2994Z0.2210I-0.0556J0.0000
G0 Z0.2420
G0 X26.1565 Y-23.2994 
G0 Z0.2420
G0 X26.1910 Y-23.2481 
G1 X26.1963 Y-23.2461 Z0.2410 F25.
G1 X26.2032 Y-23.2445 Z0.2397
G1 X26.2103 Y-23.2439 Z0.2385
G1 X26.2175 Y-23.2441 Z0.2372
G1 X26.2245 Y-23.2452 Z0.2360
G1 X26.2313 Y-23.2472 Z0.2347
G1 X26.2378 Y-23.2501 Z0.2335
G1 X26.2439 Y-23.2538 Z0.2322
G1 X26.2495 Y-23.2583 Z0.2310
G1 X26.2545 Y-23.2634 Z0.2297
G1 X26.2587 Y-23.2691 Z0.2284
G1 X26.2622 Y-23.2753 Z0.2272
G1 X26.2649 Y-23.2819 Z0.2259
G1 X26.2667 Y-23.2888 Z0.2247
G1 X26.2676 Y-23.2959 Z0.2234
G1 X26.2676 Y-23.3030 Z0.2222
G1 X26.2667 Y-23.3101 Z0.2209
G1 X26.2649 Y-23.3170 Z0.2196
G1 X26.2622 Y-23.3236 Z0.2184
G1 X26.2587 Y-23.3298 Z0.2171
G1 X26.2545 Y-23.3355 Z0.2159
G1 X26.2495 Y-23.3406 Z0.2146
G1 X26.2439 Y-23.3450 Z0.2134
G1 X26.2378 Y-23.3487 Z0.2121
G1 X26.2313 Y-23.3516 Z0.2108
G1 X26.2245 Y-23.3537 Z0.2096
G1 X26.2175 Y-23.3548 Z0.2083
G1 X26.2103 Y-23.3550 Z0.2071
G1 X26.2032 Y-23.3543 Z0.2058
G1 X26.1963 Y-23.3527 Z0.2046
G1 X26.1896 Y-23.3503 Z0.2033
G1 X26.1833 Y-23.3470 Z0.2021
G1 X26.1774 Y-23.3429 Z0.2008
G1 X26.1722 Y-23.3381 Z0.1995
G1 X26.1675 Y-23.3327 Z0.1983
G1 X26.1637 Y-23.3267 Z0.1970
G1 X26.1606 Y-23.3203 Z0.1958
G1 X26.1583 Y-23.3135 Z0.1945
G1 X26.1570 Y-23.3065 Z0.1933
G1 X26.1565 Y-23.2994 Z0.1920
G2X26.2677Y-23.2994Z0.1920I0.0556J0.0000 F60.
G2X26.1565Y-23.2994Z0.1920I-0.0556J0.0000
G0 Z0.4995
G0 X26.1565 Y-23.2994 
G0 Z0.4995
G0 X26.1910 Y-22.3508 
G1 X26.1910 Y-22.3508 Z0.2710 F75.
G1 X26.1963 Y-22.3527 Z0.2700 F25.
G1 X26.2032 Y-22.3543 Z0.2687
G1 X26.2103 Y-22.3550 Z0.2675
G1 X26.2175 Y-22.3548 Z0.2662
G1 X26.2245 Y-22.3537 Z0.2650
G1 X26.2313 Y-22.3516 Z0.2637
G1 X26.2378 Y-22.3487 Z0.2625
G1 X26.2439 Y-22.3450 Z0.2612
G1 X26.2495 Y-22.3406 Z0.2600
G1 X26.2545 Y-22.3355 Z0.2587
G1 X26.2587 Y-22.3298 Z0.2574
G1 X26.2622 Y-22.3236 Z0.2562
G1 X26.2649 Y-22.3170 Z0.2549
G1 X26.2667 Y-22.3101 Z0.2537
G1 X26.2676 Y-22.3030 Z0.2524
G1 X26.2676 Y-22.2959 Z0.2512
G1 X26.2667 Y-22.2888 Z0.2499
G1 X26.2649 Y-22.2819 Z0.2486
G1 X26.2622 Y-22.2753 Z0.2474
G1 X26.2587 Y-22.2691 Z0.2461
G1 X26.2545 Y-22.2634 Z0.2449
G1 X26.2495 Y-22.2583 Z0.2436
G1 X26.2439 Y-22.2538 Z0.2424
G1 X26.2378 Y-22.2501 Z0.2411
G1 X26.2313 Y-22.2472 Z0.2398
G1 X26.2245 Y-22.2452 Z0.2386
G1 X26.2175 Y-22.2441 Z0.2373
G1 X26.2103 Y-22.2439 Z0.2361
G1 X26.2032 Y-22.2445 Z0.2348
G1 X26.1963 Y-22.2461 Z0.2336
G1 X26.1896 Y-22.2486 Z0.2323
G1 X26.1833 Y-22.2519 Z0.2311
G1 X26.1774 Y-22.2560 Z0.2298
G1 X26.1722 Y-22.2607 Z0.2285
G1 X26.1675 Y-22.2662 Z0.2273
G1 X26.1637 Y-22.2721 Z0.2260
G1 X26.1606 Y-22.2786 Z0.2248
G1 X26.1583 Y-22.2853 Z0.2235
G1 X26.1570 Y-22.2923 Z0.2223
G1 X26.1565 Y-22.2994 Z0.2210
G3X26.2677Y-22.2994Z0.2210I0.0556J0.0000 F60.
G3X26.1565Y-22.2994Z0.2210I-0.0556J0.0000
G0 Z0.2420
G0 X26.1565 Y-22.2994 
G0 Z0.2420
G0 X26.1910 Y-22.2481 
G1 X26.1963 Y-22.2461 Z0.2410 F25.
G1 X26.2032 Y-22.2445 Z0.2397
G1 X26.2103 Y-22.2439 Z0.2385
G1 X26.2175 Y-22.2441 Z0.2372
G1 X26.2245 Y-22.2452 Z0.2360
G1 X26.2313 Y-22.2472 Z0.2347
G1 X26.2378 Y-22.2501 Z0.2335
G1 X26.2439 Y-22.2538 Z0.2322
G1 X26.2495 Y-22.2583 Z0.2310
G1 X26.2545 Y-22.2634 Z0.2297
G1 X26.2587 Y-22.2691 Z0.2284
G1 X26.2622 Y-22.2753 Z0.2272
G1 X26.2649 Y-22.2819 Z0.2259
G1 X26.2667 Y-22.2888 Z0.2247
G1 X26.2676 Y-22.2959 Z0.2234
G1 X26.2676 Y-22.3030 Z0.2222
G1 X26.2667 Y-22.3101 Z0.2209
G1 X26.2649 Y-22.3170 Z0.2196
G1 X26.2622 Y-22.3236 Z0.2184
G1 X26.2587 Y-22.3298 Z0.2171
G1 X26.2545 Y-22.3355 Z0.2159
G1 X26.2495 Y-22.3406 Z0.2146
G1 X26.2439 Y-22.3450 Z0.2134
G1 X26.2378 Y-22.3487 Z0.2121
G1 X26.2313 Y-22.3516 Z0.2108
G1 X26.2245 Y-22.3537 Z0.2096
G1 X26.2175 Y-22.3548 Z0.2083
G1 X26.2103 Y-22.3550 Z0.2071
G1 X26.2032 Y-22.3543 Z0.2058
G1 X26.1963 Y-22.3527 Z0.2046
G1 X26.1896 Y-22.3503 Z0.2033
G1 X26.1833 Y-22.3470 Z0.2021
G1 X26.1774 Y-22.3429 Z0.2008
G1 X26.1722 Y-22.3381 Z0.1995
G1 X26.1675 Y-22.3327 Z0.1983
G1 X26.1637 Y-22.3267 Z0.1970
G1 X26.1606 Y-22.3203 Z0.1958
G1 X26.1583 Y-22.3135 Z0.1945
G1 X26.1570 Y-22.3065 Z0.1933
G1 X26.1565 Y-22.2994 Z0.1920
G2X26.2677Y-22.2994Z0.1920I0.0556J0.0000 F60.
G2X26.1565Y-22.2994Z0.1920I-0.0556J0.0000
G0 Z0.4995
G0 X26.1565 Y-22.2994 
G0 Z0.4995
G0 X27.5061 Y-22.8510 
G1 X27.5061 Y-22.8510 Z0.2710 F75.
G1 X27.5114 Y-22.8530 Z0.2700 F25.
G1 X27.5183 Y-22.8546 Z0.2687
G1 X27.5254 Y-22.8552 Z0.2675
G1 X27.5326 Y-22.8550 Z0.2662
G1 X27.5396 Y-22.8539 Z0.2650
G1 X27.5464 Y-22.8518 Z0.2637
G1 X27.5529 Y-22.8490 Z0.2625
G1 X27.5590 Y-22.8453 Z0.2612
G1 X27.5646 Y-22.8408 Z0.2600
G1 X27.5696 Y-22.8357 Z0.2587
G1 X27.5738 Y-22.8300 Z0.2574
G1 X27.5773 Y-22.8238 Z0.2562
G1 X27.5800 Y-22.8172 Z0.2549
G1 X27.5818 Y-22.8103 Z0.2537
G1 X27.5827 Y-22.8032 Z0.2524
G1 X27.5827 Y-22.7961 Z0.2512
G1 X27.5818 Y-22.7890 Z0.2499
G1 X27.5800 Y-22.7821 Z0.2486
G1 X27.5773 Y-22.7755 Z0.2474
G1 X27.5738 Y-22.7693 Z0.2461
G1 X27.5696 Y-22.7636 Z0.2449
G1 X27.5646 Y-22.7585 Z0.2436
G1 X27.5590 Y-22.7540 Z0.2424
G1 X27.5529 Y-22.7504 Z0.2411
G1 X27.5464 Y-22.7475 Z0.2398
G1 X27.5396 Y-22.7454 Z0.2386
G1 X27.5326 Y-22.7443 Z0.2373
G1 X27.5254 Y-22.7441 Z0.2361
G1 X27.5183 Y-22.7448 Z0.2348
G1 X27.5114 Y-22.7463 Z0.2336
G1 X27.5047 Y-22.7488 Z0.2323
G1 X27.4984 Y-22.7521 Z0.2311
G1 X27.4925 Y-22.7562 Z0.2298
G1 X27.4873 Y-22.7610 Z0.2285
G1 X27.4826 Y-22.7664 Z0.2273
G1 X27.4788 Y-22.7724 Z0.2260
G1 X27.4757 Y-22.7788 Z0.2248
G1 X27.4734 Y-22.7856 Z0.2235
G1 X27.4721 Y-22.7925 Z0.2223
G1 X27.4716 Y-22.7997 Z0.2210
G3X27.5828Y-22.7997Z0.2210I0.0556J0.0000 F60.
G3X27.4716Y-22.7997Z0.2210I-0.0556J0.0000
G0 Z0.2420
G0 X27.4716 Y-22.7997 
G0 Z0.2420
G0 X27.5061 Y-22.7483 
G1 X27.5114 Y-22.7463 Z0.2410 F25.
G1 X27.5183 Y-22.7448 Z0.2397
G1 X27.5254 Y-22.7441 Z0.2385
G1 X27.5326 Y-22.7443 Z0.2372
G1 X27.5396 Y-22.7454 Z0.2360
G1 X27.5464 Y-22.7475 Z0.2347
G1 X27.5529 Y-22.7504 Z0.2335
G1 X27.5590 Y-22.7540 Z0.2322
G1 X27.5646 Y-22.7585 Z0.2310
G1 X27.5696 Y-22.7636 Z0.2297
G1 X27.5738 Y-22.7693 Z0.2284
G1 X27.5773 Y-22.7755 Z0.2272
G1 X27.5800 Y-22.7821 Z0.2259
G1 X27.5818 Y-22.7890 Z0.2247
G1 X27.5827 Y-22.7961 Z0.2234
G1 X27.5827 Y-22.8032 Z0.2222
G1 X27.5818 Y-22.8103 Z0.2209
G1 X27.5800 Y-22.8172 Z0.2196
G1 X27.5773 Y-22.8238 Z0.2184
G1 X27.5738 Y-22.8300 Z0.2171
G1 X27.5696 Y-22.8357 Z0.2159
G1 X27.5646 Y-22.8408 Z0.2146
G1 X27.5590 Y-22.8453 Z0.2134
G1 X27.5529 Y-22.8490 Z0.2121
G1 X27.5464 Y-22.8518 Z0.2108
G1 X27.5396 Y-22.8539 Z0.2096
G1 X27.5326 Y-22.8550 Z0.2083
G1 X27.5254 Y-22.8552 Z0.2071
G1 X27.5183 Y-22.8546 Z0.2058
G1 X27.5114 Y-22.8530 Z0.2046
G1 X27.5047 Y-22.8505 Z0.2033
G1 X27.4984 Y-22.8472 Z0.2021
G1 X27.4925 Y-22.8431 Z0.2008
G1 X27.4873 Y-22.8383 Z0.1995
G1 X27.4826 Y-22.8329 Z0.1983
G1 X27.4788 Y-22.8269 Z0.1970
G1 X27.4757 Y-22.8205 Z0.1958
G1 X27.4734 Y-22.8138 Z0.1945
G1 X27.4721 Y-22.8068 Z0.1933
G1 X27.4716 Y-22.7997 Z0.1920
G2X27.5828Y-22.7997Z0.1920I0.0556J0.0000 F60.
G2X27.4716Y-22.7997Z0.1920I-0.0556J0.0000
G0 Z0.4995
G0 X27.4716 Y-22.7997 
G0 Z0.4995
G0 X28.5183 Y-22.8510 
G1 X28.5183 Y-22.8510 Z0.2710 F75.
G1 X28.5236 Y-22.8530 Z0.2700 F25.
G1 X28.5306 Y-22.8546 Z0.2687
G1 X28.5377 Y-22.8552 Z0.2675
G1 X28.5448 Y-22.8550 Z0.2662
G1 X28.5518 Y-22.8539 Z0.2650
G1 X28.5587 Y-22.8518 Z0.2637
G1 X28.5652 Y-22.8490 Z0.2625
G1 X28.5713 Y-22.8453 Z0.2612
G1 X28.5768 Y-22.8408 Z0.2600
G1 X28.5818 Y-22.8357 Z0.2587
G1 X28.5861 Y-22.8300 Z0.2574
G1 X28.5895 Y-22.8238 Z0.2562
G1 X28.5922 Y-22.8172 Z0.2549
G1 X28.5940 Y-22.8103 Z0.2537
G1 X28.5949 Y-22.8032 Z0.2524
G1 X28.5949 Y-22.7961 Z0.2512
G1 X28.5940 Y-22.7890 Z0.2499
G1 X28.5922 Y-22.7821 Z0.2486
G1 X28.5895 Y-22.7755 Z0.2474
G1 X28.5861 Y-22.7693 Z0.2461
G1 X28.5818 Y-22.7636 Z0.2449
G1 X28.5768 Y-22.7585 Z0.2436
G1 X28.5713 Y-22.7540 Z0.2424
G1 X28.5652 Y-22.7504 Z0.2411
G1 X28.5587 Y-22.7475 Z0.2398
G1 X28.5518 Y-22.7454 Z0.2386
G1 X28.5448 Y-22.7443 Z0.2373
G1 X28.5377 Y-22.7441 Z0.2361
G1 X28.5306 Y-22.7448 Z0.2348
G1 X28.5236 Y-22.7463 Z0.2336
G1 X28.5169 Y-22.7488 Z0.2323
G1 X28.5106 Y-22.7521 Z0.2311
G1 X28.5048 Y-22.7562 Z0.2298
G1 X28.4995 Y-22.7610 Z0.2285
G1 X28.4949 Y-22.7664 Z0.2273
G1 X28.4910 Y-22.7724 Z0.2260
G1 X28.4879 Y-22.7788 Z0.2248
G1 X28.4857 Y-22.7856 Z0.2235
G1 X28.4843 Y-22.7925 Z0.2223
G1 X28.4838 Y-22.7997 Z0.2210
G3X28.5951Y-22.7997Z0.2210I0.0556J0.0000 F60.
G3X28.4838Y-22.7997Z0.2210I-0.0557J0.0000
G0 Z0.2420
G0 X28.4838 Y-22.7997 
G0 Z0.2420
G0 X28.5183 Y-22.7483 
G1 X28.5236 Y-22.7463 Z0.2410 F25.
G1 X28.5306 Y-22.7448 Z0.2397
G1 X28.5377 Y-22.7441 Z0.2385
G1 X28.5448 Y-22.7443 Z0.2372
G1 X28.5518 Y-22.7454 Z0.2360
G1 X28.5587 Y-22.7475 Z0.2347
G1 X28.5652 Y-22.7504 Z0.2335
G1 X28.5713 Y-22.7540 Z0.2322
G1 X28.5768 Y-22.7585 Z0.2310
G1 X28.5818 Y-22.7636 Z0.2297
G1 X28.5861 Y-22.7693 Z0.2284
G1 X28.5895 Y-22.7755 Z0.2272
G1 X28.5922 Y-22.7821 Z0.2259
G1 X28.5940 Y-22.7890 Z0.2247
G1 X28.5949 Y-22.7961 Z0.2234
G1 X28.5949 Y-22.8032 Z0.2222
G1 X28.5940 Y-22.8103 Z0.2209
G1 X28.5922 Y-22.8172 Z0.2196
G1 X28.5895 Y-22.8238 Z0.2184
G1 X28.5861 Y-22.8300 Z0.2171
G1 X28.5818 Y-22.8357 Z0.2159
G1 X28.5768 Y-22.8408 Z0.2146
G1 X28.5713 Y-22.8453 Z0.2134
G1 X28.5652 Y-22.8490 Z0.2121
G1 X28.5587 Y-22.8518 Z0.2108
G1 X28.5518 Y-22.8539 Z0.2096
G1 X28.5448 Y-22.8550 Z0.2083
G1 X28.5377 Y-22.8552 Z0.2071
G1 X28.5306 Y-22.8546 Z0.2058
G1 X28.5236 Y-22.8530 Z0.2046
G1 X28.5169 Y-22.8505 Z0.2033
G1 X28.5106 Y-22.8472 Z0.2021
G1 X28.5048 Y-22.8431 Z0.2008
G1 X28.4995 Y-22.8383 Z0.1995
G1 X28.4949 Y-22.8329 Z0.1983
G1 X28.4910 Y-22.8269 Z0.1970
G1 X28.4879 Y-22.8205 Z0.1958
G1 X28.4857 Y-22.8138 Z0.1945
G1 X28.4843 Y-22.8068 Z0.1933
G1 X28.4838 Y-22.7997 Z0.1920
G2X28.5951Y-22.7997Z0.1920I0.0556J0.0000 F60.
G2X28.4838Y-22.7997Z0.1920I-0.0557J0.0000
G0 Z0.4995
G0 X28.4838 Y-22.7997 
G0 Z0.4995
G0 X29.6545 Y-22.8510 
G1 X29.6545 Y-22.8510 Z0.2710 F75.
G1 X29.6598 Y-22.8530 Z0.2700 F25.
G1 X29.6668 Y-22.8546 Z0.2687
G1 X29.6739 Y-22.8552 Z0.2675
G1 X29.6810 Y-22.8550 Z0.2662
G1 X29.6880 Y-22.8539 Z0.2650
G1 X29.6948 Y-22.8518 Z0.2637
G1 X29.7014 Y-22.8490 Z0.2625
G1 X29.7075 Y-22.8453 Z0.2612
G1 X29.7130 Y-22.8408 Z0.2600
G1 X29.7180 Y-22.8357 Z0.2587
G1 X29.7222 Y-22.8300 Z0.2574
G1 X29.7257 Y-22.8238 Z0.2562
G1 X29.7284 Y-22.8172 Z0.2549
G1 X29.7302 Y-22.8103 Z0.2537
G1 X29.7311 Y-22.8032 Z0.2524
G1 X29.7311 Y-22.7961 Z0.2512
G1 X29.7302 Y-22.7890 Z0.2499
G1 X29.7284 Y-22.7821 Z0.2486
G1 X29.7257 Y-22.7755 Z0.2474
G1 X29.7222 Y-22.7693 Z0.2461
G1 X29.7180 Y-22.7636 Z0.2449
G1 X29.7130 Y-22.7585 Z0.2436
G1 X29.7075 Y-22.7540 Z0.2424
G1 X29.7014 Y-22.7504 Z0.2411
G1 X29.6948 Y-22.7475 Z0.2398
G1 X29.6880 Y-22.7454 Z0.2386
G1 X29.6810 Y-22.7443 Z0.2373
G1 X29.6739 Y-22.7441 Z0.2361
G1 X29.6668 Y-22.7448 Z0.2348
G1 X29.6598 Y-22.7463 Z0.2336
G1 X29.6531 Y-22.7488 Z0.2323
G1 X29.6468 Y-22.7521 Z0.2311
G1 X29.6410 Y-22.7562 Z0.2298
G1 X29.6357 Y-22.7610 Z0.2285
G1 X29.6311 Y-22.7664 Z0.2273
G1 X29.6272 Y-22.7724 Z0.2260
G1 X29.6241 Y-22.7788 Z0.2248
G1 X29.6218 Y-22.7856 Z0.2235
G1 X29.6205 Y-22.7925 Z0.2223
G1 X29.6200 Y-22.7997 Z0.2210
G3X29.7312Y-22.7997Z0.2210I0.0556J0.0000 F60.
G3X29.6200Y-22.7997Z0.2210I-0.0556J0.0000
G0 Z0.2420
G0 X29.6200 Y-22.7997 
G0 Z0.2420
G0 X29.6545 Y-22.7483 
G1 X29.6598 Y-22.7463 Z0.2410 F25.
G1 X29.6668 Y-22.7448 Z0.2397
G1 X29.6739 Y-22.7441 Z0.2385
G1 X29.6810 Y-22.7443 Z0.2372
G1 X29.6880 Y-22.7454 Z0.2360
G1 X29.6948 Y-22.7475 Z0.2347
G1 X29.7014 Y-22.7504 Z0.2335
G1 X29.7075 Y-22.7540 Z0.2322
G1 X29.7130 Y-22.7585 Z0.2310
G1 X29.7180 Y-22.7636 Z0.2297
G1 X29.7222 Y-22.7693 Z0.2284
G1 X29.7257 Y-22.7755 Z0.2272
G1 X29.7284 Y-22.7821 Z0.2259
G1 X29.7302 Y-22.7890 Z0.2247
G1 X29.7311 Y-22.7961 Z0.2234
G1 X29.7311 Y-22.8032 Z0.2222
G1 X29.7302 Y-22.8103 Z0.2209
G1 X29.7284 Y-22.8172 Z0.2196
G1 X29.7257 Y-22.8238 Z0.2184
G1 X29.7222 Y-22.8300 Z0.2171
G1 X29.7180 Y-22.8357 Z0.2159
G1 X29.7130 Y-22.8408 Z0.2146
G1 X29.7075 Y-22.8453 Z0.2134
G1 X29.7014 Y-22.8490 Z0.2121
G1 X29.6948 Y-22.8518 Z0.2108
G1 X29.6880 Y-22.8539 Z0.2096
G1 X29.6810 Y-22.8550 Z0.2083
G1 X29.6739 Y-22.8552 Z0.2071
G1 X29.6668 Y-22.8546 Z0.2058
G1 X29.6598 Y-22.8530 Z0.2046
G1 X29.6531 Y-22.8505 Z0.2033
G1 X29.6468 Y-22.8472 Z0.2021
G1 X29.6410 Y-22.8431 Z0.2008
G1 X29.6357 Y-22.8383 Z0.1995
G1 X29.6311 Y-22.8329 Z0.1983
G1 X29.6272 Y-22.8269 Z0.1970
G1 X29.6241 Y-22.8205 Z0.1958
G1 X29.6218 Y-22.8138 Z0.1945
G1 X29.6205 Y-22.8068 Z0.1933
G1 X29.6200 Y-22.7997 Z0.1920
G2X29.7312Y-22.7997Z0.1920I0.0556J0.0000 F60.
G2X29.6200Y-22.7997Z0.1920I-0.0556J0.0000
G0 Z0.4995
G0 X29.6200 Y-22.7997 
G0 Z0.4995
G0 X30.9298 Y-22.8507 
G1 X30.9298 Y-22.8507 Z0.2710 F75.
G1 X30.9351 Y-22.8526 Z0.2700 F25.
G1 X30.9421 Y-22.8542 Z0.2687
G1 X30.9492 Y-22.8549 Z0.2675
G1 X30.9563 Y-22.8547 Z0.2662
G1 X30.9633 Y-22.8535 Z0.2650
G1 X30.9702 Y-22.8515 Z0.2637
G1 X30.9767 Y-22.8486 Z0.2625
G1 X30.9828 Y-22.8449 Z0.2612
G1 X30.9884 Y-22.8405 Z0.2600
G1 X30.9933 Y-22.8354 Z0.2587
G1 X30.9976 Y-22.8297 Z0.2574
G1 X31.0011 Y-22.8235 Z0.2562
G1 X31.0037 Y-22.8169 Z0.2549
G1 X31.0056 Y-22.8100 Z0.2537
G1 X31.0065 Y-22.8029 Z0.2524
G1 X31.0065 Y-22.7958 Z0.2512
G1 X31.0056 Y-22.7887 Z0.2499
G1 X31.0037 Y-22.7818 Z0.2486
G1 X31.0011 Y-22.7752 Z0.2474
G1 X30.9976 Y-22.7690 Z0.2461
G1 X30.9933 Y-22.7633 Z0.2449
G1 X30.9884 Y-22.7582 Z0.2436
G1 X30.9828 Y-22.7537 Z0.2424
G1 X30.9767 Y-22.7500 Z0.2411
G1 X30.9702 Y-22.7471 Z0.2398
G1 X30.9633 Y-22.7451 Z0.2386
G1 X30.9563 Y-22.7440 Z0.2373
G1 X30.9492 Y-22.7438 Z0.2361
G1 X30.9421 Y-22.7444 Z0.2348
G1 X30.9351 Y-22.7460 Z0.2336
G1 X30.9285 Y-22.7485 Z0.2323
G1 X30.9221 Y-22.7518 Z0.2311
G1 X30.9163 Y-22.7559 Z0.2298
G1 X30.9110 Y-22.7606 Z0.2285
G1 X30.9064 Y-22.7661 Z0.2273
G1 X30.9025 Y-22.7720 Z0.2260
G1 X30.8994 Y-22.7785 Z0.2248
G1 X30.8972 Y-22.7852 Z0.2235
G1 X30.8958 Y-22.7922 Z0.2223
G1 X30.8954 Y-22.7993 Z0.2210
G3X31.0066Y-22.7993Z0.2210I0.0556J0.0000 F60.
G3X30.8954Y-22.7993Z0.2210I-0.0556J0.0000
G0 Z0.2420
G0 X30.8954 Y-22.7993 
G0 Z0.2420
G0 X30.9298 Y-22.7480 
G1 X30.9351 Y-22.7460 Z0.2410 F25.
G1 X30.9421 Y-22.7444 Z0.2397
G1 X30.9492 Y-22.7438 Z0.2385
G1 X30.9563 Y-22.7440 Z0.2372
G1 X30.9633 Y-22.7451 Z0.2360
G1 X30.9702 Y-22.7471 Z0.2347
G1 X30.9767 Y-22.7500 Z0.2335
G1 X30.9828 Y-22.7537 Z0.2322
G1 X30.9884 Y-22.7582 Z0.2310
G1 X30.9933 Y-22.7633 Z0.2297
G1 X30.9976 Y-22.7690 Z0.2284
G1 X31.0011 Y-22.7752 Z0.2272
G1 X31.0037 Y-22.7818 Z0.2259
G1 X31.0056 Y-22.7887 Z0.2247
G1 X31.0065 Y-22.7958 Z0.2234
G1 X31.0065 Y-22.8029 Z0.2222
G1 X31.0056 Y-22.8100 Z0.2209
G1 X31.0037 Y-22.8169 Z0.2196
G1 X31.0011 Y-22.8235 Z0.2184
G1 X30.9976 Y-22.8297 Z0.2171
G1 X30.9933 Y-22.8354 Z0.2159
G1 X30.9884 Y-22.8405 Z0.2146
G1 X30.9828 Y-22.8449 Z0.2134
G1 X30.9767 Y-22.8486 Z0.2121
G1 X30.9702 Y-22.8515 Z0.2108
G1 X30.9633 Y-22.8535 Z0.2096
G1 X30.9563 Y-22.8547 Z0.2083
G1 X30.9492 Y-22.8549 Z0.2071
G1 X30.9421 Y-22.8542 Z0.2058
G1 X30.9351 Y-22.8526 Z0.2046
G1 X30.9285 Y-22.8502 Z0.2033
G1 X30.9221 Y-22.8469 Z0.2021
G1 X30.9163 Y-22.8428 Z0.2008
G1 X30.9110 Y-22.8380 Z0.1995
G1 X30.9064 Y-22.8326 Z0.1983
G1 X30.9025 Y-22.8266 Z0.1970
G1 X30.8994 Y-22.8202 Z0.1958
G1 X30.8972 Y-22.8134 Z0.1945
G1 X30.8958 Y-22.8064 Z0.1933
G1 X30.8954 Y-22.7993 Z0.1920
G2X31.0066Y-22.7993Z0.1920I0.0556J0.0000 F60.
G2X30.8954Y-22.7993Z0.1920I-0.0556J0.0000
G0 Z0.4995
G0 X30.8954 Y-22.7993 
G0 Z0.4995
G0 X33.1416 Y-22.3508 
G1 X33.1416 Y-22.3508 Z0.2710 F75.
G1 X33.1469 Y-22.3527 Z0.2700 F25.
G1 X33.1538 Y-22.3543 Z0.2687
G1 X33.1609 Y-22.3550 Z0.2675
G1 X33.1680 Y-22.3548 Z0.2662
G1 X33.1751 Y-22.3537 Z0.2650
G1 X33.1819 Y-22.3516 Z0.2637
G1 X33.1884 Y-22.3487 Z0.2625
G1 X33.1945 Y-22.3450 Z0.2612
G1 X33.2001 Y-22.3406 Z0.2600
G1 X33.2050 Y-22.3355 Z0.2587
G1 X33.2093 Y-22.3298 Z0.2574
G1 X33.2128 Y-22.3236 Z0.2562
G1 X33.2155 Y-22.3170 Z0.2549
G1 X33.2173 Y-22.3101 Z0.2537
G1 X33.2182 Y-22.3030 Z0.2524
G1 X33.2182 Y-22.2959 Z0.2512
G1 X33.2173 Y-22.2888 Z0.2499
G1 X33.2155 Y-22.2819 Z0.2486
G1 X33.2128 Y-22.2753 Z0.2474
G1 X33.2093 Y-22.2691 Z0.2461
G1 X33.2050 Y-22.2634 Z0.2449
G1 X33.2001 Y-22.2583 Z0.2436
G1 X33.1945 Y-22.2538 Z0.2424
G1 X33.1884 Y-22.2501 Z0.2411
G1 X33.1819 Y-22.2472 Z0.2398
G1 X33.1751 Y-22.2452 Z0.2386
G1 X33.1680 Y-22.2441 Z0.2373
G1 X33.1609 Y-22.2439 Z0.2361
G1 X33.1538 Y-22.2445 Z0.2348
G1 X33.1469 Y-22.2461 Z0.2336
G1 X33.1402 Y-22.2486 Z0.2323
G1 X33.1339 Y-22.2519 Z0.2311
G1 X33.1280 Y-22.2560 Z0.2298
G1 X33.1228 Y-22.2607 Z0.2285
G1 X33.1181 Y-22.2662 Z0.2273
G1 X33.1142 Y-22.2721 Z0.2260
G1 X33.1112 Y-22.2786 Z0.2248
G1 X33.1089 Y-22.2853 Z0.2235
G1 X33.1075 Y-22.2923 Z0.2223
G1 X33.1071 Y-22.2994 Z0.2210
G3X33.2183Y-22.2994Z0.2210I0.0556J0.0000 F60.
G3X33.1071Y-22.2994Z0.2210I-0.0556J0.0000
G0 Z0.2420
G0 X33.1071 Y-22.2994 
G0 Z0.2420
G0 X33.1416 Y-22.2481 
G1 X33.1469 Y-22.2461 Z0.2410 F25.
G1 X33.1538 Y-22.2445 Z0.2397
G1 X33.1609 Y-22.2439 Z0.2385
G1 X33.1680 Y-22.2441 Z0.2372
G1 X33.1751 Y-22.2452 Z0.2360
G1 X33.1819 Y-22.2472 Z0.2347
G1 X33.1884 Y-22.2501 Z0.2335
G1 X33.1945 Y-22.2538 Z0.2322
G1 X33.2001 Y-22.2583 Z0.2310
G1 X33.2050 Y-22.2634 Z0.2297
G1 X33.2093 Y-22.2691 Z0.2284
G1 X33.2128 Y-22.2753 Z0.2272
G1 X33.2155 Y-22.2819 Z0.2259
G1 X33.2173 Y-22.2888 Z0.2247
G1 X33.2182 Y-22.2959 Z0.2234
G1 X33.2182 Y-22.3030 Z0.2222
G1 X33.2173 Y-22.3101 Z0.2209
G1 X33.2155 Y-22.3170 Z0.2196
G1 X33.2128 Y-22.3236 Z0.2184
G1 X33.2093 Y-22.3298 Z0.2171
G1 X33.2050 Y-22.3355 Z0.2159
G1 X33.2001 Y-22.3406 Z0.2146
G1 X33.1945 Y-22.3450 Z0.2134
G1 X33.1884 Y-22.3487 Z0.2121
G1 X33.1819 Y-22.3516 Z0.2108
G1 X33.1751 Y-22.3537 Z0.2096
G1 X33.1680 Y-22.3548 Z0.2083
G1 X33.1609 Y-22.3550 Z0.2071
G1 X33.1538 Y-22.3543 Z0.2058
G1 X33.1469 Y-22.3527 Z0.2046
G1 X33.1402 Y-22.3503 Z0.2033
G1 X33.1339 Y-22.3470 Z0.2021
G1 X33.1280 Y-22.3429 Z0.2008
G1 X33.1228 Y-22.3381 Z0.1995
G1 X33.1181 Y-22.3327 Z0.1983
G1 X33.1142 Y-22.3267 Z0.1970
G1 X33.1112 Y-22.3203 Z0.1958
G1 X33.1089 Y-22.3135 Z0.1945
G1 X33.1075 Y-22.3065 Z0.1933
G1 X33.1071 Y-22.2994 Z0.1920
G2X33.2183Y-22.2994Z0.1920I0.0556J0.0000 F60.
G2X33.1071Y-22.2994Z0.1920I-0.0556J0.0000
G0 Z0.4995
G0 X33.1071 Y-22.2994 
G0 Z0.4995
G0 X33.1416 Y-23.3508 
G1 X33.1416 Y-23.3508 Z0.2710 F75.
G1 X33.1469 Y-23.3527 Z0.2700 F25.
G1 X33.1538 Y-23.3543 Z0.2687
G1 X33.1609 Y-23.3550 Z0.2675
G1 X33.1680 Y-23.3548 Z0.2662
G1 X33.1751 Y-23.3537 Z0.2650
G1 X33.1819 Y-23.3516 Z0.2637
G1 X33.1884 Y-23.3487 Z0.2625
G1 X33.1945 Y-23.3450 Z0.2612
G1 X33.2001 Y-23.3406 Z0.2600
G1 X33.2050 Y-23.3355 Z0.2587
G1 X33.2093 Y-23.3298 Z0.2574
G1 X33.2128 Y-23.3236 Z0.2562
G1 X33.2155 Y-23.3170 Z0.2549
G1 X33.2173 Y-23.3101 Z0.2537
G1 X33.2182 Y-23.3030 Z0.2524
G1 X33.2182 Y-23.2959 Z0.2512
G1 X33.2173 Y-23.2888 Z0.2499
G1 X33.2155 Y-23.2819 Z0.2486
G1 X33.2128 Y-23.2753 Z0.2474
G1 X33.2093 Y-23.2691 Z0.2461
G1 X33.2050 Y-23.2634 Z0.2449
G1 X33.2001 Y-23.2583 Z0.2436
G1 X33.1945 Y-23.2538 Z0.2424
G1 X33.1884 Y-23.2501 Z0.2411
G1 X33.1819 Y-23.2472 Z0.2398
G1 X33.1751 Y-23.2452 Z0.2386
G1 X33.1680 Y-23.2441 Z0.2373
G1 X33.1609 Y-23.2439 Z0.2361
G1 X33.1538 Y-23.2445 Z0.2348
G1 X33.1469 Y-23.2461 Z0.2336
G1 X33.1402 Y-23.2486 Z0.2323
G1 X33.1339 Y-23.2519 Z0.2311
G1 X33.1280 Y-23.2560 Z0.2298
G1 X33.1228 Y-23.2607 Z0.2285
G1 X33.1181 Y-23.2662 Z0.2273
G1 X33.1142 Y-23.2721 Z0.2260
G1 X33.1112 Y-23.2786 Z0.2248
G1 X33.1089 Y-23.2853 Z0.2235
G1 X33.1075 Y-23.2923 Z0.2223
G1 X33.1071 Y-23.2994 Z0.2210
G3X33.2183Y-23.2994Z0.2210I0.0556J0.0000 F60.
G3X33.1071Y-23.2994Z0.2210I-0.0556J0.0000
G0 Z0.2420
G0 X33.1071 Y-23.2994 
G0 Z0.2420
G0 X33.1416 Y-23.2481 
G1 X33.1469 Y-23.2461 Z0.2410 F25.
G1 X33.1538 Y-23.2445 Z0.2397
G1 X33.1609 Y-23.2439 Z0.2385
G1 X33.1680 Y-23.2441 Z0.2372
G1 X33.1751 Y-23.2452 Z0.2360
G1 X33.1819 Y-23.2472 Z0.2347
G1 X33.1884 Y-23.2501 Z0.2335
G1 X33.1945 Y-23.2538 Z0.2322
G1 X33.2001 Y-23.2583 Z0.2310
G1 X33.2050 Y-23.2634 Z0.2297
G1 X33.2093 Y-23.2691 Z0.2284
G1 X33.2128 Y-23.2753 Z0.2272
G1 X33.2155 Y-23.2819 Z0.2259
G1 X33.2173 Y-23.2888 Z0.2247
G1 X33.2182 Y-23.2959 Z0.2234
G1 X33.2182 Y-23.3030 Z0.2222
G1 X33.2173 Y-23.3101 Z0.2209
G1 X33.2155 Y-23.3170 Z0.2196
G1 X33.2128 Y-23.3236 Z0.2184
G1 X33.2093 Y-23.3298 Z0.2171
G1 X33.2050 Y-23.3355 Z0.2159
G1 X33.2001 Y-23.3406 Z0.2146
G1 X33.1945 Y-23.3450 Z0.2134
G1 X33.1884 Y-23.3487 Z0.2121
G1 X33.1819 Y-23.3516 Z0.2108
G1 X33.1751 Y-23.3537 Z0.2096
G1 X33.1680 Y-23.3548 Z0.2083
G1 X33.1609 Y-23.3550 Z0.2071
G1 X33.1538 Y-23.3543 Z0.2058
G1 X33.1469 Y-23.3527 Z0.2046
G1 X33.1402 Y-23.3503 Z0.2033
G1 X33.1339 Y-23.3470 Z0.2021
G1 X33.1280 Y-23.3429 Z0.2008
G1 X33.1228 Y-23.3381 Z0.1995
G1 X33.1181 Y-23.3327 Z0.1983
G1 X33.1142 Y-23.3267 Z0.1970
G1 X33.1112 Y-23.3203 Z0.1958
G1 X33.1089 Y-23.3135 Z0.1945
G1 X33.1075 Y-23.3065 Z0.1933
G1 X33.1071 Y-23.2994 Z0.1920
G2X33.2183Y-23.2994Z0.1920I0.0556J0.0000 F60.
G2X33.1071Y-23.2994Z0.1920I-0.0556J0.0000
G0 Z0.4995
G0 X33.1071 Y-23.2994 
G0 Z0.4995
G0 X35.7718 Y-22.8509 
G1 X35.7718 Y-22.8509 Z0.2710 F75.
G1 X35.7771 Y-22.8529 Z0.2700 F25.
G1 X35.7840 Y-22.8544 Z0.2687
G1 X35.7911 Y-22.8551 Z0.2675
G1 X35.7982 Y-22.8549 Z0.2662
G1 X35.8053 Y-22.8538 Z0.2650
G1 X35.8121 Y-22.8517 Z0.2637
G1 X35.8186 Y-22.8489 Z0.2625
G1 X35.8247 Y-22.8452 Z0.2612
G1 X35.8303 Y-22.8407 Z0.2600
G1 X35.8352 Y-22.8356 Z0.2587
G1 X35.8395 Y-22.8299 Z0.2574
G1 X35.8430 Y-22.8237 Z0.2562
G1 X35.8457 Y-22.8171 Z0.2549
G1 X35.8475 Y-22.8102 Z0.2537
G1 X35.8484 Y-22.8031 Z0.2524
G1 X35.8484 Y-22.7960 Z0.2512
G1 X35.8475 Y-22.7889 Z0.2499
G1 X35.8457 Y-22.7820 Z0.2486
G1 X35.8430 Y-22.7754 Z0.2474
G1 X35.8395 Y-22.7692 Z0.2461
G1 X35.8352 Y-22.7635 Z0.2449
G1 X35.8303 Y-22.7584 Z0.2436
G1 X35.8247 Y-22.7539 Z0.2424
G1 X35.8186 Y-22.7502 Z0.2411
G1 X35.8121 Y-22.7474 Z0.2398
G1 X35.8053 Y-22.7453 Z0.2386
G1 X35.7982 Y-22.7442 Z0.2373
G1 X35.7911 Y-22.7440 Z0.2361
G1 X35.7840 Y-22.7447 Z0.2348
G1 X35.7771 Y-22.7462 Z0.2336
G1 X35.7704 Y-22.7487 Z0.2323
G1 X35.7641 Y-22.7520 Z0.2311
G1 X35.7582 Y-22.7561 Z0.2298
G1 X35.7530 Y-22.7609 Z0.2285
G1 X35.7483 Y-22.7663 Z0.2273
G1 X35.7444 Y-22.7723 Z0.2260
G1 X35.7414 Y-22.7787 Z0.2248
G1 X35.7391 Y-22.7854 Z0.2235
G1 X35.7377 Y-22.7924 Z0.2223
G1 X35.7373 Y-22.7996 Z0.2210
G3X35.8485Y-22.7996Z0.2210I0.0556J0.0000 F60.
G3X35.7373Y-22.7996Z0.2210I-0.0556J0.0000
G0 Z0.2420
G0 X35.7373 Y-22.7996 
G0 Z0.2420
G0 X35.7718 Y-22.7482 
G1 X35.7771 Y-22.7462 Z0.2410 F25.
G1 X35.7840 Y-22.7447 Z0.2397
G1 X35.7911 Y-22.7440 Z0.2385
G1 X35.7982 Y-22.7442 Z0.2372
G1 X35.8053 Y-22.7453 Z0.2360
G1 X35.8121 Y-22.7474 Z0.2347
G1 X35.8186 Y-22.7502 Z0.2335
G1 X35.8247 Y-22.7539 Z0.2322
G1 X35.8303 Y-22.7584 Z0.2310
G1 X35.8352 Y-22.7635 Z0.2297
G1 X35.8395 Y-22.7692 Z0.2284
G1 X35.8430 Y-22.7754 Z0.2272
G1 X35.8457 Y-22.7820 Z0.2259
G1 X35.8475 Y-22.7889 Z0.2247
G1 X35.8484 Y-22.7960 Z0.2234
G1 X35.8484 Y-22.8031 Z0.2222
G1 X35.8475 Y-22.8102 Z0.2209
G1 X35.8457 Y-22.8171 Z0.2196
G1 X35.8430 Y-22.8237 Z0.2184
G1 X35.8395 Y-22.8299 Z0.2171
G1 X35.8352 Y-22.8356 Z0.2159
G1 X35.8303 Y-22.8407 Z0.2146
G1 X35.8247 Y-22.8452 Z0.2134
G1 X35.8186 Y-22.8489 Z0.2121
G1 X35.8121 Y-22.8517 Z0.2108
G1 X35.8053 Y-22.8538 Z0.2096
G1 X35.7982 Y-22.8549 Z0.2083
G1 X35.7911 Y-22.8551 Z0.2071
G1 X35.7840 Y-22.8544 Z0.2058
G1 X35.7771 Y-22.8529 Z0.2046
G1 X35.7704 Y-22.8504 Z0.2033
G1 X35.7641 Y-22.8471 Z0.2021
G1 X35.7582 Y-22.8430 Z0.2008
G1 X35.7530 Y-22.8382 Z0.1995
G1 X35.7483 Y-22.8328 Z0.1983
G1 X35.7444 Y-22.8268 Z0.1970
G1 X35.7414 Y-22.8204 Z0.1958
G1 X35.7391 Y-22.8137 Z0.1945
G1 X35.7377 Y-22.8067 Z0.1933
G1 X35.7373 Y-22.7996 Z0.1920
G2X35.8485Y-22.7996Z0.1920I0.0556J0.0000 F60.
G2X35.7373Y-22.7996Z0.1920I-0.0556J0.0000
G0 Z0.4995
G0 X35.7373 Y-22.7996 
G0 Z0.4995
G0 X37.7962 Y-22.8510 
G1 X37.7962 Y-22.8510 Z0.2710 F75.
G1 X37.8015 Y-22.8530 Z0.2700 F25.
G1 X37.8085 Y-22.8546 Z0.2687
G1 X37.8156 Y-22.8552 Z0.2675
G1 X37.8227 Y-22.8550 Z0.2662
G1 X37.8297 Y-22.8539 Z0.2650
G1 X37.8366 Y-22.8518 Z0.2637
G1 X37.8431 Y-22.8490 Z0.2625
G1 X37.8492 Y-22.8453 Z0.2612
G1 X37.8547 Y-22.8408 Z0.2600
G1 X37.8597 Y-22.8357 Z0.2587
G1 X37.8640 Y-22.8300 Z0.2574
G1 X37.8675 Y-22.8238 Z0.2562
G1 X37.8701 Y-22.8172 Z0.2549
G1 X37.8719 Y-22.8103 Z0.2537
G1 X37.8729 Y-22.8032 Z0.2524
G1 X37.8729 Y-22.7961 Z0.2512
G1 X37.8719 Y-22.7890 Z0.2499
G1 X37.8701 Y-22.7821 Z0.2486
G1 X37.8675 Y-22.7755 Z0.2474
G1 X37.8640 Y-22.7693 Z0.2461
G1 X37.8597 Y-22.7636 Z0.2449
G1 X37.8547 Y-22.7585 Z0.2436
G1 X37.8492 Y-22.7540 Z0.2424
G1 X37.8431 Y-22.7504 Z0.2411
G1 X37.8366 Y-22.7475 Z0.2398
G1 X37.8297 Y-22.7454 Z0.2386
G1 X37.8227 Y-22.7443 Z0.2373
G1 X37.8156 Y-22.7441 Z0.2361
G1 X37.8085 Y-22.7448 Z0.2348
G1 X37.8015 Y-22.7463 Z0.2336
G1 X37.7949 Y-22.7488 Z0.2323
G1 X37.7885 Y-22.7521 Z0.2311
G1 X37.7827 Y-22.7562 Z0.2298
G1 X37.7774 Y-22.7610 Z0.2285
G1 X37.7728 Y-22.7664 Z0.2273
G1 X37.7689 Y-22.7724 Z0.2260
G1 X37.7658 Y-22.7788 Z0.2248
G1 X37.7636 Y-22.7856 Z0.2235
G1 X37.7622 Y-22.7925 Z0.2223
G1 X37.7618 Y-22.7997 Z0.2210
G3X37.8730Y-22.7997Z0.2210I0.0556J0.0000 F60.
G3X37.7618Y-22.7997Z0.2210I-0.0556J0.0000
G0 Z0.2420
G0 X37.7618 Y-22.7997 
G0 Z0.2420
G0 X37.7962 Y-22.7483 
G1 X37.8015 Y-22.7463 Z0.2410 F25.
G1 X37.8085 Y-22.7448 Z0.2397
G1 X37.8156 Y-22.7441 Z0.2385
G1 X37.8227 Y-22.7443 Z0.2372
G1 X37.8297 Y-22.7454 Z0.2360
G1 X37.8366 Y-22.7475 Z0.2347
G1 X37.8431 Y-22.7504 Z0.2335
G1 X37.8492 Y-22.7540 Z0.2322
G1 X37.8547 Y-22.7585 Z0.2310
G1 X37.8597 Y-22.7636 Z0.2297
G1 X37.8640 Y-22.7693 Z0.2284
G1 X37.8675 Y-22.7755 Z0.2272
G1 X37.8701 Y-22.7821 Z0.2259
G1 X37.8719 Y-22.7890 Z0.2247
G1 X37.8729 Y-22.7961 Z0.2234
G1 X37.8729 Y-22.8032 Z0.2222
G1 X37.8719 Y-22.8103 Z0.2209
G1 X37.8701 Y-22.8172 Z0.2196
G1 X37.8675 Y-22.8238 Z0.2184
G1 X37.8640 Y-22.8300 Z0.2171
G1 X37.8597 Y-22.8357 Z0.2159
G1 X37.8547 Y-22.8408 Z0.2146
G1 X37.8492 Y-22.8453 Z0.2134
G1 X37.8431 Y-22.8490 Z0.2121
G1 X37.8366 Y-22.8518 Z0.2108
G1 X37.8297 Y-22.8539 Z0.2096
G1 X37.8227 Y-22.8550 Z0.2083
G1 X37.8156 Y-22.8552 Z0.2071
G1 X37.8085 Y-22.8546 Z0.2058
G1 X37.8015 Y-22.8530 Z0.2046
G1 X37.7949 Y-22.8505 Z0.2033
G1 X37.7885 Y-22.8472 Z0.2021
G1 X37.7827 Y-22.8431 Z0.2008
G1 X37.7774 Y-22.8383 Z0.1995
G1 X37.7728 Y-22.8329 Z0.1983
G1 X37.7689 Y-22.8269 Z0.1970
G1 X37.7658 Y-22.8205 Z0.1958
G1 X37.7636 Y-22.8138 Z0.1945
G1 X37.7622 Y-22.8068 Z0.1933
G1 X37.7618 Y-22.7997 Z0.1920
G2X37.8730Y-22.7997Z0.1920I0.0556J0.0000 F60.
G2X37.7618Y-22.7997Z0.1920I-0.0556J0.0000
G0 Z0.4995
G0 X37.7618 Y-22.7997 
G0 Z0.4995
G0 X40.0686 Y-22.8510 
G1 X40.0686 Y-22.8510 Z0.2710 F75.
G1 X40.0739 Y-22.8530 Z0.2700 F25.
G1 X40.0809 Y-22.8546 Z0.2687
G1 X40.0880 Y-22.8552 Z0.2675
G1 X40.0951 Y-22.8550 Z0.2662
G1 X40.1021 Y-22.8539 Z0.2650
G1 X40.1090 Y-22.8518 Z0.2637
G1 X40.1155 Y-22.8490 Z0.2625
G1 X40.1216 Y-22.8453 Z0.2612
G1 X40.1271 Y-22.8408 Z0.2600
G1 X40.1321 Y-22.8357 Z0.2587
G1 X40.1364 Y-22.8300 Z0.2574
G1 X40.1399 Y-22.8238 Z0.2562
G1 X40.1425 Y-22.8172 Z0.2549
G1 X40.1443 Y-22.8103 Z0.2537
G1 X40.1452 Y-22.8032 Z0.2524
G1 X40.1452 Y-22.7961 Z0.2512
G1 X40.1443 Y-22.7890 Z0.2499
G1 X40.1425 Y-22.7821 Z0.2486
G1 X40.1399 Y-22.7755 Z0.2474
G1 X40.1364 Y-22.7693 Z0.2461
G1 X40.1321 Y-22.7636 Z0.2449
G1 X40.1271 Y-22.7585 Z0.2436
G1 X40.1216 Y-22.7540 Z0.2424
G1 X40.1155 Y-22.7504 Z0.2411
G1 X40.1090 Y-22.7475 Z0.2398
G1 X40.1021 Y-22.7454 Z0.2386
G1 X40.0951 Y-22.7443 Z0.2373
G1 X40.0880 Y-22.7441 Z0.2361
G1 X40.0809 Y-22.7448 Z0.2348
G1 X40.0739 Y-22.7463 Z0.2336
G1 X40.0672 Y-22.7488 Z0.2323
G1 X40.0609 Y-22.7521 Z0.2311
G1 X40.0551 Y-22.7562 Z0.2298
G1 X40.0498 Y-22.7610 Z0.2285
G1 X40.0452 Y-22.7664 Z0.2273
G1 X40.0413 Y-22.7724 Z0.2260
G1 X40.0382 Y-22.7788 Z0.2248
G1 X40.0360 Y-22.7856 Z0.2235
G1 X40.0346 Y-22.7925 Z0.2223
G1 X40.0341 Y-22.7997 Z0.2210
G3X40.1454Y-22.7997Z0.2210I0.0556J0.0000 F60.
G3X40.0341Y-22.7997Z0.2210I-0.0557J0.0000
G0 Z0.2420
G0 X40.0341 Y-22.7997 
G0 Z0.2420
G0 X40.0686 Y-22.7483 
G1 X40.0739 Y-22.7463 Z0.2410 F25.
G1 X40.0809 Y-22.7448 Z0.2397
G1 X40.0880 Y-22.7441 Z0.2385
G1 X40.0951 Y-22.7443 Z0.2372
G1 X40.1021 Y-22.7454 Z0.2360
G1 X40.1090 Y-22.7475 Z0.2347
G1 X40.1155 Y-22.7504 Z0.2335
G1 X40.1216 Y-22.7540 Z0.2322
G1 X40.1271 Y-22.7585 Z0.2310
G1 X40.1321 Y-22.7636 Z0.2297
G1 X40.1364 Y-22.7693 Z0.2284
G1 X40.1399 Y-22.7755 Z0.2272
G1 X40.1425 Y-22.7821 Z0.2259
G1 X40.1443 Y-22.7890 Z0.2247
G1 X40.1452 Y-22.7961 Z0.2234
G1 X40.1452 Y-22.8032 Z0.2222
G1 X40.1443 Y-22.8103 Z0.2209
G1 X40.1425 Y-22.8172 Z0.2196
G1 X40.1399 Y-22.8238 Z0.2184
G1 X40.1364 Y-22.8300 Z0.2171
G1 X40.1321 Y-22.8357 Z0.2159
G1 X40.1271 Y-22.8408 Z0.2146
G1 X40.1216 Y-22.8453 Z0.2134
G1 X40.1155 Y-22.8490 Z0.2121
G1 X40.1090 Y-22.8518 Z0.2108
G1 X40.1021 Y-22.8539 Z0.2096
G1 X40.0951 Y-22.8550 Z0.2083
G1 X40.0880 Y-22.8552 Z0.2071
G1 X40.0809 Y-22.8546 Z0.2058
G1 X40.0739 Y-22.8530 Z0.2046
G1 X40.0672 Y-22.8505 Z0.2033
G1 X40.0609 Y-22.8472 Z0.2021
G1 X40.0551 Y-22.8431 Z0.2008
G1 X40.0498 Y-22.8383 Z0.1995
G1 X40.0452 Y-22.8329 Z0.1983
G1 X40.0413 Y-22.8269 Z0.1970
G1 X40.0382 Y-22.8205 Z0.1958
G1 X40.0360 Y-22.8138 Z0.1945
G1 X40.0346 Y-22.8068 Z0.1933
G1 X40.0341 Y-22.7997 Z0.1920
G2X40.1454Y-22.7997Z0.1920I0.0556J0.0000 F60.
G2X40.0341Y-22.7997Z0.1920I-0.0557J0.0000
G0 Z0.4995
G0 X40.0341 Y-22.7997 
G0 Z0.4995
G0 X42.6193 Y-22.8510 
G1 X42.6193 Y-22.8510 Z0.2710 F75.
G1 X42.6246 Y-22.8530 Z0.2700 F25.
G1 X42.6315 Y-22.8546 Z0.2687
G1 X42.6386 Y-22.8552 Z0.2675
G1 X42.6458 Y-22.8550 Z0.2662
G1 X42.6528 Y-22.8539 Z0.2650
G1 X42.6596 Y-22.8518 Z0.2637
G1 X42.6661 Y-22.8490 Z0.2625
G1 X42.6722 Y-22.8453 Z0.2612
G1 X42.6778 Y-22.8408 Z0.2600
G1 X42.6828 Y-22.8357 Z0.2587
G1 X42.6870 Y-22.8300 Z0.2574
G1 X42.6905 Y-22.8238 Z0.2562
G1 X42.6932 Y-22.8172 Z0.2549
G1 X42.6950 Y-22.8103 Z0.2537
G1 X42.6959 Y-22.8032 Z0.2524
G1 X42.6959 Y-22.7961 Z0.2512
G1 X42.6950 Y-22.7890 Z0.2499
G1 X42.6932 Y-22.7821 Z0.2486
G1 X42.6905 Y-22.7755 Z0.2474
G1 X42.6870 Y-22.7693 Z0.2461
G1 X42.6828 Y-22.7636 Z0.2449
G1 X42.6778 Y-22.7585 Z0.2436
G1 X42.6722 Y-22.7540 Z0.2424
G1 X42.6661 Y-22.7504 Z0.2411
G1 X42.6596 Y-22.7475 Z0.2398
G1 X42.6528 Y-22.7454 Z0.2386
G1 X42.6458 Y-22.7443 Z0.2373
G1 X42.6386 Y-22.7441 Z0.2361
G1 X42.6315 Y-22.7448 Z0.2348
G1 X42.6246 Y-22.7463 Z0.2336
G1 X42.6179 Y-22.7488 Z0.2323
G1 X42.6116 Y-22.7521 Z0.2311
G1 X42.6057 Y-22.7562 Z0.2298
G1 X42.6005 Y-22.7610 Z0.2285
G1 X42.5958 Y-22.7664 Z0.2273
G1 X42.5920 Y-22.7724 Z0.2260
G1 X42.5889 Y-22.7788 Z0.2248
G1 X42.5866 Y-22.7856 Z0.2235
G1 X42.5853 Y-22.7925 Z0.2223
G1 X42.5848 Y-22.7997 Z0.2210
G3X42.6960Y-22.7997Z0.2210I0.0556J0.0000 F60.
G3X42.5848Y-22.7997Z0.2210I-0.0556J0.0000
G0 Z0.2420
G0 X42.5848 Y-22.7997 
G0 Z0.2420
G0 X42.6193 Y-22.7483 
G1 X42.6246 Y-22.7463 Z0.2410 F25.
G1 X42.6315 Y-22.7448 Z0.2397
G1 X42.6386 Y-22.7441 Z0.2385
G1 X42.6458 Y-22.7443 Z0.2372
G1 X42.6528 Y-22.7454 Z0.2360
G1 X42.6596 Y-22.7475 Z0.2347
G1 X42.6661 Y-22.7504 Z0.2335
G1 X42.6722 Y-22.7540 Z0.2322
G1 X42.6778 Y-22.7585 Z0.2310
G1 X42.6828 Y-22.7636 Z0.2297
G1 X42.6870 Y-22.7693 Z0.2284
G1 X42.6905 Y-22.7755 Z0.2272
G1 X42.6932 Y-22.7821 Z0.2259
G1 X42.6950 Y-22.7890 Z0.2247
G1 X42.6959 Y-22.7961 Z0.2234
G1 X42.6959 Y-22.8032 Z0.2222
G1 X42.6950 Y-22.8103 Z0.2209
G1 X42.6932 Y-22.8172 Z0.2196
G1 X42.6905 Y-22.8238 Z0.2184
G1 X42.6870 Y-22.8300 Z0.2171
G1 X42.6828 Y-22.8357 Z0.2159
G1 X42.6778 Y-22.8408 Z0.2146
G1 X42.6722 Y-22.8453 Z0.2134
G1 X42.6661 Y-22.8490 Z0.2121
G1 X42.6596 Y-22.8518 Z0.2108
G1 X42.6528 Y-22.8539 Z0.2096
G1 X42.6458 Y-22.8550 Z0.2083
G1 X42.6386 Y-22.8552 Z0.2071
G1 X42.6315 Y-22.8546 Z0.2058
G1 X42.6246 Y-22.8530 Z0.2046
G1 X42.6179 Y-22.8505 Z0.2033
G1 X42.6116 Y-22.8472 Z0.2021
G1 X42.6057 Y-22.8431 Z0.2008
G1 X42.6005 Y-22.8383 Z0.1995
G1 X42.5958 Y-22.8329 Z0.1983
G1 X42.5920 Y-22.8269 Z0.1970
G1 X42.5889 Y-22.8205 Z0.1958
G1 X42.5866 Y-22.8138 Z0.1945
G1 X42.5853 Y-22.8068 Z0.1933
G1 X42.5848 Y-22.7997 Z0.1920
G2X42.6960Y-22.7997Z0.1920I0.0556J0.0000 F60.
G2X42.5848Y-22.7997Z0.1920I-0.0556J0.0000
G0 Z1.0000
G0 X42.5848 Y-22.7997 
M5
G53 Z
X2Y0
