( MOP:  02-inlay-Fangs-idPT09-s25PT5-03 )
( FILE: G:\Shared drives\AlloyProjectFiles\Customer CAD files\Alloy-Standard-Builds-CAM\Fingerboards-in\02-inlay-Fangs-idPT09-s25PT5-03.nc)
G90
(  BEGIN TOOL LIST )
(  TOOL 7 - Downcut PT125 - DESC: 0.1250 DIA, 2 FLUTE,  CARBIDE MAT )
(  ENDOF TOOL LIST )
( 02-inlay-Fangs-idPT09-s25PT5-03)
T07
S12000
M3
G0 Z2.0000
G0 X27.3140 Y-23.9828 
G1 X27.3140 Y-23.9828 Z0.2800 F75.
G1 X27.3140 Y-23.9828 Z0.2550 F25.
G1 X27.3142 Y-23.9828 Z0.2550
G1 X27.3139 Y-23.9817 Z0.2548
G1 X27.3136 Y-23.9807 Z0.2546
G1 X27.3133 Y-23.9796 Z0.2544
G1 X27.3130 Y-23.9786 Z0.2542
G1 X27.3127 Y-23.9775 Z0.2540
G1 X27.3124 Y-23.9765 Z0.2538
G1 X27.3121 Y-23.9755 Z0.2536
G1 X27.3118 Y-23.9744 Z0.2534
G1 X27.3115 Y-23.9734 Z0.2532
G1 X27.3112 Y-23.9723 Z0.2531
G1 X27.3109 Y-23.9713 Z0.2529
G1 X27.3107 Y-23.9702 Z0.2527
G1 X27.3104 Y-23.9692 Z0.2525
G1 X27.3101 Y-23.9681 Z0.2523
G1 X27.3098 Y-23.9671 Z0.2521
G1 X27.3095 Y-23.9660 Z0.2519
G1 X27.3092 Y-23.9650 Z0.2517
G1 X27.3090 Y-23.9640 Z0.2515
G1 X27.3087 Y-23.9629 Z0.2513
G1 X27.3084 Y-23.9619 Z0.2511
G1 X27.3081 Y-23.9608 Z0.2510
G1 X27.3079 Y-23.9598 Z0.2508
G1 X27.3076 Y-23.9587 Z0.2506
G1 X27.3073 Y-23.9577 Z0.2504
G1 X27.3070 Y-23.9566 Z0.2502
G1 X27.3068 Y-23.9556 Z0.2500
G1 X27.3065 Y-23.9545 Z0.2498
G1 X27.3063 Y-23.9534 Z0.2496
G1 X27.3060 Y-23.9524 Z0.2494
G1 X27.3057 Y-23.9513 Z0.2492
G1 X27.3011 Y-23.9823 Z0.2437
G1 X27.3142 Y-23.9828 Z0.2414
G1 X27.3139 Y-23.9817 Z0.2412
G1 X27.3136 Y-23.9807 Z0.2410
G1 X27.3133 Y-23.9796 Z0.2408
G1 X27.3130 Y-23.9786 Z0.2406
G1 X27.3127 Y-23.9775 Z0.2404
G1 X27.3124 Y-23.9765 Z0.2403
G1 X27.3121 Y-23.9755 Z0.2401
G1 X27.3118 Y-23.9744 Z0.2399
G1 X27.3115 Y-23.9734 Z0.2397
G1 X27.3112 Y-23.9723 Z0.2395
G1 X27.3109 Y-23.9713 Z0.2393
G1 X27.3107 Y-23.9702 Z0.2391
G1 X27.3104 Y-23.9692 Z0.2389
G1 X27.3101 Y-23.9681 Z0.2387
G1 X27.3098 Y-23.9671 Z0.2385
G1 X27.3095 Y-23.9660 Z0.2383
G1 X27.3092 Y-23.9650 Z0.2381
G1 X27.3090 Y-23.9640 Z0.2380
G1 X27.3087 Y-23.9629 Z0.2378
G1 X27.3084 Y-23.9619 Z0.2376
G1 X27.3081 Y-23.9608 Z0.2374
G1 X27.3079 Y-23.9598 Z0.2372
G1 X27.3076 Y-23.9587 Z0.2370
G1 X27.3073 Y-23.9577 Z0.2368
G1 X27.3070 Y-23.9566 Z0.2366
G1 X27.3068 Y-23.9556 Z0.2364
G1 X27.3065 Y-23.9545 Z0.2362
G1 X27.3063 Y-23.9534 Z0.2360
G1 X27.3060 Y-23.9524 Z0.2359
G1 X27.3057 Y-23.9513 Z0.2357
G1 X27.3011 Y-23.9823 Z0.2301
G1 X27.3142 Y-23.9828 Z0.2278
G1 X27.3139 Y-23.9817 Z0.2276
G1 X27.3136 Y-23.9807 Z0.2275
G1 X27.3133 Y-23.9796 Z0.2273
G1 X27.3130 Y-23.9786 Z0.2271
G1 X27.3127 Y-23.9775 Z0.2269
G1 X27.3124 Y-23.9765 Z0.2267
G1 X27.3121 Y-23.9755 Z0.2265
G1 X27.3118 Y-23.9744 Z0.2263
G1 X27.3115 Y-23.9734 Z0.2261
G1 X27.3112 Y-23.9723 Z0.2259
G1 X27.3109 Y-23.9713 Z0.2257
G1 X27.3107 Y-23.9702 Z0.2255
G1 X27.3104 Y-23.9692 Z0.2253
G1 X27.3101 Y-23.9681 Z0.2252
G1 X27.3098 Y-23.9671 Z0.2250
G1 X27.3095 Y-23.9660 Z0.2248
G1 X27.3092 Y-23.9650 Z0.2246
G1 X27.3090 Y-23.9640 Z0.2244
G1 X27.3087 Y-23.9629 Z0.2242
G1 X27.3084 Y-23.9619 Z0.2240
G1 X27.3081 Y-23.9608 Z0.2238
G1 X27.3079 Y-23.9598 Z0.2236
G1 X27.3076 Y-23.9587 Z0.2234
G1 X27.3073 Y-23.9577 Z0.2232
G1 X27.3070 Y-23.9566 Z0.2231
G1 X27.3068 Y-23.9556 Z0.2229
G1 X27.3065 Y-23.9545 Z0.2227
G1 X27.3063 Y-23.9534 Z0.2225
G1 X27.3060 Y-23.9524 Z0.2223
G1 X27.3057 Y-23.9513 Z0.2221
G1 X27.3011 Y-23.9823 Z0.2166
G1 X27.3142 Y-23.9828 Z0.2143
G1 X27.3139 Y-23.9817 Z0.2141
G1 X27.3136 Y-23.9807 Z0.2139
G1 X27.3133 Y-23.9796 Z0.2137
G1 X27.3130 Y-23.9786 Z0.2135
G1 X27.3127 Y-23.9775 Z0.2133
G1 X27.3124 Y-23.9765 Z0.2131
G1 X27.3121 Y-23.9755 Z0.2129
G1 X27.3118 Y-23.9744 Z0.2127
G1 X27.3115 Y-23.9734 Z0.2125
G1 X27.3112 Y-23.9723 Z0.2124
G1 X27.3109 Y-23.9713 Z0.2122
G1 X27.3107 Y-23.9702 Z0.2120
G1 X27.3104 Y-23.9692 Z0.2118
G1 X27.3101 Y-23.9681 Z0.2116
G1 X27.3098 Y-23.9671 Z0.2114
G1 X27.3095 Y-23.9660 Z0.2112
G1 X27.3092 Y-23.9650 Z0.2110
G1 X27.3090 Y-23.9640 Z0.2108
G1 X27.3087 Y-23.9629 Z0.2106
G1 X27.3084 Y-23.9619 Z0.2104
G1 X27.3081 Y-23.9608 Z0.2103
G1 X27.3079 Y-23.9598 Z0.2101
G1 X27.3076 Y-23.9587 Z0.2099
G1 X27.3073 Y-23.9577 Z0.2097
G1 X27.3070 Y-23.9566 Z0.2095
G1 X27.3068 Y-23.9556 Z0.2093
G1 X27.3065 Y-23.9545 Z0.2091
G1 X27.3063 Y-23.9534 Z0.2089
G1 X27.3060 Y-23.9524 Z0.2087
G1 X27.3057 Y-23.9513 Z0.2085
G1 X27.3011 Y-23.9823 Z0.2030
G1 X27.3142 Y-23.9828 Z0.2007
G1 X27.3139 Y-23.9817 Z0.2005
G1 X27.3136 Y-23.9807 Z0.2003
G1 X27.3133 Y-23.9796 Z0.2001
G1 X27.3130 Y-23.9786 Z0.1999
G1 X27.3127 Y-23.9775 Z0.1997
G1 X27.3124 Y-23.9765 Z0.1996
G1 X27.3121 Y-23.9755 Z0.1994
G1 X27.3118 Y-23.9744 Z0.1992
G1 X27.3115 Y-23.9734 Z0.1990
G1 X27.3112 Y-23.9723 Z0.1988
G1 X27.3109 Y-23.9713 Z0.1986
G1 X27.3107 Y-23.9702 Z0.1984
G1 X27.3104 Y-23.9692 Z0.1982
G1 X27.3101 Y-23.9681 Z0.1980
G1 X27.3098 Y-23.9671 Z0.1978
G1 X27.3095 Y-23.9660 Z0.1976
G1 X27.3092 Y-23.9650 Z0.1974
G1 X27.3090 Y-23.9640 Z0.1973
G1 X27.3087 Y-23.9629 Z0.1971
G1 X27.3084 Y-23.9619 Z0.1969
G1 X27.3081 Y-23.9608 Z0.1967
G1 X27.3079 Y-23.9598 Z0.1965
G1 X27.3076 Y-23.9587 Z0.1963
G1 X27.3073 Y-23.9577 Z0.1961
G1 X27.3070 Y-23.9566 Z0.1959
G1 X27.3068 Y-23.9556 Z0.1957
G1 X27.3065 Y-23.9545 Z0.1955
G1 X27.3063 Y-23.9534 Z0.1953
G1 X27.3060 Y-23.9524 Z0.1952
G1 X27.3057 Y-23.9513 Z0.1950
G1 X27.3011 Y-23.9823 Z0.1894
G1 X27.3142 Y-23.9828 Z0.1871
G1 X27.3139 Y-23.9817 Z0.1869
G1 X27.3136 Y-23.9807 Z0.1868
G1 X27.3133 Y-23.9796 Z0.1866
G1 X27.3130 Y-23.9786 Z0.1864
G1 X27.3127 Y-23.9775 Z0.1862
G1 X27.3124 Y-23.9765 Z0.1860
G1 X27.3121 Y-23.9755 Z0.1858
G1 X27.3118 Y-23.9744 Z0.1856
G1 X27.3115 Y-23.9734 Z0.1854
G1 X27.3112 Y-23.9723 Z0.1852
G1 X27.3109 Y-23.9713 Z0.1850
G1 X27.3107 Y-23.9702 Z0.1848
G1 X27.3104 Y-23.9692 Z0.1846
G1 X27.3101 Y-23.9681 Z0.1845
G1 X27.3098 Y-23.9671 Z0.1843
G1 X27.3095 Y-23.9660 Z0.1841
G1 X27.3092 Y-23.9650 Z0.1839
G1 X27.3090 Y-23.9640 Z0.1837
G1 X27.3087 Y-23.9629 Z0.1835
G1 X27.3084 Y-23.9619 Z0.1833
G1 X27.3081 Y-23.9608 Z0.1831
G1 X27.3079 Y-23.9598 Z0.1829
G1 X27.3076 Y-23.9587 Z0.1827
G1 X27.3073 Y-23.9577 Z0.1825
G1 X27.3070 Y-23.9566 Z0.1824
G1 X27.3068 Y-23.9556 Z0.1822
G1 X27.3065 Y-23.9545 Z0.1820
G1 X27.3063 Y-23.9534 Z0.1818
G1 X27.3060 Y-23.9524 Z0.1816
G1 X27.3057 Y-23.9513 Z0.1814
G1 X27.3011 Y-23.9823 Z0.1759
G1 X27.3142 Y-23.9828 Z0.1736
G1 X27.3139 Y-23.9817 Z0.1734
G1 X27.3136 Y-23.9807 Z0.1732
G1 X27.3133 Y-23.9796 Z0.1730
G1 X27.3130 Y-23.9786 Z0.1728
G1 X27.3127 Y-23.9775 Z0.1726
G1 X27.3124 Y-23.9765 Z0.1724
G1 X27.3121 Y-23.9755 Z0.1722
G1 X27.3118 Y-23.9744 Z0.1720
G1 X27.3115 Y-23.9734 Z0.1718
G1 X27.3112 Y-23.9723 Z0.1717
G1 X27.3109 Y-23.9713 Z0.1715
G1 X27.3107 Y-23.9702 Z0.1713
G1 X27.3104 Y-23.9692 Z0.1711
G1 X27.3101 Y-23.9681 Z0.1709
G1 X27.3098 Y-23.9671 Z0.1707
G1 X27.3095 Y-23.9660 Z0.1705
G1 X27.3092 Y-23.9650 Z0.1703
G1 X27.3090 Y-23.9640 Z0.1701
G1 X27.3087 Y-23.9629 Z0.1699
G1 X27.3084 Y-23.9619 Z0.1697
G1 X27.3081 Y-23.9608 Z0.1696
G1 X27.3079 Y-23.9598 Z0.1694
G1 X27.3076 Y-23.9587 Z0.1692
G1 X27.3073 Y-23.9577 Z0.1690
G1 X27.3070 Y-23.9566 Z0.1688
G1 X27.3068 Y-23.9556 Z0.1686
G1 X27.3065 Y-23.9545 Z0.1684
G1 X27.3063 Y-23.9534 Z0.1682
G1 X27.3060 Y-23.9524 Z0.1680
G1 X27.3057 Y-23.9513 Z0.1678
G1 X27.3011 Y-23.9823 Z0.1623
G1 X27.3142 Y-23.9828 Z0.1600
G1 X27.3139 Y-23.9817 Z0.1598
G1 X27.3136 Y-23.9807 Z0.1596
G1 X27.3133 Y-23.9796 Z0.1594
G1 X27.3130 Y-23.9786 Z0.1592
G1 X27.3127 Y-23.9775 Z0.1590
G1 X27.3124 Y-23.9765 Z0.1589
G1 X27.3121 Y-23.9755 Z0.1587
G1 X27.3118 Y-23.9744 Z0.1585
G1 X27.3115 Y-23.9734 Z0.1583
G1 X27.3112 Y-23.9723 Z0.1581
G1 X27.3109 Y-23.9713 Z0.1579
G1 X27.3107 Y-23.9702 Z0.1577
G1 X27.3104 Y-23.9692 Z0.1575
G1 X27.3101 Y-23.9681 Z0.1573
G1 X27.3098 Y-23.9671 Z0.1571
G1 X27.3095 Y-23.9660 Z0.1569
G1 X27.3092 Y-23.9650 Z0.1568
G1 X27.3090 Y-23.9640 Z0.1566
G1 X27.3087 Y-23.9629 Z0.1564
G1 X27.3084 Y-23.9619 Z0.1562
G1 X27.3081 Y-23.9608 Z0.1560
G1 X27.3079 Y-23.9598 Z0.1558
G1 X27.3076 Y-23.9587 Z0.1556
G1 X27.3073 Y-23.9577 Z0.1554
G1 X27.3070 Y-23.9566 Z0.1552
G1 X27.3068 Y-23.9556 Z0.1550
G1 X27.3065 Y-23.9545 Z0.1548
G1 X27.3063 Y-23.9534 Z0.1546
G1 X27.3060 Y-23.9524 Z0.1545
G1 X27.3057 Y-23.9513 Z0.1543
G1 X27.3011 Y-23.9823 Z0.1487
G1 X27.3142 Y-23.9828 Z0.1464
G1 X27.3139 Y-23.9817 Z0.1462
G1 X27.3136 Y-23.9807 Z0.1461
G1 X27.3133 Y-23.9796 Z0.1459
G1 X27.3130 Y-23.9786 Z0.1457
G1 X27.3127 Y-23.9775 Z0.1455
G1 X27.3124 Y-23.9765 Z0.1453
G1 X27.3121 Y-23.9755 Z0.1451
G1 X27.3118 Y-23.9744 Z0.1449
G1 X27.3115 Y-23.9734 Z0.1447
G1 X27.3112 Y-23.9723 Z0.1445
G1 X27.3109 Y-23.9713 Z0.1443
G1 X27.3107 Y-23.9702 Z0.1441
G1 X27.3104 Y-23.9692 Z0.1439
G1 X27.3101 Y-23.9681 Z0.1438
G1 X27.3098 Y-23.9671 Z0.1436
G1 X27.3095 Y-23.9660 Z0.1434
G1 X27.3092 Y-23.9650 Z0.1432
G1 X27.3090 Y-23.9640 Z0.1430
G1 X27.3087 Y-23.9629 Z0.1428
G1 X27.3084 Y-23.9619 Z0.1426
G1 X27.3081 Y-23.9608 Z0.1424
G1 X27.3079 Y-23.9598 Z0.1422
G1 X27.3076 Y-23.9587 Z0.1420
G1 X27.3073 Y-23.9577 Z0.1418
G1 X27.3070 Y-23.9566 Z0.1417
G1 X27.3068 Y-23.9556 Z0.1415
G1 X27.3065 Y-23.9545 Z0.1413
G1 X27.3063 Y-23.9534 Z0.1411
G1 X27.3060 Y-23.9524 Z0.1409
G1 X27.3057 Y-23.9513 Z0.1407
G1 X27.3011 Y-23.9823 Z0.1352
G1 X27.3142 Y-23.9828 Z0.1329
G1 X27.3139 Y-23.9817 Z0.1327
G1 X27.3136 Y-23.9807 Z0.1325
G1 X27.3133 Y-23.9796 Z0.1323
G1 X27.3130 Y-23.9786 Z0.1321
G1 X27.3127 Y-23.9775 Z0.1319
G1 X27.3124 Y-23.9765 Z0.1317
G1 X27.3121 Y-23.9755 Z0.1315
G1 X27.3118 Y-23.9744 Z0.1313
G1 X27.3115 Y-23.9734 Z0.1311
G1 X27.3112 Y-23.9723 Z0.1310
G1 X27.3109 Y-23.9713 Z0.1308
G1 X27.3107 Y-23.9702 Z0.1306
G1 X27.3104 Y-23.9692 Z0.1304
G1 X27.3101 Y-23.9681 Z0.1302
G1 X27.3098 Y-23.9671 Z0.1300
G17
G2X27.3057Y-23.9513Z0.1300I0.7449J0.2012
G1 X27.3011 Y-23.9823 Z0.1300
G1 X27.3142 Y-23.9828 Z0.1300
G2X27.3098Y-23.9671Z0.1300I0.7405J0.2169
G1 X27.3400 Y-23.9589 Z0.1300
G2X27.3150Y-23.7961Z0.1300I0.7147J0.1930
G3X27.2664Y-24.0123Z0.1300I0.7831J-0.2895
G1 X27.3578 Y-24.0156 Z0.1300
G2X27.3400Y-23.9589Z0.1300I0.6969J0.2497
G0 Z0.5300
G0 X27.3400 Y-23.9589 
G0 Z0.5300
G0 X27.3379 Y-21.6271 
G1 X27.3379 Y-21.6271 Z0.2800 F75.
G1 X27.3379 Y-21.6271 Z0.2550 F25.
G1 X27.3348 Y-21.6270 Z0.2545
G1 X27.3355 Y-21.6292 Z0.2541
G1 X27.3361 Y-21.6313 Z0.2537
G1 X27.3367 Y-21.6335 Z0.2533
G1 X27.3373 Y-21.6356 Z0.2529
G1 X27.3379 Y-21.6378 Z0.2525
G1 X27.3385 Y-21.6399 Z0.2521
G1 X27.3391 Y-21.6421 Z0.2517
G1 X27.3397 Y-21.6442 Z0.2513
G1 X27.3403 Y-21.6464 Z0.2509
G1 X27.3408 Y-21.6486 Z0.2505
G1 X27.3414 Y-21.6507 Z0.2501
G1 X27.3420 Y-21.6529 Z0.2497
G1 X27.3425 Y-21.6550 Z0.2493
G1 X27.3431 Y-21.6572 Z0.2489
G1 X27.3436 Y-21.6594 Z0.2485
G1 X27.3483 Y-21.6276 Z0.2429
G1 X27.3416 Y-21.6273 Z0.2417
G1 X27.3348 Y-21.6270 Z0.2405
G1 X27.3355 Y-21.6292 Z0.2401
G1 X27.3361 Y-21.6313 Z0.2397
G1 X27.3367 Y-21.6335 Z0.2393
G1 X27.3373 Y-21.6356 Z0.2389
G1 X27.3379 Y-21.6378 Z0.2385
G1 X27.3385 Y-21.6399 Z0.2381
G1 X27.3391 Y-21.6421 Z0.2377
G1 X27.3397 Y-21.6442 Z0.2373
G1 X27.3403 Y-21.6464 Z0.2370
G1 X27.3408 Y-21.6486 Z0.2366
G1 X27.3414 Y-21.6507 Z0.2362
G1 X27.3420 Y-21.6529 Z0.2358
G1 X27.3425 Y-21.6550 Z0.2354
G1 X27.3431 Y-21.6572 Z0.2350
G1 X27.3436 Y-21.6594 Z0.2346
G1 X27.3483 Y-21.6276 Z0.2289
G1 X27.3416 Y-21.6273 Z0.2277
G1 X27.3348 Y-21.6270 Z0.2265
G1 X27.3355 Y-21.6292 Z0.2261
G1 X27.3361 Y-21.6313 Z0.2258
G1 X27.3367 Y-21.6335 Z0.2254
G1 X27.3373 Y-21.6356 Z0.2250
G1 X27.3379 Y-21.6378 Z0.2246
G1 X27.3385 Y-21.6399 Z0.2242
G1 X27.3391 Y-21.6421 Z0.2238
G1 X27.3397 Y-21.6442 Z0.2234
G1 X27.3403 Y-21.6464 Z0.2230
G1 X27.3408 Y-21.6486 Z0.2226
G1 X27.3414 Y-21.6507 Z0.2222
G1 X27.3420 Y-21.6529 Z0.2218
G1 X27.3425 Y-21.6550 Z0.2214
G1 X27.3431 Y-21.6572 Z0.2210
G1 X27.3436 Y-21.6594 Z0.2206
G1 X27.3483 Y-21.6276 Z0.2150
G1 X27.3416 Y-21.6273 Z0.2138
G1 X27.3348 Y-21.6270 Z0.2126
G1 X27.3355 Y-21.6292 Z0.2122
G1 X27.3361 Y-21.6313 Z0.2118
G1 X27.3367 Y-21.6335 Z0.2114
G1 X27.3373 Y-21.6356 Z0.2110
G1 X27.3379 Y-21.6378 Z0.2106
G1 X27.3385 Y-21.6399 Z0.2102
G1 X27.3391 Y-21.6421 Z0.2098
G1 X27.3397 Y-21.6442 Z0.2094
G1 X27.3403 Y-21.6464 Z0.2090
G1 X27.3408 Y-21.6486 Z0.2086
G1 X27.3414 Y-21.6507 Z0.2082
G1 X27.3420 Y-21.6529 Z0.2078
G1 X27.3425 Y-21.6550 Z0.2075
G1 X27.3431 Y-21.6572 Z0.2071
G1 X27.3436 Y-21.6594 Z0.2067
G1 X27.3483 Y-21.6276 Z0.2010
G1 X27.3416 Y-21.6273 Z0.1998
G1 X27.3348 Y-21.6270 Z0.1986
G1 X27.3355 Y-21.6292 Z0.1982
G1 X27.3361 Y-21.6313 Z0.1978
G1 X27.3367 Y-21.6335 Z0.1974
G1 X27.3373 Y-21.6356 Z0.1970
G1 X27.3379 Y-21.6378 Z0.1966
G1 X27.3385 Y-21.6399 Z0.1963
G1 X27.3391 Y-21.6421 Z0.1959
G1 X27.3397 Y-21.6442 Z0.1955
G1 X27.3403 Y-21.6464 Z0.1951
G1 X27.3408 Y-21.6486 Z0.1947
G1 X27.3414 Y-21.6507 Z0.1943
G1 X27.3420 Y-21.6529 Z0.1939
G1 X27.3425 Y-21.6550 Z0.1935
G1 X27.3431 Y-21.6572 Z0.1931
G1 X27.3436 Y-21.6594 Z0.1927
G1 X27.3483 Y-21.6276 Z0.1870
G1 X27.3416 Y-21.6273 Z0.1858
G1 X27.3348 Y-21.6270 Z0.1847
G1 X27.3355 Y-21.6292 Z0.1843
G1 X27.3361 Y-21.6313 Z0.1839
G1 X27.3367 Y-21.6335 Z0.1835
G1 X27.3373 Y-21.6356 Z0.1831
G1 X27.3379 Y-21.6378 Z0.1827
G1 X27.3385 Y-21.6399 Z0.1823
G1 X27.3391 Y-21.6421 Z0.1819
G1 X27.3397 Y-21.6442 Z0.1815
G1 X27.3403 Y-21.6464 Z0.1811
G1 X27.3408 Y-21.6486 Z0.1807
G1 X27.3414 Y-21.6507 Z0.1803
G1 X27.3420 Y-21.6529 Z0.1799
G1 X27.3425 Y-21.6550 Z0.1795
G1 X27.3431 Y-21.6572 Z0.1791
G1 X27.3436 Y-21.6594 Z0.1787
G1 X27.3483 Y-21.6276 Z0.1731
G1 X27.3416 Y-21.6273 Z0.1719
G1 X27.3348 Y-21.6270 Z0.1707
G1 X27.3355 Y-21.6292 Z0.1703
G1 X27.3361 Y-21.6313 Z0.1699
G1 X27.3367 Y-21.6335 Z0.1695
G1 X27.3373 Y-21.6356 Z0.1691
G1 X27.3379 Y-21.6378 Z0.1687
G1 X27.3385 Y-21.6399 Z0.1683
G1 X27.3391 Y-21.6421 Z0.1679
G1 X27.3397 Y-21.6442 Z0.1675
G1 X27.3403 Y-21.6464 Z0.1671
G1 X27.3408 Y-21.6486 Z0.1668
G1 X27.3414 Y-21.6507 Z0.1664
G1 X27.3420 Y-21.6529 Z0.1660
G1 X27.3425 Y-21.6550 Z0.1656
G1 X27.3431 Y-21.6572 Z0.1652
G1 X27.3436 Y-21.6594 Z0.1648
G1 X27.3483 Y-21.6276 Z0.1591
G1 X27.3416 Y-21.6273 Z0.1579
G1 X27.3348 Y-21.6270 Z0.1567
G1 X27.3355 Y-21.6292 Z0.1563
G1 X27.3361 Y-21.6313 Z0.1559
G1 X27.3367 Y-21.6335 Z0.1555
G1 X27.3373 Y-21.6356 Z0.1552
G1 X27.3379 Y-21.6378 Z0.1548
G1 X27.3385 Y-21.6399 Z0.1544
G1 X27.3391 Y-21.6421 Z0.1540
G1 X27.3397 Y-21.6442 Z0.1536
G1 X27.3403 Y-21.6464 Z0.1532
G1 X27.3408 Y-21.6486 Z0.1528
G1 X27.3414 Y-21.6507 Z0.1524
G1 X27.3420 Y-21.6529 Z0.1520
G1 X27.3425 Y-21.6550 Z0.1516
G1 X27.3431 Y-21.6572 Z0.1512
G1 X27.3436 Y-21.6594 Z0.1508
G1 X27.3483 Y-21.6276 Z0.1452
G1 X27.3416 Y-21.6273 Z0.1440
G1 X27.3348 Y-21.6270 Z0.1428
G1 X27.3355 Y-21.6292 Z0.1424
G1 X27.3361 Y-21.6313 Z0.1420
G1 X27.3367 Y-21.6335 Z0.1416
G1 X27.3373 Y-21.6356 Z0.1412
G1 X27.3379 Y-21.6378 Z0.1408
G1 X27.3385 Y-21.6399 Z0.1404
G1 X27.3391 Y-21.6421 Z0.1400
G1 X27.3397 Y-21.6442 Z0.1396
G1 X27.3403 Y-21.6464 Z0.1392
G1 X27.3408 Y-21.6486 Z0.1388
G1 X27.3414 Y-21.6507 Z0.1384
G1 X27.3420 Y-21.6529 Z0.1380
G1 X27.3425 Y-21.6550 Z0.1376
G1 X27.3431 Y-21.6572 Z0.1372
G1 X27.3436 Y-21.6594 Z0.1369
G1 X27.3483 Y-21.6276 Z0.1312
G1 X27.3416 Y-21.6273 Z0.1300
G1 X27.3348 Y-21.6270 Z0.1300
G2X27.3436Y-21.6594Z0.1300I-0.7402J-0.2178
G1 X27.3483 Y-21.6276 Z0.1300
G1 X27.3416 Y-21.6273 Z0.1300
G1 X27.3430 Y-21.5961 Z0.1300
G1 X27.2911 Y-21.5937 Z0.1300
G2X27.3344Y-21.8146Z0.1300I-0.6965J-0.2511
G3X27.3830Y-21.5979Z0.1300I-0.7832J0.2895
G1 X27.3430 Y-21.5961 Z0.1300
G0 Z0.5300
G0 X27.3430 Y-21.5961 
G0 Z0.5300
G0 X28.6181 Y-21.4205 
G1 X28.6181 Y-21.4205 Z0.2800 F75.
G1 X28.6181 Y-21.4205 Z0.2550 F25.
G1 X28.6114 Y-21.4185 Z0.2538
G1 X28.6040 Y-21.4171 Z0.2524
G1 X28.5964 Y-21.4166 Z0.2511
G1 X28.5889 Y-21.4171 Z0.2498
G1 X28.5815 Y-21.4185 Z0.2484
G1 X28.5743 Y-21.4207 Z0.2471
G1 X28.5674 Y-21.4238 Z0.2458
G1 X28.5609 Y-21.4277 Z0.2444
G1 X28.5550 Y-21.4324 Z0.2431
G1 X28.5496 Y-21.4377 Z0.2418
G1 X28.5450 Y-21.4436 Z0.2405
G1 X28.5411 Y-21.4501 Z0.2391
G1 X28.5380 Y-21.4570 Z0.2378
G1 X28.5357 Y-21.4642 Z0.2365
G1 X28.5344 Y-21.4716 Z0.2351
G1 X28.5339 Y-21.4791 Z0.2338
G1 X28.5344 Y-21.4867 Z0.2325
G1 X28.5357 Y-21.4941 Z0.2311
G1 X28.5380 Y-21.5013 Z0.2298
G1 X28.5411 Y-21.5082 Z0.2285
G1 X28.5450 Y-21.5146 Z0.2271
G1 X28.5496 Y-21.5206 Z0.2258
G1 X28.5550 Y-21.5259 Z0.2245
G1 X28.5609 Y-21.5306 Z0.2232
G1 X28.5674 Y-21.5345 Z0.2218
G1 X28.5743 Y-21.5376 Z0.2205
G1 X28.5815 Y-21.5398 Z0.2192
G1 X28.5889 Y-21.5412 Z0.2178
G1 X28.5964 Y-21.5416 Z0.2165
G1 X28.6040 Y-21.5412 Z0.2152
G1 X28.6114 Y-21.5398 Z0.2138
G1 X28.6186 Y-21.5376 Z0.2125
G1 X28.6255 Y-21.5345 Z0.2112
G1 X28.6319 Y-21.5306 Z0.2098
G1 X28.6379 Y-21.5259 Z0.2085
G1 X28.6432 Y-21.5206 Z0.2072
G1 X28.6479 Y-21.5146 Z0.2059
G1 X28.6518 Y-21.5082 Z0.2045
G1 X28.6549 Y-21.5013 Z0.2032
G1 X28.6571 Y-21.4941 Z0.2019
G1 X28.6585 Y-21.4867 Z0.2005
G1 X28.6589 Y-21.4791 Z0.1992
G1 X28.6585 Y-21.4716 Z0.1979
G1 X28.6571 Y-21.4642 Z0.1965
G1 X28.6549 Y-21.4570 Z0.1952
G1 X28.6518 Y-21.4501 Z0.1939
G1 X28.6479 Y-21.4436 Z0.1925
G1 X28.6432 Y-21.4377 Z0.1912
G1 X28.6379 Y-21.4324 Z0.1899
G1 X28.6319 Y-21.4277 Z0.1886
G1 X28.6255 Y-21.4238 Z0.1872
G1 X28.6186 Y-21.4207 Z0.1859
G1 X28.6114 Y-21.4185 Z0.1846
G1 X28.6040 Y-21.4171 Z0.1832
G1 X28.5964 Y-21.4166 Z0.1819
G1 X28.5889 Y-21.4171 Z0.1806
G1 X28.5815 Y-21.4185 Z0.1792
G1 X28.5743 Y-21.4207 Z0.1779
G1 X28.5674 Y-21.4238 Z0.1766
G1 X28.5609 Y-21.4277 Z0.1752
G1 X28.5550 Y-21.4324 Z0.1739
G1 X28.5496 Y-21.4377 Z0.1726
G1 X28.5450 Y-21.4436 Z0.1713
G1 X28.5411 Y-21.4501 Z0.1699
G1 X28.5380 Y-21.4570 Z0.1686
G1 X28.5357 Y-21.4642 Z0.1673
G1 X28.5344 Y-21.4716 Z0.1659
G1 X28.5339 Y-21.4791 Z0.1646
G1 X28.5344 Y-21.4867 Z0.1633
G1 X28.5357 Y-21.4941 Z0.1619
G1 X28.5380 Y-21.5013 Z0.1606
G1 X28.5411 Y-21.5082 Z0.1593
G1 X28.5450 Y-21.5146 Z0.1579
G1 X28.5496 Y-21.5206 Z0.1566
G1 X28.5550 Y-21.5259 Z0.1553
G1 X28.5609 Y-21.5306 Z0.1540
G1 X28.5674 Y-21.5345 Z0.1526
G1 X28.5743 Y-21.5376 Z0.1513
G1 X28.5815 Y-21.5398 Z0.1500
G1 X28.5889 Y-21.5412 Z0.1486
G1 X28.5964 Y-21.5416 Z0.1473
G1 X28.6040 Y-21.5412 Z0.1460
G1 X28.6114 Y-21.5398 Z0.1446
G1 X28.6186 Y-21.5376 Z0.1433
G1 X28.6255 Y-21.5345 Z0.1420
G1 X28.6319 Y-21.5306 Z0.1406
G1 X28.6379 Y-21.5259 Z0.1393
G1 X28.6432 Y-21.5206 Z0.1380
G1 X28.6479 Y-21.5146 Z0.1367
G1 X28.6518 Y-21.5082 Z0.1353
G1 X28.6549 Y-21.5013 Z0.1340
G1 X28.6571 Y-21.4941 Z0.1327
G1 X28.6585 Y-21.4867 Z0.1313
G1 X28.6589 Y-21.4791 Z0.1300
G3X28.5964Y-21.4791Z0.1300I-0.0312J0.0000
G1 X28.5857 Y-21.4795 Z0.1300
G2X28.5988Y-21.5308Z0.1300I-1.2357J-0.3440
G1 X28.6072 Y-21.4788 Z0.1300
G1 X28.5964 Y-21.4791 Z0.1300
G1 X28.5954 Y-21.4480 Z0.1300
G2X28.5436Y-21.4475Z0.1300I-0.0214J0.4743
G2X28.5938Y-21.6854Z0.1300I-1.1936J-0.3760
G3X28.6428Y-21.4463Z0.1300I-1.3161J0.3948
G1 X28.5954 Y-21.4480 Z0.1300
G1 X28.5949 Y-21.4170 Z0.1300
G1 X28.5853 Y-21.4171 Z0.1300
G1 X28.5827 Y-21.4171 Z0.1300
G2X28.4990Y-21.4131Z0.1300I0.0000J0.8789
G2X28.5700Y-21.8426Z0.1300I-1.1490J-0.4104
G3X28.6777Y-21.4119Z0.1300I-1.2923J0.5520
G2X28.5949Y-21.4170Z0.1300I-0.0950J0.8737
G1 X28.5945 Y-21.3857 Z0.1300
G1 X28.5852 Y-21.3858 Z0.1300
G1 X28.5827 Y-21.3858 Z0.1300
G2X28.4513Y-21.3756Z0.1300I0.0000J0.8476
G2X28.5253Y-22.0026Z0.1300I-1.1013J-0.4479
G3X28.7117Y-21.3760Z0.1300I-1.2476J0.7120
G2X28.5945Y-21.3857Z0.1300I-0.1290J0.8378
G0 Z0.5300
G0 X28.5945 Y-21.3857 
G0 Z0.5300
G0 X29.5741 Y-21.5119 
G1 X29.5741 Y-21.5119 Z0.2800 F75.
G1 X29.5741 Y-21.5119 Z0.2550 F25.
G1 X29.5674 Y-21.5098 Z0.2538
G1 X29.5599 Y-21.5084 Z0.2524
G1 X29.5524 Y-21.5080 Z0.2511
G1 X29.5449 Y-21.5084 Z0.2498
G1 X29.5375 Y-21.5098 Z0.2484
G1 X29.5303 Y-21.5120 Z0.2471
G1 X29.5234 Y-21.5151 Z0.2458
G1 X29.5169 Y-21.5190 Z0.2444
G1 X29.5110 Y-21.5237 Z0.2431
G1 X29.5056 Y-21.5290 Z0.2418
G1 X29.5010 Y-21.5349 Z0.2405
G1 X29.4971 Y-21.5414 Z0.2391
G1 X29.4940 Y-21.5483 Z0.2378
G1 X29.4917 Y-21.5555 Z0.2365
G1 X29.4904 Y-21.5629 Z0.2351
G1 X29.4899 Y-21.5705 Z0.2338
G1 X29.4904 Y-21.5780 Z0.2325
G1 X29.4917 Y-21.5854 Z0.2311
G1 X29.4940 Y-21.5926 Z0.2298
G1 X29.4971 Y-21.5995 Z0.2285
G1 X29.5010 Y-21.6060 Z0.2271
G1 X29.5056 Y-21.6119 Z0.2258
G1 X29.5110 Y-21.6172 Z0.2245
G1 X29.5169 Y-21.6219 Z0.2232
G1 X29.5234 Y-21.6258 Z0.2218
G1 X29.5303 Y-21.6289 Z0.2205
G1 X29.5375 Y-21.6311 Z0.2192
G1 X29.5449 Y-21.6325 Z0.2178
G1 X29.5524 Y-21.6330 Z0.2165
G1 X29.5599 Y-21.6325 Z0.2152
G1 X29.5674 Y-21.6311 Z0.2138
G1 X29.5746 Y-21.6289 Z0.2125
G1 X29.5815 Y-21.6258 Z0.2112
G1 X29.5879 Y-21.6219 Z0.2098
G1 X29.5939 Y-21.6172 Z0.2085
G1 X29.5992 Y-21.6119 Z0.2072
G1 X29.6039 Y-21.6060 Z0.2059
G1 X29.6078 Y-21.5995 Z0.2045
G1 X29.6109 Y-21.5926 Z0.2032
G1 X29.6131 Y-21.5854 Z0.2019
G1 X29.6145 Y-21.5780 Z0.2005
G1 X29.6149 Y-21.5705 Z0.1992
G1 X29.6145 Y-21.5629 Z0.1979
G1 X29.6131 Y-21.5555 Z0.1965
G1 X29.6109 Y-21.5483 Z0.1952
G1 X29.6078 Y-21.5414 Z0.1939
G1 X29.6039 Y-21.5349 Z0.1925
G1 X29.5992 Y-21.5290 Z0.1912
G1 X29.5939 Y-21.5237 Z0.1899
G1 X29.5879 Y-21.5190 Z0.1886
G1 X29.5815 Y-21.5151 Z0.1872
G1 X29.5746 Y-21.5120 Z0.1859
G1 X29.5674 Y-21.5098 Z0.1846
G1 X29.5599 Y-21.5084 Z0.1832
G1 X29.5524 Y-21.5080 Z0.1819
G1 X29.5449 Y-21.5084 Z0.1806
G1 X29.5375 Y-21.5098 Z0.1792
G1 X29.5303 Y-21.5120 Z0.1779
G1 X29.5234 Y-21.5151 Z0.1766
G1 X29.5169 Y-21.5190 Z0.1752
G1 X29.5110 Y-21.5237 Z0.1739
G1 X29.5056 Y-21.5290 Z0.1726
G1 X29.5010 Y-21.5349 Z0.1713
G1 X29.4971 Y-21.5414 Z0.1699
G1 X29.4940 Y-21.5483 Z0.1686
G1 X29.4917 Y-21.5555 Z0.1673
G1 X29.4904 Y-21.5629 Z0.1659
G1 X29.4899 Y-21.5705 Z0.1646
G1 X29.4904 Y-21.5780 Z0.1633
G1 X29.4917 Y-21.5854 Z0.1619
G1 X29.4940 Y-21.5926 Z0.1606
G1 X29.4971 Y-21.5995 Z0.1593
G1 X29.5010 Y-21.6060 Z0.1579
G1 X29.5056 Y-21.6119 Z0.1566
G1 X29.5110 Y-21.6172 Z0.1553
G1 X29.5169 Y-21.6219 Z0.1540
G1 X29.5234 Y-21.6258 Z0.1526
G1 X29.5303 Y-21.6289 Z0.1513
G1 X29.5375 Y-21.6311 Z0.1500
G1 X29.5449 Y-21.6325 Z0.1486
G1 X29.5524 Y-21.6330 Z0.1473
G1 X29.5599 Y-21.6325 Z0.1460
G1 X29.5674 Y-21.6311 Z0.1446
G1 X29.5746 Y-21.6289 Z0.1433
G1 X29.5815 Y-21.6258 Z0.1420
G1 X29.5879 Y-21.6219 Z0.1406
G1 X29.5939 Y-21.6172 Z0.1393
G1 X29.5992 Y-21.6119 Z0.1380
G1 X29.6039 Y-21.6060 Z0.1367
G1 X29.6078 Y-21.5995 Z0.1353
G1 X29.6109 Y-21.5926 Z0.1340
G1 X29.6131 Y-21.5854 Z0.1327
G1 X29.6145 Y-21.5780 Z0.1313
G1 X29.6149 Y-21.5705 Z0.1300
G3X29.5524Y-21.5705Z0.1300I-0.0312J0.0000
G1 X29.5417 Y-21.5706 Z0.1300
G2X29.5548Y-21.6218Z0.1300I-1.2357J-0.3439
G1 X29.5631 Y-21.5703 Z0.1300
G1 X29.5524 Y-21.5705 Z0.1300
G1 X29.5520 Y-21.5393 Z0.1300
G2X29.5201Y-21.5392Z0.1300I-0.0133J0.9101
G2X29.4996Y-21.5385Z0.1300I0.0186J0.9100
G2X29.5498Y-21.7765Z0.1300I-1.1936J-0.3760
G3X29.5989Y-21.5374Z0.1300I-1.3161J0.3948
G2X29.5520Y-21.5393Z0.1300I-0.0602J0.9082
G1 X29.5515 Y-21.5080 Z0.1300
G2X29.5207Y-21.5079Z0.1300I-0.0128J0.8788
G2X29.4551Y-21.5041Z0.1300I0.0180J0.8787
G2X29.5260Y-21.9336Z0.1300I-1.1491J-0.4104
G3X29.6337Y-21.5030Z0.1300I-1.2923J0.5519
G2X29.5515Y-21.5080Z0.1300I-0.0950J0.8738
G1 X29.5511 Y-21.4768 Z0.1300
G2X29.5214Y-21.4767Z0.1300I-0.0124J0.8476
G2X29.4073Y-21.4666Z0.1300I0.0173J0.8475
G2X29.4813Y-22.0937Z0.1300I-1.1013J-0.4479
G3X29.6677Y-21.4670Z0.1300I-1.2476J0.7120
G2X29.5511Y-21.4768Z0.1300I-0.1290J0.8378
G0 Z0.5300
G0 X29.5511 Y-21.4768 
G0 Z0.5300
G0 X30.6472 Y-21.6133 
G1 X30.6472 Y-21.6133 Z0.2800 F75.
G1 X30.6472 Y-21.6133 Z0.2550 F25.
G1 X30.6405 Y-21.6112 Z0.2538
G1 X30.6331 Y-21.6098 Z0.2524
G1 X30.6255 Y-21.6094 Z0.2511
G1 X30.6180 Y-21.6098 Z0.2498
G1 X30.6106 Y-21.6112 Z0.2484
G1 X30.6034 Y-21.6134 Z0.2471
G1 X30.5965 Y-21.6165 Z0.2458
G1 X30.5900 Y-21.6204 Z0.2444
G1 X30.5841 Y-21.6251 Z0.2431
G1 X30.5787 Y-21.6304 Z0.2418
G1 X30.5741 Y-21.6364 Z0.2405
G1 X30.5702 Y-21.6428 Z0.2391
G1 X30.5671 Y-21.6497 Z0.2378
G1 X30.5648 Y-21.6569 Z0.2365
G1 X30.5635 Y-21.6643 Z0.2351
G1 X30.5630 Y-21.6719 Z0.2338
G1 X30.5635 Y-21.6794 Z0.2325
G1 X30.5648 Y-21.6868 Z0.2311
G1 X30.5671 Y-21.6940 Z0.2298
G1 X30.5702 Y-21.7009 Z0.2285
G1 X30.5741 Y-21.7074 Z0.2271
G1 X30.5787 Y-21.7133 Z0.2258
G1 X30.5841 Y-21.7186 Z0.2245
G1 X30.5900 Y-21.7233 Z0.2232
G1 X30.5965 Y-21.7272 Z0.2218
G1 X30.6034 Y-21.7303 Z0.2205
G1 X30.6106 Y-21.7325 Z0.2192
G1 X30.6180 Y-21.7339 Z0.2178
G1 X30.6255 Y-21.7344 Z0.2165
G1 X30.6331 Y-21.7339 Z0.2152
G1 X30.6405 Y-21.7325 Z0.2138
G1 X30.6477 Y-21.7303 Z0.2125
G1 X30.6546 Y-21.7272 Z0.2112
G1 X30.6610 Y-21.7233 Z0.2098
G1 X30.6670 Y-21.7186 Z0.2085
G1 X30.6723 Y-21.7133 Z0.2072
G1 X30.6770 Y-21.7074 Z0.2059
G1 X30.6809 Y-21.7009 Z0.2045
G1 X30.6840 Y-21.6940 Z0.2032
G1 X30.6862 Y-21.6868 Z0.2019
G1 X30.6876 Y-21.6794 Z0.2005
G1 X30.6880 Y-21.6719 Z0.1992
G1 X30.6876 Y-21.6643 Z0.1979
G1 X30.6862 Y-21.6569 Z0.1965
G1 X30.6840 Y-21.6497 Z0.1952
G1 X30.6809 Y-21.6428 Z0.1939
G1 X30.6770 Y-21.6364 Z0.1925
G1 X30.6723 Y-21.6304 Z0.1912
G1 X30.6670 Y-21.6251 Z0.1899
G1 X30.6610 Y-21.6204 Z0.1886
G1 X30.6546 Y-21.6165 Z0.1872
G1 X30.6477 Y-21.6134 Z0.1859
G1 X30.6405 Y-21.6112 Z0.1846
G1 X30.6331 Y-21.6098 Z0.1832
G1 X30.6255 Y-21.6094 Z0.1819
G1 X30.6180 Y-21.6098 Z0.1806
G1 X30.6106 Y-21.6112 Z0.1792
G1 X30.6034 Y-21.6134 Z0.1779
G1 X30.5965 Y-21.6165 Z0.1766
G1 X30.5900 Y-21.6204 Z0.1752
G1 X30.5841 Y-21.6251 Z0.1739
G1 X30.5787 Y-21.6304 Z0.1726
G1 X30.5741 Y-21.6364 Z0.1713
G1 X30.5702 Y-21.6428 Z0.1699
G1 X30.5671 Y-21.6497 Z0.1686
G1 X30.5648 Y-21.6569 Z0.1673
G1 X30.5635 Y-21.6643 Z0.1659
G1 X30.5630 Y-21.6719 Z0.1646
G1 X30.5635 Y-21.6794 Z0.1633
G1 X30.5648 Y-21.6868 Z0.1619
G1 X30.5671 Y-21.6940 Z0.1606
G1 X30.5702 Y-21.7009 Z0.1593
G1 X30.5741 Y-21.7074 Z0.1579
G1 X30.5787 Y-21.7133 Z0.1566
G1 X30.5841 Y-21.7186 Z0.1553
G1 X30.5900 Y-21.7233 Z0.1540
G1 X30.5965 Y-21.7272 Z0.1526
G1 X30.6034 Y-21.7303 Z0.1513
G1 X30.6106 Y-21.7325 Z0.1500
G1 X30.6180 Y-21.7339 Z0.1486
G1 X30.6255 Y-21.7344 Z0.1473
G1 X30.6331 Y-21.7339 Z0.1460
G1 X30.6405 Y-21.7325 Z0.1446
G1 X30.6477 Y-21.7303 Z0.1433
G1 X30.6546 Y-21.7272 Z0.1420
G1 X30.6610 Y-21.7233 Z0.1406
G1 X30.6670 Y-21.7186 Z0.1393
G1 X30.6723 Y-21.7133 Z0.1380
G1 X30.6770 Y-21.7074 Z0.1367
G1 X30.6809 Y-21.7009 Z0.1353
G1 X30.6840 Y-21.6940 Z0.1340
G1 X30.6862 Y-21.6868 Z0.1327
G1 X30.6876 Y-21.6794 Z0.1313
G1 X30.6880 Y-21.6719 Z0.1300
G3X30.6255Y-21.6719Z0.1300I-0.0312J0.0000
G1 X30.6148 Y-21.6722 Z0.1300
G2X30.6279Y-21.7235Z0.1300I-1.2357J-0.3440
G1 X30.6363 Y-21.6715 Z0.1300
G1 X30.6255 Y-21.6719 Z0.1300
G1 X30.6245 Y-21.6406 Z0.1300
G2X30.5727Y-21.6402Z0.1300I-0.0216J0.4757
G2X30.6229Y-21.8781Z0.1300I-1.1936J-0.3760
G3X30.6719Y-21.6390Z0.1300I-1.3161J0.3948
G1 X30.6245 Y-21.6406 Z0.1300
G1 X30.6240 Y-21.6097 Z0.1300
G2X30.6136Y-21.6098Z0.1300I-0.0121J0.8785
G1 X30.5938 Y-21.6096 Z0.1300
G2X30.5281Y-21.6058Z0.1300I0.0180J0.8787
G2X30.5991Y-22.0353Z0.1300I-1.1490J-0.4104
G3X30.7068Y-21.6046Z0.1300I-1.2923J0.5520
G2X30.6240Y-21.6097Z0.1300I-0.0949J0.8734
G1 X30.6236 Y-21.5784 Z0.1300
G2X30.6136Y-21.5785Z0.1300I-0.0117J0.8472
G1 X30.5944 Y-21.5783 Z0.1300
G2X30.4804Y-21.5683Z0.1300I0.0174J0.8474
G2X30.5544Y-22.1953Z0.1300I-1.1013J-0.4479
G3X30.7408Y-21.5686Z0.1300I-1.2476J0.7120
G2X30.6236Y-21.5784Z0.1300I-0.1289J0.8374
G0 Z0.5300
G0 X30.6236 Y-21.5784 
G0 Z0.5300
G0 X31.8517 Y-21.7397 
G1 X31.8517 Y-21.7397 Z0.2800 F75.
G1 X31.8517 Y-21.7397 Z0.2550 F25.
G1 X31.8450 Y-21.7376 Z0.2538
G1 X31.8376 Y-21.7363 Z0.2524
G1 X31.8300 Y-21.7358 Z0.2511
G1 X31.8225 Y-21.7363 Z0.2498
G1 X31.8151 Y-21.7376 Z0.2484
G1 X31.8079 Y-21.7399 Z0.2471
G1 X31.8010 Y-21.7430 Z0.2458
G1 X31.7945 Y-21.7469 Z0.2444
G1 X31.7886 Y-21.7515 Z0.2431
G1 X31.7832 Y-21.7569 Z0.2418
G1 X31.7786 Y-21.7628 Z0.2405
G1 X31.7747 Y-21.7693 Z0.2391
G1 X31.7716 Y-21.7761 Z0.2378
G1 X31.7693 Y-21.7833 Z0.2365
G1 X31.7680 Y-21.7908 Z0.2351
G1 X31.7675 Y-21.7983 Z0.2338
G1 X31.7680 Y-21.8058 Z0.2325
G1 X31.7693 Y-21.8133 Z0.2311
G1 X31.7716 Y-21.8205 Z0.2298
G1 X31.7747 Y-21.8273 Z0.2285
G1 X31.7786 Y-21.8338 Z0.2271
G1 X31.7832 Y-21.8397 Z0.2258
G1 X31.7886 Y-21.8451 Z0.2245
G1 X31.7945 Y-21.8497 Z0.2232
G1 X31.8010 Y-21.8536 Z0.2218
G1 X31.8079 Y-21.8567 Z0.2205
G1 X31.8151 Y-21.8590 Z0.2192
G1 X31.8225 Y-21.8603 Z0.2178
G1 X31.8300 Y-21.8608 Z0.2165
G1 X31.8376 Y-21.8603 Z0.2152
G1 X31.8450 Y-21.8590 Z0.2138
G1 X31.8522 Y-21.8567 Z0.2125
G1 X31.8591 Y-21.8536 Z0.2112
G1 X31.8655 Y-21.8497 Z0.2098
G1 X31.8715 Y-21.8451 Z0.2085
G1 X31.8768 Y-21.8397 Z0.2072
G1 X31.8815 Y-21.8338 Z0.2059
G1 X31.8854 Y-21.8273 Z0.2045
G1 X31.8885 Y-21.8205 Z0.2032
G1 X31.8907 Y-21.8133 Z0.2019
G1 X31.8921 Y-21.8058 Z0.2005
G1 X31.8925 Y-21.7983 Z0.1992
G1 X31.8921 Y-21.7908 Z0.1979
G1 X31.8907 Y-21.7833 Z0.1965
G1 X31.8885 Y-21.7761 Z0.1952
G1 X31.8854 Y-21.7693 Z0.1939
G1 X31.8815 Y-21.7628 Z0.1925
G1 X31.8768 Y-21.7569 Z0.1912
G1 X31.8715 Y-21.7515 Z0.1899
G1 X31.8655 Y-21.7469 Z0.1886
G1 X31.8591 Y-21.7430 Z0.1872
G1 X31.8522 Y-21.7399 Z0.1859
G1 X31.8450 Y-21.7376 Z0.1846
G1 X31.8376 Y-21.7363 Z0.1832
G1 X31.8300 Y-21.7358 Z0.1819
G1 X31.8225 Y-21.7363 Z0.1806
G1 X31.8151 Y-21.7376 Z0.1792
G1 X31.8079 Y-21.7399 Z0.1779
G1 X31.8010 Y-21.7430 Z0.1766
G1 X31.7945 Y-21.7469 Z0.1752
G1 X31.7886 Y-21.7515 Z0.1739
G1 X31.7832 Y-21.7569 Z0.1726
G1 X31.7786 Y-21.7628 Z0.1713
G1 X31.7747 Y-21.7693 Z0.1699
G1 X31.7716 Y-21.7761 Z0.1686
G1 X31.7693 Y-21.7833 Z0.1673
G1 X31.7680 Y-21.7908 Z0.1659
G1 X31.7675 Y-21.7983 Z0.1646
G1 X31.7680 Y-21.8058 Z0.1633
G1 X31.7693 Y-21.8133 Z0.1619
G1 X31.7716 Y-21.8205 Z0.1606
G1 X31.7747 Y-21.8273 Z0.1593
G1 X31.7786 Y-21.8338 Z0.1579
G1 X31.7832 Y-21.8397 Z0.1566
G1 X31.7886 Y-21.8451 Z0.1553
G1 X31.7945 Y-21.8497 Z0.1540
G1 X31.8010 Y-21.8536 Z0.1526
G1 X31.8079 Y-21.8567 Z0.1513
G1 X31.8151 Y-21.8590 Z0.1500
G1 X31.8225 Y-21.8603 Z0.1486
G1 X31.8300 Y-21.8608 Z0.1473
G1 X31.8376 Y-21.8603 Z0.1460
G1 X31.8450 Y-21.8590 Z0.1446
G1 X31.8522 Y-21.8567 Z0.1433
G1 X31.8591 Y-21.8536 Z0.1420
G1 X31.8655 Y-21.8497 Z0.1406
G1 X31.8715 Y-21.8451 Z0.1393
G1 X31.8768 Y-21.8397 Z0.1380
G1 X31.8815 Y-21.8338 Z0.1367
G1 X31.8854 Y-21.8273 Z0.1353
G1 X31.8885 Y-21.8205 Z0.1340
G1 X31.8907 Y-21.8133 Z0.1327
G1 X31.8921 Y-21.8058 Z0.1313
G1 X31.8925 Y-21.7983 Z0.1300
G3X31.8300Y-21.7983Z0.1300I-0.0312J0.0000
G1 X31.8193 Y-21.7987 Z0.1300
G2X31.8324Y-21.8499Z0.1300I-1.2357J-0.3439
G1 X31.8408 Y-21.7979 Z0.1300
G1 X31.8300 Y-21.7983 Z0.1300
G1 X31.8289 Y-21.7671 Z0.1300
G1 X31.8191 Y-21.7674 Z0.1300
G2X31.7772Y-21.7666Z0.1300I-0.0028J0.9101
G2X31.8274Y-22.0045Z0.1300I-1.1936J-0.3760
G3X31.8764Y-21.7654Z0.1300I-1.3161J0.3948
G1 X31.8289 Y-21.7671 Z0.1300
G1 X31.8285 Y-21.7361 Z0.1300
G1 X31.8190 Y-21.7362 Z0.1300
G2X31.7326Y-21.7322Z0.1300I-0.0027J0.8789
G2X31.8036Y-22.1617Z0.1300I-1.1490J-0.4104
G3X31.9113Y-21.7310Z0.1300I-1.2923J0.5520
G2X31.8285Y-21.7361Z0.1300I-0.0950J0.8737
G1 X31.8281 Y-21.7048 Z0.1300
G1 X31.8189 Y-21.7049 Z0.1300
G2X31.6849Y-21.6947Z0.1300I-0.0026J0.8476
G2X31.7589Y-22.3217Z0.1300I-1.1013J-0.4479
G3X31.9453Y-21.6951Z0.1300I-1.2476J0.7120
G2X31.8281Y-21.7048Z0.1300I-0.1290J0.8378
G0 Z0.5300
G0 X31.8281 Y-21.7048 
G0 Z0.5300
G0 X33.9405 Y-21.7555 
G1 X33.9405 Y-21.7555 Z0.2800 F75.
G1 X33.9405 Y-21.7555 Z0.2550 F25.
G1 X33.9338 Y-21.7534 Z0.2538
G1 X33.9264 Y-21.7521 Z0.2524
G1 X33.9189 Y-21.7516 Z0.2511
G1 X33.9114 Y-21.7521 Z0.2498
G1 X33.9039 Y-21.7534 Z0.2484
G1 X33.8967 Y-21.7557 Z0.2471
G1 X33.8898 Y-21.7588 Z0.2458
G1 X33.8834 Y-21.7627 Z0.2444
G1 X33.8774 Y-21.7673 Z0.2431
G1 X33.8721 Y-21.7727 Z0.2418
G1 X33.8674 Y-21.7786 Z0.2405
G1 X33.8635 Y-21.7851 Z0.2391
G1 X33.8604 Y-21.7920 Z0.2378
G1 X33.8582 Y-21.7992 Z0.2365
G1 X33.8568 Y-21.8066 Z0.2351
G1 X33.8564 Y-21.8141 Z0.2338
G1 X33.8568 Y-21.8217 Z0.2325
G1 X33.8582 Y-21.8291 Z0.2311
G1 X33.8604 Y-21.8363 Z0.2298
G1 X33.8635 Y-21.8432 Z0.2285
G1 X33.8674 Y-21.8496 Z0.2271
G1 X33.8721 Y-21.8556 Z0.2258
G1 X33.8774 Y-21.8609 Z0.2245
G1 X33.8834 Y-21.8656 Z0.2232
G1 X33.8898 Y-21.8695 Z0.2218
G1 X33.8967 Y-21.8726 Z0.2205
G1 X33.9039 Y-21.8748 Z0.2192
G1 X33.9114 Y-21.8762 Z0.2178
G1 X33.9189 Y-21.8766 Z0.2165
G1 X33.9264 Y-21.8762 Z0.2152
G1 X33.9338 Y-21.8748 Z0.2138
G1 X33.9410 Y-21.8726 Z0.2125
G1 X33.9479 Y-21.8695 Z0.2112
G1 X33.9544 Y-21.8656 Z0.2098
G1 X33.9603 Y-21.8609 Z0.2085
G1 X33.9657 Y-21.8556 Z0.2072
G1 X33.9703 Y-21.8496 Z0.2059
G1 X33.9742 Y-21.8432 Z0.2045
G1 X33.9773 Y-21.8363 Z0.2032
G1 X33.9796 Y-21.8291 Z0.2019
G1 X33.9809 Y-21.8217 Z0.2005
G1 X33.9814 Y-21.8141 Z0.1992
G1 X33.9809 Y-21.8066 Z0.1979
G1 X33.9796 Y-21.7992 Z0.1965
G1 X33.9773 Y-21.7920 Z0.1952
G1 X33.9742 Y-21.7851 Z0.1939
G1 X33.9703 Y-21.7786 Z0.1925
G1 X33.9657 Y-21.7727 Z0.1912
G1 X33.9603 Y-21.7673 Z0.1899
G1 X33.9544 Y-21.7627 Z0.1886
G1 X33.9479 Y-21.7588 Z0.1872
G1 X33.9410 Y-21.7557 Z0.1859
G1 X33.9338 Y-21.7534 Z0.1846
G1 X33.9264 Y-21.7521 Z0.1832
G1 X33.9189 Y-21.7516 Z0.1819
G1 X33.9114 Y-21.7521 Z0.1806
G1 X33.9039 Y-21.7534 Z0.1792
G1 X33.8967 Y-21.7557 Z0.1779
G1 X33.8898 Y-21.7588 Z0.1766
G1 X33.8834 Y-21.7627 Z0.1752
G1 X33.8774 Y-21.7673 Z0.1739
G1 X33.8721 Y-21.7727 Z0.1726
G1 X33.8674 Y-21.7786 Z0.1713
G1 X33.8635 Y-21.7851 Z0.1699
G1 X33.8604 Y-21.7920 Z0.1686
G1 X33.8582 Y-21.7992 Z0.1673
G1 X33.8568 Y-21.8066 Z0.1659
G1 X33.8564 Y-21.8141 Z0.1646
G1 X33.8568 Y-21.8217 Z0.1633
G1 X33.8582 Y-21.8291 Z0.1619
G1 X33.8604 Y-21.8363 Z0.1606
G1 X33.8635 Y-21.8432 Z0.1593
G1 X33.8674 Y-21.8496 Z0.1579
G1 X33.8721 Y-21.8556 Z0.1566
G1 X33.8774 Y-21.8609 Z0.1553
G1 X33.8834 Y-21.8656 Z0.1540
G1 X33.8898 Y-21.8695 Z0.1526
G1 X33.8967 Y-21.8726 Z0.1513
G1 X33.9039 Y-21.8748 Z0.1500
G1 X33.9114 Y-21.8762 Z0.1486
G1 X33.9189 Y-21.8766 Z0.1473
G1 X33.9264 Y-21.8762 Z0.1460
G1 X33.9338 Y-21.8748 Z0.1446
G1 X33.9410 Y-21.8726 Z0.1433
G1 X33.9479 Y-21.8695 Z0.1420
G1 X33.9544 Y-21.8656 Z0.1406
G1 X33.9603 Y-21.8609 Z0.1393
G1 X33.9657 Y-21.8556 Z0.1380
G1 X33.9703 Y-21.8496 Z0.1367
G1 X33.9742 Y-21.8432 Z0.1353
G1 X33.9773 Y-21.8363 Z0.1340
G1 X33.9796 Y-21.8291 Z0.1327
G1 X33.9809 Y-21.8217 Z0.1313
G1 X33.9814 Y-21.8141 Z0.1300
G3X33.9189Y-21.8141Z0.1300I-0.0313J0.0000
G1 X33.9082 Y-21.8143 Z0.1300
G2X33.9213Y-21.8655Z0.1300I-1.2357J-0.3439
G1 X33.9296 Y-21.8140 Z0.1300
G1 X33.9189 Y-21.8141 Z0.1300
G1 X33.9184 Y-21.7829 Z0.1300
G2X33.8865Y-21.7828Z0.1300I-0.0132J0.9100
G2X33.8660Y-21.7822Z0.1300I0.0187J0.9099
G2X33.9162Y-22.0201Z0.1300I-1.1935J-0.3760
G3X33.9653Y-21.7810Z0.1300I-1.3160J0.3948
G2X33.9184Y-21.7829Z0.1300I-0.0601J0.9081
G1 X33.9180 Y-21.7517 Z0.1300
G2X33.8872Y-21.7516Z0.1300I-0.0128J0.8788
G2X33.8215Y-21.7478Z0.1300I0.0180J0.8787
G2X33.8925Y-22.1773Z0.1300I-1.1490J-0.4104
G3X34.0002Y-21.7466Z0.1300I-1.2923J0.5520
G2X33.9180Y-21.7517Z0.1300I-0.0950J0.8737
G1 X33.9175 Y-21.7204 Z0.1300
G2X33.8878Y-21.7204Z0.1300I-0.0123J0.8475
G2X33.7738Y-21.7103Z0.1300I0.0174J0.8475
G2X33.8478Y-22.3373Z0.1300I-1.1013J-0.4479
G3X34.0341Y-21.7107Z0.1300I-1.2476J0.7120
G2X33.9175Y-21.7204Z0.1300I-0.1289J0.8378
G0 Z0.5300
G0 X33.9175 Y-21.7204 
G0 Z0.5300
G0 X33.8811 Y-23.7190 
G1 X33.8811 Y-23.7190 Z0.2800 F75.
G1 X33.8811 Y-23.7190 Z0.2550 F25.
G1 X33.8745 Y-23.7169 Z0.2538
G1 X33.8670 Y-23.7155 Z0.2524
G1 X33.8595 Y-23.7151 Z0.2511
G1 X33.8520 Y-23.7155 Z0.2498
G1 X33.8445 Y-23.7169 Z0.2484
G1 X33.8373 Y-23.7191 Z0.2471
G1 X33.8305 Y-23.7222 Z0.2458
G1 X33.8240 Y-23.7261 Z0.2444
G1 X33.8181 Y-23.7308 Z0.2431
G1 X33.8127 Y-23.7361 Z0.2418
G1 X33.8081 Y-23.7420 Z0.2405
G1 X33.8042 Y-23.7485 Z0.2391
G1 X33.8011 Y-23.7554 Z0.2378
G1 X33.7988 Y-23.7626 Z0.2365
G1 X33.7975 Y-23.7700 Z0.2351
G1 X33.7970 Y-23.7776 Z0.2338
G1 X33.7975 Y-23.7851 Z0.2325
G1 X33.7988 Y-23.7925 Z0.2311
G1 X33.8011 Y-23.7997 Z0.2298
G1 X33.8042 Y-23.8066 Z0.2285
G1 X33.8081 Y-23.8131 Z0.2271
G1 X33.8127 Y-23.8190 Z0.2258
G1 X33.8181 Y-23.8243 Z0.2245
G1 X33.8240 Y-23.8290 Z0.2232
G1 X33.8305 Y-23.8329 Z0.2218
G1 X33.8373 Y-23.8360 Z0.2205
G1 X33.8445 Y-23.8382 Z0.2192
G1 X33.8520 Y-23.8396 Z0.2178
G1 X33.8595 Y-23.8401 Z0.2165
G1 X33.8670 Y-23.8396 Z0.2152
G1 X33.8745 Y-23.8382 Z0.2138
G1 X33.8817 Y-23.8360 Z0.2125
G1 X33.8885 Y-23.8329 Z0.2112
G1 X33.8950 Y-23.8290 Z0.2098
G1 X33.9009 Y-23.8243 Z0.2085
G1 X33.9063 Y-23.8190 Z0.2072
G1 X33.9109 Y-23.8131 Z0.2059
G1 X33.9148 Y-23.8066 Z0.2045
G1 X33.9179 Y-23.7997 Z0.2032
G1 X33.9202 Y-23.7925 Z0.2019
G1 X33.9215 Y-23.7851 Z0.2005
G1 X33.9220 Y-23.7776 Z0.1992
G1 X33.9215 Y-23.7700 Z0.1979
G1 X33.9202 Y-23.7626 Z0.1965
G1 X33.9179 Y-23.7554 Z0.1952
G1 X33.9148 Y-23.7485 Z0.1939
G1 X33.9109 Y-23.7420 Z0.1925
G1 X33.9063 Y-23.7361 Z0.1912
G1 X33.9009 Y-23.7308 Z0.1899
G1 X33.8950 Y-23.7261 Z0.1886
G1 X33.8885 Y-23.7222 Z0.1872
G1 X33.8817 Y-23.7191 Z0.1859
G1 X33.8745 Y-23.7169 Z0.1846
G1 X33.8670 Y-23.7155 Z0.1832
G1 X33.8595 Y-23.7151 Z0.1819
G1 X33.8520 Y-23.7155 Z0.1806
G1 X33.8445 Y-23.7169 Z0.1792
G1 X33.8373 Y-23.7191 Z0.1779
G1 X33.8305 Y-23.7222 Z0.1766
G1 X33.8240 Y-23.7261 Z0.1752
G1 X33.8181 Y-23.7308 Z0.1739
G1 X33.8127 Y-23.7361 Z0.1726
G1 X33.8081 Y-23.7420 Z0.1713
G1 X33.8042 Y-23.7485 Z0.1699
G1 X33.8011 Y-23.7554 Z0.1686
G1 X33.7988 Y-23.7626 Z0.1673
G1 X33.7975 Y-23.7700 Z0.1659
G1 X33.7970 Y-23.7776 Z0.1646
G1 X33.7975 Y-23.7851 Z0.1633
G1 X33.7988 Y-23.7925 Z0.1619
G1 X33.8011 Y-23.7997 Z0.1606
G1 X33.8042 Y-23.8066 Z0.1593
G1 X33.8081 Y-23.8131 Z0.1579
G1 X33.8127 Y-23.8190 Z0.1566
G1 X33.8181 Y-23.8243 Z0.1553
G1 X33.8240 Y-23.8290 Z0.1540
G1 X33.8305 Y-23.8329 Z0.1526
G1 X33.8373 Y-23.8360 Z0.1513
G1 X33.8445 Y-23.8382 Z0.1500
G1 X33.8520 Y-23.8396 Z0.1486
G1 X33.8595 Y-23.8401 Z0.1473
G1 X33.8670 Y-23.8396 Z0.1460
G1 X33.8745 Y-23.8382 Z0.1446
G1 X33.8817 Y-23.8360 Z0.1433
G1 X33.8885 Y-23.8329 Z0.1420
G1 X33.8950 Y-23.8290 Z0.1406
G1 X33.9009 Y-23.8243 Z0.1393
G1 X33.9063 Y-23.8190 Z0.1380
G1 X33.9109 Y-23.8131 Z0.1367
G1 X33.9148 Y-23.8066 Z0.1353
G1 X33.9179 Y-23.7997 Z0.1340
G1 X33.9202 Y-23.7925 Z0.1327
G1 X33.9215 Y-23.7851 Z0.1313
G1 X33.9220 Y-23.7776 Z0.1300
G3X33.8595Y-23.7776Z0.1300I-0.0313J0.0000
G1 X33.8703 Y-23.7772 Z0.1300
G2X33.8571Y-23.7259Z0.1300I1.2356J0.3440
G1 X33.8487 Y-23.7779 Z0.1300
G1 X33.8595 Y-23.7776 Z0.1300
G1 X33.8605 Y-23.8088 Z0.1300
G1 X33.8732 Y-23.8084 Z0.1300
G2X33.9124Y-23.8092Z0.1300I0.0000J-0.9101
G2X33.8622Y-23.5713Z0.1300I1.1935J0.3760
G3X33.8131Y-23.8104Z0.1300I1.3160J-0.3948
G1 X33.8605 Y-23.8088 Z0.1300
G1 X33.8610 Y-23.8397 Z0.1300
G2X33.8732Y-23.8396Z0.1300I0.0122J-0.8788
G2X33.9569Y-23.8436Z0.1300I0.0000J-0.8789
G2X33.8859Y-23.4141Z0.1300I1.1490J0.4104
G3X33.7782Y-23.8448Z0.1300I1.2923J-0.5520
G2X33.8610Y-23.8397Z0.1300I0.0950J-0.8737
G1 X33.8614 Y-23.8710 Z0.1300
G2X33.8732Y-23.8709Z0.1300I0.0118J-0.8475
G2X34.0046Y-23.8811Z0.1300I0.0000J-0.8476
G2X33.9306Y-23.2541Z0.1300I1.1013J0.4479
G3X33.7443Y-23.8807Z0.1300I1.2476J-0.7120
G2X33.8614Y-23.8710Z0.1300I0.1289J-0.8378
G0 Z0.5300
G0 X33.8614 Y-23.8710 
G0 Z0.5300
G0 X36.4111 Y-21.6677 
G1 X36.4111 Y-21.6677 Z0.2800 F75.
G1 X36.4111 Y-21.6677 Z0.2550 F25.
G1 X36.4044 Y-21.6657 Z0.2538
G1 X36.3970 Y-21.6643 Z0.2524
G1 X36.3894 Y-21.6638 Z0.2511
G1 X36.3819 Y-21.6643 Z0.2498
G1 X36.3745 Y-21.6657 Z0.2484
G1 X36.3673 Y-21.6679 Z0.2471
G1 X36.3604 Y-21.6710 Z0.2458
G1 X36.3539 Y-21.6749 Z0.2444
G1 X36.3480 Y-21.6796 Z0.2431
G1 X36.3427 Y-21.6849 Z0.2418
G1 X36.3380 Y-21.6908 Z0.2405
G1 X36.3341 Y-21.6973 Z0.2391
G1 X36.3310 Y-21.7042 Z0.2378
G1 X36.3288 Y-21.7114 Z0.2365
G1 X36.3274 Y-21.7188 Z0.2351
G1 X36.3269 Y-21.7263 Z0.2338
G1 X36.3274 Y-21.7339 Z0.2325
G1 X36.3288 Y-21.7413 Z0.2311
G1 X36.3310 Y-21.7485 Z0.2298
G1 X36.3341 Y-21.7554 Z0.2285
G1 X36.3380 Y-21.7619 Z0.2271
G1 X36.3427 Y-21.7678 Z0.2258
G1 X36.3480 Y-21.7731 Z0.2245
G1 X36.3539 Y-21.7778 Z0.2232
G1 X36.3604 Y-21.7817 Z0.2218
G1 X36.3673 Y-21.7848 Z0.2205
G1 X36.3745 Y-21.7870 Z0.2192
G1 X36.3819 Y-21.7884 Z0.2178
G1 X36.3894 Y-21.7888 Z0.2165
G1 X36.3970 Y-21.7884 Z0.2152
G1 X36.4044 Y-21.7870 Z0.2138
G1 X36.4116 Y-21.7848 Z0.2125
G1 X36.4185 Y-21.7817 Z0.2112
G1 X36.4249 Y-21.7778 Z0.2098
G1 X36.4309 Y-21.7731 Z0.2085
G1 X36.4362 Y-21.7678 Z0.2072
G1 X36.4409 Y-21.7619 Z0.2059
G1 X36.4448 Y-21.7554 Z0.2045
G1 X36.4479 Y-21.7485 Z0.2032
G1 X36.4501 Y-21.7413 Z0.2019
G1 X36.4515 Y-21.7339 Z0.2005
G1 X36.4519 Y-21.7263 Z0.1992
G1 X36.4515 Y-21.7188 Z0.1979
G1 X36.4501 Y-21.7114 Z0.1965
G1 X36.4479 Y-21.7042 Z0.1952
G1 X36.4448 Y-21.6973 Z0.1939
G1 X36.4409 Y-21.6908 Z0.1925
G1 X36.4362 Y-21.6849 Z0.1912
G1 X36.4309 Y-21.6796 Z0.1899
G1 X36.4249 Y-21.6749 Z0.1886
G1 X36.4185 Y-21.6710 Z0.1872
G1 X36.4116 Y-21.6679 Z0.1859
G1 X36.4044 Y-21.6657 Z0.1846
G1 X36.3970 Y-21.6643 Z0.1832
G1 X36.3894 Y-21.6638 Z0.1819
G1 X36.3819 Y-21.6643 Z0.1806
G1 X36.3745 Y-21.6657 Z0.1792
G1 X36.3673 Y-21.6679 Z0.1779
G1 X36.3604 Y-21.6710 Z0.1766
G1 X36.3539 Y-21.6749 Z0.1752
G1 X36.3480 Y-21.6796 Z0.1739
G1 X36.3427 Y-21.6849 Z0.1726
G1 X36.3380 Y-21.6908 Z0.1713
G1 X36.3341 Y-21.6973 Z0.1699
G1 X36.3310 Y-21.7042 Z0.1686
G1 X36.3288 Y-21.7114 Z0.1673
G1 X36.3274 Y-21.7188 Z0.1659
G1 X36.3269 Y-21.7263 Z0.1646
G1 X36.3274 Y-21.7339 Z0.1633
G1 X36.3288 Y-21.7413 Z0.1619
G1 X36.3310 Y-21.7485 Z0.1606
G1 X36.3341 Y-21.7554 Z0.1593
G1 X36.3380 Y-21.7619 Z0.1579
G1 X36.3427 Y-21.7678 Z0.1566
G1 X36.3480 Y-21.7731 Z0.1553
G1 X36.3539 Y-21.7778 Z0.1540
G1 X36.3604 Y-21.7817 Z0.1526
G1 X36.3673 Y-21.7848 Z0.1513
G1 X36.3745 Y-21.7870 Z0.1500
G1 X36.3819 Y-21.7884 Z0.1486
G1 X36.3894 Y-21.7888 Z0.1473
G1 X36.3970 Y-21.7884 Z0.1460
G1 X36.4044 Y-21.7870 Z0.1446
G1 X36.4116 Y-21.7848 Z0.1433
G1 X36.4185 Y-21.7817 Z0.1420
G1 X36.4249 Y-21.7778 Z0.1406
G1 X36.4309 Y-21.7731 Z0.1393
G1 X36.4362 Y-21.7678 Z0.1380
G1 X36.4409 Y-21.7619 Z0.1367
G1 X36.4448 Y-21.7554 Z0.1353
G1 X36.4479 Y-21.7485 Z0.1340
G1 X36.4501 Y-21.7413 Z0.1327
G1 X36.4515 Y-21.7339 Z0.1313
G1 X36.4519 Y-21.7263 Z0.1300
G3X36.3894Y-21.7263Z0.1300I-0.0312J0.0000
G1 X36.3859 Y-21.7264 Z0.1300
G2X36.3904Y-21.7433Z0.1300I-1.6589J-0.4501
G1 X36.3930 Y-21.7263 Z0.1300
G1 X36.3894 Y-21.7263 Z0.1300
G1 X36.3887 Y-21.6951 Z0.1300
G1 X36.3743 Y-21.6955 Z0.1300
G2X36.3445Y-21.6952Z0.1300I-0.0037J1.2327
G2X36.3913Y-21.8972Z0.1300I-1.6175J-0.4813
G3X36.4289Y-21.6941Z0.1300I-1.7608J0.4312
G1 X36.3887 Y-21.6951 Z0.1300
G1 X36.3882 Y-21.6641 Z0.1300
G2X36.3742Y-21.6642Z0.1300I-0.0176J1.2013
G2X36.3015Y-21.6622Z0.1300I-0.0036J1.2014
G2X36.3787Y-22.0529Z0.1300I-1.5745J-0.5143
G3X36.4643Y-21.6606Z0.1300I-1.7482J0.5869
G2X36.3882Y-21.6641Z0.1300I-0.0937J1.1978
G1 X36.3877 Y-21.6328 Z0.1300
G2X36.3741Y-21.6330Z0.1300I-0.0171J1.1700
G2X36.2565Y-21.6274Z0.1300I-0.0035J1.1702
G2X36.3518Y-22.2105Z0.1300I-1.5295J-0.5491
G3X36.4990Y-21.6259Z0.1300I-1.7213J0.7445
G2X36.3877Y-21.6328Z0.1300I-0.1284J1.1631
G1 X36.3873 Y-21.6016 Z0.1300
G2X36.3740Y-21.6017Z0.1300I-0.0167J1.1388
G2X36.2091Y-21.5902Z0.1300I-0.0034J1.1389
G2X36.3091Y-22.3702Z0.1300I-1.4821J-0.5863
G3X36.5331Y-21.5901Z0.1300I-1.6786J0.9042
G2X36.3873Y-21.6016Z0.1300I-0.1625J1.1273
G1 X36.3868 Y-21.5704 Z0.1300
G2X36.3739Y-21.5705Z0.1300I-0.0162J1.1076
G2X36.1585Y-21.5500Z0.1300I-0.0033J1.1077
G2X36.2486Y-22.5324Z0.1300I-1.4315J-0.6265
G3X36.5664Y-21.5530Z0.1300I-1.6181J1.0664
G2X36.3868Y-21.5704Z0.1300I-0.1958J1.0902
G0 Z0.5300
G0 X36.3868 Y-21.5704 
G0 Z0.5300
G0 X38.3231 Y-21.7521 
G1 X38.3231 Y-21.7521 Z0.2800 F75.
G1 X38.3231 Y-21.7521 Z0.2550 F25.
G1 X38.3164 Y-21.7500 Z0.2538
G1 X38.3090 Y-21.7486 Z0.2524
G1 X38.3015 Y-21.7482 Z0.2511
G1 X38.2939 Y-21.7486 Z0.2498
G1 X38.2865 Y-21.7500 Z0.2484
G1 X38.2793 Y-21.7522 Z0.2471
G1 X38.2724 Y-21.7553 Z0.2458
G1 X38.2660 Y-21.7593 Z0.2444
G1 X38.2600 Y-21.7639 Z0.2431
G1 X38.2547 Y-21.7692 Z0.2418
G1 X38.2500 Y-21.7752 Z0.2405
G1 X38.2461 Y-21.7816 Z0.2391
G1 X38.2430 Y-21.7885 Z0.2378
G1 X38.2408 Y-21.7957 Z0.2365
G1 X38.2394 Y-21.8032 Z0.2351
G1 X38.2390 Y-21.8107 Z0.2338
G1 X38.2394 Y-21.8182 Z0.2325
G1 X38.2408 Y-21.8256 Z0.2311
G1 X38.2430 Y-21.8329 Z0.2298
G1 X38.2461 Y-21.8397 Z0.2285
G1 X38.2500 Y-21.8462 Z0.2271
G1 X38.2547 Y-21.8521 Z0.2258
G1 X38.2600 Y-21.8575 Z0.2245
G1 X38.2660 Y-21.8621 Z0.2232
G1 X38.2724 Y-21.8660 Z0.2218
G1 X38.2793 Y-21.8691 Z0.2205
G1 X38.2865 Y-21.8714 Z0.2192
G1 X38.2939 Y-21.8727 Z0.2178
G1 X38.3015 Y-21.8732 Z0.2165
G1 X38.3090 Y-21.8727 Z0.2152
G1 X38.3164 Y-21.8714 Z0.2138
G1 X38.3236 Y-21.8691 Z0.2125
G1 X38.3305 Y-21.8660 Z0.2112
G1 X38.3370 Y-21.8621 Z0.2098
G1 X38.3429 Y-21.8575 Z0.2085
G1 X38.3482 Y-21.8521 Z0.2072
G1 X38.3529 Y-21.8462 Z0.2059
G1 X38.3568 Y-21.8397 Z0.2045
G1 X38.3599 Y-21.8329 Z0.2032
G1 X38.3622 Y-21.8256 Z0.2019
G1 X38.3635 Y-21.8182 Z0.2005
G1 X38.3640 Y-21.8107 Z0.1992
G1 X38.3635 Y-21.8032 Z0.1979
G1 X38.3622 Y-21.7957 Z0.1965
G1 X38.3599 Y-21.7885 Z0.1952
G1 X38.3568 Y-21.7816 Z0.1939
G1 X38.3529 Y-21.7752 Z0.1925
G1 X38.3482 Y-21.7692 Z0.1912
G1 X38.3429 Y-21.7639 Z0.1899
G1 X38.3370 Y-21.7593 Z0.1886
G1 X38.3305 Y-21.7553 Z0.1872
G1 X38.3236 Y-21.7522 Z0.1859
G1 X38.3164 Y-21.7500 Z0.1846
G1 X38.3090 Y-21.7486 Z0.1832
G1 X38.3015 Y-21.7482 Z0.1819
G1 X38.2939 Y-21.7486 Z0.1806
G1 X38.2865 Y-21.7500 Z0.1792
G1 X38.2793 Y-21.7522 Z0.1779
G1 X38.2724 Y-21.7553 Z0.1766
G1 X38.2660 Y-21.7593 Z0.1752
G1 X38.2600 Y-21.7639 Z0.1739
G1 X38.2547 Y-21.7692 Z0.1726
G1 X38.2500 Y-21.7752 Z0.1713
G1 X38.2461 Y-21.7816 Z0.1699
G1 X38.2430 Y-21.7885 Z0.1686
G1 X38.2408 Y-21.7957 Z0.1673
G1 X38.2394 Y-21.8032 Z0.1659
G1 X38.2390 Y-21.8107 Z0.1646
G1 X38.2394 Y-21.8182 Z0.1633
G1 X38.2408 Y-21.8256 Z0.1619
G1 X38.2430 Y-21.8329 Z0.1606
G1 X38.2461 Y-21.8397 Z0.1593
G1 X38.2500 Y-21.8462 Z0.1579
G1 X38.2547 Y-21.8521 Z0.1566
G1 X38.2600 Y-21.8575 Z0.1553
G1 X38.2660 Y-21.8621 Z0.1540
G1 X38.2724 Y-21.8660 Z0.1526
G1 X38.2793 Y-21.8691 Z0.1513
G1 X38.2865 Y-21.8714 Z0.1500
G1 X38.2939 Y-21.8727 Z0.1486
G1 X38.3015 Y-21.8732 Z0.1473
G1 X38.3090 Y-21.8727 Z0.1460
G1 X38.3164 Y-21.8714 Z0.1446
G1 X38.3236 Y-21.8691 Z0.1433
G1 X38.3305 Y-21.8660 Z0.1420
G1 X38.3370 Y-21.8621 Z0.1406
G1 X38.3429 Y-21.8575 Z0.1393
G1 X38.3482 Y-21.8521 Z0.1380
G1 X38.3529 Y-21.8462 Z0.1367
G1 X38.3568 Y-21.8397 Z0.1353
G1 X38.3599 Y-21.8329 Z0.1340
G1 X38.3622 Y-21.8256 Z0.1327
G1 X38.3635 Y-21.8182 Z0.1313
G1 X38.3640 Y-21.8107 Z0.1300
G3X38.3015Y-21.8107Z0.1300I-0.0313J0.0000
G1 X38.2979 Y-21.8108 Z0.1300
G2X38.3024Y-21.8277Z0.1300I-1.6589J-0.4501
G1 X38.3050 Y-21.8106 Z0.1300
G1 X38.3015 Y-21.8107 Z0.1300
G1 X38.3007 Y-21.7794 Z0.1300
G1 X38.2863 Y-21.7798 Z0.1300
G2X38.2565Y-21.7795Z0.1300I-0.0037J1.2326
G2X38.3034Y-21.9815Z0.1300I-1.6175J-0.4814
G3X38.3410Y-21.7784Z0.1300I-1.7609J0.4311
G1 X38.3007 Y-21.7794 Z0.1300
G1 X38.3002 Y-21.7484 Z0.1300
G2X38.2862Y-21.7486Z0.1300I-0.0176J1.2012
G2X38.2135Y-21.7466Z0.1300I-0.0036J1.2014
G2X38.2908Y-22.1372Z0.1300I-1.5745J-0.5143
G3X38.3763Y-21.7449Z0.1300I-1.7483J0.5868
G2X38.3002Y-21.7484Z0.1300I-0.0937J1.1977
G1 X38.2998 Y-21.7172 Z0.1300
G2X38.2861Y-21.7173Z0.1300I-0.0172J1.1700
G2X38.1686Y-21.7117Z0.1300I-0.0035J1.1701
G2X38.2638Y-22.2948Z0.1300I-1.5296J-0.5492
G3X38.4110Y-21.7102Z0.1300I-1.7213J0.7444
G2X38.2998Y-21.7172Z0.1300I-0.1284J1.1630
G1 X38.2993 Y-21.6859 Z0.1300
G2X38.2860Y-21.6861Z0.1300I-0.0167J1.1387
G2X38.1211Y-21.6746Z0.1300I-0.0034J1.1389
G2X38.2211Y-22.4546Z0.1300I-1.4821J-0.5863
G3X38.4451Y-21.6744Z0.1300I-1.6786J0.9042
G2X38.2993Y-21.6859Z0.1300I-0.1625J1.1272
G1 X38.2988 Y-21.6547 Z0.1300
G2X38.2859Y-21.6548Z0.1300I-0.0162J1.1075
G2X38.0705Y-21.6343Z0.1300I-0.0033J1.1076
G2X38.1606Y-22.6167Z0.1300I-1.4315J-0.6266
G3X38.4784Y-21.6374Z0.1300I-1.6181J1.0663
G2X38.2988Y-21.6547Z0.1300I-0.1958J1.0902
G0 Z0.5300
G0 X38.2988 Y-21.6547 
G0 Z0.5300
G0 X40.4672 Y-21.8286 
G1 X40.4672 Y-21.8286 Z0.2800 F75.
G1 X40.4672 Y-21.8286 Z0.2550 F25.
G1 X40.4605 Y-21.8265 Z0.2538
G1 X40.4531 Y-21.8251 Z0.2524
G1 X40.4456 Y-21.8247 Z0.2511
G1 X40.4380 Y-21.8251 Z0.2498
G1 X40.4306 Y-21.8265 Z0.2484
G1 X40.4234 Y-21.8287 Z0.2471
G1 X40.4165 Y-21.8318 Z0.2458
G1 X40.4101 Y-21.8357 Z0.2444
G1 X40.4041 Y-21.8404 Z0.2431
G1 X40.3988 Y-21.8457 Z0.2418
G1 X40.3941 Y-21.8517 Z0.2405
G1 X40.3902 Y-21.8581 Z0.2391
G1 X40.3871 Y-21.8650 Z0.2378
G1 X40.3849 Y-21.8722 Z0.2365
G1 X40.3835 Y-21.8797 Z0.2351
G1 X40.3831 Y-21.8872 Z0.2338
G1 X40.3835 Y-21.8947 Z0.2325
G1 X40.3849 Y-21.9021 Z0.2311
G1 X40.3871 Y-21.9093 Z0.2298
G1 X40.3902 Y-21.9162 Z0.2285
G1 X40.3941 Y-21.9227 Z0.2271
G1 X40.3988 Y-21.9286 Z0.2258
G1 X40.4041 Y-21.9340 Z0.2245
G1 X40.4101 Y-21.9386 Z0.2232
G1 X40.4165 Y-21.9425 Z0.2218
G1 X40.4234 Y-21.9456 Z0.2205
G1 X40.4306 Y-21.9479 Z0.2192
G1 X40.4380 Y-21.9492 Z0.2178
G1 X40.4456 Y-21.9497 Z0.2165
G1 X40.4531 Y-21.9492 Z0.2152
G1 X40.4605 Y-21.9479 Z0.2138
G1 X40.4677 Y-21.9456 Z0.2125
G1 X40.4746 Y-21.9425 Z0.2112
G1 X40.4811 Y-21.9386 Z0.2098
G1 X40.4870 Y-21.9340 Z0.2085
G1 X40.4923 Y-21.9286 Z0.2072
G1 X40.4970 Y-21.9227 Z0.2059
G1 X40.5009 Y-21.9162 Z0.2045
G1 X40.5040 Y-21.9093 Z0.2032
G1 X40.5062 Y-21.9021 Z0.2019
G1 X40.5076 Y-21.8947 Z0.2005
G1 X40.5081 Y-21.8872 Z0.1992
G1 X40.5076 Y-21.8797 Z0.1979
G1 X40.5062 Y-21.8722 Z0.1965
G1 X40.5040 Y-21.8650 Z0.1952
G1 X40.5009 Y-21.8581 Z0.1939
G1 X40.4970 Y-21.8517 Z0.1925
G1 X40.4923 Y-21.8457 Z0.1912
G1 X40.4870 Y-21.8404 Z0.1899
G1 X40.4811 Y-21.8357 Z0.1886
G1 X40.4746 Y-21.8318 Z0.1872
G1 X40.4677 Y-21.8287 Z0.1859
G1 X40.4605 Y-21.8265 Z0.1846
G1 X40.4531 Y-21.8251 Z0.1832
G1 X40.4456 Y-21.8247 Z0.1819
G1 X40.4380 Y-21.8251 Z0.1806
G1 X40.4306 Y-21.8265 Z0.1792
G1 X40.4234 Y-21.8287 Z0.1779
G1 X40.4165 Y-21.8318 Z0.1766
G1 X40.4101 Y-21.8357 Z0.1752
G1 X40.4041 Y-21.8404 Z0.1739
G1 X40.3988 Y-21.8457 Z0.1726
G1 X40.3941 Y-21.8517 Z0.1713
G1 X40.3902 Y-21.8581 Z0.1699
G1 X40.3871 Y-21.8650 Z0.1686
G1 X40.3849 Y-21.8722 Z0.1673
G1 X40.3835 Y-21.8797 Z0.1659
G1 X40.3831 Y-21.8872 Z0.1646
G1 X40.3835 Y-21.8947 Z0.1633
G1 X40.3849 Y-21.9021 Z0.1619
G1 X40.3871 Y-21.9093 Z0.1606
G1 X40.3902 Y-21.9162 Z0.1593
G1 X40.3941 Y-21.9227 Z0.1579
G1 X40.3988 Y-21.9286 Z0.1566
G1 X40.4041 Y-21.9340 Z0.1553
G1 X40.4101 Y-21.9386 Z0.1540
G1 X40.4165 Y-21.9425 Z0.1526
G1 X40.4234 Y-21.9456 Z0.1513
G1 X40.4306 Y-21.9479 Z0.1500
G1 X40.4380 Y-21.9492 Z0.1486
G1 X40.4456 Y-21.9497 Z0.1473
G1 X40.4531 Y-21.9492 Z0.1460
G1 X40.4605 Y-21.9479 Z0.1446
G1 X40.4677 Y-21.9456 Z0.1433
G1 X40.4746 Y-21.9425 Z0.1420
G1 X40.4811 Y-21.9386 Z0.1406
G1 X40.4870 Y-21.9340 Z0.1393
G1 X40.4923 Y-21.9286 Z0.1380
G1 X40.4970 Y-21.9227 Z0.1367
G1 X40.5009 Y-21.9162 Z0.1353
G1 X40.5040 Y-21.9093 Z0.1340
G1 X40.5062 Y-21.9021 Z0.1327
G1 X40.5076 Y-21.8947 Z0.1313
G1 X40.5081 Y-21.8872 Z0.1300
G3X40.4456Y-21.8872Z0.1300I-0.0313J0.0000
G1 X40.4420 Y-21.8873 Z0.1300
G2X40.4465Y-21.9042Z0.1300I-1.6589J-0.4501
G1 X40.4491 Y-21.8871 Z0.1300
G1 X40.4456 Y-21.8872 Z0.1300
G1 X40.4448 Y-21.8559 Z0.1300
G1 X40.4267 Y-21.8564 Z0.1300
G2X40.4006Y-21.8561Z0.1300I0.0000J1.2327
G2X40.4475Y-22.0581Z0.1300I-1.6175J-0.4813
G3X40.4851Y-21.8550Z0.1300I-1.7609J0.4312
G1 X40.4448 Y-21.8559 Z0.1300
G1 X40.4444 Y-21.8250 Z0.1300
G2X40.4267Y-21.8251Z0.1300I-0.0177J1.2013
G2X40.3576Y-21.8231Z0.1300I0.0000J1.2014
G2X40.4349Y-22.2137Z0.1300I-1.5745J-0.5143
G3X40.5204Y-21.8215Z0.1300I-1.7483J0.5868
G2X40.4444Y-21.8250Z0.1300I-0.0937J1.1978
G1 X40.4439 Y-21.7937 Z0.1300
G2X40.4267Y-21.7939Z0.1300I-0.0172J1.1700
G2X40.3127Y-21.7883Z0.1300I0.0000J1.1702
G2X40.4079Y-22.3714Z0.1300I-1.5296J-0.5491
G3X40.5551Y-21.7868Z0.1300I-1.7213J0.7445
G2X40.4439Y-21.7937Z0.1300I-0.1284J1.1631
G1 X40.4434 Y-21.7625 Z0.1300
G2X40.4267Y-21.7626Z0.1300I-0.0167J1.1388
G2X40.2652Y-21.7511Z0.1300I0.0000J1.1389
G2X40.3652Y-22.5311Z0.1300I-1.4821J-0.5863
G3X40.5892Y-21.7510Z0.1300I-1.6786J0.9042
G2X40.4434Y-21.7625Z0.1300I-0.1625J1.1273
G1 X40.4430 Y-21.7313 Z0.1300
G2X40.4267Y-21.7314Z0.1300I-0.0163J1.1076
G2X40.2146Y-21.7109Z0.1300I0.0000J1.1077
G2X40.3047Y-22.6933Z0.1300I-1.4315J-0.6265
G3X40.6225Y-21.7139Z0.1300I-1.6181J1.0664
G2X40.4430Y-21.7313Z0.1300I-0.1958J1.0902
G0 Z0.5300
G0 X40.4430 Y-21.7313 
G0 Z0.5300
G0 X42.8779 Y-21.9170 
G1 X42.8779 Y-21.9170 Z0.2800 F75.
G1 X42.8779 Y-21.9170 Z0.2550 F25.
G1 X42.8712 Y-21.9149 Z0.2538
G1 X42.8638 Y-21.9136 Z0.2524
G1 X42.8563 Y-21.9131 Z0.2511
G1 X42.8487 Y-21.9136 Z0.2498
G1 X42.8413 Y-21.9149 Z0.2484
G1 X42.8341 Y-21.9172 Z0.2471
G1 X42.8272 Y-21.9203 Z0.2458
G1 X42.8208 Y-21.9242 Z0.2444
G1 X42.8148 Y-21.9288 Z0.2431
G1 X42.8095 Y-21.9342 Z0.2418
G1 X42.8048 Y-21.9401 Z0.2405
G1 X42.8009 Y-21.9466 Z0.2391
G1 X42.7978 Y-21.9534 Z0.2378
G1 X42.7956 Y-21.9606 Z0.2365
G1 X42.7942 Y-21.9681 Z0.2351
G1 X42.7938 Y-21.9756 Z0.2338
G1 X42.7942 Y-21.9831 Z0.2325
G1 X42.7956 Y-21.9906 Z0.2311
G1 X42.7978 Y-21.9978 Z0.2298
G1 X42.8009 Y-22.0046 Z0.2285
G1 X42.8048 Y-22.0111 Z0.2271
G1 X42.8095 Y-22.0170 Z0.2258
G1 X42.8148 Y-22.0224 Z0.2245
G1 X42.8208 Y-22.0270 Z0.2232
G1 X42.8272 Y-22.0309 Z0.2218
G1 X42.8341 Y-22.0340 Z0.2205
G1 X42.8413 Y-22.0363 Z0.2192
G1 X42.8487 Y-22.0376 Z0.2178
G1 X42.8563 Y-22.0381 Z0.2165
G1 X42.8638 Y-22.0376 Z0.2152
G1 X42.8712 Y-22.0363 Z0.2138
G1 X42.8784 Y-22.0340 Z0.2125
G1 X42.8853 Y-22.0309 Z0.2112
G1 X42.8918 Y-22.0270 Z0.2098
G1 X42.8977 Y-22.0224 Z0.2085
G1 X42.9031 Y-22.0170 Z0.2072
G1 X42.9077 Y-22.0111 Z0.2059
G1 X42.9116 Y-22.0046 Z0.2045
G1 X42.9147 Y-21.9978 Z0.2032
G1 X42.9170 Y-21.9906 Z0.2019
G1 X42.9183 Y-21.9831 Z0.2005
G1 X42.9188 Y-21.9756 Z0.1992
G1 X42.9183 Y-21.9681 Z0.1979
G1 X42.9170 Y-21.9606 Z0.1965
G1 X42.9147 Y-21.9534 Z0.1952
G1 X42.9116 Y-21.9466 Z0.1939
G1 X42.9077 Y-21.9401 Z0.1925
G1 X42.9031 Y-21.9342 Z0.1912
G1 X42.8977 Y-21.9288 Z0.1899
G1 X42.8918 Y-21.9242 Z0.1886
G1 X42.8853 Y-21.9203 Z0.1872
G1 X42.8784 Y-21.9172 Z0.1859
G1 X42.8712 Y-21.9149 Z0.1846
G1 X42.8638 Y-21.9136 Z0.1832
G1 X42.8563 Y-21.9131 Z0.1819
G1 X42.8487 Y-21.9136 Z0.1806
G1 X42.8413 Y-21.9149 Z0.1792
G1 X42.8341 Y-21.9172 Z0.1779
G1 X42.8272 Y-21.9203 Z0.1766
G1 X42.8208 Y-21.9242 Z0.1752
G1 X42.8148 Y-21.9288 Z0.1739
G1 X42.8095 Y-21.9342 Z0.1726
G1 X42.8048 Y-21.9401 Z0.1713
G1 X42.8009 Y-21.9466 Z0.1699
G1 X42.7978 Y-21.9534 Z0.1686
G1 X42.7956 Y-21.9606 Z0.1673
G1 X42.7942 Y-21.9681 Z0.1659
G1 X42.7938 Y-21.9756 Z0.1646
G1 X42.7942 Y-21.9831 Z0.1633
G1 X42.7956 Y-21.9906 Z0.1619
G1 X42.7978 Y-21.9978 Z0.1606
G1 X42.8009 Y-22.0046 Z0.1593
G1 X42.8048 Y-22.0111 Z0.1579
G1 X42.8095 Y-22.0170 Z0.1566
G1 X42.8148 Y-22.0224 Z0.1553
G1 X42.8208 Y-22.0270 Z0.1540
G1 X42.8272 Y-22.0309 Z0.1526
G1 X42.8341 Y-22.0340 Z0.1513
G1 X42.8413 Y-22.0363 Z0.1500
G1 X42.8487 Y-22.0376 Z0.1486
G1 X42.8563 Y-22.0381 Z0.1473
G1 X42.8638 Y-22.0376 Z0.1460
G1 X42.8712 Y-22.0363 Z0.1446
G1 X42.8784 Y-22.0340 Z0.1433
G1 X42.8853 Y-22.0309 Z0.1420
G1 X42.8918 Y-22.0270 Z0.1406
G1 X42.8977 Y-22.0224 Z0.1393
G1 X42.9031 Y-22.0170 Z0.1380
G1 X42.9077 Y-22.0111 Z0.1367
G1 X42.9116 Y-22.0046 Z0.1353
G1 X42.9147 Y-21.9978 Z0.1340
G1 X42.9170 Y-21.9906 Z0.1327
G1 X42.9183 Y-21.9831 Z0.1313
G1 X42.9188 Y-21.9756 Z0.1300
G3X42.8563Y-21.9756Z0.1300I-0.0313J0.0000
G1 X42.8527 Y-21.9757 Z0.1300
G2X42.8572Y-21.9927Z0.1300I-1.6589J-0.4502
G1 X42.8598 Y-21.9755 Z0.1300
G1 X42.8563 Y-21.9756 Z0.1300
G1 X42.8555 Y-21.9444 Z0.1300
G1 X42.8374 Y-21.9448 Z0.1300
G2X42.8114Y-21.9445Z0.1300I0.0000J1.2327
G2X42.8582Y-22.1465Z0.1300I-1.6176J-0.4814
G3X42.8958Y-21.9434Z0.1300I-1.7609J0.4312
G1 X42.8555 Y-21.9444 Z0.1300
G1 X42.8551 Y-21.9134 Z0.1300
G2X42.8374Y-21.9135Z0.1300I-0.0177J1.2013
G2X42.7683Y-21.9116Z0.1300I0.0000J1.2014
G2X42.8456Y-22.3022Z0.1300I-1.5745J-0.5143
G3X42.9312Y-21.9099Z0.1300I-1.7483J0.5869
G2X42.8551Y-21.9134Z0.1300I-0.0938J1.1978
G1 X42.8546 Y-21.8822 Z0.1300
G2X42.8374Y-21.8823Z0.1300I-0.0172J1.1701
G2X42.7234Y-21.8767Z0.1300I0.0000J1.1702
G2X42.8186Y-22.4598Z0.1300I-1.5296J-0.5492
G3X42.9659Y-21.8752Z0.1300I-1.7213J0.7445
G2X42.8546Y-21.8822Z0.1300I-0.1285J1.1631
G1 X42.8542 Y-21.8509 Z0.1300
G2X42.8374Y-21.8510Z0.1300I-0.0168J1.1388
G2X42.6760Y-21.8395Z0.1300I0.0000J1.1389
G2X42.7759Y-22.6195Z0.1300I-1.4822J-0.5864
G3X42.9999Y-21.8394Z0.1300I-1.6786J0.9042
G2X42.8542Y-21.8509Z0.1300I-0.1625J1.1273
G1 X42.8537 Y-21.8197 Z0.1300
G2X42.8374Y-21.8198Z0.1300I-0.0163J1.1076
G2X42.6253Y-21.7993Z0.1300I0.0000J1.1077
G2X42.7154Y-22.7817Z0.1300I-1.4315J-0.6266
G3X43.0332Y-21.8023Z0.1300I-1.6181J1.0664
G2X42.8537Y-21.8197Z0.1300I-0.1958J1.0902
G0 Z2.0000
G0 X42.8537 Y-21.8197 
M5
G53 Z
X2Y0
