( MOP:  02-inlay-SoulfireSF1-idPT06-s25 )
( FILE: G:\Shared drives\AlloyProjectFiles\Customer CAD files\Alloy-Standard-Builds-CAM\Fingerboards-in\02-inlay-SoulfireSF1-idPT06-s25.nc)
G90
(  BEGIN TOOL LIST )
(  TOOL 7 - Downcut PT125 - DESC: 0.1250 DIA, 2 FLUTE,  CARBIDE MAT )
(  ENDOF TOOL LIST )
( 02-inlay-SoulfireSF1-idPT06-s25)
T07
S12000
M3
G0 Z6.0000
G0 X28.8789 Y-22.8516 
G1 X28.8789 Y-22.8516 Z0.3000 F75.
G1 X28.8789 Y-22.8516 Z0.2750 F25.
G1 X28.8820 Y-22.8535 Z0.2727 F75.
G1 X28.8889 Y-22.8566 Z0.2679
G1 X28.8961 Y-22.8589 Z0.2631
G1 X28.9035 Y-22.8602 Z0.2583
G1 X28.9111 Y-22.8607 Z0.2535
G1 X28.9186 Y-22.8602 Z0.2487
G1 X28.9260 Y-22.8589 Z0.2439
G1 X28.9332 Y-22.8566 Z0.2390
G1 X28.9401 Y-22.8535 Z0.2342
G1 X28.9466 Y-22.8496 Z0.2294
G1 X28.9525 Y-22.8450 Z0.2246
G1 X28.9579 Y-22.8396 Z0.2198
G1 X28.9625 Y-22.8337 Z0.2150
G1 X28.9664 Y-22.8272 Z0.2102
G1 X28.9695 Y-22.8204 Z0.2054
G1 X28.9718 Y-22.8131 Z0.2006
G1 X28.9731 Y-22.8057 Z0.1958
G1 X28.9736 Y-22.7982 Z0.1910
G1 X28.9717 Y-22.7826 Z0.1910
G1 X28.9660 Y-22.7680 Z0.1910
G1 X28.9569 Y-22.7552 Z0.1910
G1 X28.9448 Y-22.7451 Z0.1910
G1 X28.9305 Y-22.7383 Z0.1910
G1 X28.9150 Y-22.7352 Z0.1910
G1 X28.8992 Y-22.7361 Z0.1910
G1 X28.8841 Y-22.7409 Z0.1910
G1 X28.8707 Y-22.7493 Z0.1910
G1 X28.8597 Y-22.7609 Z0.1910
G1 X28.8519 Y-22.7748 Z0.1910
G1 X28.8479 Y-22.7902 Z0.1910
G1 X28.8478 Y-22.8062 Z0.1910
G1 X28.8517 Y-22.8217 Z0.1910
G1 X28.8593 Y-22.8358 Z0.1910
G1 X28.8702 Y-22.8476 Z0.1910
G1 X28.8837 Y-22.8563 Z0.1910
G1 X28.8990 Y-22.8613 Z0.1910
G1 X28.9151 Y-22.8625 Z0.1910
G1 X28.9310 Y-22.8595 Z0.1910
G1 X28.9457 Y-22.8527 Z0.1910
G1 X28.9582 Y-22.8425 Z0.1910
G1 X28.9679 Y-22.8294 Z0.1910
G1 X28.9739 Y-22.8143 Z0.1910
G1 X28.9761 Y-22.7982 Z0.1910
G17
G3X28.8461Y-22.7982Z0.1910I-0.0650J0.0000
G3X28.9761Y-22.7982Z0.1910I0.0650J0.0000
G1 X28.9111 Y-22.7982 Z0.1910
G0 Z0.4250
G0 X28.9111 Y-22.7982 
G0 Z0.4250
G0 X29.8165 Y-22.8516 
G1 X29.8165 Y-22.8516 Z0.3000 F75.
G1 X29.8165 Y-22.8516 Z0.2750 F25.
G1 X29.8196 Y-22.8535 Z0.2727 F75.
G1 X29.8265 Y-22.8566 Z0.2679
G1 X29.8337 Y-22.8589 Z0.2631
G1 X29.8411 Y-22.8602 Z0.2583
G1 X29.8487 Y-22.8607 Z0.2535
G1 X29.8562 Y-22.8602 Z0.2487
G1 X29.8636 Y-22.8589 Z0.2439
G1 X29.8708 Y-22.8566 Z0.2390
G1 X29.8777 Y-22.8535 Z0.2342
G1 X29.8842 Y-22.8496 Z0.2294
G1 X29.8901 Y-22.8450 Z0.2246
G1 X29.8955 Y-22.8396 Z0.2198
G1 X29.9001 Y-22.8337 Z0.2150
G1 X29.9040 Y-22.8272 Z0.2102
G1 X29.9071 Y-22.8204 Z0.2054
G1 X29.9094 Y-22.8131 Z0.2006
G1 X29.9107 Y-22.8057 Z0.1958
G1 X29.9112 Y-22.7982 Z0.1910
G1 X29.9093 Y-22.7826 Z0.1910
G1 X29.9036 Y-22.7680 Z0.1910
G1 X29.8945 Y-22.7552 Z0.1910
G1 X29.8824 Y-22.7451 Z0.1910
G1 X29.8681 Y-22.7383 Z0.1910
G1 X29.8526 Y-22.7352 Z0.1910
G1 X29.8368 Y-22.7361 Z0.1910
G1 X29.8217 Y-22.7409 Z0.1910
G1 X29.8083 Y-22.7493 Z0.1910
G1 X29.7973 Y-22.7609 Z0.1910
G1 X29.7895 Y-22.7748 Z0.1910
G1 X29.7855 Y-22.7902 Z0.1910
G1 X29.7854 Y-22.8062 Z0.1910
G1 X29.7893 Y-22.8217 Z0.1910
G1 X29.7969 Y-22.8358 Z0.1910
G1 X29.8078 Y-22.8476 Z0.1910
G1 X29.8213 Y-22.8563 Z0.1910
G1 X29.8366 Y-22.8613 Z0.1910
G1 X29.8527 Y-22.8625 Z0.1910
G1 X29.8686 Y-22.8595 Z0.1910
G1 X29.8833 Y-22.8527 Z0.1910
G1 X29.8958 Y-22.8425 Z0.1910
G1 X29.9055 Y-22.8294 Z0.1910
G1 X29.9115 Y-22.8143 Z0.1910
G1 X29.9137 Y-22.7982 Z0.1910
G3X29.7837Y-22.7982Z0.1910I-0.0650J0.0000
G3X29.9137Y-22.7982Z0.1910I0.0650J0.0000
G1 X29.8487 Y-22.7982 Z0.1910
G0 Z0.4250
G0 X29.8487 Y-22.7982 
G0 Z0.4250
G0 X30.8689 Y-22.8516 
G1 X30.8689 Y-22.8516 Z0.3000 F75.
G1 X30.8689 Y-22.8516 Z0.2750 F25.
G1 X30.8720 Y-22.8535 Z0.2727 F75.
G1 X30.8789 Y-22.8566 Z0.2679
G1 X30.8861 Y-22.8589 Z0.2631
G1 X30.8935 Y-22.8602 Z0.2583
G1 X30.9011 Y-22.8607 Z0.2535
G1 X30.9086 Y-22.8602 Z0.2487
G1 X30.9160 Y-22.8589 Z0.2439
G1 X30.9232 Y-22.8566 Z0.2390
G1 X30.9301 Y-22.8535 Z0.2342
G1 X30.9366 Y-22.8496 Z0.2294
G1 X30.9425 Y-22.8450 Z0.2246
G1 X30.9479 Y-22.8396 Z0.2198
G1 X30.9525 Y-22.8337 Z0.2150
G1 X30.9564 Y-22.8272 Z0.2102
G1 X30.9595 Y-22.8204 Z0.2054
G1 X30.9618 Y-22.8131 Z0.2006
G1 X30.9631 Y-22.8057 Z0.1958
G1 X30.9636 Y-22.7982 Z0.1910
G1 X30.9617 Y-22.7826 Z0.1910
G1 X30.9560 Y-22.7680 Z0.1910
G1 X30.9469 Y-22.7552 Z0.1910
G1 X30.9348 Y-22.7451 Z0.1910
G1 X30.9205 Y-22.7383 Z0.1910
G1 X30.9050 Y-22.7352 Z0.1910
G1 X30.8892 Y-22.7361 Z0.1910
G1 X30.8741 Y-22.7409 Z0.1910
G1 X30.8607 Y-22.7493 Z0.1910
G1 X30.8497 Y-22.7609 Z0.1910
G1 X30.8419 Y-22.7748 Z0.1910
G1 X30.8379 Y-22.7902 Z0.1910
G1 X30.8378 Y-22.8062 Z0.1910
G1 X30.8417 Y-22.8217 Z0.1910
G1 X30.8493 Y-22.8358 Z0.1910
G1 X30.8602 Y-22.8476 Z0.1910
G1 X30.8737 Y-22.8563 Z0.1910
G1 X30.8890 Y-22.8613 Z0.1910
G1 X30.9051 Y-22.8625 Z0.1910
G1 X30.9210 Y-22.8595 Z0.1910
G1 X30.9357 Y-22.8527 Z0.1910
G1 X30.9482 Y-22.8425 Z0.1910
G1 X30.9579 Y-22.8294 Z0.1910
G1 X30.9639 Y-22.8143 Z0.1910
G1 X30.9661 Y-22.7982 Z0.1910
G3X30.8361Y-22.7982Z0.1910I-0.0650J0.0000
G3X30.9661Y-22.7982Z0.1910I0.0650J0.0000
G1 X30.9011 Y-22.7982 Z0.1910
G0 Z0.4250
G0 X30.9011 Y-22.7982 
G0 Z0.4250
G0 X32.0502 Y-22.8516 
G1 X32.0502 Y-22.8516 Z0.3000 F75.
G1 X32.0502 Y-22.8516 Z0.2750 F25.
G1 X32.0533 Y-22.8535 Z0.2727 F75.
G1 X32.0601 Y-22.8566 Z0.2679
G1 X32.0674 Y-22.8589 Z0.2631
G1 X32.0748 Y-22.8602 Z0.2583
G1 X32.0823 Y-22.8607 Z0.2535
G1 X32.0898 Y-22.8602 Z0.2487
G1 X32.0973 Y-22.8589 Z0.2439
G1 X32.1045 Y-22.8566 Z0.2390
G1 X32.1114 Y-22.8535 Z0.2342
G1 X32.1178 Y-22.8496 Z0.2294
G1 X32.1238 Y-22.8450 Z0.2246
G1 X32.1291 Y-22.8396 Z0.2198
G1 X32.1337 Y-22.8337 Z0.2150
G1 X32.1377 Y-22.8272 Z0.2102
G1 X32.1408 Y-22.8204 Z0.2054
G1 X32.1430 Y-22.8131 Z0.2006
G1 X32.1444 Y-22.8057 Z0.1958
G1 X32.1448 Y-22.7982 Z0.1910
G1 X32.1429 Y-22.7826 Z0.1910
G1 X32.1373 Y-22.7680 Z0.1910
G1 X32.1281 Y-22.7552 Z0.1910
G1 X32.1160 Y-22.7451 Z0.1910
G1 X32.1018 Y-22.7383 Z0.1910
G1 X32.0863 Y-22.7352 Z0.1910
G1 X32.0705 Y-22.7361 Z0.1910
G1 X32.0554 Y-22.7409 Z0.1910
G1 X32.0419 Y-22.7493 Z0.1910
G1 X32.0309 Y-22.7609 Z0.1910
G1 X32.0232 Y-22.7748 Z0.1910
G1 X32.0191 Y-22.7902 Z0.1910
G1 X32.0190 Y-22.8062 Z0.1910
G1 X32.0229 Y-22.8217 Z0.1910
G1 X32.0305 Y-22.8358 Z0.1910
G1 X32.0415 Y-22.8476 Z0.1910
G1 X32.0550 Y-22.8563 Z0.1910
G1 X32.0703 Y-22.8613 Z0.1910
G1 X32.0864 Y-22.8625 Z0.1910
G1 X32.1022 Y-22.8595 Z0.1910
G1 X32.1169 Y-22.8527 Z0.1910
G1 X32.1295 Y-22.8425 Z0.1910
G1 X32.1391 Y-22.8294 Z0.1910
G1 X32.1452 Y-22.8143 Z0.1910
G1 X32.1473 Y-22.7982 Z0.1910
G3X32.0173Y-22.7982Z0.1910I-0.0650J0.0000
G3X32.1473Y-22.7982Z0.1910I0.0650J0.0000
G1 X32.0823 Y-22.7982 Z0.1910
G0 Z0.4250
G0 X32.0823 Y-22.7982 
G0 Z0.4250
G0 X34.1001 Y-23.3516 
G1 X34.1001 Y-23.3516 Z0.3000 F75.
G1 X34.1001 Y-23.3516 Z0.2750 F25.
G1 X34.1033 Y-23.3535 Z0.2727 F75.
G1 X34.1101 Y-23.3566 Z0.2679
G1 X34.1173 Y-23.3588 Z0.2631
G1 X34.1248 Y-23.3602 Z0.2583
G1 X34.1323 Y-23.3606 Z0.2535
G1 X34.1398 Y-23.3602 Z0.2487
G1 X34.1473 Y-23.3588 Z0.2439
G1 X34.1545 Y-23.3566 Z0.2390
G1 X34.1614 Y-23.3535 Z0.2342
G1 X34.1678 Y-23.3496 Z0.2294
G1 X34.1738 Y-23.3449 Z0.2246
G1 X34.1791 Y-23.3396 Z0.2198
G1 X34.1837 Y-23.3336 Z0.2150
G1 X34.1876 Y-23.3272 Z0.2102
G1 X34.1907 Y-23.3203 Z0.2054
G1 X34.1930 Y-23.3131 Z0.2006
G1 X34.1944 Y-23.3057 Z0.1958
G1 X34.1948 Y-23.2981 Z0.1910
G1 X34.1929 Y-23.2826 Z0.1910
G1 X34.1873 Y-23.2679 Z0.1910
G1 X34.1781 Y-23.2552 Z0.1910
G1 X34.1660 Y-23.2450 Z0.1910
G1 X34.1518 Y-23.2382 Z0.1910
G1 X34.1363 Y-23.2352 Z0.1910
G1 X34.1205 Y-23.2361 Z0.1910
G1 X34.1054 Y-23.2409 Z0.1910
G1 X34.0919 Y-23.2493 Z0.1910
G1 X34.0809 Y-23.2608 Z0.1910
G1 X34.0732 Y-23.2747 Z0.1910
G1 X34.0691 Y-23.2902 Z0.1910
G1 X34.0690 Y-23.3061 Z0.1910
G1 X34.0729 Y-23.3217 Z0.1910
G1 X34.0805 Y-23.3358 Z0.1910
G1 X34.0914 Y-23.3475 Z0.1910
G1 X34.1050 Y-23.3562 Z0.1910
G1 X34.1203 Y-23.3613 Z0.1910
G1 X34.1364 Y-23.3624 Z0.1910
G1 X34.1522 Y-23.3595 Z0.1910
G1 X34.1669 Y-23.3527 Z0.1910
G1 X34.1795 Y-23.3424 Z0.1910
G1 X34.1891 Y-23.3294 Z0.1910
G1 X34.1952 Y-23.3143 Z0.1910
G1 X34.1973 Y-23.2981 Z0.1910
G3X34.0673Y-23.2981Z0.1910I-0.0650J0.0000
G3X34.1973Y-23.2981Z0.1910I0.0650J0.0000
G1 X34.1323 Y-23.2981 Z0.1910
G0 Z0.4250
G0 X34.1323 Y-23.2981 
G0 Z0.4250
G0 X34.0934 Y-22.3516 
G1 X34.0934 Y-22.3516 Z0.3000 F75.
G1 X34.0934 Y-22.3516 Z0.2750 F25.
G1 X34.0965 Y-22.3535 Z0.2727 F75.
G1 X34.1034 Y-22.3566 Z0.2679
G1 X34.1106 Y-22.3589 Z0.2631
G1 X34.1180 Y-22.3602 Z0.2583
G1 X34.1256 Y-22.3607 Z0.2535
G1 X34.1331 Y-22.3602 Z0.2487
G1 X34.1405 Y-22.3589 Z0.2439
G1 X34.1477 Y-22.3566 Z0.2390
G1 X34.1546 Y-22.3535 Z0.2342
G1 X34.1611 Y-22.3496 Z0.2294
G1 X34.1670 Y-22.3450 Z0.2246
G1 X34.1723 Y-22.3396 Z0.2198
G1 X34.1770 Y-22.3337 Z0.2150
G1 X34.1809 Y-22.3272 Z0.2102
G1 X34.1840 Y-22.3204 Z0.2054
G1 X34.1862 Y-22.3131 Z0.2006
G1 X34.1876 Y-22.3057 Z0.1958
G1 X34.1881 Y-22.2982 Z0.1910
G1 X34.1862 Y-22.2826 Z0.1910
G1 X34.1805 Y-22.2680 Z0.1910
G1 X34.1713 Y-22.2552 Z0.1910
G1 X34.1593 Y-22.2451 Z0.1910
G1 X34.1450 Y-22.2383 Z0.1910
G1 X34.1295 Y-22.2352 Z0.1910
G1 X34.1137 Y-22.2361 Z0.1910
G1 X34.0986 Y-22.2409 Z0.1910
G1 X34.0851 Y-22.2493 Z0.1910
G1 X34.0742 Y-22.2609 Z0.1910
G1 X34.0664 Y-22.2748 Z0.1910
G1 X34.0624 Y-22.2902 Z0.1910
G1 X34.0623 Y-22.3062 Z0.1910
G1 X34.0661 Y-22.3217 Z0.1910
G1 X34.0738 Y-22.3358 Z0.1910
G1 X34.0847 Y-22.3476 Z0.1910
G1 X34.0982 Y-22.3563 Z0.1910
G1 X34.1135 Y-22.3613 Z0.1910
G1 X34.1296 Y-22.3625 Z0.1910
G1 X34.1455 Y-22.3595 Z0.1910
G1 X34.1602 Y-22.3527 Z0.1910
G1 X34.1727 Y-22.3425 Z0.1910
G1 X34.1823 Y-22.3294 Z0.1910
G1 X34.1884 Y-22.3143 Z0.1910
G1 X34.1906 Y-22.2982 Z0.1910
G3X34.0606Y-22.2982Z0.1910I-0.0650J0.0000
G3X34.1906Y-22.2982Z0.1910I0.0650J0.0000
G1 X34.1256 Y-22.2982 Z0.1910
G0 Z0.4250
G0 X34.1256 Y-22.2982 
G0 Z0.4250
G0 X36.5345 Y-22.8516 
G1 X36.5345 Y-22.8516 Z0.3000 F75.
G1 X36.5345 Y-22.8516 Z0.2750 F25.
G1 X36.5376 Y-22.8535 Z0.2727 F75.
G1 X36.5445 Y-22.8566 Z0.2679
G1 X36.5517 Y-22.8589 Z0.2631
G1 X36.5591 Y-22.8602 Z0.2583
G1 X36.5666 Y-22.8607 Z0.2535
G1 X36.5741 Y-22.8602 Z0.2487
G1 X36.5816 Y-22.8589 Z0.2439
G1 X36.5888 Y-22.8566 Z0.2390
G1 X36.5957 Y-22.8535 Z0.2342
G1 X36.6021 Y-22.8496 Z0.2294
G1 X36.6081 Y-22.8450 Z0.2246
G1 X36.6134 Y-22.8396 Z0.2198
G1 X36.6181 Y-22.8337 Z0.2150
G1 X36.6220 Y-22.8272 Z0.2102
G1 X36.6251 Y-22.8204 Z0.2054
G1 X36.6273 Y-22.8131 Z0.2006
G1 X36.6287 Y-22.8057 Z0.1958
G1 X36.6291 Y-22.7982 Z0.1910
G1 X36.6272 Y-22.7826 Z0.1910
G1 X36.6216 Y-22.7680 Z0.1910
G1 X36.6124 Y-22.7552 Z0.1910
G1 X36.6003 Y-22.7451 Z0.1910
G1 X36.5861 Y-22.7383 Z0.1910
G1 X36.5706 Y-22.7352 Z0.1910
G1 X36.5548 Y-22.7361 Z0.1910
G1 X36.5397 Y-22.7409 Z0.1910
G1 X36.5262 Y-22.7493 Z0.1910
G1 X36.5152 Y-22.7609 Z0.1910
G1 X36.5075 Y-22.7748 Z0.1910
G1 X36.5034 Y-22.7902 Z0.1910
G1 X36.5033 Y-22.8062 Z0.1910
G1 X36.5072 Y-22.8217 Z0.1910
G1 X36.5148 Y-22.8358 Z0.1910
G1 X36.5258 Y-22.8476 Z0.1910
G1 X36.5393 Y-22.8563 Z0.1910
G1 X36.5546 Y-22.8613 Z0.1910
G1 X36.5707 Y-22.8625 Z0.1910
G1 X36.5865 Y-22.8595 Z0.1910
G1 X36.6012 Y-22.8527 Z0.1910
G1 X36.6138 Y-22.8425 Z0.1910
G1 X36.6234 Y-22.8294 Z0.1910
G1 X36.6295 Y-22.8143 Z0.1910
G1 X36.6316 Y-22.7982 Z0.1910
G3X36.5016Y-22.7982Z0.1910I-0.0650J0.0000
G3X36.6316Y-22.7982Z0.1910I0.0650J0.0000
G1 X36.5666 Y-22.7982 Z0.1910
G0 Z0.4250
G0 X36.5666 Y-22.7982 
G0 Z0.4250
G0 X38.4092 Y-22.8516 
G1 X38.4092 Y-22.8516 Z0.3000 F75.
G1 X38.4092 Y-22.8516 Z0.2750 F25.
G1 X38.4123 Y-22.8535 Z0.2727 F75.
G1 X38.4192 Y-22.8566 Z0.2679
G1 X38.4264 Y-22.8589 Z0.2631
G1 X38.4338 Y-22.8602 Z0.2583
G1 X38.4414 Y-22.8607 Z0.2535
G1 X38.4489 Y-22.8602 Z0.2487
G1 X38.4563 Y-22.8589 Z0.2439
G1 X38.4635 Y-22.8566 Z0.2390
G1 X38.4704 Y-22.8535 Z0.2342
G1 X38.4769 Y-22.8496 Z0.2294
G1 X38.4828 Y-22.8450 Z0.2246
G1 X38.4882 Y-22.8396 Z0.2198
G1 X38.4928 Y-22.8337 Z0.2150
G1 X38.4967 Y-22.8272 Z0.2102
G1 X38.4998 Y-22.8204 Z0.2054
G1 X38.5021 Y-22.8131 Z0.2006
G1 X38.5034 Y-22.8057 Z0.1958
G1 X38.5039 Y-22.7982 Z0.1910
G1 X38.5020 Y-22.7826 Z0.1910
G1 X38.4963 Y-22.7680 Z0.1910
G1 X38.4871 Y-22.7552 Z0.1910
G1 X38.4751 Y-22.7451 Z0.1910
G1 X38.4608 Y-22.7383 Z0.1910
G1 X38.4453 Y-22.7352 Z0.1910
G1 X38.4295 Y-22.7361 Z0.1910
G1 X38.4144 Y-22.7409 Z0.1910
G1 X38.4010 Y-22.7493 Z0.1910
G1 X38.3900 Y-22.7609 Z0.1910
G1 X38.3822 Y-22.7748 Z0.1910
G1 X38.3782 Y-22.7902 Z0.1910
G1 X38.3781 Y-22.8062 Z0.1910
G1 X38.3820 Y-22.8217 Z0.1910
G1 X38.3896 Y-22.8358 Z0.1910
G1 X38.4005 Y-22.8476 Z0.1910
G1 X38.4140 Y-22.8563 Z0.1910
G1 X38.4293 Y-22.8613 Z0.1910
G1 X38.4454 Y-22.8625 Z0.1910
G1 X38.4613 Y-22.8595 Z0.1910
G1 X38.4760 Y-22.8527 Z0.1910
G1 X38.4885 Y-22.8425 Z0.1910
G1 X38.4982 Y-22.8294 Z0.1910
G1 X38.5042 Y-22.8143 Z0.1910
G1 X38.5064 Y-22.7982 Z0.1910
G3X38.3764Y-22.7982Z0.1910I-0.0650J0.0000
G3X38.5064Y-22.7982Z0.1910I0.0650J0.0000
G1 X38.4414 Y-22.7982 Z0.1910
G0 Z0.4250
G0 X38.4414 Y-22.7982 
G0 Z0.4250
G0 X40.5135 Y-22.8516 
G1 X40.5135 Y-22.8516 Z0.3000 F75.
G1 X40.5135 Y-22.8516 Z0.2750 F25.
G1 X40.5166 Y-22.8535 Z0.2727 F75.
G1 X40.5235 Y-22.8566 Z0.2679
G1 X40.5307 Y-22.8589 Z0.2631
G1 X40.5381 Y-22.8602 Z0.2583
G1 X40.5457 Y-22.8607 Z0.2535
G1 X40.5532 Y-22.8602 Z0.2487
G1 X40.5606 Y-22.8589 Z0.2439
G1 X40.5678 Y-22.8566 Z0.2390
G1 X40.5747 Y-22.8535 Z0.2342
G1 X40.5812 Y-22.8496 Z0.2294
G1 X40.5871 Y-22.8450 Z0.2246
G1 X40.5925 Y-22.8396 Z0.2198
G1 X40.5971 Y-22.8337 Z0.2150
G1 X40.6010 Y-22.8272 Z0.2102
G1 X40.6041 Y-22.8204 Z0.2054
G1 X40.6064 Y-22.8131 Z0.2006
G1 X40.6077 Y-22.8057 Z0.1958
G1 X40.6082 Y-22.7982 Z0.1910
G1 X40.6063 Y-22.7826 Z0.1910
G1 X40.6006 Y-22.7680 Z0.1910
G1 X40.5914 Y-22.7552 Z0.1910
G1 X40.5794 Y-22.7451 Z0.1910
G1 X40.5651 Y-22.7383 Z0.1910
G1 X40.5496 Y-22.7352 Z0.1910
G1 X40.5338 Y-22.7361 Z0.1910
G1 X40.5187 Y-22.7409 Z0.1910
G1 X40.5053 Y-22.7493 Z0.1910
G1 X40.4943 Y-22.7609 Z0.1910
G1 X40.4865 Y-22.7748 Z0.1910
G1 X40.4825 Y-22.7902 Z0.1910
G1 X40.4824 Y-22.8062 Z0.1910
G1 X40.4863 Y-22.8217 Z0.1910
G1 X40.4939 Y-22.8358 Z0.1910
G1 X40.5048 Y-22.8476 Z0.1910
G1 X40.5183 Y-22.8563 Z0.1910
G1 X40.5336 Y-22.8613 Z0.1910
G1 X40.5497 Y-22.8625 Z0.1910
G1 X40.5656 Y-22.8595 Z0.1910
G1 X40.5803 Y-22.8527 Z0.1910
G1 X40.5928 Y-22.8425 Z0.1910
G1 X40.6025 Y-22.8294 Z0.1910
G1 X40.6085 Y-22.8143 Z0.1910
G1 X40.6107 Y-22.7982 Z0.1910
G3X40.4807Y-22.7982Z0.1910I-0.0650J0.0000
G3X40.6107Y-22.7982Z0.1910I0.0650J0.0000
G1 X40.5457 Y-22.7982 Z0.1910
G0 Z0.4250
G0 X40.5457 Y-22.7982 
G0 Z0.4250
G0 X42.8754 Y-22.8516 
G1 X42.8754 Y-22.8516 Z0.3000 F75.
G1 X42.8754 Y-22.8516 Z0.2750 F25.
G1 X42.8785 Y-22.8535 Z0.2727 F75.
G1 X42.8854 Y-22.8566 Z0.2679
G1 X42.8926 Y-22.8589 Z0.2631
G1 X42.9000 Y-22.8602 Z0.2583
G1 X42.9076 Y-22.8607 Z0.2535
G1 X42.9151 Y-22.8602 Z0.2487
G1 X42.9225 Y-22.8589 Z0.2439
G1 X42.9297 Y-22.8566 Z0.2390
G1 X42.9366 Y-22.8535 Z0.2342
G1 X42.9431 Y-22.8496 Z0.2294
G1 X42.9490 Y-22.8450 Z0.2246
G1 X42.9544 Y-22.8396 Z0.2198
G1 X42.9590 Y-22.8337 Z0.2150
G1 X42.9629 Y-22.8272 Z0.2102
G1 X42.9660 Y-22.8204 Z0.2054
G1 X42.9683 Y-22.8131 Z0.2006
G1 X42.9696 Y-22.8057 Z0.1958
G1 X42.9701 Y-22.7982 Z0.1910
G1 X42.9682 Y-22.7826 Z0.1910
G1 X42.9625 Y-22.7680 Z0.1910
G1 X42.9534 Y-22.7552 Z0.1910
G1 X42.9413 Y-22.7451 Z0.1910
G1 X42.9270 Y-22.7383 Z0.1910
G1 X42.9115 Y-22.7352 Z0.1910
G1 X42.8957 Y-22.7361 Z0.1910
G1 X42.8806 Y-22.7409 Z0.1910
G1 X42.8672 Y-22.7493 Z0.1910
G1 X42.8562 Y-22.7609 Z0.1910
G1 X42.8484 Y-22.7748 Z0.1910
G1 X42.8444 Y-22.7902 Z0.1910
G1 X42.8443 Y-22.8062 Z0.1910
G1 X42.8482 Y-22.8217 Z0.1910
G1 X42.8558 Y-22.8358 Z0.1910
G1 X42.8667 Y-22.8476 Z0.1910
G1 X42.8802 Y-22.8563 Z0.1910
G1 X42.8955 Y-22.8613 Z0.1910
G1 X42.9116 Y-22.8625 Z0.1910
G1 X42.9275 Y-22.8595 Z0.1910
G1 X42.9422 Y-22.8527 Z0.1910
G1 X42.9547 Y-22.8425 Z0.1910
G1 X42.9644 Y-22.8294 Z0.1910
G1 X42.9704 Y-22.8143 Z0.1910
G1 X42.9726 Y-22.7982 Z0.1910
G3X42.8426Y-22.7982Z0.1910I-0.0650J0.0000
G3X42.9726Y-22.7982Z0.1910I0.0650J0.0000
G1 X42.9076 Y-22.7982 Z0.1910
G0 Z6.0000
G0 X42.9076 Y-22.7982 
M5
G53 Z
X2Y0
