( MOP:  02-inlay-Trapezoids-idPT06-s25PT5-01 )
( FILE: G:\Shared drives\AlloyProjectFiles\Customer CAD files\Alloy-Standard-Builds-CAM\Fingerboards-in\02-inlay-Trapezoids-idPT06-s25PT5-01.nc)
G90
(  BEGIN TOOL LIST )
(  TOOL 15 - Fretkerf PT025 - DESC: 0.0250 DIA, 2 FLUTE,  CARBIDE MAT )
(  ENDOF TOOL LIST )
( 02-inlay-Trapezoids-idPT06-s25PT5-01)
T15
S14000
M3
G0 Z1.0000
G0 X27.4331 Y-22.9116 
G1 X27.4331 Y-22.9116 Z0.2584 F21.
G1 X27.4331 Y-22.7982 Z0.2384
G1 X27.4331 Y-22.0361 Z0.2384 F22.
G17
G2X27.2181Y-22.1305Z0.2384I-0.2258J0.2223
G1 X27.2181 Y-23.4658 Z0.2384
G2X27.4331Y-23.5602Z0.2384I-0.0107J-0.3165
G1 X27.4331 Y-22.7982 Z0.2384
G1 X27.4331 Y-22.5482 Z0.2384
G0 Z0.3468
G0 X27.4331 Y-22.5482 
G0 Z0.3468
G0 X27.4331 Y-22.9116 
G1 X27.4331 Y-22.9116 Z0.2468 F21.
G1 X27.4331 Y-22.7982 Z0.2268
G1 X27.4331 Y-22.0361 Z0.2268 F22.
G2X27.2181Y-22.1305Z0.2268I-0.2258J0.2223
G1 X27.2181 Y-23.4658 Z0.2268
G2X27.4331Y-23.5602Z0.2268I-0.0107J-0.3165
G1 X27.4331 Y-22.7982 Z0.2268
G1 X27.4331 Y-22.5482 Z0.2268
G0 Z0.3352
G0 X27.4331 Y-22.5482 
G0 Z0.3352
G0 X27.4331 Y-22.9116 
G1 X27.4331 Y-22.9116 Z0.2352 F21.
G1 X27.4331 Y-22.7982 Z0.2152
G1 X27.4331 Y-22.0361 Z0.2152 F22.
G2X27.2181Y-22.1305Z0.2152I-0.2258J0.2223
G1 X27.2181 Y-23.4658 Z0.2152
G2X27.4331Y-23.5602Z0.2152I-0.0107J-0.3165
G1 X27.4331 Y-22.7982 Z0.2152
G1 X27.4331 Y-22.5482 Z0.2152
G0 Z0.3236
G0 X27.4331 Y-22.5482 
G0 Z0.3236
G0 X27.4331 Y-22.9116 
G1 X27.4331 Y-22.9116 Z0.2236 F21.
G1 X27.4331 Y-22.7982 Z0.2036
G1 X27.4331 Y-22.0361 Z0.2036 F22.
G2X27.2181Y-22.1305Z0.2036I-0.2258J0.2223
G1 X27.2181 Y-23.4658 Z0.2036
G2X27.4331Y-23.5602Z0.2036I-0.0107J-0.3165
G1 X27.4331 Y-22.7982 Z0.2036
G1 X27.4331 Y-22.5482 Z0.2036
G0 Z0.3120
G0 X27.4331 Y-22.5482 
G0 Z0.3120
G0 X27.4331 Y-22.9116 
G1 X27.4331 Y-22.9116 Z0.2120 F21.
G1 X27.4331 Y-22.7982 Z0.1920
G1 X27.4331 Y-22.0361 Z0.1920 F22.
G2X27.2181Y-22.1305Z0.1920I-0.2258J0.2223
G1 X27.2181 Y-23.4658 Z0.1920
G2X27.4331Y-23.5602Z0.1920I-0.0107J-0.3165
G1 X27.4331 Y-22.7982 Z0.1920
G1 X27.4331 Y-22.5482 Z0.1920
G0 Z0.3495
G0 X27.4331 Y-22.5482 
G0 Z0.3495
G0 X28.6751 Y-22.9116 
G1 X28.6751 Y-22.9116 Z0.2584 F21.
G1 X28.6751 Y-22.7982 Z0.2384
G1 X28.6751 Y-22.0361 Z0.2384 F22.
G2X28.4601Y-22.1305Z0.2384I-0.2257J0.2223
G1 X28.4601 Y-23.4658 Z0.2384
G2X28.6751Y-23.5602Z0.2384I-0.0107J-0.3165
G1 X28.6751 Y-22.7982 Z0.2384
G1 X28.6751 Y-22.5482 Z0.2384
G0 Z0.3468
G0 X28.6751 Y-22.5482 
G0 Z0.3468
G0 X28.6751 Y-22.9116 
G1 X28.6751 Y-22.9116 Z0.2468 F21.
G1 X28.6751 Y-22.7982 Z0.2268
G1 X28.6751 Y-22.0361 Z0.2268 F22.
G2X28.4601Y-22.1305Z0.2268I-0.2257J0.2223
G1 X28.4601 Y-23.4658 Z0.2268
G2X28.6751Y-23.5602Z0.2268I-0.0107J-0.3165
G1 X28.6751 Y-22.7982 Z0.2268
G1 X28.6751 Y-22.5482 Z0.2268
G0 Z0.3352
G0 X28.6751 Y-22.5482 
G0 Z0.3352
G0 X28.6751 Y-22.9116 
G1 X28.6751 Y-22.9116 Z0.2352 F21.
G1 X28.6751 Y-22.7982 Z0.2152
G1 X28.6751 Y-22.0361 Z0.2152 F22.
G2X28.4601Y-22.1305Z0.2152I-0.2257J0.2223
G1 X28.4601 Y-23.4658 Z0.2152
G2X28.6751Y-23.5602Z0.2152I-0.0107J-0.3165
G1 X28.6751 Y-22.7982 Z0.2152
G1 X28.6751 Y-22.5482 Z0.2152
G0 Z0.3236
G0 X28.6751 Y-22.5482 
G0 Z0.3236
G0 X28.6751 Y-22.9116 
G1 X28.6751 Y-22.9116 Z0.2236 F21.
G1 X28.6751 Y-22.7982 Z0.2036
G1 X28.6751 Y-22.0361 Z0.2036 F22.
G2X28.4601Y-22.1305Z0.2036I-0.2257J0.2223
G1 X28.4601 Y-23.4658 Z0.2036
G2X28.6751Y-23.5602Z0.2036I-0.0107J-0.3165
G1 X28.6751 Y-22.7982 Z0.2036
G1 X28.6751 Y-22.5482 Z0.2036
G0 Z0.3120
G0 X28.6751 Y-22.5482 
G0 Z0.3120
G0 X28.6751 Y-22.9116 
G1 X28.6751 Y-22.9116 Z0.2120 F21.
G1 X28.6751 Y-22.7982 Z0.1920
G1 X28.6751 Y-22.0361 Z0.1920 F22.
G2X28.4601Y-22.1305Z0.1920I-0.2257J0.2223
G1 X28.4601 Y-23.4658 Z0.1920
G2X28.6751Y-23.5602Z0.1920I-0.0107J-0.3165
G1 X28.6751 Y-22.7982 Z0.1920
G1 X28.6751 Y-22.5482 Z0.1920
G0 Z0.3495
G0 X28.6751 Y-22.5482 
G0 Z0.3495
G0 X29.6311 Y-22.9116 
G1 X29.6311 Y-22.9116 Z0.2584 F21.
G1 X29.6311 Y-22.7982 Z0.2384
G1 X29.6311 Y-22.0361 Z0.2384 F22.
G2X29.4161Y-22.1305Z0.2384I-0.2257J0.2223
G1 X29.4161 Y-23.4658 Z0.2384
G2X29.6311Y-23.5602Z0.2384I-0.0107J-0.3165
G1 X29.6311 Y-22.7982 Z0.2384
G1 X29.6311 Y-22.5482 Z0.2384
G0 Z0.3468
G0 X29.6311 Y-22.5482 
G0 Z0.3468
G0 X29.6311 Y-22.9116 
G1 X29.6311 Y-22.9116 Z0.2468 F21.
G1 X29.6311 Y-22.7982 Z0.2268
G1 X29.6311 Y-22.0361 Z0.2268 F22.
G2X29.4161Y-22.1305Z0.2268I-0.2257J0.2223
G1 X29.4161 Y-23.4658 Z0.2268
G2X29.6311Y-23.5602Z0.2268I-0.0107J-0.3165
G1 X29.6311 Y-22.7982 Z0.2268
G1 X29.6311 Y-22.5482 Z0.2268
G0 Z0.3352
G0 X29.6311 Y-22.5482 
G0 Z0.3352
G0 X29.6311 Y-22.9116 
G1 X29.6311 Y-22.9116 Z0.2352 F21.
G1 X29.6311 Y-22.7982 Z0.2152
G1 X29.6311 Y-22.0361 Z0.2152 F22.
G2X29.4161Y-22.1305Z0.2152I-0.2257J0.2223
G1 X29.4161 Y-23.4658 Z0.2152
G2X29.6311Y-23.5602Z0.2152I-0.0107J-0.3165
G1 X29.6311 Y-22.7982 Z0.2152
G1 X29.6311 Y-22.5482 Z0.2152
G0 Z0.3236
G0 X29.6311 Y-22.5482 
G0 Z0.3236
G0 X29.6311 Y-22.9116 
G1 X29.6311 Y-22.9116 Z0.2236 F21.
G1 X29.6311 Y-22.7982 Z0.2036
G1 X29.6311 Y-22.0361 Z0.2036 F22.
G2X29.4161Y-22.1305Z0.2036I-0.2257J0.2223
G1 X29.4161 Y-23.4658 Z0.2036
G2X29.6311Y-23.5602Z0.2036I-0.0107J-0.3165
G1 X29.6311 Y-22.7982 Z0.2036
G1 X29.6311 Y-22.5482 Z0.2036
G0 Z0.3120
G0 X29.6311 Y-22.5482 
G0 Z0.3120
G0 X29.6311 Y-22.9116 
G1 X29.6311 Y-22.9116 Z0.2120 F21.
G1 X29.6311 Y-22.7982 Z0.1920
G1 X29.6311 Y-22.0361 Z0.1920 F22.
G2X29.4161Y-22.1305Z0.1920I-0.2257J0.2223
G1 X29.4161 Y-23.4658 Z0.1920
G2X29.6311Y-23.5602Z0.1920I-0.0107J-0.3165
G1 X29.6311 Y-22.7982 Z0.1920
G1 X29.6311 Y-22.5482 Z0.1920
G0 Z0.3495
G0 X29.6311 Y-22.5482 
G0 Z0.3495
G0 X30.7042 Y-22.9116 
G1 X30.7042 Y-22.9116 Z0.2584 F21.
G1 X30.7042 Y-22.7982 Z0.2384
G1 X30.7042 Y-22.0361 Z0.2384 F22.
G2X30.4892Y-22.1305Z0.2384I-0.2257J0.2223
G1 X30.4892 Y-23.4658 Z0.2384
G2X30.7042Y-23.5602Z0.2384I-0.0107J-0.3165
G1 X30.7042 Y-22.7982 Z0.2384
G1 X30.7042 Y-22.5482 Z0.2384
G0 Z0.3468
G0 X30.7042 Y-22.5482 
G0 Z0.3468
G0 X30.7042 Y-22.9116 
G1 X30.7042 Y-22.9116 Z0.2468 F21.
G1 X30.7042 Y-22.7982 Z0.2268
G1 X30.7042 Y-22.0361 Z0.2268 F22.
G2X30.4892Y-22.1305Z0.2268I-0.2257J0.2223
G1 X30.4892 Y-23.4658 Z0.2268
G2X30.7042Y-23.5602Z0.2268I-0.0107J-0.3165
G1 X30.7042 Y-22.7982 Z0.2268
G1 X30.7042 Y-22.5482 Z0.2268
G0 Z0.3352
G0 X30.7042 Y-22.5482 
G0 Z0.3352
G0 X30.7042 Y-22.9116 
G1 X30.7042 Y-22.9116 Z0.2352 F21.
G1 X30.7042 Y-22.7982 Z0.2152
G1 X30.7042 Y-22.0361 Z0.2152 F22.
G2X30.4892Y-22.1305Z0.2152I-0.2257J0.2223
G1 X30.4892 Y-23.4658 Z0.2152
G2X30.7042Y-23.5602Z0.2152I-0.0107J-0.3165
G1 X30.7042 Y-22.7982 Z0.2152
G1 X30.7042 Y-22.5482 Z0.2152
G0 Z0.3236
G0 X30.7042 Y-22.5482 
G0 Z0.3236
G0 X30.7042 Y-22.9116 
G1 X30.7042 Y-22.9116 Z0.2236 F21.
G1 X30.7042 Y-22.7982 Z0.2036
G1 X30.7042 Y-22.0361 Z0.2036 F22.
G2X30.4892Y-22.1305Z0.2036I-0.2257J0.2223
G1 X30.4892 Y-23.4658 Z0.2036
G2X30.7042Y-23.5602Z0.2036I-0.0107J-0.3165
G1 X30.7042 Y-22.7982 Z0.2036
G1 X30.7042 Y-22.5482 Z0.2036
G0 Z0.3120
G0 X30.7042 Y-22.5482 
G0 Z0.3120
G0 X30.7042 Y-22.9116 
G1 X30.7042 Y-22.9116 Z0.2120 F21.
G1 X30.7042 Y-22.7982 Z0.1920
G1 X30.7042 Y-22.0361 Z0.1920 F22.
G2X30.4892Y-22.1305Z0.1920I-0.2257J0.2223
G1 X30.4892 Y-23.4658 Z0.1920
G2X30.7042Y-23.5602Z0.1920I-0.0107J-0.3165
G1 X30.7042 Y-22.7982 Z0.1920
G1 X30.7042 Y-22.5482 Z0.1920
G0 Z0.3495
G0 X30.7042 Y-22.5482 
G0 Z0.3495
G0 X31.9857 Y-22.9116 
G1 X31.9857 Y-22.9116 Z0.2584 F21.
G1 X31.9857 Y-22.7982 Z0.2384
G1 X31.9857 Y-22.0953 Z0.2384 F22.
G2X31.6167Y-22.2657Z0.2384I-0.3720J0.3207
G1 X31.6167 Y-23.3306 Z0.2384
G2X31.9857Y-23.5010Z0.2384I-0.0030J-0.4911
G1 X31.9857 Y-22.7982 Z0.2384
G1 X31.9857 Y-22.5482 Z0.2384
G0 Z0.3468
G0 X31.9857 Y-22.5482 
G0 Z0.3468
G0 X31.9857 Y-22.9116 
G1 X31.9857 Y-22.9116 Z0.2468 F21.
G1 X31.9857 Y-22.7982 Z0.2268
G1 X31.9857 Y-22.0953 Z0.2268 F22.
G2X31.6167Y-22.2657Z0.2268I-0.3720J0.3207
G1 X31.6167 Y-23.3306 Z0.2268
G2X31.9857Y-23.5010Z0.2268I-0.0030J-0.4911
G1 X31.9857 Y-22.7982 Z0.2268
G1 X31.9857 Y-22.5482 Z0.2268
G0 Z0.3352
G0 X31.9857 Y-22.5482 
G0 Z0.3352
G0 X31.9857 Y-22.9116 
G1 X31.9857 Y-22.9116 Z0.2352 F21.
G1 X31.9857 Y-22.7982 Z0.2152
G1 X31.9857 Y-22.0953 Z0.2152 F22.
G2X31.6167Y-22.2657Z0.2152I-0.3720J0.3207
G1 X31.6167 Y-23.3306 Z0.2152
G2X31.9857Y-23.5010Z0.2152I-0.0030J-0.4911
G1 X31.9857 Y-22.7982 Z0.2152
G1 X31.9857 Y-22.5482 Z0.2152
G0 Z0.3236
G0 X31.9857 Y-22.5482 
G0 Z0.3236
G0 X31.9857 Y-22.9116 
G1 X31.9857 Y-22.9116 Z0.2236 F21.
G1 X31.9857 Y-22.7982 Z0.2036
G1 X31.9857 Y-22.0953 Z0.2036 F22.
G2X31.6167Y-22.2657Z0.2036I-0.3720J0.3207
G1 X31.6167 Y-23.3306 Z0.2036
G2X31.9857Y-23.5010Z0.2036I-0.0030J-0.4911
G1 X31.9857 Y-22.7982 Z0.2036
G1 X31.9857 Y-22.5482 Z0.2036
G0 Z0.3120
G0 X31.9857 Y-22.5482 
G0 Z0.3120
G0 X31.9857 Y-22.9116 
G1 X31.9857 Y-22.9116 Z0.2120 F21.
G1 X31.9857 Y-22.7982 Z0.1920
G1 X31.9857 Y-22.0953 Z0.1920 F22.
G2X31.6167Y-22.2657Z0.1920I-0.3720J0.3207
G1 X31.6167 Y-23.3306 Z0.1920
G2X31.9857Y-23.5010Z0.1920I-0.0030J-0.4911
G1 X31.9857 Y-22.7982 Z0.1920
G1 X31.9857 Y-22.5482 Z0.1920
G0 Z0.3495
G0 X31.9857 Y-22.5482 
G0 Z0.3495
G0 X34.0746 Y-22.9116 
G1 X34.0746 Y-22.9116 Z0.2584 F21.
G1 X34.0746 Y-22.7982 Z0.2384
G1 X34.0746 Y-22.0953 Z0.2384 F22.
G2X33.7056Y-22.2657Z0.2384I-0.3720J0.3207
G1 X33.7056 Y-23.3306 Z0.2384
G2X34.0746Y-23.5010Z0.2384I-0.0030J-0.4911
G1 X34.0746 Y-22.7982 Z0.2384
G1 X34.0746 Y-22.5482 Z0.2384
G0 Z0.3468
G0 X34.0746 Y-22.5482 
G0 Z0.3468
G0 X34.0746 Y-22.9116 
G1 X34.0746 Y-22.9116 Z0.2468 F21.
G1 X34.0746 Y-22.7982 Z0.2268
G1 X34.0746 Y-22.0953 Z0.2268 F22.
G2X33.7056Y-22.2657Z0.2268I-0.3720J0.3207
G1 X33.7056 Y-23.3306 Z0.2268
G2X34.0746Y-23.5010Z0.2268I-0.0030J-0.4911
G1 X34.0746 Y-22.7982 Z0.2268
G1 X34.0746 Y-22.5482 Z0.2268
G0 Z0.3352
G0 X34.0746 Y-22.5482 
G0 Z0.3352
G0 X34.0746 Y-22.9116 
G1 X34.0746 Y-22.9116 Z0.2352 F21.
G1 X34.0746 Y-22.7982 Z0.2152
G1 X34.0746 Y-22.0953 Z0.2152 F22.
G2X33.7056Y-22.2657Z0.2152I-0.3720J0.3207
G1 X33.7056 Y-23.3306 Z0.2152
G2X34.0746Y-23.5010Z0.2152I-0.0030J-0.4911
G1 X34.0746 Y-22.7982 Z0.2152
G1 X34.0746 Y-22.5482 Z0.2152
G0 Z0.3236
G0 X34.0746 Y-22.5482 
G0 Z0.3236
G0 X34.0746 Y-22.9116 
G1 X34.0746 Y-22.9116 Z0.2236 F21.
G1 X34.0746 Y-22.7982 Z0.2036
G1 X34.0746 Y-22.0953 Z0.2036 F22.
G2X33.7056Y-22.2657Z0.2036I-0.3720J0.3207
G1 X33.7056 Y-23.3306 Z0.2036
G2X34.0746Y-23.5010Z0.2036I-0.0030J-0.4911
G1 X34.0746 Y-22.7982 Z0.2036
G1 X34.0746 Y-22.5482 Z0.2036
G0 Z0.3120
G0 X34.0746 Y-22.5482 
G0 Z0.3120
G0 X34.0746 Y-22.9116 
G1 X34.0746 Y-22.9116 Z0.2120 F21.
G1 X34.0746 Y-22.7982 Z0.1920
G1 X34.0746 Y-22.0953 Z0.1920 F22.
G2X33.7056Y-22.2657Z0.1920I-0.3720J0.3207
G1 X33.7056 Y-23.3306 Z0.1920
G2X34.0746Y-23.5010Z0.1920I-0.0030J-0.4911
G1 X34.0746 Y-22.7982 Z0.1920
G1 X34.0746 Y-22.5482 Z0.1920
G0 Z0.3495
G0 X34.0746 Y-22.5482 
G0 Z0.3495
G0 X36.1267 Y-22.6847 
G1 X36.1267 Y-22.6847 Z0.2584 F21.
G1 X36.1267 Y-22.7982 Z0.2384
G1 X36.1267 Y-23.2671 Z0.2384 F22.
G2X36.6217Y-23.4363Z0.2384I-0.0025J-0.8161
G1 X36.6217 Y-22.1601 Z0.2384
G2X36.1267Y-22.3292Z0.2384I-0.4975J0.6470
G1 X36.1267 Y-22.7982 Z0.2384
G1 X36.1267 Y-23.0482 Z0.2384
G0 Z0.3468
G0 X36.1267 Y-23.0482 
G0 Z0.3468
G0 X36.1267 Y-22.6847 
G1 X36.1267 Y-22.6847 Z0.2468 F21.
G1 X36.1267 Y-22.7982 Z0.2268
G1 X36.1267 Y-23.2671 Z0.2268 F22.
G2X36.6217Y-23.4363Z0.2268I-0.0025J-0.8161
G1 X36.6217 Y-22.1601 Z0.2268
G2X36.1267Y-22.3292Z0.2268I-0.4975J0.6470
G1 X36.1267 Y-22.7982 Z0.2268
G1 X36.1267 Y-23.0482 Z0.2268
G0 Z0.3352
G0 X36.1267 Y-23.0482 
G0 Z0.3352
G0 X36.1267 Y-22.6847 
G1 X36.1267 Y-22.6847 Z0.2352 F21.
G1 X36.1267 Y-22.7982 Z0.2152
G1 X36.1267 Y-23.2671 Z0.2152 F22.
G2X36.6217Y-23.4363Z0.2152I-0.0025J-0.8161
G1 X36.6217 Y-22.1601 Z0.2152
G2X36.1267Y-22.3292Z0.2152I-0.4975J0.6470
G1 X36.1267 Y-22.7982 Z0.2152
G1 X36.1267 Y-23.0482 Z0.2152
G0 Z0.3236
G0 X36.1267 Y-23.0482 
G0 Z0.3236
G0 X36.1267 Y-22.6847 
G1 X36.1267 Y-22.6847 Z0.2236 F21.
G1 X36.1267 Y-22.7982 Z0.2036
G1 X36.1267 Y-23.2671 Z0.2036 F22.
G2X36.6217Y-23.4363Z0.2036I-0.0025J-0.8161
G1 X36.6217 Y-22.1601 Z0.2036
G2X36.1267Y-22.3292Z0.2036I-0.4975J0.6470
G1 X36.1267 Y-22.7982 Z0.2036
G1 X36.1267 Y-23.0482 Z0.2036
G0 Z0.3120
G0 X36.1267 Y-23.0482 
G0 Z0.3120
G0 X36.1267 Y-22.6847 
G1 X36.1267 Y-22.6847 Z0.2120 F21.
G1 X36.1267 Y-22.7982 Z0.1920
G1 X36.1267 Y-23.2671 Z0.1920 F22.
G2X36.6217Y-23.4363Z0.1920I-0.0025J-0.8161
G1 X36.6217 Y-22.1601 Z0.1920
G2X36.1267Y-22.3292Z0.1920I-0.4975J0.6470
G1 X36.1267 Y-22.7982 Z0.1920
G1 X36.1267 Y-23.0482 Z0.1920
G0 Z0.3495
G0 X36.1267 Y-23.0482 
G0 Z0.3495
G0 X38.5338 Y-22.9116 
G1 X38.5338 Y-22.9116 Z0.2584 F21.
G1 X38.5338 Y-22.7982 Z0.2384
G1 X38.5338 Y-22.1601 Z0.2384 F22.
G2X38.0388Y-22.3292Z0.2384I-0.4975J0.6470
G1 X38.0388 Y-23.2671 Z0.2384
G2X38.5338Y-23.4363Z0.2384I-0.0025J-0.8161
G1 X38.5338 Y-22.7982 Z0.2384
G1 X38.5338 Y-22.5482 Z0.2384
G0 Z0.3468
G0 X38.5338 Y-22.5482 
G0 Z0.3468
G0 X38.5338 Y-22.9116 
G1 X38.5338 Y-22.9116 Z0.2468 F21.
G1 X38.5338 Y-22.7982 Z0.2268
G1 X38.5338 Y-22.1601 Z0.2268 F22.
G2X38.0388Y-22.3292Z0.2268I-0.4975J0.6470
G1 X38.0388 Y-23.2671 Z0.2268
G2X38.5338Y-23.4363Z0.2268I-0.0025J-0.8161
G1 X38.5338 Y-22.7982 Z0.2268
G1 X38.5338 Y-22.5482 Z0.2268
G0 Z0.3352
G0 X38.5338 Y-22.5482 
G0 Z0.3352
G0 X38.5338 Y-22.9116 
G1 X38.5338 Y-22.9116 Z0.2352 F21.
G1 X38.5338 Y-22.7982 Z0.2152
G1 X38.5338 Y-22.1601 Z0.2152 F22.
G2X38.0388Y-22.3292Z0.2152I-0.4975J0.6470
G1 X38.0388 Y-23.2671 Z0.2152
G2X38.5338Y-23.4363Z0.2152I-0.0025J-0.8161
G1 X38.5338 Y-22.7982 Z0.2152
G1 X38.5338 Y-22.5482 Z0.2152
G0 Z0.3236
G0 X38.5338 Y-22.5482 
G0 Z0.3236
G0 X38.5338 Y-22.9116 
G1 X38.5338 Y-22.9116 Z0.2236 F21.
G1 X38.5338 Y-22.7982 Z0.2036
G1 X38.5338 Y-22.1601 Z0.2036 F22.
G2X38.0388Y-22.3292Z0.2036I-0.4975J0.6470
G1 X38.0388 Y-23.2671 Z0.2036
G2X38.5338Y-23.4363Z0.2036I-0.0025J-0.8161
G1 X38.5338 Y-22.7982 Z0.2036
G1 X38.5338 Y-22.5482 Z0.2036
G0 Z0.3120
G0 X38.5338 Y-22.5482 
G0 Z0.3120
G0 X38.5338 Y-22.9116 
G1 X38.5338 Y-22.9116 Z0.2120 F21.
G1 X38.5338 Y-22.7982 Z0.1920
G1 X38.5338 Y-22.1601 Z0.1920 F22.
G2X38.0388Y-22.3292Z0.1920I-0.4975J0.6470
G1 X38.0388 Y-23.2671 Z0.1920
G2X38.5338Y-23.4363Z0.1920I-0.0025J-0.8161
G1 X38.5338 Y-22.7982 Z0.1920
G1 X38.5338 Y-22.5482 Z0.1920
G0 Z0.3495
G0 X38.5338 Y-22.5482 
G0 Z0.3495
G0 X40.7450 Y-22.9116 
G1 X40.7450 Y-22.9116 Z0.2584 F21.
G1 X40.7450 Y-22.7982 Z0.2384
G1 X40.7450 Y-22.2321 Z0.2384 F22.
G2X40.1200Y-22.3942Z0.2384I-0.6243J1.1212
G1 X40.1200 Y-23.2020 Z0.2384
G2X40.7450Y-23.3641Z0.2384I0.0051J-1.2666
G1 X40.7450 Y-22.7982 Z0.2384
G1 X40.7450 Y-22.5482 Z0.2384
G0 Z0.3468
G0 X40.7450 Y-22.5482 
G0 Z0.3468
G0 X40.7450 Y-22.9116 
G1 X40.7450 Y-22.9116 Z0.2468 F21.
G1 X40.7450 Y-22.7982 Z0.2268
G1 X40.7450 Y-22.2321 Z0.2268 F22.
G2X40.1200Y-22.3942Z0.2268I-0.6243J1.1212
G1 X40.1200 Y-23.2020 Z0.2268
G2X40.7450Y-23.3641Z0.2268I0.0051J-1.2666
G1 X40.7450 Y-22.7982 Z0.2268
G1 X40.7450 Y-22.5482 Z0.2268
G0 Z0.3352
G0 X40.7450 Y-22.5482 
G0 Z0.3352
G0 X40.7450 Y-22.9116 
G1 X40.7450 Y-22.9116 Z0.2352 F21.
G1 X40.7450 Y-22.7982 Z0.2152
G1 X40.7450 Y-22.2321 Z0.2152 F22.
G2X40.1200Y-22.3942Z0.2152I-0.6243J1.1212
G1 X40.1200 Y-23.2020 Z0.2152
G2X40.7450Y-23.3641Z0.2152I0.0051J-1.2666
G1 X40.7450 Y-22.7982 Z0.2152
G1 X40.7450 Y-22.5482 Z0.2152
G0 Z0.3236
G0 X40.7450 Y-22.5482 
G0 Z0.3236
G0 X40.7450 Y-22.9116 
G1 X40.7450 Y-22.9116 Z0.2236 F21.
G1 X40.7450 Y-22.7982 Z0.2036
G1 X40.7450 Y-22.2321 Z0.2036 F22.
G2X40.1200Y-22.3942Z0.2036I-0.6243J1.1212
G1 X40.1200 Y-23.2020 Z0.2036
G2X40.7450Y-23.3641Z0.2036I0.0051J-1.2666
G1 X40.7450 Y-22.7982 Z0.2036
G1 X40.7450 Y-22.5482 Z0.2036
G0 Z0.3120
G0 X40.7450 Y-22.5482 
G0 Z0.3120
G0 X40.7450 Y-22.9116 
G1 X40.7450 Y-22.9116 Z0.2120 F21.
G1 X40.7450 Y-22.7982 Z0.1920
G1 X40.7450 Y-22.2321 Z0.1920 F22.
G2X40.1200Y-22.3942Z0.1920I-0.6243J1.1212
G1 X40.1200 Y-23.2020 Z0.1920
G2X40.7450Y-23.3641Z0.1920I0.0051J-1.2666
G1 X40.7450 Y-22.7982 Z0.1920
G1 X40.7450 Y-22.5482 Z0.1920
G0 Z0.3495
G0 X40.7450 Y-22.5482 
G0 Z0.3495
G0 X43.1540 Y-22.9116 
G1 X43.1540 Y-22.9116 Z0.2584 F21.
G1 X43.1540 Y-22.7982 Z0.2384
G1 X43.1540 Y-22.2321 Z0.2384 F22.
G2X42.5290Y-22.3942Z0.2384I-0.6243J1.1212
G1 X42.5290 Y-23.2020 Z0.2384
G2X43.1540Y-23.3641Z0.2384I0.0051J-1.2666
G1 X43.1540 Y-22.7982 Z0.2384
G1 X43.1540 Y-22.5482 Z0.2384
G0 Z0.3468
G0 X43.1540 Y-22.5482 
G0 Z0.3468
G0 X43.1540 Y-22.9116 
G1 X43.1540 Y-22.9116 Z0.2468 F21.
G1 X43.1540 Y-22.7982 Z0.2268
G1 X43.1540 Y-22.2321 Z0.2268 F22.
G2X42.5290Y-22.3942Z0.2268I-0.6243J1.1212
G1 X42.5290 Y-23.2020 Z0.2268
G2X43.1540Y-23.3641Z0.2268I0.0051J-1.2666
G1 X43.1540 Y-22.7982 Z0.2268
G1 X43.1540 Y-22.5482 Z0.2268
G0 Z0.3352
G0 X43.1540 Y-22.5482 
G0 Z0.3352
G0 X43.1540 Y-22.9116 
G1 X43.1540 Y-22.9116 Z0.2352 F21.
G1 X43.1540 Y-22.7982 Z0.2152
G1 X43.1540 Y-22.2321 Z0.2152 F22.
G2X42.5290Y-22.3942Z0.2152I-0.6243J1.1212
G1 X42.5290 Y-23.2020 Z0.2152
G2X43.1540Y-23.3641Z0.2152I0.0051J-1.2666
G1 X43.1540 Y-22.7982 Z0.2152
G1 X43.1540 Y-22.5482 Z0.2152
G0 Z0.3236
G0 X43.1540 Y-22.5482 
G0 Z0.3236
G0 X43.1540 Y-22.9116 
G1 X43.1540 Y-22.9116 Z0.2236 F21.
G1 X43.1540 Y-22.7982 Z0.2036
G1 X43.1540 Y-22.2321 Z0.2036 F22.
G2X42.5290Y-22.3942Z0.2036I-0.6243J1.1212
G1 X42.5290 Y-23.2020 Z0.2036
G2X43.1540Y-23.3641Z0.2036I0.0051J-1.2666
G1 X43.1540 Y-22.7982 Z0.2036
G1 X43.1540 Y-22.5482 Z0.2036
G0 Z0.3120
G0 X43.1540 Y-22.5482 
G0 Z0.3120
G0 X43.1540 Y-22.9116 
G1 X43.1540 Y-22.9116 Z0.2120 F21.
G1 X43.1540 Y-22.7982 Z0.1920
G1 X43.1540 Y-22.2321 Z0.1920 F22.
G2X42.5290Y-22.3942Z0.1920I-0.6243J1.1212
G1 X42.5290 Y-23.2020 Z0.1920
G2X43.1540Y-23.3641Z0.1920I0.0051J-1.2666
G1 X43.1540 Y-22.7982 Z0.1920
G1 X43.1540 Y-22.5482 Z0.1920
G0 Z1.0000
G0 X43.1540 Y-22.5482 
M5
G53 Z
X2Y0
