( MOP:  02-inlay-Trapezoids-idPT06-s25PT5-02 )
( FILE: G:\Shared drives\AlloyProjectFiles\Customer CAD files\Alloy-Standard-Builds-CAM\Fingerboards-in\02-inlay-Trapezoids-idPT06-s25PT5-02.nc)
G90
(  BEGIN TOOL LIST )
(  TOOL 7 - Downcut PT125 - DESC: 0.1250 DIA, 2 FLUTE,  CARBIDE MAT )
(  ENDOF TOOL LIST )
( 02-inlay-Trapezoids-idPT06-s25PT5-02)
T07
S11000
M3
G0 Z1.0000
G0 X27.3831 Y-23.0250 
G1 X27.3831 Y-23.0250 Z0.2320 F75.
G1 X27.3831 Y-22.7982 Z0.1920 F25.
G1 X27.3831 Y-22.1358 Z0.1920 F60.
G17
G2X27.2681Y-22.1756Z0.1920I-0.1758J0.3220
G1 X27.2681 Y-23.4207 Z0.1920
G2X27.3831Y-23.4605Z0.1920I-0.0607J-0.3616
G1 X27.3831 Y-22.7982 Z0.1920
G1 X27.3831 Y-22.5482 Z0.1920
G0 Z0.3495
G0 X27.3831 Y-22.5482 
G0 Z0.3495
G0 X28.6251 Y-23.0250 
G1 X28.6251 Y-23.0250 Z0.2320 F75.
G1 X28.6251 Y-22.7982 Z0.1920 F25.
G1 X28.6251 Y-22.1358 Z0.1920 F60.
G2X28.5101Y-22.1756Z0.1920I-0.1757J0.3220
G1 X28.5101 Y-23.4207 Z0.1920
G2X28.6251Y-23.4605Z0.1920I-0.0607J-0.3616
G1 X28.6251 Y-22.7982 Z0.1920
G1 X28.6251 Y-22.5482 Z0.1920
G0 Z0.3495
G0 X28.6251 Y-22.5482 
G0 Z0.3495
G0 X29.5811 Y-23.0250 
G1 X29.5811 Y-23.0250 Z0.2320 F75.
G1 X29.5811 Y-22.7982 Z0.1920 F25.
G1 X29.5811 Y-22.1358 Z0.1920 F60.
G2X29.4661Y-22.1756Z0.1920I-0.1757J0.3220
G1 X29.4661 Y-23.4207 Z0.1920
G2X29.5811Y-23.4605Z0.1920I-0.0607J-0.3616
G1 X29.5811 Y-22.7982 Z0.1920
G1 X29.5811 Y-22.5482 Z0.1920
G0 Z0.3495
G0 X29.5811 Y-22.5482 
G0 Z0.3495
G0 X30.6542 Y-23.0250 
G1 X30.6542 Y-23.0250 Z0.2320 F75.
G1 X30.6542 Y-22.7982 Z0.1920 F25.
G1 X30.6542 Y-22.1358 Z0.1920 F60.
G2X30.5392Y-22.1756Z0.1920I-0.1757J0.3220
G1 X30.5392 Y-23.4207 Z0.1920
G2X30.6542Y-23.4605Z0.1920I-0.0607J-0.3616
G1 X30.6542 Y-22.7982 Z0.1920
G1 X30.6542 Y-22.5482 Z0.1920
G0 Z0.3495
G0 X30.6542 Y-22.5482 
G0 Z0.3495
G0 X31.9357 Y-23.0250 
G1 X31.9357 Y-23.0250 Z0.2320 F75.
G1 X31.9357 Y-22.7982 Z0.1920 F25.
G1 X31.9357 Y-22.2095 Z0.1920 F60.
G2X31.6667Y-22.3131Z0.1920I-0.3220J0.4349
G1 X31.6667 Y-23.2832 Z0.1920
G2X31.9357Y-23.3868Z0.1920I-0.0530J-0.5385
G1 X31.9357 Y-22.7982 Z0.1920
G1 X31.9357 Y-22.5482 Z0.1920
G0 Z0.3495
G0 X31.9357 Y-22.5482 
G0 Z0.3495
G0 X34.0246 Y-23.0250 
G1 X34.0246 Y-23.0250 Z0.2320 F75.
G1 X34.0246 Y-22.7982 Z0.1920 F25.
G1 X34.0246 Y-22.2095 Z0.1920 F60.
G2X33.7556Y-22.3131Z0.1920I-0.3220J0.4349
G1 X33.7556 Y-23.2832 Z0.1920
G2X34.0246Y-23.3868Z0.1920I-0.0530J-0.5385
G1 X34.0246 Y-22.7982 Z0.1920
G1 X34.0246 Y-22.5482 Z0.1920
G0 Z0.3495
G0 X34.0246 Y-22.5482 
G0 Z0.3495
G0 X36.1767 Y-22.5713 
G1 X36.1767 Y-22.5713 Z0.2320 F75.
G1 X36.1767 Y-22.7982 Z0.1920 F25.
G1 X36.1767 Y-23.2187 Z0.1920 F60.
G2X36.5717Y-23.3416Z0.1920I-0.0525J-0.8645
G1 X36.5717 Y-22.2547 Z0.1920
G2X36.1767Y-22.3776Z0.1920I-0.4475J0.7416
G1 X36.1767 Y-22.7982 Z0.1920
G1 X36.1767 Y-23.0482 Z0.1920
G0 Z0.3495
G0 X36.1767 Y-23.0482 
G0 Z0.3495
G0 X38.4838 Y-23.0250 
G1 X38.4838 Y-23.0250 Z0.2320 F75.
G1 X38.4838 Y-22.7982 Z0.1920 F25.
G1 X38.4838 Y-22.2547 Z0.1920 F60.
G2X38.0888Y-22.3776Z0.1920I-0.4475J0.7416
G1 X38.0888 Y-23.2187 Z0.1920
G2X38.4838Y-23.3416Z0.1920I-0.0525J-0.8645
G1 X38.4838 Y-22.7982 Z0.1920
G1 X38.4838 Y-22.5482 Z0.1920
G0 Z0.3495
G0 X38.4838 Y-22.5482 
G0 Z0.3495
G0 X40.6950 Y-23.0250 
G1 X40.6950 Y-23.0250 Z0.2320 F75.
G1 X40.6950 Y-22.7982 Z0.1920 F25.
G1 X40.6950 Y-22.3142 Z0.1920 F60.
G2X40.1700Y-22.4433Z0.1920I-0.5743J1.2033
G1 X40.1700 Y-23.1528 Z0.1920
G2X40.6950Y-23.2818Z0.1920I-0.0449J-1.3158
G1 X40.6950 Y-22.7982 Z0.1920
G1 X40.6950 Y-22.5482 Z0.1920
G0 Z0.3495
G0 X40.6950 Y-22.5482 
G0 Z0.3495
G0 X43.1040 Y-23.0250 
G1 X43.1040 Y-23.0250 Z0.2320 F75.
G1 X43.1040 Y-22.7982 Z0.1920 F25.
G1 X43.1040 Y-22.3142 Z0.1920 F60.
G2X42.5790Y-22.4433Z0.1920I-0.5743J1.2033
G1 X42.5790 Y-23.1528 Z0.1920
G2X43.1040Y-23.2818Z0.1920I-0.0449J-1.3158
G1 X43.1040 Y-22.7982 Z0.1920
G1 X43.1040 Y-22.5482 Z0.1920
G0 Z1.0000
G0 X43.1040 Y-22.5482 
M5
G53 Z
X2Y0
