( MOP:  02-inlay-RectanglesNoTwelveth-idPT06-s25PT5-02 )
( FILE: G:\Shared drives\AlloyProjectFiles\Customer CAD files\Alloy-Standard-Builds-CAM\Fingerboards-in\02-inlay-RectanglesNoTwelveth-idPT06-s25PT5-02.nc)
G90
(  BEGIN TOOL LIST )
(  TOOL 7 - Downcut PT125 - DESC: 0.1250 DIA, 2 FLUTE,  CARBIDE MAT )
(  ENDOF TOOL LIST )
( 02-inlay-RectanglesNoTwelveth-idPT06-s25PT5-02)
T07
S11000
M3
G0 Z4.0000
G0 X27.8216 Y-22.5713 
G1 X27.8216 Y-22.5713 Z0.2300 F75.
G1 X27.8216 Y-22.7982 Z0.1900 F25.
G1 X27.8216 Y-23.4062 Z0.1900 F60.
G1 X27.9436 Y-23.4062 Z0.1900
G1 X27.9436 Y-22.1902 Z0.1900
G1 X27.8216 Y-22.1902 Z0.1900
G1 X27.8216 Y-22.7982 Z0.1900
G1 X27.8216 Y-23.0482 Z0.1900
G0 Z0.3300
G0 X27.8216 Y-23.0482 
G0 Z0.3300
G0 X29.0271 Y-22.5713 
G1 X29.0271 Y-22.5713 Z0.2300 F75.
G1 X29.0271 Y-22.7982 Z0.1900 F25.
G1 X29.0271 Y-23.4062 Z0.1900 F60.
G1 X29.1491 Y-23.4062 Z0.1900
G1 X29.1491 Y-22.1902 Z0.1900
G1 X29.0271 Y-22.1902 Z0.1900
G1 X29.0271 Y-22.7982 Z0.1900
G1 X29.0271 Y-23.0482 Z0.1900
G0 Z0.3300
G0 X29.0271 Y-23.0482 
G0 Z0.3300
G0 X29.9510 Y-22.5726 
G1 X29.9510 Y-22.5726 Z0.2300 F75.
G1 X29.9510 Y-22.7994 Z0.1900 F25.
G1 X29.9510 Y-23.3724 Z0.1900 F60.
G1 X30.0810 Y-23.3724 Z0.1900
G1 X30.0810 Y-22.2264 Z0.1900
G1 X29.9510 Y-22.2264 Z0.1900
G1 X29.9510 Y-22.7994 Z0.1900
G1 X29.9510 Y-23.0494 Z0.1900
G0 Z0.3300
G0 X29.9510 Y-23.0494 
G0 Z0.3300
G0 X30.9855 Y-22.5726 
G1 X30.9855 Y-22.5726 Z0.2300 F75.
G1 X30.9855 Y-22.7995 Z0.1900 F25.
G1 X30.9855 Y-23.3690 Z0.1900 F60.
G1 X31.1295 Y-23.3690 Z0.1900
G1 X31.1295 Y-22.2300 Z0.1900
G1 X30.9855 Y-22.2300 Z0.1900
G1 X30.9855 Y-22.7995 Z0.1900
G1 X30.9855 Y-23.0495 Z0.1900
G0 Z0.3300
G0 X30.9855 Y-23.0495 
G0 Z0.3300
G0 X32.1146 Y-22.5725 
G1 X32.1146 Y-22.5725 Z0.2300 F75.
G1 X32.1146 Y-22.7994 Z0.1900 F25.
G1 X32.1146 Y-23.3524 Z0.1900 F60.
G1 X32.3386 Y-23.3524 Z0.1900
G1 X32.3386 Y-22.2464 Z0.1900
G1 X32.1146 Y-22.2464 Z0.1900
G1 X32.1146 Y-22.7994 Z0.1900
G1 X32.1146 Y-23.0494 Z0.1900
G0 Z0.3300
G0 X32.1146 Y-23.0494 
G0 Z0.3300
G0 X36.4359 Y-22.5726 
G1 X36.4359 Y-22.5726 Z0.2300 F75.
G1 X36.4359 Y-22.7994 Z0.1900 F25.
G1 X36.4359 Y-23.2859 Z0.1900 F60.
G1 X36.9109 Y-23.2859 Z0.1900
G1 X36.9109 Y-22.3129 Z0.1900
G1 X36.4359 Y-22.3129 Z0.1900
G1 X36.4359 Y-22.7994 Z0.1900
G1 X36.4359 Y-23.0494 Z0.1900
G0 Z0.3300
G0 X36.4359 Y-23.0494 
G0 Z0.3300
G0 X38.2209 Y-22.5720 
G1 X38.2209 Y-22.5720 Z0.2300 F75.
G1 X38.2209 Y-22.7989 Z0.1900 F25.
G1 X38.2209 Y-23.2614 Z0.1900 F60.
G1 X38.8209 Y-23.2614 Z0.1900
G1 X38.8209 Y-22.3364 Z0.1900
G1 X38.2209 Y-22.3364 Z0.1900
G1 X38.2209 Y-22.7989 Z0.1900
G1 X38.2209 Y-23.0489 Z0.1900
G0 Z0.3300
G0 X38.2209 Y-23.0489 
G0 Z0.3300
G0 X40.2474 Y-22.5722 
G1 X40.2474 Y-22.5722 Z0.2300 F75.
G1 X40.2474 Y-22.7991 Z0.1900 F25.
G1 X40.2474 Y-23.2236 Z0.1900 F60.
G1 X40.9604 Y-23.2236 Z0.1900
G1 X40.9604 Y-22.3746 Z0.1900
G1 X40.2474 Y-22.3746 Z0.1900
G1 X40.2474 Y-22.7991 Z0.1900
G1 X40.2474 Y-23.0491 Z0.1900
G0 Z0.3300
G0 X40.2474 Y-23.0491 
G0 Z0.3300
G0 X42.7152 Y-23.1975 
G1 X42.7152 Y-23.1975 Z0.2300 F75.
G1 X42.9421 Y-23.1975 Z0.1900 F25.
G1 X43.3606 Y-23.1975 Z0.1900 F60.
G1 X43.3606 Y-22.4005 Z0.1900
G1 X42.5236 Y-22.4005 Z0.1900
G1 X42.5236 Y-23.1975 Z0.1900
G1 X42.9421 Y-23.1975 Z0.1900
G1 X43.1921 Y-23.1975 Z0.1900
G0 Z0.3300
G0 X43.1921 Y-23.1975 
G0 Z0.3300
G0 X45.3397 Y-23.1623 
G1 X45.3397 Y-23.1623 Z0.2300 F75.
G1 X45.5666 Y-23.1623 Z0.1900 F25.
G1 X46.0366 Y-23.1623 Z0.1900 F60.
G1 X46.0366 Y-22.4343 Z0.1900
G1 X45.0966 Y-22.4343 Z0.1900
G1 X45.0966 Y-23.1623 Z0.1900
G1 X45.5666 Y-23.1623 Z0.1900
G1 X45.8166 Y-23.1623 Z0.1900
G0 Z4.0000
G0 X45.8166 Y-23.1623 
M5
G53 Z
X2Y0
