( MOP:  02-inlay-McSwainHex-idPT081-s24PT625-01 )
( FILE: G:\Shared drives\AlloyProjectFiles\Customer CAD files\Alloy-Standard-Builds-CAM\Fingerboards-in\02-inlay-McSwainHex-idPT081-s24PT625-01.nc)
G90
(  BEGIN TOOL LIST )
(  TOOL 15 - Fretkerf PT025 - DESC: 0.0250 DIA, 2 FLUTE,  CARBIDE MAT )
(  ENDOF TOOL LIST )
( 02-inlay-McSwainHex-idPT081-s24PT625-01)
T15
S14000
M3
G0 Z3.0000
G0 X29.0766 Y-22.8144 
G1 X29.0766 Y-22.8144 Z0.2534 F21.
G1 X29.0778 Y-22.8144 Z0.2527
G1 X29.0789 Y-22.8143 Z0.2519
G1 X29.0801 Y-22.8140 Z0.2512
G1 X29.0812 Y-22.8137 Z0.2504
G1 X29.0823 Y-22.8133 Z0.2497
G1 X29.0834 Y-22.8128 Z0.2489
G1 X29.0844 Y-22.8122 Z0.2482
G1 X29.0854 Y-22.8116 Z0.2474
G1 X29.0863 Y-22.8108 Z0.2467
G1 X29.0872 Y-22.8100 Z0.2459
G1 X29.0880 Y-22.8092 Z0.2452
G1 X29.0887 Y-22.8083 Z0.2444
G1 X29.0894 Y-22.8073 Z0.2437
G1 X29.0900 Y-22.8062 Z0.2429
G1 X29.0905 Y-22.8052 Z0.2422
G1 X29.0909 Y-22.8041 Z0.2414
G1 X29.0912 Y-22.8029 Z0.2407
G1 X29.0914 Y-22.8018 Z0.2399
G1 X29.0916 Y-22.8006 Z0.2392
G1 X29.0916 Y-22.7994 Z0.2384
G17
G2X29.2560Y-22.7994Z0.2384I0.0822J0.0000 F22.
G2X29.0916Y-22.7994Z0.2384I-0.0822J0.0000
G2X29.2362Y-22.7460Z0.2384I0.0822J0.0000
G0 Z0.3669
G0 X29.2362 Y-22.7460 
G0 Z0.3669
G0 X29.0766 Y-22.8144 
G1 X29.0766 Y-22.8144 Z0.2419 F21.
G1 X29.0778 Y-22.8144 Z0.2411
G1 X29.0789 Y-22.8143 Z0.2404
G1 X29.0801 Y-22.8140 Z0.2396
G1 X29.0812 Y-22.8137 Z0.2389
G1 X29.0823 Y-22.8133 Z0.2381
G1 X29.0834 Y-22.8128 Z0.2374
G1 X29.0844 Y-22.8122 Z0.2366
G1 X29.0854 Y-22.8116 Z0.2359
G1 X29.0863 Y-22.8108 Z0.2351
G1 X29.0872 Y-22.8100 Z0.2344
G1 X29.0880 Y-22.8092 Z0.2336
G1 X29.0887 Y-22.8083 Z0.2329
G1 X29.0894 Y-22.8073 Z0.2321
G1 X29.0900 Y-22.8062 Z0.2314
G1 X29.0905 Y-22.8052 Z0.2306
G1 X29.0909 Y-22.8041 Z0.2299
G1 X29.0912 Y-22.8029 Z0.2291
G1 X29.0914 Y-22.8018 Z0.2284
G1 X29.0916 Y-22.8006 Z0.2276
G1 X29.0916 Y-22.7994 Z0.2269
G2X29.2560Y-22.7994Z0.2269I0.0822J0.0000 F22.
G2X29.0916Y-22.7994Z0.2269I-0.0822J0.0000
G2X29.2362Y-22.7460Z0.2269I0.0822J0.0000
G0 Z0.3553
G0 X29.2362 Y-22.7460 
G0 Z0.3553
G0 X29.0766 Y-22.8144 
G1 X29.0766 Y-22.8144 Z0.2303 F21.
G1 X29.0778 Y-22.8144 Z0.2295
G1 X29.0789 Y-22.8143 Z0.2288
G1 X29.0801 Y-22.8140 Z0.2280
G1 X29.0812 Y-22.8137 Z0.2273
G1 X29.0823 Y-22.8133 Z0.2265
G1 X29.0834 Y-22.8128 Z0.2258
G1 X29.0844 Y-22.8122 Z0.2250
G1 X29.0854 Y-22.8116 Z0.2243
G1 X29.0863 Y-22.8108 Z0.2235
G1 X29.0872 Y-22.8100 Z0.2228
G1 X29.0880 Y-22.8092 Z0.2220
G1 X29.0887 Y-22.8083 Z0.2213
G1 X29.0894 Y-22.8073 Z0.2205
G1 X29.0900 Y-22.8062 Z0.2198
G1 X29.0905 Y-22.8052 Z0.2190
G1 X29.0909 Y-22.8041 Z0.2183
G1 X29.0912 Y-22.8029 Z0.2175
G1 X29.0914 Y-22.8018 Z0.2168
G1 X29.0916 Y-22.8006 Z0.2160
G1 X29.0916 Y-22.7994 Z0.2153
G2X29.2560Y-22.7994Z0.2153I0.0822J0.0000 F22.
G2X29.0916Y-22.7994Z0.2153I-0.0822J0.0000
G2X29.2362Y-22.7460Z0.2153I0.0822J0.0000
G0 Z0.3437
G0 X29.2362 Y-22.7460 
G0 Z0.3437
G0 X29.0766 Y-22.8144 
G1 X29.0766 Y-22.8144 Z0.2187 F21.
G1 X29.0778 Y-22.8144 Z0.2180
G1 X29.0789 Y-22.8143 Z0.2172
G1 X29.0801 Y-22.8140 Z0.2165
G1 X29.0812 Y-22.8137 Z0.2157
G1 X29.0823 Y-22.8133 Z0.2150
G1 X29.0834 Y-22.8128 Z0.2142
G1 X29.0844 Y-22.8122 Z0.2135
G1 X29.0854 Y-22.8116 Z0.2127
G1 X29.0863 Y-22.8108 Z0.2120
G1 X29.0872 Y-22.8100 Z0.2112
G1 X29.0880 Y-22.8092 Z0.2105
G1 X29.0887 Y-22.8083 Z0.2097
G1 X29.0894 Y-22.8073 Z0.2090
G1 X29.0900 Y-22.8062 Z0.2082
G1 X29.0905 Y-22.8052 Z0.2075
G1 X29.0909 Y-22.8041 Z0.2067
G1 X29.0912 Y-22.8029 Z0.2060
G1 X29.0914 Y-22.8018 Z0.2052
G1 X29.0916 Y-22.8006 Z0.2045
G1 X29.0916 Y-22.7994 Z0.2037
G2X29.2560Y-22.7994Z0.2037I0.0822J0.0000 F22.
G2X29.0916Y-22.7994Z0.2037I-0.0822J0.0000
G2X29.2362Y-22.7460Z0.2037I0.0822J0.0000
G0 Z0.3321
G0 X29.2362 Y-22.7460 
G0 Z0.3321
G0 X29.0766 Y-22.8144 
G1 X29.0766 Y-22.8144 Z0.2071 F21.
G1 X29.0778 Y-22.8144 Z0.2064
G1 X29.0789 Y-22.8143 Z0.2056
G1 X29.0801 Y-22.8140 Z0.2049
G1 X29.0812 Y-22.8137 Z0.2041
G1 X29.0823 Y-22.8133 Z0.2034
G1 X29.0834 Y-22.8128 Z0.2026
G1 X29.0844 Y-22.8122 Z0.2019
G1 X29.0854 Y-22.8116 Z0.2011
G1 X29.0863 Y-22.8108 Z0.2004
G1 X29.0872 Y-22.8100 Z0.1996
G1 X29.0880 Y-22.8092 Z0.1989
G1 X29.0887 Y-22.8083 Z0.1981
G1 X29.0894 Y-22.8073 Z0.1974
G1 X29.0900 Y-22.8062 Z0.1966
G1 X29.0905 Y-22.8052 Z0.1959
G1 X29.0909 Y-22.8041 Z0.1951
G1 X29.0912 Y-22.8029 Z0.1944
G1 X29.0914 Y-22.8018 Z0.1936
G1 X29.0916 Y-22.8006 Z0.1929
G1 X29.0916 Y-22.7994 Z0.1921
G2X29.2560Y-22.7994Z0.1921I0.0822J0.0000 F22.
G2X29.0916Y-22.7994Z0.1921I-0.0822J0.0000
G2X29.2362Y-22.7460Z0.1921I0.0822J0.0000
G0 Z0.3206
G0 X29.2362 Y-22.7460 
G0 Z0.3206
G0 X29.0766 Y-22.8144 
G1 X29.0766 Y-22.8144 Z0.1956 F21.
G1 X29.0778 Y-22.8144 Z0.1948
G1 X29.0789 Y-22.8143 Z0.1941
G1 X29.0801 Y-22.8140 Z0.1933
G1 X29.0812 Y-22.8137 Z0.1926
G1 X29.0823 Y-22.8133 Z0.1918
G1 X29.0834 Y-22.8128 Z0.1911
G1 X29.0844 Y-22.8122 Z0.1903
G1 X29.0854 Y-22.8116 Z0.1896
G1 X29.0863 Y-22.8108 Z0.1888
G1 X29.0872 Y-22.8100 Z0.1881
G1 X29.0880 Y-22.8092 Z0.1873
G1 X29.0887 Y-22.8083 Z0.1866
G1 X29.0894 Y-22.8073 Z0.1858
G1 X29.0900 Y-22.8062 Z0.1851
G1 X29.0905 Y-22.8052 Z0.1843
G1 X29.0909 Y-22.8041 Z0.1836
G1 X29.0912 Y-22.8029 Z0.1828
G1 X29.0914 Y-22.8018 Z0.1821
G1 X29.0916 Y-22.8006 Z0.1813
G1 X29.0916 Y-22.7994 Z0.1806
G2X29.2560Y-22.7994Z0.1806I0.0822J0.0000 F22.
G2X29.0916Y-22.7994Z0.1806I-0.0822J0.0000
G2X29.2362Y-22.7460Z0.1806I0.0822J0.0000
G0 Z0.3090
G0 X29.2362 Y-22.7460 
G0 Z0.3090
G0 X29.0766 Y-22.8144 
G1 X29.0766 Y-22.8144 Z0.1840 F21.
G1 X29.0778 Y-22.8144 Z0.1832
G1 X29.0789 Y-22.8143 Z0.1825
G1 X29.0801 Y-22.8140 Z0.1817
G1 X29.0812 Y-22.8137 Z0.1810
G1 X29.0823 Y-22.8133 Z0.1802
G1 X29.0834 Y-22.8128 Z0.1795
G1 X29.0844 Y-22.8122 Z0.1787
G1 X29.0854 Y-22.8116 Z0.1780
G1 X29.0863 Y-22.8108 Z0.1772
G1 X29.0872 Y-22.8100 Z0.1765
G1 X29.0880 Y-22.8092 Z0.1757
G1 X29.0887 Y-22.8083 Z0.1750
G1 X29.0894 Y-22.8073 Z0.1742
G1 X29.0900 Y-22.8062 Z0.1735
G1 X29.0905 Y-22.8052 Z0.1727
G1 X29.0909 Y-22.8041 Z0.1720
G1 X29.0912 Y-22.8029 Z0.1712
G1 X29.0914 Y-22.8018 Z0.1705
G1 X29.0916 Y-22.8006 Z0.1697
G1 X29.0916 Y-22.7994 Z0.1690
G2X29.2560Y-22.7994Z0.1690I0.0822J0.0000 F22.
G2X29.0916Y-22.7994Z0.1690I-0.0822J0.0000
G2X29.2362Y-22.7460Z0.1690I0.0822J0.0000
G0 Z0.3784
G0 X29.2362 Y-22.7460 
G0 Z0.3784
G0 X29.1446 Y-22.7189 
G1 X29.1446 Y-22.7189 Z0.2534 F21.
G1 X29.1439 Y-22.7179 Z0.2527
G1 X29.1432 Y-22.7170 Z0.2519
G1 X29.1424 Y-22.7161 Z0.2512
G1 X29.1416 Y-22.7153 Z0.2504
G1 X29.1407 Y-22.7145 Z0.2497
G1 X29.1397 Y-22.7139 Z0.2489
G1 X29.1387 Y-22.7133 Z0.2482
G1 X29.1377 Y-22.7127 Z0.2474
G1 X29.1366 Y-22.7123 Z0.2467
G1 X29.1354 Y-22.7120 Z0.2459
G1 X29.1343 Y-22.7117 Z0.2452
G1 X29.1331 Y-22.7115 Z0.2444
G1 X29.1319 Y-22.7115 Z0.2437
G1 X29.1308 Y-22.7115 Z0.2429
G1 X29.1296 Y-22.7116 Z0.2422
G1 X29.1284 Y-22.7118 Z0.2414
G1 X29.1273 Y-22.7121 Z0.2407
G1 X29.1262 Y-22.7125 Z0.2399
G1 X29.1251 Y-22.7129 Z0.2392
G1 X29.1241 Y-22.7135 Z0.2384
G1 X29.0743 Y-22.7424 Z0.2384 F22.
G1 X29.0743 Y-22.8573 Z0.2384
G1 X29.1738 Y-22.9143 Z0.2384
G1 X29.2726 Y-22.8573 Z0.2384
G1 X29.2726 Y-22.7424 Z0.2384
G1 X29.1738 Y-22.6846 Z0.2384
G1 X29.1241 Y-22.7135 Z0.2384
G1 X29.0743 Y-22.7424 Z0.2384
G1 X29.0743 Y-22.8573 Z0.2384
G1 X29.0982 Y-22.8710 Z0.2384
G0 Z0.3669
G0 X29.0982 Y-22.8710 
G0 Z0.3669
G0 X29.1446 Y-22.7189 
G1 X29.1446 Y-22.7189 Z0.2419 F21.
G1 X29.1439 Y-22.7179 Z0.2411
G1 X29.1432 Y-22.7170 Z0.2404
G1 X29.1424 Y-22.7161 Z0.2396
G1 X29.1416 Y-22.7153 Z0.2389
G1 X29.1407 Y-22.7145 Z0.2381
G1 X29.1397 Y-22.7139 Z0.2374
G1 X29.1387 Y-22.7133 Z0.2366
G1 X29.1377 Y-22.7127 Z0.2359
G1 X29.1366 Y-22.7123 Z0.2351
G1 X29.1354 Y-22.7120 Z0.2344
G1 X29.1343 Y-22.7117 Z0.2336
G1 X29.1331 Y-22.7115 Z0.2329
G1 X29.1319 Y-22.7115 Z0.2321
G1 X29.1308 Y-22.7115 Z0.2314
G1 X29.1296 Y-22.7116 Z0.2306
G1 X29.1284 Y-22.7118 Z0.2299
G1 X29.1273 Y-22.7121 Z0.2291
G1 X29.1262 Y-22.7125 Z0.2284
G1 X29.1251 Y-22.7129 Z0.2276
G1 X29.1241 Y-22.7135 Z0.2269
G1 X29.0743 Y-22.7424 Z0.2269 F22.
G1 X29.0743 Y-22.8573 Z0.2269
G1 X29.1738 Y-22.9143 Z0.2269
G1 X29.2726 Y-22.8573 Z0.2269
G1 X29.2726 Y-22.7424 Z0.2269
G1 X29.1738 Y-22.6846 Z0.2269
G1 X29.1241 Y-22.7135 Z0.2269
G1 X29.0743 Y-22.7424 Z0.2269
G1 X29.0743 Y-22.8573 Z0.2269
G1 X29.0982 Y-22.8710 Z0.2269
G0 Z0.3553
G0 X29.0982 Y-22.8710 
G0 Z0.3553
G0 X29.1446 Y-22.7189 
G1 X29.1446 Y-22.7189 Z0.2303 F21.
G1 X29.1439 Y-22.7179 Z0.2295
G1 X29.1432 Y-22.7170 Z0.2288
G1 X29.1424 Y-22.7161 Z0.2280
G1 X29.1416 Y-22.7153 Z0.2273
G1 X29.1407 Y-22.7145 Z0.2265
G1 X29.1397 Y-22.7139 Z0.2258
G1 X29.1387 Y-22.7133 Z0.2250
G1 X29.1377 Y-22.7127 Z0.2243
G1 X29.1366 Y-22.7123 Z0.2235
G1 X29.1354 Y-22.7120 Z0.2228
G1 X29.1343 Y-22.7117 Z0.2220
G1 X29.1331 Y-22.7115 Z0.2213
G1 X29.1319 Y-22.7115 Z0.2205
G1 X29.1308 Y-22.7115 Z0.2198
G1 X29.1296 Y-22.7116 Z0.2190
G1 X29.1284 Y-22.7118 Z0.2183
G1 X29.1273 Y-22.7121 Z0.2175
G1 X29.1262 Y-22.7125 Z0.2168
G1 X29.1251 Y-22.7129 Z0.2160
G1 X29.1241 Y-22.7135 Z0.2153
G1 X29.0743 Y-22.7424 Z0.2153 F22.
G1 X29.0743 Y-22.8573 Z0.2153
G1 X29.1738 Y-22.9143 Z0.2153
G1 X29.2726 Y-22.8573 Z0.2153
G1 X29.2726 Y-22.7424 Z0.2153
G1 X29.1738 Y-22.6846 Z0.2153
G1 X29.1241 Y-22.7135 Z0.2153
G1 X29.0743 Y-22.7424 Z0.2153
G1 X29.0743 Y-22.8573 Z0.2153
G1 X29.0982 Y-22.8710 Z0.2153
G0 Z0.3437
G0 X29.0982 Y-22.8710 
G0 Z0.3437
G0 X29.1446 Y-22.7189 
G1 X29.1446 Y-22.7189 Z0.2187 F21.
G1 X29.1439 Y-22.7179 Z0.2180
G1 X29.1432 Y-22.7170 Z0.2172
G1 X29.1424 Y-22.7161 Z0.2165
G1 X29.1416 Y-22.7153 Z0.2157
G1 X29.1407 Y-22.7145 Z0.2150
G1 X29.1397 Y-22.7139 Z0.2142
G1 X29.1387 Y-22.7133 Z0.2135
G1 X29.1377 Y-22.7127 Z0.2127
G1 X29.1366 Y-22.7123 Z0.2120
G1 X29.1354 Y-22.7120 Z0.2112
G1 X29.1343 Y-22.7117 Z0.2105
G1 X29.1331 Y-22.7115 Z0.2097
G1 X29.1319 Y-22.7115 Z0.2090
G1 X29.1308 Y-22.7115 Z0.2082
G1 X29.1296 Y-22.7116 Z0.2075
G1 X29.1284 Y-22.7118 Z0.2067
G1 X29.1273 Y-22.7121 Z0.2060
G1 X29.1262 Y-22.7125 Z0.2052
G1 X29.1251 Y-22.7129 Z0.2045
G1 X29.1241 Y-22.7135 Z0.2037
G1 X29.0743 Y-22.7424 Z0.2037 F22.
G1 X29.0743 Y-22.8573 Z0.2037
G1 X29.1738 Y-22.9143 Z0.2037
G1 X29.2726 Y-22.8573 Z0.2037
G1 X29.2726 Y-22.7424 Z0.2037
G1 X29.1738 Y-22.6846 Z0.2037
G1 X29.1241 Y-22.7135 Z0.2037
G1 X29.0743 Y-22.7424 Z0.2037
G1 X29.0743 Y-22.8573 Z0.2037
G1 X29.0982 Y-22.8710 Z0.2037
G0 Z0.3321
G0 X29.0982 Y-22.8710 
G0 Z0.3321
G0 X29.1446 Y-22.7189 
G1 X29.1446 Y-22.7189 Z0.2071 F21.
G1 X29.1439 Y-22.7179 Z0.2064
G1 X29.1432 Y-22.7170 Z0.2056
G1 X29.1424 Y-22.7161 Z0.2049
G1 X29.1416 Y-22.7153 Z0.2041
G1 X29.1407 Y-22.7145 Z0.2034
G1 X29.1397 Y-22.7139 Z0.2026
G1 X29.1387 Y-22.7133 Z0.2019
G1 X29.1377 Y-22.7127 Z0.2011
G1 X29.1366 Y-22.7123 Z0.2004
G1 X29.1354 Y-22.7120 Z0.1996
G1 X29.1343 Y-22.7117 Z0.1989
G1 X29.1331 Y-22.7115 Z0.1981
G1 X29.1319 Y-22.7115 Z0.1974
G1 X29.1308 Y-22.7115 Z0.1966
G1 X29.1296 Y-22.7116 Z0.1959
G1 X29.1284 Y-22.7118 Z0.1951
G1 X29.1273 Y-22.7121 Z0.1944
G1 X29.1262 Y-22.7125 Z0.1936
G1 X29.1251 Y-22.7129 Z0.1929
G1 X29.1241 Y-22.7135 Z0.1921
G1 X29.0743 Y-22.7424 Z0.1921 F22.
G1 X29.0743 Y-22.8573 Z0.1921
G1 X29.1738 Y-22.9143 Z0.1921
G1 X29.2726 Y-22.8573 Z0.1921
G1 X29.2726 Y-22.7424 Z0.1921
G1 X29.1738 Y-22.6846 Z0.1921
G1 X29.1241 Y-22.7135 Z0.1921
G1 X29.0743 Y-22.7424 Z0.1921
G1 X29.0743 Y-22.8573 Z0.1921
G1 X29.0982 Y-22.8710 Z0.1921
G0 Z0.3206
G0 X29.0982 Y-22.8710 
G0 Z0.3206
G0 X29.1446 Y-22.7189 
G1 X29.1446 Y-22.7189 Z0.1956 F21.
G1 X29.1439 Y-22.7179 Z0.1948
G1 X29.1432 Y-22.7170 Z0.1941
G1 X29.1424 Y-22.7161 Z0.1933
G1 X29.1416 Y-22.7153 Z0.1926
G1 X29.1407 Y-22.7145 Z0.1918
G1 X29.1397 Y-22.7139 Z0.1911
G1 X29.1387 Y-22.7133 Z0.1903
G1 X29.1377 Y-22.7127 Z0.1896
G1 X29.1366 Y-22.7123 Z0.1888
G1 X29.1354 Y-22.7120 Z0.1881
G1 X29.1343 Y-22.7117 Z0.1873
G1 X29.1331 Y-22.7115 Z0.1866
G1 X29.1319 Y-22.7115 Z0.1858
G1 X29.1308 Y-22.7115 Z0.1851
G1 X29.1296 Y-22.7116 Z0.1843
G1 X29.1284 Y-22.7118 Z0.1836
G1 X29.1273 Y-22.7121 Z0.1828
G1 X29.1262 Y-22.7125 Z0.1821
G1 X29.1251 Y-22.7129 Z0.1813
G1 X29.1241 Y-22.7135 Z0.1806
G1 X29.0743 Y-22.7424 Z0.1806 F22.
G1 X29.0743 Y-22.8573 Z0.1806
G1 X29.1738 Y-22.9143 Z0.1806
G1 X29.2726 Y-22.8573 Z0.1806
G1 X29.2726 Y-22.7424 Z0.1806
G1 X29.1738 Y-22.6846 Z0.1806
G1 X29.1241 Y-22.7135 Z0.1806
G1 X29.0743 Y-22.7424 Z0.1806
G1 X29.0743 Y-22.8573 Z0.1806
G1 X29.0982 Y-22.8710 Z0.1806
G0 Z0.3090
G0 X29.0982 Y-22.8710 
G0 Z0.3090
G0 X29.1446 Y-22.7189 
G1 X29.1446 Y-22.7189 Z0.1840 F21.
G1 X29.1439 Y-22.7179 Z0.1832
G1 X29.1432 Y-22.7170 Z0.1825
G1 X29.1424 Y-22.7161 Z0.1817
G1 X29.1416 Y-22.7153 Z0.1810
G1 X29.1407 Y-22.7145 Z0.1802
G1 X29.1397 Y-22.7139 Z0.1795
G1 X29.1387 Y-22.7133 Z0.1787
G1 X29.1377 Y-22.7127 Z0.1780
G1 X29.1366 Y-22.7123 Z0.1772
G1 X29.1354 Y-22.7120 Z0.1765
G1 X29.1343 Y-22.7117 Z0.1757
G1 X29.1331 Y-22.7115 Z0.1750
G1 X29.1319 Y-22.7115 Z0.1742
G1 X29.1308 Y-22.7115 Z0.1735
G1 X29.1296 Y-22.7116 Z0.1727
G1 X29.1284 Y-22.7118 Z0.1720
G1 X29.1273 Y-22.7121 Z0.1712
G1 X29.1262 Y-22.7125 Z0.1705
G1 X29.1251 Y-22.7129 Z0.1697
G1 X29.1241 Y-22.7135 Z0.1690
G1 X29.0743 Y-22.7424 Z0.1690 F22.
G1 X29.0743 Y-22.8573 Z0.1690
G1 X29.1738 Y-22.9143 Z0.1690
G1 X29.2726 Y-22.8573 Z0.1690
G1 X29.2726 Y-22.7424 Z0.1690
G1 X29.1738 Y-22.6846 Z0.1690
G1 X29.1241 Y-22.7135 Z0.1690
G1 X29.0743 Y-22.7424 Z0.1690
G1 X29.0743 Y-22.8573 Z0.1690
G1 X29.0982 Y-22.8710 Z0.1690
G0 Z0.3784
G0 X29.0982 Y-22.8710 
G0 Z0.3784
G0 X29.9892 Y-22.8144 
G1 X29.9892 Y-22.8144 Z0.2534 F21.
G1 X29.9903 Y-22.8144 Z0.2527
G1 X29.9915 Y-22.8143 Z0.2519
G1 X29.9927 Y-22.8140 Z0.2512
G1 X29.9938 Y-22.8137 Z0.2504
G1 X29.9949 Y-22.8133 Z0.2497
G1 X29.9960 Y-22.8128 Z0.2489
G1 X29.9970 Y-22.8122 Z0.2482
G1 X29.9980 Y-22.8116 Z0.2474
G1 X29.9989 Y-22.8108 Z0.2467
G1 X29.9998 Y-22.8100 Z0.2459
G1 X30.0006 Y-22.8092 Z0.2452
G1 X30.0013 Y-22.8083 Z0.2444
G1 X30.0019 Y-22.8073 Z0.2437
G1 X30.0025 Y-22.8062 Z0.2429
G1 X30.0030 Y-22.8052 Z0.2422
G1 X30.0034 Y-22.8041 Z0.2414
G1 X30.0037 Y-22.8029 Z0.2407
G1 X30.0040 Y-22.8018 Z0.2399
G1 X30.0041 Y-22.8006 Z0.2392
G1 X30.0042 Y-22.7994 Z0.2384
G2X30.1898Y-22.7994Z0.2384I0.0928J0.0000 F22.
G2X30.0042Y-22.7994Z0.2384I-0.0928J0.0000
G2X30.1481Y-22.7220Z0.2384I0.0928J0.0000
G0 Z0.3669
G0 X30.1481 Y-22.7220 
G0 Z0.3669
G0 X29.9892 Y-22.8144 
G1 X29.9892 Y-22.8144 Z0.2419 F21.
G1 X29.9903 Y-22.8144 Z0.2411
G1 X29.9915 Y-22.8143 Z0.2404
G1 X29.9927 Y-22.8140 Z0.2396
G1 X29.9938 Y-22.8137 Z0.2389
G1 X29.9949 Y-22.8133 Z0.2381
G1 X29.9960 Y-22.8128 Z0.2374
G1 X29.9970 Y-22.8122 Z0.2366
G1 X29.9980 Y-22.8116 Z0.2359
G1 X29.9989 Y-22.8108 Z0.2351
G1 X29.9998 Y-22.8100 Z0.2344
G1 X30.0006 Y-22.8092 Z0.2336
G1 X30.0013 Y-22.8083 Z0.2329
G1 X30.0019 Y-22.8073 Z0.2321
G1 X30.0025 Y-22.8062 Z0.2314
G1 X30.0030 Y-22.8052 Z0.2306
G1 X30.0034 Y-22.8041 Z0.2299
G1 X30.0037 Y-22.8029 Z0.2291
G1 X30.0040 Y-22.8018 Z0.2284
G1 X30.0041 Y-22.8006 Z0.2276
G1 X30.0042 Y-22.7994 Z0.2269
G2X30.1898Y-22.7994Z0.2269I0.0928J0.0000 F22.
G2X30.0042Y-22.7994Z0.2269I-0.0928J0.0000
G2X30.1481Y-22.7220Z0.2269I0.0928J0.0000
G0 Z0.3553
G0 X30.1481 Y-22.7220 
G0 Z0.3553
G0 X29.9892 Y-22.8144 
G1 X29.9892 Y-22.8144 Z0.2303 F21.
G1 X29.9903 Y-22.8144 Z0.2295
G1 X29.9915 Y-22.8143 Z0.2288
G1 X29.9927 Y-22.8140 Z0.2280
G1 X29.9938 Y-22.8137 Z0.2273
G1 X29.9949 Y-22.8133 Z0.2265
G1 X29.9960 Y-22.8128 Z0.2258
G1 X29.9970 Y-22.8122 Z0.2250
G1 X29.9980 Y-22.8116 Z0.2243
G1 X29.9989 Y-22.8108 Z0.2235
G1 X29.9998 Y-22.8100 Z0.2228
G1 X30.0006 Y-22.8092 Z0.2220
G1 X30.0013 Y-22.8083 Z0.2213
G1 X30.0019 Y-22.8073 Z0.2205
G1 X30.0025 Y-22.8062 Z0.2198
G1 X30.0030 Y-22.8052 Z0.2190
G1 X30.0034 Y-22.8041 Z0.2183
G1 X30.0037 Y-22.8029 Z0.2175
G1 X30.0040 Y-22.8018 Z0.2168
G1 X30.0041 Y-22.8006 Z0.2160
G1 X30.0042 Y-22.7994 Z0.2153
G2X30.1898Y-22.7994Z0.2153I0.0928J0.0000 F22.
G2X30.0042Y-22.7994Z0.2153I-0.0928J0.0000
G2X30.1481Y-22.7220Z0.2153I0.0928J0.0000
G0 Z0.3437
G0 X30.1481 Y-22.7220 
G0 Z0.3437
G0 X29.9892 Y-22.8144 
G1 X29.9892 Y-22.8144 Z0.2187 F21.
G1 X29.9903 Y-22.8144 Z0.2180
G1 X29.9915 Y-22.8143 Z0.2172
G1 X29.9927 Y-22.8140 Z0.2165
G1 X29.9938 Y-22.8137 Z0.2157
G1 X29.9949 Y-22.8133 Z0.2150
G1 X29.9960 Y-22.8128 Z0.2142
G1 X29.9970 Y-22.8122 Z0.2135
G1 X29.9980 Y-22.8116 Z0.2127
G1 X29.9989 Y-22.8108 Z0.2120
G1 X29.9998 Y-22.8100 Z0.2112
G1 X30.0006 Y-22.8092 Z0.2105
G1 X30.0013 Y-22.8083 Z0.2097
G1 X30.0019 Y-22.8073 Z0.2090
G1 X30.0025 Y-22.8062 Z0.2082
G1 X30.0030 Y-22.8052 Z0.2075
G1 X30.0034 Y-22.8041 Z0.2067
G1 X30.0037 Y-22.8029 Z0.2060
G1 X30.0040 Y-22.8018 Z0.2052
G1 X30.0041 Y-22.8006 Z0.2045
G1 X30.0042 Y-22.7994 Z0.2037
G2X30.1898Y-22.7994Z0.2037I0.0928J0.0000 F22.
G2X30.0042Y-22.7994Z0.2037I-0.0928J0.0000
G2X30.1481Y-22.7220Z0.2037I0.0928J0.0000
G0 Z0.3321
G0 X30.1481 Y-22.7220 
G0 Z0.3321
G0 X29.9892 Y-22.8144 
G1 X29.9892 Y-22.8144 Z0.2071 F21.
G1 X29.9903 Y-22.8144 Z0.2064
G1 X29.9915 Y-22.8143 Z0.2056
G1 X29.9927 Y-22.8140 Z0.2049
G1 X29.9938 Y-22.8137 Z0.2041
G1 X29.9949 Y-22.8133 Z0.2034
G1 X29.9960 Y-22.8128 Z0.2026
G1 X29.9970 Y-22.8122 Z0.2019
G1 X29.9980 Y-22.8116 Z0.2011
G1 X29.9989 Y-22.8108 Z0.2004
G1 X29.9998 Y-22.8100 Z0.1996
G1 X30.0006 Y-22.8092 Z0.1989
G1 X30.0013 Y-22.8083 Z0.1981
G1 X30.0019 Y-22.8073 Z0.1974
G1 X30.0025 Y-22.8062 Z0.1966
G1 X30.0030 Y-22.8052 Z0.1959
G1 X30.0034 Y-22.8041 Z0.1951
G1 X30.0037 Y-22.8029 Z0.1944
G1 X30.0040 Y-22.8018 Z0.1936
G1 X30.0041 Y-22.8006 Z0.1929
G1 X30.0042 Y-22.7994 Z0.1921
G2X30.1898Y-22.7994Z0.1921I0.0928J0.0000 F22.
G2X30.0042Y-22.7994Z0.1921I-0.0928J0.0000
G2X30.1481Y-22.7220Z0.1921I0.0928J0.0000
G0 Z0.3206
G0 X30.1481 Y-22.7220 
G0 Z0.3206
G0 X29.9892 Y-22.8144 
G1 X29.9892 Y-22.8144 Z0.1956 F21.
G1 X29.9903 Y-22.8144 Z0.1948
G1 X29.9915 Y-22.8143 Z0.1941
G1 X29.9927 Y-22.8140 Z0.1933
G1 X29.9938 Y-22.8137 Z0.1926
G1 X29.9949 Y-22.8133 Z0.1918
G1 X29.9960 Y-22.8128 Z0.1911
G1 X29.9970 Y-22.8122 Z0.1903
G1 X29.9980 Y-22.8116 Z0.1896
G1 X29.9989 Y-22.8108 Z0.1888
G1 X29.9998 Y-22.8100 Z0.1881
G1 X30.0006 Y-22.8092 Z0.1873
G1 X30.0013 Y-22.8083 Z0.1866
G1 X30.0019 Y-22.8073 Z0.1858
G1 X30.0025 Y-22.8062 Z0.1851
G1 X30.0030 Y-22.8052 Z0.1843
G1 X30.0034 Y-22.8041 Z0.1836
G1 X30.0037 Y-22.8029 Z0.1828
G1 X30.0040 Y-22.8018 Z0.1821
G1 X30.0041 Y-22.8006 Z0.1813
G1 X30.0042 Y-22.7994 Z0.1806
G2X30.1898Y-22.7994Z0.1806I0.0928J0.0000 F22.
G2X30.0042Y-22.7994Z0.1806I-0.0928J0.0000
G2X30.1481Y-22.7220Z0.1806I0.0928J0.0000
G0 Z0.3090
G0 X30.1481 Y-22.7220 
G0 Z0.3090
G0 X29.9892 Y-22.8144 
G1 X29.9892 Y-22.8144 Z0.1840 F21.
G1 X29.9903 Y-22.8144 Z0.1832
G1 X29.9915 Y-22.8143 Z0.1825
G1 X29.9927 Y-22.8140 Z0.1817
G1 X29.9938 Y-22.8137 Z0.1810
G1 X29.9949 Y-22.8133 Z0.1802
G1 X29.9960 Y-22.8128 Z0.1795
G1 X29.9970 Y-22.8122 Z0.1787
G1 X29.9980 Y-22.8116 Z0.1780
G1 X29.9989 Y-22.8108 Z0.1772
G1 X29.9998 Y-22.8100 Z0.1765
G1 X30.0006 Y-22.8092 Z0.1757
G1 X30.0013 Y-22.8083 Z0.1750
G1 X30.0019 Y-22.8073 Z0.1742
G1 X30.0025 Y-22.8062 Z0.1735
G1 X30.0030 Y-22.8052 Z0.1727
G1 X30.0034 Y-22.8041 Z0.1720
G1 X30.0037 Y-22.8029 Z0.1712
G1 X30.0040 Y-22.8018 Z0.1705
G1 X30.0041 Y-22.8006 Z0.1697
G1 X30.0042 Y-22.7994 Z0.1690
G2X30.1898Y-22.7994Z0.1690I0.0928J0.0000 F22.
G2X30.0042Y-22.7994Z0.1690I-0.0928J0.0000
G2X30.1481Y-22.7220Z0.1690I0.0928J0.0000
G0 Z0.3784
G0 X30.1481 Y-22.7220 
G0 Z0.3784
G0 X30.0598 Y-22.7051 
G1 X30.0598 Y-22.7051 Z0.2534 F21.
G1 X30.0591 Y-22.7041 Z0.2527
G1 X30.0584 Y-22.7032 Z0.2519
G1 X30.0577 Y-22.7023 Z0.2512
G1 X30.0568 Y-22.7015 Z0.2504
G1 X30.0559 Y-22.7007 Z0.2497
G1 X30.0549 Y-22.7001 Z0.2489
G1 X30.0539 Y-22.6995 Z0.2482
G1 X30.0529 Y-22.6989 Z0.2474
G1 X30.0518 Y-22.6985 Z0.2467
G1 X30.0506 Y-22.6982 Z0.2459
G1 X30.0495 Y-22.6979 Z0.2452
G1 X30.0483 Y-22.6977 Z0.2444
G1 X30.0472 Y-22.6977 Z0.2437
G1 X30.0460 Y-22.6977 Z0.2429
G1 X30.0448 Y-22.6978 Z0.2422
G1 X30.0436 Y-22.6980 Z0.2414
G1 X30.0425 Y-22.6983 Z0.2407
G1 X30.0414 Y-22.6987 Z0.2399
G1 X30.0403 Y-22.6991 Z0.2392
G1 X30.0393 Y-22.6997 Z0.2384
G1 X29.9815 Y-22.7332 Z0.2384 F22.
G1 X29.9815 Y-22.8666 Z0.2384
G1 X30.0970 Y-22.9327 Z0.2384
G1 X30.2116 Y-22.8666 Z0.2384
G1 X30.2116 Y-22.7332 Z0.2384
G1 X30.0970 Y-22.6662 Z0.2384
G1 X30.0393 Y-22.6997 Z0.2384
G1 X29.9815 Y-22.7332 Z0.2384
G1 X29.9815 Y-22.8664 Z0.2384
G0 Z0.3669
G0 X29.9815 Y-22.8664 
G0 Z0.3669
G0 X30.0598 Y-22.7051 
G1 X30.0598 Y-22.7051 Z0.2419 F21.
G1 X30.0591 Y-22.7041 Z0.2411
G1 X30.0584 Y-22.7032 Z0.2404
G1 X30.0577 Y-22.7023 Z0.2396
G1 X30.0568 Y-22.7015 Z0.2389
G1 X30.0559 Y-22.7007 Z0.2381
G1 X30.0549 Y-22.7001 Z0.2374
G1 X30.0539 Y-22.6995 Z0.2366
G1 X30.0529 Y-22.6989 Z0.2359
G1 X30.0518 Y-22.6985 Z0.2351
G1 X30.0506 Y-22.6982 Z0.2344
G1 X30.0495 Y-22.6979 Z0.2336
G1 X30.0483 Y-22.6977 Z0.2329
G1 X30.0472 Y-22.6977 Z0.2321
G1 X30.0460 Y-22.6977 Z0.2314
G1 X30.0448 Y-22.6978 Z0.2306
G1 X30.0436 Y-22.6980 Z0.2299
G1 X30.0425 Y-22.6983 Z0.2291
G1 X30.0414 Y-22.6987 Z0.2284
G1 X30.0403 Y-22.6991 Z0.2276
G1 X30.0393 Y-22.6997 Z0.2269
G1 X29.9815 Y-22.7332 Z0.2269 F22.
G1 X29.9815 Y-22.8666 Z0.2269
G1 X30.0970 Y-22.9327 Z0.2269
G1 X30.2116 Y-22.8666 Z0.2269
G1 X30.2116 Y-22.7332 Z0.2269
G1 X30.0970 Y-22.6662 Z0.2269
G1 X30.0393 Y-22.6997 Z0.2269
G1 X29.9815 Y-22.7332 Z0.2269
G1 X29.9815 Y-22.8664 Z0.2269
G0 Z0.3553
G0 X29.9815 Y-22.8664 
G0 Z0.3553
G0 X30.0598 Y-22.7051 
G1 X30.0598 Y-22.7051 Z0.2303 F21.
G1 X30.0591 Y-22.7041 Z0.2295
G1 X30.0584 Y-22.7032 Z0.2288
G1 X30.0577 Y-22.7023 Z0.2280
G1 X30.0568 Y-22.7015 Z0.2273
G1 X30.0559 Y-22.7007 Z0.2265
G1 X30.0549 Y-22.7001 Z0.2258
G1 X30.0539 Y-22.6995 Z0.2250
G1 X30.0529 Y-22.6989 Z0.2243
G1 X30.0518 Y-22.6985 Z0.2235
G1 X30.0506 Y-22.6982 Z0.2228
G1 X30.0495 Y-22.6979 Z0.2220
G1 X30.0483 Y-22.6977 Z0.2213
G1 X30.0472 Y-22.6977 Z0.2205
G1 X30.0460 Y-22.6977 Z0.2198
G1 X30.0448 Y-22.6978 Z0.2190
G1 X30.0436 Y-22.6980 Z0.2183
G1 X30.0425 Y-22.6983 Z0.2175
G1 X30.0414 Y-22.6987 Z0.2168
G1 X30.0403 Y-22.6991 Z0.2160
G1 X30.0393 Y-22.6997 Z0.2153
G1 X29.9815 Y-22.7332 Z0.2153 F22.
G1 X29.9815 Y-22.8666 Z0.2153
G1 X30.0970 Y-22.9327 Z0.2153
G1 X30.2116 Y-22.8666 Z0.2153
G1 X30.2116 Y-22.7332 Z0.2153
G1 X30.0970 Y-22.6662 Z0.2153
G1 X30.0393 Y-22.6997 Z0.2153
G1 X29.9815 Y-22.7332 Z0.2153
G1 X29.9815 Y-22.8664 Z0.2153
G0 Z0.3437
G0 X29.9815 Y-22.8664 
G0 Z0.3437
G0 X30.0598 Y-22.7051 
G1 X30.0598 Y-22.7051 Z0.2187 F21.
G1 X30.0591 Y-22.7041 Z0.2180
G1 X30.0584 Y-22.7032 Z0.2172
G1 X30.0577 Y-22.7023 Z0.2165
G1 X30.0568 Y-22.7015 Z0.2157
G1 X30.0559 Y-22.7007 Z0.2150
G1 X30.0549 Y-22.7001 Z0.2142
G1 X30.0539 Y-22.6995 Z0.2135
G1 X30.0529 Y-22.6989 Z0.2127
G1 X30.0518 Y-22.6985 Z0.2120
G1 X30.0506 Y-22.6982 Z0.2112
G1 X30.0495 Y-22.6979 Z0.2105
G1 X30.0483 Y-22.6977 Z0.2097
G1 X30.0472 Y-22.6977 Z0.2090
G1 X30.0460 Y-22.6977 Z0.2082
G1 X30.0448 Y-22.6978 Z0.2075
G1 X30.0436 Y-22.6980 Z0.2067
G1 X30.0425 Y-22.6983 Z0.2060
G1 X30.0414 Y-22.6987 Z0.2052
G1 X30.0403 Y-22.6991 Z0.2045
G1 X30.0393 Y-22.6997 Z0.2037
G1 X29.9815 Y-22.7332 Z0.2037 F22.
G1 X29.9815 Y-22.8666 Z0.2037
G1 X30.0970 Y-22.9327 Z0.2037
G1 X30.2116 Y-22.8666 Z0.2037
G1 X30.2116 Y-22.7332 Z0.2037
G1 X30.0970 Y-22.6662 Z0.2037
G1 X30.0393 Y-22.6997 Z0.2037
G1 X29.9815 Y-22.7332 Z0.2037
G1 X29.9815 Y-22.8664 Z0.2037
G0 Z0.3321
G0 X29.9815 Y-22.8664 
G0 Z0.3321
G0 X30.0598 Y-22.7051 
G1 X30.0598 Y-22.7051 Z0.2071 F21.
G1 X30.0591 Y-22.7041 Z0.2064
G1 X30.0584 Y-22.7032 Z0.2056
G1 X30.0577 Y-22.7023 Z0.2049
G1 X30.0568 Y-22.7015 Z0.2041
G1 X30.0559 Y-22.7007 Z0.2034
G1 X30.0549 Y-22.7001 Z0.2026
G1 X30.0539 Y-22.6995 Z0.2019
G1 X30.0529 Y-22.6989 Z0.2011
G1 X30.0518 Y-22.6985 Z0.2004
G1 X30.0506 Y-22.6982 Z0.1996
G1 X30.0495 Y-22.6979 Z0.1989
G1 X30.0483 Y-22.6977 Z0.1981
G1 X30.0472 Y-22.6977 Z0.1974
G1 X30.0460 Y-22.6977 Z0.1966
G1 X30.0448 Y-22.6978 Z0.1959
G1 X30.0436 Y-22.6980 Z0.1951
G1 X30.0425 Y-22.6983 Z0.1944
G1 X30.0414 Y-22.6987 Z0.1936
G1 X30.0403 Y-22.6991 Z0.1929
G1 X30.0393 Y-22.6997 Z0.1921
G1 X29.9815 Y-22.7332 Z0.1921 F22.
G1 X29.9815 Y-22.8666 Z0.1921
G1 X30.0970 Y-22.9327 Z0.1921
G1 X30.2116 Y-22.8666 Z0.1921
G1 X30.2116 Y-22.7332 Z0.1921
G1 X30.0970 Y-22.6662 Z0.1921
G1 X30.0393 Y-22.6997 Z0.1921
G1 X29.9815 Y-22.7332 Z0.1921
G1 X29.9815 Y-22.8664 Z0.1921
G0 Z0.3206
G0 X29.9815 Y-22.8664 
G0 Z0.3206
G0 X30.0598 Y-22.7051 
G1 X30.0598 Y-22.7051 Z0.1956 F21.
G1 X30.0591 Y-22.7041 Z0.1948
G1 X30.0584 Y-22.7032 Z0.1941
G1 X30.0577 Y-22.7023 Z0.1933
G1 X30.0568 Y-22.7015 Z0.1926
G1 X30.0559 Y-22.7007 Z0.1918
G1 X30.0549 Y-22.7001 Z0.1911
G1 X30.0539 Y-22.6995 Z0.1903
G1 X30.0529 Y-22.6989 Z0.1896
G1 X30.0518 Y-22.6985 Z0.1888
G1 X30.0506 Y-22.6982 Z0.1881
G1 X30.0495 Y-22.6979 Z0.1873
G1 X30.0483 Y-22.6977 Z0.1866
G1 X30.0472 Y-22.6977 Z0.1858
G1 X30.0460 Y-22.6977 Z0.1851
G1 X30.0448 Y-22.6978 Z0.1843
G1 X30.0436 Y-22.6980 Z0.1836
G1 X30.0425 Y-22.6983 Z0.1828
G1 X30.0414 Y-22.6987 Z0.1821
G1 X30.0403 Y-22.6991 Z0.1813
G1 X30.0393 Y-22.6997 Z0.1806
G1 X29.9815 Y-22.7332 Z0.1806 F22.
G1 X29.9815 Y-22.8666 Z0.1806
G1 X30.0970 Y-22.9327 Z0.1806
G1 X30.2116 Y-22.8666 Z0.1806
G1 X30.2116 Y-22.7332 Z0.1806
G1 X30.0970 Y-22.6662 Z0.1806
G1 X30.0393 Y-22.6997 Z0.1806
G1 X29.9815 Y-22.7332 Z0.1806
G1 X29.9815 Y-22.8664 Z0.1806
G0 Z0.3090
G0 X29.9815 Y-22.8664 
G0 Z0.3090
G0 X30.0598 Y-22.7051 
G1 X30.0598 Y-22.7051 Z0.1840 F21.
G1 X30.0591 Y-22.7041 Z0.1832
G1 X30.0584 Y-22.7032 Z0.1825
G1 X30.0577 Y-22.7023 Z0.1817
G1 X30.0568 Y-22.7015 Z0.1810
G1 X30.0559 Y-22.7007 Z0.1802
G1 X30.0549 Y-22.7001 Z0.1795
G1 X30.0539 Y-22.6995 Z0.1787
G1 X30.0529 Y-22.6989 Z0.1780
G1 X30.0518 Y-22.6985 Z0.1772
G1 X30.0506 Y-22.6982 Z0.1765
G1 X30.0495 Y-22.6979 Z0.1757
G1 X30.0483 Y-22.6977 Z0.1750
G1 X30.0472 Y-22.6977 Z0.1742
G1 X30.0460 Y-22.6977 Z0.1735
G1 X30.0448 Y-22.6978 Z0.1727
G1 X30.0436 Y-22.6980 Z0.1720
G1 X30.0425 Y-22.6983 Z0.1712
G1 X30.0414 Y-22.6987 Z0.1705
G1 X30.0403 Y-22.6991 Z0.1697
G1 X30.0393 Y-22.6997 Z0.1690
G1 X29.9815 Y-22.7332 Z0.1690 F22.
G1 X29.9815 Y-22.8666 Z0.1690
G1 X30.0970 Y-22.9327 Z0.1690
G1 X30.2116 Y-22.8666 Z0.1690
G1 X30.2116 Y-22.7332 Z0.1690
G1 X30.0970 Y-22.6662 Z0.1690
G1 X30.0393 Y-22.6997 Z0.1690
G1 X29.9815 Y-22.7332 Z0.1690
G1 X29.9815 Y-22.8664 Z0.1690
G0 Z0.3784
G0 X29.9815 Y-22.8664 
G0 Z0.3784
G0 X31.0046 Y-22.8144 
G1 X31.0046 Y-22.8144 Z0.2534 F21.
G1 X31.0058 Y-22.8144 Z0.2527
G1 X31.0069 Y-22.8143 Z0.2519
G1 X31.0081 Y-22.8140 Z0.2512
G1 X31.0092 Y-22.8137 Z0.2504
G1 X31.0103 Y-22.8133 Z0.2497
G1 X31.0114 Y-22.8128 Z0.2489
G1 X31.0124 Y-22.8122 Z0.2482
G1 X31.0134 Y-22.8116 Z0.2474
G1 X31.0143 Y-22.8108 Z0.2467
G1 X31.0152 Y-22.8100 Z0.2459
G1 X31.0160 Y-22.8092 Z0.2452
G1 X31.0167 Y-22.8083 Z0.2444
G1 X31.0174 Y-22.8073 Z0.2437
G1 X31.0180 Y-22.8062 Z0.2429
G1 X31.0185 Y-22.8052 Z0.2422
G1 X31.0189 Y-22.8041 Z0.2414
G1 X31.0192 Y-22.8029 Z0.2407
G1 X31.0194 Y-22.8018 Z0.2399
G1 X31.0196 Y-22.8006 Z0.2392
G1 X31.0196 Y-22.7994 Z0.2384
G2X31.2470Y-22.7994Z0.2384I0.1137J0.0000 F22.
G2X31.0196Y-22.7994Z0.2384I-0.1137J0.0000
G2X31.1546Y-22.6878Z0.2384I0.1137J0.0000
G0 Z0.3669
G0 X31.1546 Y-22.6878 
G0 Z0.3669
G0 X31.0046 Y-22.8144 
G1 X31.0046 Y-22.8144 Z0.2419 F21.
G1 X31.0058 Y-22.8144 Z0.2411
G1 X31.0069 Y-22.8143 Z0.2404
G1 X31.0081 Y-22.8140 Z0.2396
G1 X31.0092 Y-22.8137 Z0.2389
G1 X31.0103 Y-22.8133 Z0.2381
G1 X31.0114 Y-22.8128 Z0.2374
G1 X31.0124 Y-22.8122 Z0.2366
G1 X31.0134 Y-22.8116 Z0.2359
G1 X31.0143 Y-22.8108 Z0.2351
G1 X31.0152 Y-22.8100 Z0.2344
G1 X31.0160 Y-22.8092 Z0.2336
G1 X31.0167 Y-22.8083 Z0.2329
G1 X31.0174 Y-22.8073 Z0.2321
G1 X31.0180 Y-22.8062 Z0.2314
G1 X31.0185 Y-22.8052 Z0.2306
G1 X31.0189 Y-22.8041 Z0.2299
G1 X31.0192 Y-22.8029 Z0.2291
G1 X31.0194 Y-22.8018 Z0.2284
G1 X31.0196 Y-22.8006 Z0.2276
G1 X31.0196 Y-22.7994 Z0.2269
G2X31.2470Y-22.7994Z0.2269I0.1137J0.0000 F22.
G2X31.0196Y-22.7994Z0.2269I-0.1137J0.0000
G2X31.1546Y-22.6878Z0.2269I0.1137J0.0000
G0 Z0.3553
G0 X31.1546 Y-22.6878 
G0 Z0.3553
G0 X31.0046 Y-22.8144 
G1 X31.0046 Y-22.8144 Z0.2303 F21.
G1 X31.0058 Y-22.8144 Z0.2295
G1 X31.0069 Y-22.8143 Z0.2288
G1 X31.0081 Y-22.8140 Z0.2280
G1 X31.0092 Y-22.8137 Z0.2273
G1 X31.0103 Y-22.8133 Z0.2265
G1 X31.0114 Y-22.8128 Z0.2258
G1 X31.0124 Y-22.8122 Z0.2250
G1 X31.0134 Y-22.8116 Z0.2243
G1 X31.0143 Y-22.8108 Z0.2235
G1 X31.0152 Y-22.8100 Z0.2228
G1 X31.0160 Y-22.8092 Z0.2220
G1 X31.0167 Y-22.8083 Z0.2213
G1 X31.0174 Y-22.8073 Z0.2205
G1 X31.0180 Y-22.8062 Z0.2198
G1 X31.0185 Y-22.8052 Z0.2190
G1 X31.0189 Y-22.8041 Z0.2183
G1 X31.0192 Y-22.8029 Z0.2175
G1 X31.0194 Y-22.8018 Z0.2168
G1 X31.0196 Y-22.8006 Z0.2160
G1 X31.0196 Y-22.7994 Z0.2153
G2X31.2470Y-22.7994Z0.2153I0.1137J0.0000 F22.
G2X31.0196Y-22.7994Z0.2153I-0.1137J0.0000
G2X31.1546Y-22.6878Z0.2153I0.1137J0.0000
G0 Z0.3437
G0 X31.1546 Y-22.6878 
G0 Z0.3437
G0 X31.0046 Y-22.8144 
G1 X31.0046 Y-22.8144 Z0.2187 F21.
G1 X31.0058 Y-22.8144 Z0.2180
G1 X31.0069 Y-22.8143 Z0.2172
G1 X31.0081 Y-22.8140 Z0.2165
G1 X31.0092 Y-22.8137 Z0.2157
G1 X31.0103 Y-22.8133 Z0.2150
G1 X31.0114 Y-22.8128 Z0.2142
G1 X31.0124 Y-22.8122 Z0.2135
G1 X31.0134 Y-22.8116 Z0.2127
G1 X31.0143 Y-22.8108 Z0.2120
G1 X31.0152 Y-22.8100 Z0.2112
G1 X31.0160 Y-22.8092 Z0.2105
G1 X31.0167 Y-22.8083 Z0.2097
G1 X31.0174 Y-22.8073 Z0.2090
G1 X31.0180 Y-22.8062 Z0.2082
G1 X31.0185 Y-22.8052 Z0.2075
G1 X31.0189 Y-22.8041 Z0.2067
G1 X31.0192 Y-22.8029 Z0.2060
G1 X31.0194 Y-22.8018 Z0.2052
G1 X31.0196 Y-22.8006 Z0.2045
G1 X31.0196 Y-22.7994 Z0.2037
G2X31.2470Y-22.7994Z0.2037I0.1137J0.0000 F22.
G2X31.0196Y-22.7994Z0.2037I-0.1137J0.0000
G2X31.1546Y-22.6878Z0.2037I0.1137J0.0000
G0 Z0.3321
G0 X31.1546 Y-22.6878 
G0 Z0.3321
G0 X31.0046 Y-22.8144 
G1 X31.0046 Y-22.8144 Z0.2071 F21.
G1 X31.0058 Y-22.8144 Z0.2064
G1 X31.0069 Y-22.8143 Z0.2056
G1 X31.0081 Y-22.8140 Z0.2049
G1 X31.0092 Y-22.8137 Z0.2041
G1 X31.0103 Y-22.8133 Z0.2034
G1 X31.0114 Y-22.8128 Z0.2026
G1 X31.0124 Y-22.8122 Z0.2019
G1 X31.0134 Y-22.8116 Z0.2011
G1 X31.0143 Y-22.8108 Z0.2004
G1 X31.0152 Y-22.8100 Z0.1996
G1 X31.0160 Y-22.8092 Z0.1989
G1 X31.0167 Y-22.8083 Z0.1981
G1 X31.0174 Y-22.8073 Z0.1974
G1 X31.0180 Y-22.8062 Z0.1966
G1 X31.0185 Y-22.8052 Z0.1959
G1 X31.0189 Y-22.8041 Z0.1951
G1 X31.0192 Y-22.8029 Z0.1944
G1 X31.0194 Y-22.8018 Z0.1936
G1 X31.0196 Y-22.8006 Z0.1929
G1 X31.0196 Y-22.7994 Z0.1921
G2X31.2470Y-22.7994Z0.1921I0.1137J0.0000 F22.
G2X31.0196Y-22.7994Z0.1921I-0.1137J0.0000
G2X31.1546Y-22.6878Z0.1921I0.1137J0.0000
G0 Z0.3206
G0 X31.1546 Y-22.6878 
G0 Z0.3206
G0 X31.0046 Y-22.8144 
G1 X31.0046 Y-22.8144 Z0.1956 F21.
G1 X31.0058 Y-22.8144 Z0.1948
G1 X31.0069 Y-22.8143 Z0.1941
G1 X31.0081 Y-22.8140 Z0.1933
G1 X31.0092 Y-22.8137 Z0.1926
G1 X31.0103 Y-22.8133 Z0.1918
G1 X31.0114 Y-22.8128 Z0.1911
G1 X31.0124 Y-22.8122 Z0.1903
G1 X31.0134 Y-22.8116 Z0.1896
G1 X31.0143 Y-22.8108 Z0.1888
G1 X31.0152 Y-22.8100 Z0.1881
G1 X31.0160 Y-22.8092 Z0.1873
G1 X31.0167 Y-22.8083 Z0.1866
G1 X31.0174 Y-22.8073 Z0.1858
G1 X31.0180 Y-22.8062 Z0.1851
G1 X31.0185 Y-22.8052 Z0.1843
G1 X31.0189 Y-22.8041 Z0.1836
G1 X31.0192 Y-22.8029 Z0.1828
G1 X31.0194 Y-22.8018 Z0.1821
G1 X31.0196 Y-22.8006 Z0.1813
G1 X31.0196 Y-22.7994 Z0.1806
G2X31.2470Y-22.7994Z0.1806I0.1137J0.0000 F22.
G2X31.0196Y-22.7994Z0.1806I-0.1137J0.0000
G2X31.1546Y-22.6878Z0.1806I0.1137J0.0000
G0 Z0.3090
G0 X31.1546 Y-22.6878 
G0 Z0.3090
G0 X31.0046 Y-22.8144 
G1 X31.0046 Y-22.8144 Z0.1840 F21.
G1 X31.0058 Y-22.8144 Z0.1832
G1 X31.0069 Y-22.8143 Z0.1825
G1 X31.0081 Y-22.8140 Z0.1817
G1 X31.0092 Y-22.8137 Z0.1810
G1 X31.0103 Y-22.8133 Z0.1802
G1 X31.0114 Y-22.8128 Z0.1795
G1 X31.0124 Y-22.8122 Z0.1787
G1 X31.0134 Y-22.8116 Z0.1780
G1 X31.0143 Y-22.8108 Z0.1772
G1 X31.0152 Y-22.8100 Z0.1765
G1 X31.0160 Y-22.8092 Z0.1757
G1 X31.0167 Y-22.8083 Z0.1750
G1 X31.0174 Y-22.8073 Z0.1742
G1 X31.0180 Y-22.8062 Z0.1735
G1 X31.0185 Y-22.8052 Z0.1727
G1 X31.0189 Y-22.8041 Z0.1720
G1 X31.0192 Y-22.8029 Z0.1712
G1 X31.0194 Y-22.8018 Z0.1705
G1 X31.0196 Y-22.8006 Z0.1697
G1 X31.0196 Y-22.7994 Z0.1690
G2X31.2470Y-22.7994Z0.1690I0.1137J0.0000 F22.
G2X31.0196Y-22.7994Z0.1690I-0.1137J0.0000
G2X31.1546Y-22.6878Z0.1690I0.1137J0.0000
G0 Z0.3784
G0 X31.1546 Y-22.6878 
G0 Z0.3784
G0 X31.0804 Y-22.6781 
G1 X31.0804 Y-22.6781 Z0.2534 F21.
G1 X31.0798 Y-22.6771 Z0.2527
G1 X31.0791 Y-22.6762 Z0.2519
G1 X31.0783 Y-22.6753 Z0.2512
G1 X31.0775 Y-22.6745 Z0.2504
G1 X31.0766 Y-22.6737 Z0.2497
G1 X31.0756 Y-22.6730 Z0.2489
G1 X31.0746 Y-22.6724 Z0.2482
G1 X31.0735 Y-22.6719 Z0.2474
G1 X31.0724 Y-22.6715 Z0.2467
G1 X31.0713 Y-22.6711 Z0.2459
G1 X31.0702 Y-22.6709 Z0.2452
G1 X31.0690 Y-22.6707 Z0.2444
G1 X31.0678 Y-22.6706 Z0.2437
G1 X31.0666 Y-22.6707 Z0.2429
G1 X31.0655 Y-22.6708 Z0.2422
G1 X31.0643 Y-22.6710 Z0.2414
G1 X31.0632 Y-22.6713 Z0.2407
G1 X31.0621 Y-22.6716 Z0.2399
G1 X31.0610 Y-22.6721 Z0.2392
G1 X31.0599 Y-22.6727 Z0.2384
G1 X30.9866 Y-22.7153 Z0.2384 F22.
G1 X30.9866 Y-22.8847 Z0.2384
G1 X31.1333 Y-22.9688 Z0.2384
G1 X31.2790 Y-22.8848 Z0.2384
G1 X31.2790 Y-22.7153 Z0.2384
G1 X31.1333 Y-22.6301 Z0.2384
G1 X31.0599 Y-22.6727 Z0.2384
G1 X30.9866 Y-22.7153 Z0.2384
G1 X30.9866 Y-22.8304 Z0.2384
G0 Z0.3669
G0 X30.9866 Y-22.8304 
G0 Z0.3669
G0 X31.0804 Y-22.6781 
G1 X31.0804 Y-22.6781 Z0.2419 F21.
G1 X31.0798 Y-22.6771 Z0.2411
G1 X31.0791 Y-22.6762 Z0.2404
G1 X31.0783 Y-22.6753 Z0.2396
G1 X31.0775 Y-22.6745 Z0.2389
G1 X31.0766 Y-22.6737 Z0.2381
G1 X31.0756 Y-22.6730 Z0.2374
G1 X31.0746 Y-22.6724 Z0.2366
G1 X31.0735 Y-22.6719 Z0.2359
G1 X31.0724 Y-22.6715 Z0.2351
G1 X31.0713 Y-22.6711 Z0.2344
G1 X31.0702 Y-22.6709 Z0.2336
G1 X31.0690 Y-22.6707 Z0.2329
G1 X31.0678 Y-22.6706 Z0.2321
G1 X31.0666 Y-22.6707 Z0.2314
G1 X31.0655 Y-22.6708 Z0.2306
G1 X31.0643 Y-22.6710 Z0.2299
G1 X31.0632 Y-22.6713 Z0.2291
G1 X31.0621 Y-22.6716 Z0.2284
G1 X31.0610 Y-22.6721 Z0.2276
G1 X31.0599 Y-22.6727 Z0.2269
G1 X30.9866 Y-22.7153 Z0.2269 F22.
G1 X30.9866 Y-22.8847 Z0.2269
G1 X31.1333 Y-22.9688 Z0.2269
G1 X31.2790 Y-22.8848 Z0.2269
G1 X31.2790 Y-22.7153 Z0.2269
G1 X31.1333 Y-22.6301 Z0.2269
G1 X31.0599 Y-22.6727 Z0.2269
G1 X30.9866 Y-22.7153 Z0.2269
G1 X30.9866 Y-22.8304 Z0.2269
G0 Z0.3553
G0 X30.9866 Y-22.8304 
G0 Z0.3553
G0 X31.0804 Y-22.6781 
G1 X31.0804 Y-22.6781 Z0.2303 F21.
G1 X31.0798 Y-22.6771 Z0.2295
G1 X31.0791 Y-22.6762 Z0.2288
G1 X31.0783 Y-22.6753 Z0.2280
G1 X31.0775 Y-22.6745 Z0.2273
G1 X31.0766 Y-22.6737 Z0.2265
G1 X31.0756 Y-22.6730 Z0.2258
G1 X31.0746 Y-22.6724 Z0.2250
G1 X31.0735 Y-22.6719 Z0.2243
G1 X31.0724 Y-22.6715 Z0.2235
G1 X31.0713 Y-22.6711 Z0.2228
G1 X31.0702 Y-22.6709 Z0.2220
G1 X31.0690 Y-22.6707 Z0.2213
G1 X31.0678 Y-22.6706 Z0.2205
G1 X31.0666 Y-22.6707 Z0.2198
G1 X31.0655 Y-22.6708 Z0.2190
G1 X31.0643 Y-22.6710 Z0.2183
G1 X31.0632 Y-22.6713 Z0.2175
G1 X31.0621 Y-22.6716 Z0.2168
G1 X31.0610 Y-22.6721 Z0.2160
G1 X31.0599 Y-22.6727 Z0.2153
G1 X30.9866 Y-22.7153 Z0.2153 F22.
G1 X30.9866 Y-22.8847 Z0.2153
G1 X31.1333 Y-22.9688 Z0.2153
G1 X31.2790 Y-22.8848 Z0.2153
G1 X31.2790 Y-22.7153 Z0.2153
G1 X31.1333 Y-22.6301 Z0.2153
G1 X31.0599 Y-22.6727 Z0.2153
G1 X30.9866 Y-22.7153 Z0.2153
G1 X30.9866 Y-22.8304 Z0.2153
G0 Z0.3437
G0 X30.9866 Y-22.8304 
G0 Z0.3437
G0 X31.0804 Y-22.6781 
G1 X31.0804 Y-22.6781 Z0.2187 F21.
G1 X31.0798 Y-22.6771 Z0.2180
G1 X31.0791 Y-22.6762 Z0.2172
G1 X31.0783 Y-22.6753 Z0.2165
G1 X31.0775 Y-22.6745 Z0.2157
G1 X31.0766 Y-22.6737 Z0.2150
G1 X31.0756 Y-22.6730 Z0.2142
G1 X31.0746 Y-22.6724 Z0.2135
G1 X31.0735 Y-22.6719 Z0.2127
G1 X31.0724 Y-22.6715 Z0.2120
G1 X31.0713 Y-22.6711 Z0.2112
G1 X31.0702 Y-22.6709 Z0.2105
G1 X31.0690 Y-22.6707 Z0.2097
G1 X31.0678 Y-22.6706 Z0.2090
G1 X31.0666 Y-22.6707 Z0.2082
G1 X31.0655 Y-22.6708 Z0.2075
G1 X31.0643 Y-22.6710 Z0.2067
G1 X31.0632 Y-22.6713 Z0.2060
G1 X31.0621 Y-22.6716 Z0.2052
G1 X31.0610 Y-22.6721 Z0.2045
G1 X31.0599 Y-22.6727 Z0.2037
G1 X30.9866 Y-22.7153 Z0.2037 F22.
G1 X30.9866 Y-22.8847 Z0.2037
G1 X31.1333 Y-22.9688 Z0.2037
G1 X31.2790 Y-22.8848 Z0.2037
G1 X31.2790 Y-22.7153 Z0.2037
G1 X31.1333 Y-22.6301 Z0.2037
G1 X31.0599 Y-22.6727 Z0.2037
G1 X30.9866 Y-22.7153 Z0.2037
G1 X30.9866 Y-22.8304 Z0.2037
G0 Z0.3321
G0 X30.9866 Y-22.8304 
G0 Z0.3321
G0 X31.0804 Y-22.6781 
G1 X31.0804 Y-22.6781 Z0.2071 F21.
G1 X31.0798 Y-22.6771 Z0.2064
G1 X31.0791 Y-22.6762 Z0.2056
G1 X31.0783 Y-22.6753 Z0.2049
G1 X31.0775 Y-22.6745 Z0.2041
G1 X31.0766 Y-22.6737 Z0.2034
G1 X31.0756 Y-22.6730 Z0.2026
G1 X31.0746 Y-22.6724 Z0.2019
G1 X31.0735 Y-22.6719 Z0.2011
G1 X31.0724 Y-22.6715 Z0.2004
G1 X31.0713 Y-22.6711 Z0.1996
G1 X31.0702 Y-22.6709 Z0.1989
G1 X31.0690 Y-22.6707 Z0.1981
G1 X31.0678 Y-22.6706 Z0.1974
G1 X31.0666 Y-22.6707 Z0.1966
G1 X31.0655 Y-22.6708 Z0.1959
G1 X31.0643 Y-22.6710 Z0.1951
G1 X31.0632 Y-22.6713 Z0.1944
G1 X31.0621 Y-22.6716 Z0.1936
G1 X31.0610 Y-22.6721 Z0.1929
G1 X31.0599 Y-22.6727 Z0.1921
G1 X30.9866 Y-22.7153 Z0.1921 F22.
G1 X30.9866 Y-22.8847 Z0.1921
G1 X31.1333 Y-22.9688 Z0.1921
G1 X31.2790 Y-22.8848 Z0.1921
G1 X31.2790 Y-22.7153 Z0.1921
G1 X31.1333 Y-22.6301 Z0.1921
G1 X31.0599 Y-22.6727 Z0.1921
G1 X30.9866 Y-22.7153 Z0.1921
G1 X30.9866 Y-22.8304 Z0.1921
G0 Z0.3206
G0 X30.9866 Y-22.8304 
G0 Z0.3206
G0 X31.0804 Y-22.6781 
G1 X31.0804 Y-22.6781 Z0.1956 F21.
G1 X31.0798 Y-22.6771 Z0.1948
G1 X31.0791 Y-22.6762 Z0.1941
G1 X31.0783 Y-22.6753 Z0.1933
G1 X31.0775 Y-22.6745 Z0.1926
G1 X31.0766 Y-22.6737 Z0.1918
G1 X31.0756 Y-22.6730 Z0.1911
G1 X31.0746 Y-22.6724 Z0.1903
G1 X31.0735 Y-22.6719 Z0.1896
G1 X31.0724 Y-22.6715 Z0.1888
G1 X31.0713 Y-22.6711 Z0.1881
G1 X31.0702 Y-22.6709 Z0.1873
G1 X31.0690 Y-22.6707 Z0.1866
G1 X31.0678 Y-22.6706 Z0.1858
G1 X31.0666 Y-22.6707 Z0.1851
G1 X31.0655 Y-22.6708 Z0.1843
G1 X31.0643 Y-22.6710 Z0.1836
G1 X31.0632 Y-22.6713 Z0.1828
G1 X31.0621 Y-22.6716 Z0.1821
G1 X31.0610 Y-22.6721 Z0.1813
G1 X31.0599 Y-22.6727 Z0.1806
G1 X30.9866 Y-22.7153 Z0.1806 F22.
G1 X30.9866 Y-22.8847 Z0.1806
G1 X31.1333 Y-22.9688 Z0.1806
G1 X31.2790 Y-22.8848 Z0.1806
G1 X31.2790 Y-22.7153 Z0.1806
G1 X31.1333 Y-22.6301 Z0.1806
G1 X31.0599 Y-22.6727 Z0.1806
G1 X30.9866 Y-22.7153 Z0.1806
G1 X30.9866 Y-22.8304 Z0.1806
G0 Z0.3090
G0 X30.9866 Y-22.8304 
G0 Z0.3090
G0 X31.0804 Y-22.6781 
G1 X31.0804 Y-22.6781 Z0.1840 F21.
G1 X31.0798 Y-22.6771 Z0.1832
G1 X31.0791 Y-22.6762 Z0.1825
G1 X31.0783 Y-22.6753 Z0.1817
G1 X31.0775 Y-22.6745 Z0.1810
G1 X31.0766 Y-22.6737 Z0.1802
G1 X31.0756 Y-22.6730 Z0.1795
G1 X31.0746 Y-22.6724 Z0.1787
G1 X31.0735 Y-22.6719 Z0.1780
G1 X31.0724 Y-22.6715 Z0.1772
G1 X31.0713 Y-22.6711 Z0.1765
G1 X31.0702 Y-22.6709 Z0.1757
G1 X31.0690 Y-22.6707 Z0.1750
G1 X31.0678 Y-22.6706 Z0.1742
G1 X31.0666 Y-22.6707 Z0.1735
G1 X31.0655 Y-22.6708 Z0.1727
G1 X31.0643 Y-22.6710 Z0.1720
G1 X31.0632 Y-22.6713 Z0.1712
G1 X31.0621 Y-22.6716 Z0.1705
G1 X31.0610 Y-22.6721 Z0.1697
G1 X31.0599 Y-22.6727 Z0.1690
G1 X30.9866 Y-22.7153 Z0.1690 F22.
G1 X30.9866 Y-22.8847 Z0.1690
G1 X31.1333 Y-22.9688 Z0.1690
G1 X31.2790 Y-22.8848 Z0.1690
G1 X31.2790 Y-22.7153 Z0.1690
G1 X31.1333 Y-22.6301 Z0.1690
G1 X31.0599 Y-22.6727 Z0.1690
G1 X30.9866 Y-22.7153 Z0.1690
G1 X30.9866 Y-22.8304 Z0.1690
G0 Z0.3784
G0 X30.9866 Y-22.8304 
G0 Z0.3784
G0 X32.1469 Y-22.8144 
G1 X32.1469 Y-22.8144 Z0.2534 F21.
G1 X32.1481 Y-22.8144 Z0.2527
G1 X32.1493 Y-22.8143 Z0.2519
G1 X32.1504 Y-22.8140 Z0.2512
G1 X32.1516 Y-22.8137 Z0.2504
G1 X32.1527 Y-22.8133 Z0.2497
G1 X32.1537 Y-22.8128 Z0.2489
G1 X32.1548 Y-22.8122 Z0.2482
G1 X32.1557 Y-22.8116 Z0.2474
G1 X32.1567 Y-22.8108 Z0.2467
G1 X32.1575 Y-22.8100 Z0.2459
G1 X32.1583 Y-22.8092 Z0.2452
G1 X32.1591 Y-22.8083 Z0.2444
G1 X32.1597 Y-22.8073 Z0.2437
G1 X32.1603 Y-22.8062 Z0.2429
G1 X32.1608 Y-22.8052 Z0.2422
G1 X32.1612 Y-22.8041 Z0.2414
G1 X32.1615 Y-22.8029 Z0.2407
G1 X32.1617 Y-22.8018 Z0.2399
G1 X32.1619 Y-22.8006 Z0.2392
G1 X32.1619 Y-22.7994 Z0.2384
G2X32.4309Y-22.7994Z0.2384I0.1345J0.0000 F22.
G2X32.1619Y-22.7994Z0.2384I-0.1345J0.0000
G2X32.2852Y-22.6654Z0.2384I0.1345J0.0000
G0 Z0.3669
G0 X32.2852 Y-22.6654 
G0 Z0.3669
G0 X32.1469 Y-22.8144 
G1 X32.1469 Y-22.8144 Z0.2419 F21.
G1 X32.1481 Y-22.8144 Z0.2411
G1 X32.1493 Y-22.8143 Z0.2404
G1 X32.1504 Y-22.8140 Z0.2396
G1 X32.1516 Y-22.8137 Z0.2389
G1 X32.1527 Y-22.8133 Z0.2381
G1 X32.1537 Y-22.8128 Z0.2374
G1 X32.1548 Y-22.8122 Z0.2366
G1 X32.1557 Y-22.8116 Z0.2359
G1 X32.1567 Y-22.8108 Z0.2351
G1 X32.1575 Y-22.8100 Z0.2344
G1 X32.1583 Y-22.8092 Z0.2336
G1 X32.1591 Y-22.8083 Z0.2329
G1 X32.1597 Y-22.8073 Z0.2321
G1 X32.1603 Y-22.8062 Z0.2314
G1 X32.1608 Y-22.8052 Z0.2306
G1 X32.1612 Y-22.8041 Z0.2299
G1 X32.1615 Y-22.8029 Z0.2291
G1 X32.1617 Y-22.8018 Z0.2284
G1 X32.1619 Y-22.8006 Z0.2276
G1 X32.1619 Y-22.7994 Z0.2269
G2X32.4309Y-22.7994Z0.2269I0.1345J0.0000 F22.
G2X32.1619Y-22.7994Z0.2269I-0.1345J0.0000
G2X32.2852Y-22.6654Z0.2269I0.1345J0.0000
G0 Z0.3553
G0 X32.2852 Y-22.6654 
G0 Z0.3553
G0 X32.1469 Y-22.8144 
G1 X32.1469 Y-22.8144 Z0.2303 F21.
G1 X32.1481 Y-22.8144 Z0.2295
G1 X32.1493 Y-22.8143 Z0.2288
G1 X32.1504 Y-22.8140 Z0.2280
G1 X32.1516 Y-22.8137 Z0.2273
G1 X32.1527 Y-22.8133 Z0.2265
G1 X32.1537 Y-22.8128 Z0.2258
G1 X32.1548 Y-22.8122 Z0.2250
G1 X32.1557 Y-22.8116 Z0.2243
G1 X32.1567 Y-22.8108 Z0.2235
G1 X32.1575 Y-22.8100 Z0.2228
G1 X32.1583 Y-22.8092 Z0.2220
G1 X32.1591 Y-22.8083 Z0.2213
G1 X32.1597 Y-22.8073 Z0.2205
G1 X32.1603 Y-22.8062 Z0.2198
G1 X32.1608 Y-22.8052 Z0.2190
G1 X32.1612 Y-22.8041 Z0.2183
G1 X32.1615 Y-22.8029 Z0.2175
G1 X32.1617 Y-22.8018 Z0.2168
G1 X32.1619 Y-22.8006 Z0.2160
G1 X32.1619 Y-22.7994 Z0.2153
G2X32.4309Y-22.7994Z0.2153I0.1345J0.0000 F22.
G2X32.1619Y-22.7994Z0.2153I-0.1345J0.0000
G2X32.2852Y-22.6654Z0.2153I0.1345J0.0000
G0 Z0.3437
G0 X32.2852 Y-22.6654 
G0 Z0.3437
G0 X32.1469 Y-22.8144 
G1 X32.1469 Y-22.8144 Z0.2187 F21.
G1 X32.1481 Y-22.8144 Z0.2180
G1 X32.1493 Y-22.8143 Z0.2172
G1 X32.1504 Y-22.8140 Z0.2165
G1 X32.1516 Y-22.8137 Z0.2157
G1 X32.1527 Y-22.8133 Z0.2150
G1 X32.1537 Y-22.8128 Z0.2142
G1 X32.1548 Y-22.8122 Z0.2135
G1 X32.1557 Y-22.8116 Z0.2127
G1 X32.1567 Y-22.8108 Z0.2120
G1 X32.1575 Y-22.8100 Z0.2112
G1 X32.1583 Y-22.8092 Z0.2105
G1 X32.1591 Y-22.8083 Z0.2097
G1 X32.1597 Y-22.8073 Z0.2090
G1 X32.1603 Y-22.8062 Z0.2082
G1 X32.1608 Y-22.8052 Z0.2075
G1 X32.1612 Y-22.8041 Z0.2067
G1 X32.1615 Y-22.8029 Z0.2060
G1 X32.1617 Y-22.8018 Z0.2052
G1 X32.1619 Y-22.8006 Z0.2045
G1 X32.1619 Y-22.7994 Z0.2037
G2X32.4309Y-22.7994Z0.2037I0.1345J0.0000 F22.
G2X32.1619Y-22.7994Z0.2037I-0.1345J0.0000
G2X32.2852Y-22.6654Z0.2037I0.1345J0.0000
G0 Z0.3321
G0 X32.2852 Y-22.6654 
G0 Z0.3321
G0 X32.1469 Y-22.8144 
G1 X32.1469 Y-22.8144 Z0.2071 F21.
G1 X32.1481 Y-22.8144 Z0.2064
G1 X32.1493 Y-22.8143 Z0.2056
G1 X32.1504 Y-22.8140 Z0.2049
G1 X32.1516 Y-22.8137 Z0.2041
G1 X32.1527 Y-22.8133 Z0.2034
G1 X32.1537 Y-22.8128 Z0.2026
G1 X32.1548 Y-22.8122 Z0.2019
G1 X32.1557 Y-22.8116 Z0.2011
G1 X32.1567 Y-22.8108 Z0.2004
G1 X32.1575 Y-22.8100 Z0.1996
G1 X32.1583 Y-22.8092 Z0.1989
G1 X32.1591 Y-22.8083 Z0.1981
G1 X32.1597 Y-22.8073 Z0.1974
G1 X32.1603 Y-22.8062 Z0.1966
G1 X32.1608 Y-22.8052 Z0.1959
G1 X32.1612 Y-22.8041 Z0.1951
G1 X32.1615 Y-22.8029 Z0.1944
G1 X32.1617 Y-22.8018 Z0.1936
G1 X32.1619 Y-22.8006 Z0.1929
G1 X32.1619 Y-22.7994 Z0.1921
G2X32.4309Y-22.7994Z0.1921I0.1345J0.0000 F22.
G2X32.1619Y-22.7994Z0.1921I-0.1345J0.0000
G2X32.2852Y-22.6654Z0.1921I0.1345J0.0000
G0 Z0.3206
G0 X32.2852 Y-22.6654 
G0 Z0.3206
G0 X32.1469 Y-22.8144 
G1 X32.1469 Y-22.8144 Z0.1956 F21.
G1 X32.1481 Y-22.8144 Z0.1948
G1 X32.1493 Y-22.8143 Z0.1941
G1 X32.1504 Y-22.8140 Z0.1933
G1 X32.1516 Y-22.8137 Z0.1926
G1 X32.1527 Y-22.8133 Z0.1918
G1 X32.1537 Y-22.8128 Z0.1911
G1 X32.1548 Y-22.8122 Z0.1903
G1 X32.1557 Y-22.8116 Z0.1896
G1 X32.1567 Y-22.8108 Z0.1888
G1 X32.1575 Y-22.8100 Z0.1881
G1 X32.1583 Y-22.8092 Z0.1873
G1 X32.1591 Y-22.8083 Z0.1866
G1 X32.1597 Y-22.8073 Z0.1858
G1 X32.1603 Y-22.8062 Z0.1851
G1 X32.1608 Y-22.8052 Z0.1843
G1 X32.1612 Y-22.8041 Z0.1836
G1 X32.1615 Y-22.8029 Z0.1828
G1 X32.1617 Y-22.8018 Z0.1821
G1 X32.1619 Y-22.8006 Z0.1813
G1 X32.1619 Y-22.7994 Z0.1806
G2X32.4309Y-22.7994Z0.1806I0.1345J0.0000 F22.
G2X32.1619Y-22.7994Z0.1806I-0.1345J0.0000
G2X32.2852Y-22.6654Z0.1806I0.1345J0.0000
G0 Z0.3090
G0 X32.2852 Y-22.6654 
G0 Z0.3090
G0 X32.1469 Y-22.8144 
G1 X32.1469 Y-22.8144 Z0.1840 F21.
G1 X32.1481 Y-22.8144 Z0.1832
G1 X32.1493 Y-22.8143 Z0.1825
G1 X32.1504 Y-22.8140 Z0.1817
G1 X32.1516 Y-22.8137 Z0.1810
G1 X32.1527 Y-22.8133 Z0.1802
G1 X32.1537 Y-22.8128 Z0.1795
G1 X32.1548 Y-22.8122 Z0.1787
G1 X32.1557 Y-22.8116 Z0.1780
G1 X32.1567 Y-22.8108 Z0.1772
G1 X32.1575 Y-22.8100 Z0.1765
G1 X32.1583 Y-22.8092 Z0.1757
G1 X32.1591 Y-22.8083 Z0.1750
G1 X32.1597 Y-22.8073 Z0.1742
G1 X32.1603 Y-22.8062 Z0.1735
G1 X32.1608 Y-22.8052 Z0.1727
G1 X32.1612 Y-22.8041 Z0.1720
G1 X32.1615 Y-22.8029 Z0.1712
G1 X32.1617 Y-22.8018 Z0.1705
G1 X32.1619 Y-22.8006 Z0.1697
G1 X32.1619 Y-22.7994 Z0.1690
G2X32.4309Y-22.7994Z0.1690I0.1345J0.0000 F22.
G2X32.1619Y-22.7994Z0.1690I-0.1345J0.0000
G2X32.2852Y-22.6654Z0.1690I0.1345J0.0000
G0 Z0.3784
G0 X32.2852 Y-22.6654 
G0 Z0.3784
G0 X32.2280 Y-22.6511 
G1 X32.2280 Y-22.6511 Z0.2534 F21.
G1 X32.2273 Y-22.6501 Z0.2527
G1 X32.2266 Y-22.6492 Z0.2519
G1 X32.2259 Y-22.6483 Z0.2512
G1 X32.2250 Y-22.6475 Z0.2504
G1 X32.2241 Y-22.6467 Z0.2497
G1 X32.2231 Y-22.6460 Z0.2489
G1 X32.2221 Y-22.6454 Z0.2482
G1 X32.2211 Y-22.6449 Z0.2474
G1 X32.2200 Y-22.6445 Z0.2467
G1 X32.2188 Y-22.6442 Z0.2459
G1 X32.2177 Y-22.6439 Z0.2452
G1 X32.2165 Y-22.6437 Z0.2444
G1 X32.2154 Y-22.6437 Z0.2437
G1 X32.2142 Y-22.6437 Z0.2429
G1 X32.2130 Y-22.6438 Z0.2422
G1 X32.2118 Y-22.6440 Z0.2414
G1 X32.2107 Y-22.6443 Z0.2407
G1 X32.2096 Y-22.6447 Z0.2399
G1 X32.2085 Y-22.6451 Z0.2392
G1 X32.2075 Y-22.6457 Z0.2384
G1 X32.1185 Y-22.6974 Z0.2384 F22.
G1 X32.1185 Y-22.9029 Z0.2384
G1 X32.2964 Y-23.0049 Z0.2384
G1 X32.4732 Y-22.9029 Z0.2384
G1 X32.4732 Y-22.6973 Z0.2384
G1 X32.2964 Y-22.5940 Z0.2384
G1 X32.2075 Y-22.6457 Z0.2384
G1 X32.1185 Y-22.6974 Z0.2384
G1 X32.1185 Y-22.7944 Z0.2384
G0 Z0.3669
G0 X32.1185 Y-22.7944 
G0 Z0.3669
G0 X32.2280 Y-22.6511 
G1 X32.2280 Y-22.6511 Z0.2419 F21.
G1 X32.2273 Y-22.6501 Z0.2411
G1 X32.2266 Y-22.6492 Z0.2404
G1 X32.2259 Y-22.6483 Z0.2396
G1 X32.2250 Y-22.6475 Z0.2389
G1 X32.2241 Y-22.6467 Z0.2381
G1 X32.2231 Y-22.6460 Z0.2374
G1 X32.2221 Y-22.6454 Z0.2366
G1 X32.2211 Y-22.6449 Z0.2359
G1 X32.2200 Y-22.6445 Z0.2351
G1 X32.2188 Y-22.6442 Z0.2344
G1 X32.2177 Y-22.6439 Z0.2336
G1 X32.2165 Y-22.6437 Z0.2329
G1 X32.2154 Y-22.6437 Z0.2321
G1 X32.2142 Y-22.6437 Z0.2314
G1 X32.2130 Y-22.6438 Z0.2306
G1 X32.2118 Y-22.6440 Z0.2299
G1 X32.2107 Y-22.6443 Z0.2291
G1 X32.2096 Y-22.6447 Z0.2284
G1 X32.2085 Y-22.6451 Z0.2276
G1 X32.2075 Y-22.6457 Z0.2269
G1 X32.1185 Y-22.6974 Z0.2269 F22.
G1 X32.1185 Y-22.9029 Z0.2269
G1 X32.2964 Y-23.0049 Z0.2269
G1 X32.4732 Y-22.9029 Z0.2269
G1 X32.4732 Y-22.6973 Z0.2269
G1 X32.2964 Y-22.5940 Z0.2269
G1 X32.2075 Y-22.6457 Z0.2269
G1 X32.1185 Y-22.6974 Z0.2269
G1 X32.1185 Y-22.7944 Z0.2269
G0 Z0.3553
G0 X32.1185 Y-22.7944 
G0 Z0.3553
G0 X32.2280 Y-22.6511 
G1 X32.2280 Y-22.6511 Z0.2303 F21.
G1 X32.2273 Y-22.6501 Z0.2295
G1 X32.2266 Y-22.6492 Z0.2288
G1 X32.2259 Y-22.6483 Z0.2280
G1 X32.2250 Y-22.6475 Z0.2273
G1 X32.2241 Y-22.6467 Z0.2265
G1 X32.2231 Y-22.6460 Z0.2258
G1 X32.2221 Y-22.6454 Z0.2250
G1 X32.2211 Y-22.6449 Z0.2243
G1 X32.2200 Y-22.6445 Z0.2235
G1 X32.2188 Y-22.6442 Z0.2228
G1 X32.2177 Y-22.6439 Z0.2220
G1 X32.2165 Y-22.6437 Z0.2213
G1 X32.2154 Y-22.6437 Z0.2205
G1 X32.2142 Y-22.6437 Z0.2198
G1 X32.2130 Y-22.6438 Z0.2190
G1 X32.2118 Y-22.6440 Z0.2183
G1 X32.2107 Y-22.6443 Z0.2175
G1 X32.2096 Y-22.6447 Z0.2168
G1 X32.2085 Y-22.6451 Z0.2160
G1 X32.2075 Y-22.6457 Z0.2153
G1 X32.1185 Y-22.6974 Z0.2153 F22.
G1 X32.1185 Y-22.9029 Z0.2153
G1 X32.2964 Y-23.0049 Z0.2153
G1 X32.4732 Y-22.9029 Z0.2153
G1 X32.4732 Y-22.6973 Z0.2153
G1 X32.2964 Y-22.5940 Z0.2153
G1 X32.2075 Y-22.6457 Z0.2153
G1 X32.1185 Y-22.6974 Z0.2153
G1 X32.1185 Y-22.7944 Z0.2153
G0 Z0.3437
G0 X32.1185 Y-22.7944 
G0 Z0.3437
G0 X32.2280 Y-22.6511 
G1 X32.2280 Y-22.6511 Z0.2187 F21.
G1 X32.2273 Y-22.6501 Z0.2180
G1 X32.2266 Y-22.6492 Z0.2172
G1 X32.2259 Y-22.6483 Z0.2165
G1 X32.2250 Y-22.6475 Z0.2157
G1 X32.2241 Y-22.6467 Z0.2150
G1 X32.2231 Y-22.6460 Z0.2142
G1 X32.2221 Y-22.6454 Z0.2135
G1 X32.2211 Y-22.6449 Z0.2127
G1 X32.2200 Y-22.6445 Z0.2120
G1 X32.2188 Y-22.6442 Z0.2112
G1 X32.2177 Y-22.6439 Z0.2105
G1 X32.2165 Y-22.6437 Z0.2097
G1 X32.2154 Y-22.6437 Z0.2090
G1 X32.2142 Y-22.6437 Z0.2082
G1 X32.2130 Y-22.6438 Z0.2075
G1 X32.2118 Y-22.6440 Z0.2067
G1 X32.2107 Y-22.6443 Z0.2060
G1 X32.2096 Y-22.6447 Z0.2052
G1 X32.2085 Y-22.6451 Z0.2045
G1 X32.2075 Y-22.6457 Z0.2037
G1 X32.1185 Y-22.6974 Z0.2037 F22.
G1 X32.1185 Y-22.9029 Z0.2037
G1 X32.2964 Y-23.0049 Z0.2037
G1 X32.4732 Y-22.9029 Z0.2037
G1 X32.4732 Y-22.6973 Z0.2037
G1 X32.2964 Y-22.5940 Z0.2037
G1 X32.2075 Y-22.6457 Z0.2037
G1 X32.1185 Y-22.6974 Z0.2037
G1 X32.1185 Y-22.7944 Z0.2037
G0 Z0.3321
G0 X32.1185 Y-22.7944 
G0 Z0.3321
G0 X32.2280 Y-22.6511 
G1 X32.2280 Y-22.6511 Z0.2071 F21.
G1 X32.2273 Y-22.6501 Z0.2064
G1 X32.2266 Y-22.6492 Z0.2056
G1 X32.2259 Y-22.6483 Z0.2049
G1 X32.2250 Y-22.6475 Z0.2041
G1 X32.2241 Y-22.6467 Z0.2034
G1 X32.2231 Y-22.6460 Z0.2026
G1 X32.2221 Y-22.6454 Z0.2019
G1 X32.2211 Y-22.6449 Z0.2011
G1 X32.2200 Y-22.6445 Z0.2004
G1 X32.2188 Y-22.6442 Z0.1996
G1 X32.2177 Y-22.6439 Z0.1989
G1 X32.2165 Y-22.6437 Z0.1981
G1 X32.2154 Y-22.6437 Z0.1974
G1 X32.2142 Y-22.6437 Z0.1966
G1 X32.2130 Y-22.6438 Z0.1959
G1 X32.2118 Y-22.6440 Z0.1951
G1 X32.2107 Y-22.6443 Z0.1944
G1 X32.2096 Y-22.6447 Z0.1936
G1 X32.2085 Y-22.6451 Z0.1929
G1 X32.2075 Y-22.6457 Z0.1921
G1 X32.1185 Y-22.6974 Z0.1921 F22.
G1 X32.1185 Y-22.9029 Z0.1921
G1 X32.2964 Y-23.0049 Z0.1921
G1 X32.4732 Y-22.9029 Z0.1921
G1 X32.4732 Y-22.6973 Z0.1921
G1 X32.2964 Y-22.5940 Z0.1921
G1 X32.2075 Y-22.6457 Z0.1921
G1 X32.1185 Y-22.6974 Z0.1921
G1 X32.1185 Y-22.7944 Z0.1921
G0 Z0.3206
G0 X32.1185 Y-22.7944 
G0 Z0.3206
G0 X32.2280 Y-22.6511 
G1 X32.2280 Y-22.6511 Z0.1956 F21.
G1 X32.2273 Y-22.6501 Z0.1948
G1 X32.2266 Y-22.6492 Z0.1941
G1 X32.2259 Y-22.6483 Z0.1933
G1 X32.2250 Y-22.6475 Z0.1926
G1 X32.2241 Y-22.6467 Z0.1918
G1 X32.2231 Y-22.6460 Z0.1911
G1 X32.2221 Y-22.6454 Z0.1903
G1 X32.2211 Y-22.6449 Z0.1896
G1 X32.2200 Y-22.6445 Z0.1888
G1 X32.2188 Y-22.6442 Z0.1881
G1 X32.2177 Y-22.6439 Z0.1873
G1 X32.2165 Y-22.6437 Z0.1866
G1 X32.2154 Y-22.6437 Z0.1858
G1 X32.2142 Y-22.6437 Z0.1851
G1 X32.2130 Y-22.6438 Z0.1843
G1 X32.2118 Y-22.6440 Z0.1836
G1 X32.2107 Y-22.6443 Z0.1828
G1 X32.2096 Y-22.6447 Z0.1821
G1 X32.2085 Y-22.6451 Z0.1813
G1 X32.2075 Y-22.6457 Z0.1806
G1 X32.1185 Y-22.6974 Z0.1806 F22.
G1 X32.1185 Y-22.9029 Z0.1806
G1 X32.2964 Y-23.0049 Z0.1806
G1 X32.4732 Y-22.9029 Z0.1806
G1 X32.4732 Y-22.6973 Z0.1806
G1 X32.2964 Y-22.5940 Z0.1806
G1 X32.2075 Y-22.6457 Z0.1806
G1 X32.1185 Y-22.6974 Z0.1806
G1 X32.1185 Y-22.7944 Z0.1806
G0 Z0.3090
G0 X32.1185 Y-22.7944 
G0 Z0.3090
G0 X32.2280 Y-22.6511 
G1 X32.2280 Y-22.6511 Z0.1840 F21.
G1 X32.2273 Y-22.6501 Z0.1832
G1 X32.2266 Y-22.6492 Z0.1825
G1 X32.2259 Y-22.6483 Z0.1817
G1 X32.2250 Y-22.6475 Z0.1810
G1 X32.2241 Y-22.6467 Z0.1802
G1 X32.2231 Y-22.6460 Z0.1795
G1 X32.2221 Y-22.6454 Z0.1787
G1 X32.2211 Y-22.6449 Z0.1780
G1 X32.2200 Y-22.6445 Z0.1772
G1 X32.2188 Y-22.6442 Z0.1765
G1 X32.2177 Y-22.6439 Z0.1757
G1 X32.2165 Y-22.6437 Z0.1750
G1 X32.2154 Y-22.6437 Z0.1742
G1 X32.2142 Y-22.6437 Z0.1735
G1 X32.2130 Y-22.6438 Z0.1727
G1 X32.2118 Y-22.6440 Z0.1720
G1 X32.2107 Y-22.6443 Z0.1712
G1 X32.2096 Y-22.6447 Z0.1705
G1 X32.2085 Y-22.6451 Z0.1697
G1 X32.2075 Y-22.6457 Z0.1690
G1 X32.1185 Y-22.6974 Z0.1690 F22.
G1 X32.1185 Y-22.9029 Z0.1690
G1 X32.2964 Y-23.0049 Z0.1690
G1 X32.4732 Y-22.9029 Z0.1690
G1 X32.4732 Y-22.6973 Z0.1690
G1 X32.2964 Y-22.5940 Z0.1690
G1 X32.2075 Y-22.6457 Z0.1690
G1 X32.1185 Y-22.6974 Z0.1690
G1 X32.1185 Y-22.7944 Z0.1690
G0 Z0.3784
G0 X32.1185 Y-22.7944 
G0 Z0.3784
G0 X34.1435 Y-22.3144 
G1 X34.1435 Y-22.3144 Z0.2534 F21.
G1 X34.1446 Y-22.3144 Z0.2527
G1 X34.1458 Y-22.3143 Z0.2519
G1 X34.1470 Y-22.3140 Z0.2512
G1 X34.1481 Y-22.3137 Z0.2504
G1 X34.1492 Y-22.3133 Z0.2497
G1 X34.1503 Y-22.3128 Z0.2489
G1 X34.1513 Y-22.3122 Z0.2482
G1 X34.1523 Y-22.3116 Z0.2474
G1 X34.1532 Y-22.3108 Z0.2467
G1 X34.1541 Y-22.3100 Z0.2459
G1 X34.1549 Y-22.3092 Z0.2452
G1 X34.1556 Y-22.3083 Z0.2444
G1 X34.1562 Y-22.3073 Z0.2437
G1 X34.1568 Y-22.3062 Z0.2429
G1 X34.1573 Y-22.3052 Z0.2422
G1 X34.1577 Y-22.3041 Z0.2414
G1 X34.1580 Y-22.3029 Z0.2407
G1 X34.1583 Y-22.3018 Z0.2399
G1 X34.1584 Y-22.3006 Z0.2392
G1 X34.1585 Y-22.2994 Z0.2384
G2X34.4688Y-22.2994Z0.2384I0.1551J0.0000 F22.
G2X34.1585Y-22.2994Z0.2384I-0.1552J0.0000
G2X34.2705Y-22.1504Z0.2384I0.1551J0.0000
G0 Z0.3669
G0 X34.2705 Y-22.1504 
G0 Z0.3669
G0 X34.1435 Y-22.3144 
G1 X34.1435 Y-22.3144 Z0.2419 F21.
G1 X34.1446 Y-22.3144 Z0.2411
G1 X34.1458 Y-22.3143 Z0.2404
G1 X34.1470 Y-22.3140 Z0.2396
G1 X34.1481 Y-22.3137 Z0.2389
G1 X34.1492 Y-22.3133 Z0.2381
G1 X34.1503 Y-22.3128 Z0.2374
G1 X34.1513 Y-22.3122 Z0.2366
G1 X34.1523 Y-22.3116 Z0.2359
G1 X34.1532 Y-22.3108 Z0.2351
G1 X34.1541 Y-22.3100 Z0.2344
G1 X34.1549 Y-22.3092 Z0.2336
G1 X34.1556 Y-22.3083 Z0.2329
G1 X34.1562 Y-22.3073 Z0.2321
G1 X34.1568 Y-22.3062 Z0.2314
G1 X34.1573 Y-22.3052 Z0.2306
G1 X34.1577 Y-22.3041 Z0.2299
G1 X34.1580 Y-22.3029 Z0.2291
G1 X34.1583 Y-22.3018 Z0.2284
G1 X34.1584 Y-22.3006 Z0.2276
G1 X34.1585 Y-22.2994 Z0.2269
G2X34.4688Y-22.2994Z0.2269I0.1551J0.0000 F22.
G2X34.1585Y-22.2994Z0.2269I-0.1552J0.0000
G2X34.2705Y-22.1504Z0.2269I0.1551J0.0000
G0 Z0.3553
G0 X34.2705 Y-22.1504 
G0 Z0.3553
G0 X34.1435 Y-22.3144 
G1 X34.1435 Y-22.3144 Z0.2303 F21.
G1 X34.1446 Y-22.3144 Z0.2295
G1 X34.1458 Y-22.3143 Z0.2288
G1 X34.1470 Y-22.3140 Z0.2280
G1 X34.1481 Y-22.3137 Z0.2273
G1 X34.1492 Y-22.3133 Z0.2265
G1 X34.1503 Y-22.3128 Z0.2258
G1 X34.1513 Y-22.3122 Z0.2250
G1 X34.1523 Y-22.3116 Z0.2243
G1 X34.1532 Y-22.3108 Z0.2235
G1 X34.1541 Y-22.3100 Z0.2228
G1 X34.1549 Y-22.3092 Z0.2220
G1 X34.1556 Y-22.3083 Z0.2213
G1 X34.1562 Y-22.3073 Z0.2205
G1 X34.1568 Y-22.3062 Z0.2198
G1 X34.1573 Y-22.3052 Z0.2190
G1 X34.1577 Y-22.3041 Z0.2183
G1 X34.1580 Y-22.3029 Z0.2175
G1 X34.1583 Y-22.3018 Z0.2168
G1 X34.1584 Y-22.3006 Z0.2160
G1 X34.1585 Y-22.2994 Z0.2153
G2X34.4688Y-22.2994Z0.2153I0.1551J0.0000 F22.
G2X34.1585Y-22.2994Z0.2153I-0.1552J0.0000
G2X34.2705Y-22.1504Z0.2153I0.1551J0.0000
G0 Z0.3437
G0 X34.2705 Y-22.1504 
G0 Z0.3437
G0 X34.1435 Y-22.3144 
G1 X34.1435 Y-22.3144 Z0.2187 F21.
G1 X34.1446 Y-22.3144 Z0.2180
G1 X34.1458 Y-22.3143 Z0.2172
G1 X34.1470 Y-22.3140 Z0.2165
G1 X34.1481 Y-22.3137 Z0.2157
G1 X34.1492 Y-22.3133 Z0.2150
G1 X34.1503 Y-22.3128 Z0.2142
G1 X34.1513 Y-22.3122 Z0.2135
G1 X34.1523 Y-22.3116 Z0.2127
G1 X34.1532 Y-22.3108 Z0.2120
G1 X34.1541 Y-22.3100 Z0.2112
G1 X34.1549 Y-22.3092 Z0.2105
G1 X34.1556 Y-22.3083 Z0.2097
G1 X34.1562 Y-22.3073 Z0.2090
G1 X34.1568 Y-22.3062 Z0.2082
G1 X34.1573 Y-22.3052 Z0.2075
G1 X34.1577 Y-22.3041 Z0.2067
G1 X34.1580 Y-22.3029 Z0.2060
G1 X34.1583 Y-22.3018 Z0.2052
G1 X34.1584 Y-22.3006 Z0.2045
G1 X34.1585 Y-22.2994 Z0.2037
G2X34.4688Y-22.2994Z0.2037I0.1551J0.0000 F22.
G2X34.1585Y-22.2994Z0.2037I-0.1552J0.0000
G2X34.2705Y-22.1504Z0.2037I0.1551J0.0000
G0 Z0.3321
G0 X34.2705 Y-22.1504 
G0 Z0.3321
G0 X34.1435 Y-22.3144 
G1 X34.1435 Y-22.3144 Z0.2071 F21.
G1 X34.1446 Y-22.3144 Z0.2064
G1 X34.1458 Y-22.3143 Z0.2056
G1 X34.1470 Y-22.3140 Z0.2049
G1 X34.1481 Y-22.3137 Z0.2041
G1 X34.1492 Y-22.3133 Z0.2034
G1 X34.1503 Y-22.3128 Z0.2026
G1 X34.1513 Y-22.3122 Z0.2019
G1 X34.1523 Y-22.3116 Z0.2011
G1 X34.1532 Y-22.3108 Z0.2004
G1 X34.1541 Y-22.3100 Z0.1996
G1 X34.1549 Y-22.3092 Z0.1989
G1 X34.1556 Y-22.3083 Z0.1981
G1 X34.1562 Y-22.3073 Z0.1974
G1 X34.1568 Y-22.3062 Z0.1966
G1 X34.1573 Y-22.3052 Z0.1959
G1 X34.1577 Y-22.3041 Z0.1951
G1 X34.1580 Y-22.3029 Z0.1944
G1 X34.1583 Y-22.3018 Z0.1936
G1 X34.1584 Y-22.3006 Z0.1929
G1 X34.1585 Y-22.2994 Z0.1921
G2X34.4688Y-22.2994Z0.1921I0.1551J0.0000 F22.
G2X34.1585Y-22.2994Z0.1921I-0.1552J0.0000
G2X34.2705Y-22.1504Z0.1921I0.1551J0.0000
G0 Z0.3206
G0 X34.2705 Y-22.1504 
G0 Z0.3206
G0 X34.1435 Y-22.3144 
G1 X34.1435 Y-22.3144 Z0.1956 F21.
G1 X34.1446 Y-22.3144 Z0.1948
G1 X34.1458 Y-22.3143 Z0.1941
G1 X34.1470 Y-22.3140 Z0.1933
G1 X34.1481 Y-22.3137 Z0.1926
G1 X34.1492 Y-22.3133 Z0.1918
G1 X34.1503 Y-22.3128 Z0.1911
G1 X34.1513 Y-22.3122 Z0.1903
G1 X34.1523 Y-22.3116 Z0.1896
G1 X34.1532 Y-22.3108 Z0.1888
G1 X34.1541 Y-22.3100 Z0.1881
G1 X34.1549 Y-22.3092 Z0.1873
G1 X34.1556 Y-22.3083 Z0.1866
G1 X34.1562 Y-22.3073 Z0.1858
G1 X34.1568 Y-22.3062 Z0.1851
G1 X34.1573 Y-22.3052 Z0.1843
G1 X34.1577 Y-22.3041 Z0.1836
G1 X34.1580 Y-22.3029 Z0.1828
G1 X34.1583 Y-22.3018 Z0.1821
G1 X34.1584 Y-22.3006 Z0.1813
G1 X34.1585 Y-22.2994 Z0.1806
G2X34.4688Y-22.2994Z0.1806I0.1551J0.0000 F22.
G2X34.1585Y-22.2994Z0.1806I-0.1552J0.0000
G2X34.2705Y-22.1504Z0.1806I0.1551J0.0000
G0 Z0.3090
G0 X34.2705 Y-22.1504 
G0 Z0.3090
G0 X34.1435 Y-22.3144 
G1 X34.1435 Y-22.3144 Z0.1840 F21.
G1 X34.1446 Y-22.3144 Z0.1832
G1 X34.1458 Y-22.3143 Z0.1825
G1 X34.1470 Y-22.3140 Z0.1817
G1 X34.1481 Y-22.3137 Z0.1810
G1 X34.1492 Y-22.3133 Z0.1802
G1 X34.1503 Y-22.3128 Z0.1795
G1 X34.1513 Y-22.3122 Z0.1787
G1 X34.1523 Y-22.3116 Z0.1780
G1 X34.1532 Y-22.3108 Z0.1772
G1 X34.1541 Y-22.3100 Z0.1765
G1 X34.1549 Y-22.3092 Z0.1757
G1 X34.1556 Y-22.3083 Z0.1750
G1 X34.1562 Y-22.3073 Z0.1742
G1 X34.1568 Y-22.3062 Z0.1735
G1 X34.1573 Y-22.3052 Z0.1727
G1 X34.1577 Y-22.3041 Z0.1720
G1 X34.1580 Y-22.3029 Z0.1712
G1 X34.1583 Y-22.3018 Z0.1705
G1 X34.1584 Y-22.3006 Z0.1697
G1 X34.1585 Y-22.2994 Z0.1690
G2X34.4688Y-22.2994Z0.1690I0.1551J0.0000 F22.
G2X34.1585Y-22.2994Z0.1690I-0.1552J0.0000
G2X34.2705Y-22.1504Z0.1690I0.1551J0.0000
G0 Z0.3784
G0 X34.2705 Y-22.1504 
G0 Z0.3784
G0 X34.2297 Y-22.1243 
G1 X34.2297 Y-22.1243 Z0.2534 F21.
G1 X34.2290 Y-22.1233 Z0.2527
G1 X34.2283 Y-22.1224 Z0.2519
G1 X34.2276 Y-22.1215 Z0.2512
G1 X34.2267 Y-22.1207 Z0.2504
G1 X34.2258 Y-22.1199 Z0.2497
G1 X34.2248 Y-22.1193 Z0.2489
G1 X34.2238 Y-22.1187 Z0.2482
G1 X34.2228 Y-22.1181 Z0.2474
G1 X34.2217 Y-22.1177 Z0.2467
G1 X34.2205 Y-22.1174 Z0.2459
G1 X34.2194 Y-22.1171 Z0.2452
G1 X34.2182 Y-22.1169 Z0.2444
G1 X34.2171 Y-22.1169 Z0.2437
G1 X34.2159 Y-22.1169 Z0.2429
G1 X34.2147 Y-22.1170 Z0.2422
G1 X34.2135 Y-22.1172 Z0.2414
G1 X34.2124 Y-22.1175 Z0.2407
G1 X34.2113 Y-22.1179 Z0.2399
G1 X34.2102 Y-22.1183 Z0.2392
G1 X34.2092 Y-22.1189 Z0.2384
G1 X34.1047 Y-22.1796 Z0.2384 F22.
G1 X34.1047 Y-22.4209 Z0.2384
G1 X34.3136 Y-22.5407 Z0.2384
G1 X34.5212 Y-22.4209 Z0.2384
G1 X34.5212 Y-22.1796 Z0.2384
G1 X34.3136 Y-22.0582 Z0.2384
G1 X34.2092 Y-22.1189 Z0.2384
G1 X34.1047 Y-22.1796 Z0.2384
G1 X34.1047 Y-22.2587 Z0.2384
G0 Z0.3669
G0 X34.1047 Y-22.2587 
G0 Z0.3669
G0 X34.2297 Y-22.1243 
G1 X34.2297 Y-22.1243 Z0.2419 F21.
G1 X34.2290 Y-22.1233 Z0.2411
G1 X34.2283 Y-22.1224 Z0.2404
G1 X34.2276 Y-22.1215 Z0.2396
G1 X34.2267 Y-22.1207 Z0.2389
G1 X34.2258 Y-22.1199 Z0.2381
G1 X34.2248 Y-22.1193 Z0.2374
G1 X34.2238 Y-22.1187 Z0.2366
G1 X34.2228 Y-22.1181 Z0.2359
G1 X34.2217 Y-22.1177 Z0.2351
G1 X34.2205 Y-22.1174 Z0.2344
G1 X34.2194 Y-22.1171 Z0.2336
G1 X34.2182 Y-22.1169 Z0.2329
G1 X34.2171 Y-22.1169 Z0.2321
G1 X34.2159 Y-22.1169 Z0.2314
G1 X34.2147 Y-22.1170 Z0.2306
G1 X34.2135 Y-22.1172 Z0.2299
G1 X34.2124 Y-22.1175 Z0.2291
G1 X34.2113 Y-22.1179 Z0.2284
G1 X34.2102 Y-22.1183 Z0.2276
G1 X34.2092 Y-22.1189 Z0.2269
G1 X34.1047 Y-22.1796 Z0.2269 F22.
G1 X34.1047 Y-22.4209 Z0.2269
G1 X34.3136 Y-22.5407 Z0.2269
G1 X34.5212 Y-22.4209 Z0.2269
G1 X34.5212 Y-22.1796 Z0.2269
G1 X34.3136 Y-22.0582 Z0.2269
G1 X34.2092 Y-22.1189 Z0.2269
G1 X34.1047 Y-22.1796 Z0.2269
G1 X34.1047 Y-22.2587 Z0.2269
G0 Z0.3553
G0 X34.1047 Y-22.2587 
G0 Z0.3553
G0 X34.2297 Y-22.1243 
G1 X34.2297 Y-22.1243 Z0.2303 F21.
G1 X34.2290 Y-22.1233 Z0.2295
G1 X34.2283 Y-22.1224 Z0.2288
G1 X34.2276 Y-22.1215 Z0.2280
G1 X34.2267 Y-22.1207 Z0.2273
G1 X34.2258 Y-22.1199 Z0.2265
G1 X34.2248 Y-22.1193 Z0.2258
G1 X34.2238 Y-22.1187 Z0.2250
G1 X34.2228 Y-22.1181 Z0.2243
G1 X34.2217 Y-22.1177 Z0.2235
G1 X34.2205 Y-22.1174 Z0.2228
G1 X34.2194 Y-22.1171 Z0.2220
G1 X34.2182 Y-22.1169 Z0.2213
G1 X34.2171 Y-22.1169 Z0.2205
G1 X34.2159 Y-22.1169 Z0.2198
G1 X34.2147 Y-22.1170 Z0.2190
G1 X34.2135 Y-22.1172 Z0.2183
G1 X34.2124 Y-22.1175 Z0.2175
G1 X34.2113 Y-22.1179 Z0.2168
G1 X34.2102 Y-22.1183 Z0.2160
G1 X34.2092 Y-22.1189 Z0.2153
G1 X34.1047 Y-22.1796 Z0.2153 F22.
G1 X34.1047 Y-22.4209 Z0.2153
G1 X34.3136 Y-22.5407 Z0.2153
G1 X34.5212 Y-22.4209 Z0.2153
G1 X34.5212 Y-22.1796 Z0.2153
G1 X34.3136 Y-22.0582 Z0.2153
G1 X34.2092 Y-22.1189 Z0.2153
G1 X34.1047 Y-22.1796 Z0.2153
G1 X34.1047 Y-22.2587 Z0.2153
G0 Z0.3437
G0 X34.1047 Y-22.2587 
G0 Z0.3437
G0 X34.2297 Y-22.1243 
G1 X34.2297 Y-22.1243 Z0.2187 F21.
G1 X34.2290 Y-22.1233 Z0.2180
G1 X34.2283 Y-22.1224 Z0.2172
G1 X34.2276 Y-22.1215 Z0.2165
G1 X34.2267 Y-22.1207 Z0.2157
G1 X34.2258 Y-22.1199 Z0.2150
G1 X34.2248 Y-22.1193 Z0.2142
G1 X34.2238 Y-22.1187 Z0.2135
G1 X34.2228 Y-22.1181 Z0.2127
G1 X34.2217 Y-22.1177 Z0.2120
G1 X34.2205 Y-22.1174 Z0.2112
G1 X34.2194 Y-22.1171 Z0.2105
G1 X34.2182 Y-22.1169 Z0.2097
G1 X34.2171 Y-22.1169 Z0.2090
G1 X34.2159 Y-22.1169 Z0.2082
G1 X34.2147 Y-22.1170 Z0.2075
G1 X34.2135 Y-22.1172 Z0.2067
G1 X34.2124 Y-22.1175 Z0.2060
G1 X34.2113 Y-22.1179 Z0.2052
G1 X34.2102 Y-22.1183 Z0.2045
G1 X34.2092 Y-22.1189 Z0.2037
G1 X34.1047 Y-22.1796 Z0.2037 F22.
G1 X34.1047 Y-22.4209 Z0.2037
G1 X34.3136 Y-22.5407 Z0.2037
G1 X34.5212 Y-22.4209 Z0.2037
G1 X34.5212 Y-22.1796 Z0.2037
G1 X34.3136 Y-22.0582 Z0.2037
G1 X34.2092 Y-22.1189 Z0.2037
G1 X34.1047 Y-22.1796 Z0.2037
G1 X34.1047 Y-22.2587 Z0.2037
G0 Z0.3321
G0 X34.1047 Y-22.2587 
G0 Z0.3321
G0 X34.2297 Y-22.1243 
G1 X34.2297 Y-22.1243 Z0.2071 F21.
G1 X34.2290 Y-22.1233 Z0.2064
G1 X34.2283 Y-22.1224 Z0.2056
G1 X34.2276 Y-22.1215 Z0.2049
G1 X34.2267 Y-22.1207 Z0.2041
G1 X34.2258 Y-22.1199 Z0.2034
G1 X34.2248 Y-22.1193 Z0.2026
G1 X34.2238 Y-22.1187 Z0.2019
G1 X34.2228 Y-22.1181 Z0.2011
G1 X34.2217 Y-22.1177 Z0.2004
G1 X34.2205 Y-22.1174 Z0.1996
G1 X34.2194 Y-22.1171 Z0.1989
G1 X34.2182 Y-22.1169 Z0.1981
G1 X34.2171 Y-22.1169 Z0.1974
G1 X34.2159 Y-22.1169 Z0.1966
G1 X34.2147 Y-22.1170 Z0.1959
G1 X34.2135 Y-22.1172 Z0.1951
G1 X34.2124 Y-22.1175 Z0.1944
G1 X34.2113 Y-22.1179 Z0.1936
G1 X34.2102 Y-22.1183 Z0.1929
G1 X34.2092 Y-22.1189 Z0.1921
G1 X34.1047 Y-22.1796 Z0.1921 F22.
G1 X34.1047 Y-22.4209 Z0.1921
G1 X34.3136 Y-22.5407 Z0.1921
G1 X34.5212 Y-22.4209 Z0.1921
G1 X34.5212 Y-22.1796 Z0.1921
G1 X34.3136 Y-22.0582 Z0.1921
G1 X34.2092 Y-22.1189 Z0.1921
G1 X34.1047 Y-22.1796 Z0.1921
G1 X34.1047 Y-22.2587 Z0.1921
G0 Z0.3206
G0 X34.1047 Y-22.2587 
G0 Z0.3206
G0 X34.2297 Y-22.1243 
G1 X34.2297 Y-22.1243 Z0.1956 F21.
G1 X34.2290 Y-22.1233 Z0.1948
G1 X34.2283 Y-22.1224 Z0.1941
G1 X34.2276 Y-22.1215 Z0.1933
G1 X34.2267 Y-22.1207 Z0.1926
G1 X34.2258 Y-22.1199 Z0.1918
G1 X34.2248 Y-22.1193 Z0.1911
G1 X34.2238 Y-22.1187 Z0.1903
G1 X34.2228 Y-22.1181 Z0.1896
G1 X34.2217 Y-22.1177 Z0.1888
G1 X34.2205 Y-22.1174 Z0.1881
G1 X34.2194 Y-22.1171 Z0.1873
G1 X34.2182 Y-22.1169 Z0.1866
G1 X34.2171 Y-22.1169 Z0.1858
G1 X34.2159 Y-22.1169 Z0.1851
G1 X34.2147 Y-22.1170 Z0.1843
G1 X34.2135 Y-22.1172 Z0.1836
G1 X34.2124 Y-22.1175 Z0.1828
G1 X34.2113 Y-22.1179 Z0.1821
G1 X34.2102 Y-22.1183 Z0.1813
G1 X34.2092 Y-22.1189 Z0.1806
G1 X34.1047 Y-22.1796 Z0.1806 F22.
G1 X34.1047 Y-22.4209 Z0.1806
G1 X34.3136 Y-22.5407 Z0.1806
G1 X34.5212 Y-22.4209 Z0.1806
G1 X34.5212 Y-22.1796 Z0.1806
G1 X34.3136 Y-22.0582 Z0.1806
G1 X34.2092 Y-22.1189 Z0.1806
G1 X34.1047 Y-22.1796 Z0.1806
G1 X34.1047 Y-22.2587 Z0.1806
G0 Z0.3090
G0 X34.1047 Y-22.2587 
G0 Z0.3090
G0 X34.2297 Y-22.1243 
G1 X34.2297 Y-22.1243 Z0.1840 F21.
G1 X34.2290 Y-22.1233 Z0.1832
G1 X34.2283 Y-22.1224 Z0.1825
G1 X34.2276 Y-22.1215 Z0.1817
G1 X34.2267 Y-22.1207 Z0.1810
G1 X34.2258 Y-22.1199 Z0.1802
G1 X34.2248 Y-22.1193 Z0.1795
G1 X34.2238 Y-22.1187 Z0.1787
G1 X34.2228 Y-22.1181 Z0.1780
G1 X34.2217 Y-22.1177 Z0.1772
G1 X34.2205 Y-22.1174 Z0.1765
G1 X34.2194 Y-22.1171 Z0.1757
G1 X34.2182 Y-22.1169 Z0.1750
G1 X34.2171 Y-22.1169 Z0.1742
G1 X34.2159 Y-22.1169 Z0.1735
G1 X34.2147 Y-22.1170 Z0.1727
G1 X34.2135 Y-22.1172 Z0.1720
G1 X34.2124 Y-22.1175 Z0.1712
G1 X34.2113 Y-22.1179 Z0.1705
G1 X34.2102 Y-22.1183 Z0.1697
G1 X34.2092 Y-22.1189 Z0.1690
G1 X34.1047 Y-22.1796 Z0.1690 F22.
G1 X34.1047 Y-22.4209 Z0.1690
G1 X34.3136 Y-22.5407 Z0.1690
G1 X34.5212 Y-22.4209 Z0.1690
G1 X34.5212 Y-22.1796 Z0.1690
G1 X34.3136 Y-22.0582 Z0.1690
G1 X34.2092 Y-22.1189 Z0.1690
G1 X34.1047 Y-22.1796 Z0.1690
G1 X34.1047 Y-22.2587 Z0.1690
G0 Z0.3784
G0 X34.1047 Y-22.2587 
G0 Z0.3784
G0 X34.2297 Y-23.1243 
G1 X34.2297 Y-23.1243 Z0.2534 F21.
G1 X34.2290 Y-23.1233 Z0.2527
G1 X34.2283 Y-23.1224 Z0.2519
G1 X34.2276 Y-23.1215 Z0.2512
G1 X34.2267 Y-23.1207 Z0.2504
G1 X34.2258 Y-23.1199 Z0.2497
G1 X34.2248 Y-23.1193 Z0.2489
G1 X34.2238 Y-23.1187 Z0.2482
G1 X34.2228 Y-23.1181 Z0.2474
G1 X34.2217 Y-23.1177 Z0.2467
G1 X34.2205 Y-23.1174 Z0.2459
G1 X34.2194 Y-23.1171 Z0.2452
G1 X34.2182 Y-23.1169 Z0.2444
G1 X34.2171 Y-23.1169 Z0.2437
G1 X34.2159 Y-23.1169 Z0.2429
G1 X34.2147 Y-23.1170 Z0.2422
G1 X34.2135 Y-23.1172 Z0.2414
G1 X34.2124 Y-23.1175 Z0.2407
G1 X34.2113 Y-23.1179 Z0.2399
G1 X34.2102 Y-23.1183 Z0.2392
G1 X34.2092 Y-23.1189 Z0.2384
G1 X34.1047 Y-23.1796 Z0.2384 F22.
G1 X34.1047 Y-23.4209 Z0.2384
G1 X34.3136 Y-23.5407 Z0.2384
G1 X34.5212 Y-23.4209 Z0.2384
G1 X34.5212 Y-23.1796 Z0.2384
G1 X34.3136 Y-23.0582 Z0.2384
G1 X34.2092 Y-23.1189 Z0.2384
G1 X34.1047 Y-23.1796 Z0.2384
G1 X34.1047 Y-23.2587 Z0.2384
G0 Z0.3669
G0 X34.1047 Y-23.2587 
G0 Z0.3669
G0 X34.2297 Y-23.1243 
G1 X34.2297 Y-23.1243 Z0.2419 F21.
G1 X34.2290 Y-23.1233 Z0.2411
G1 X34.2283 Y-23.1224 Z0.2404
G1 X34.2276 Y-23.1215 Z0.2396
G1 X34.2267 Y-23.1207 Z0.2389
G1 X34.2258 Y-23.1199 Z0.2381
G1 X34.2248 Y-23.1193 Z0.2374
G1 X34.2238 Y-23.1187 Z0.2366
G1 X34.2228 Y-23.1181 Z0.2359
G1 X34.2217 Y-23.1177 Z0.2351
G1 X34.2205 Y-23.1174 Z0.2344
G1 X34.2194 Y-23.1171 Z0.2336
G1 X34.2182 Y-23.1169 Z0.2329
G1 X34.2171 Y-23.1169 Z0.2321
G1 X34.2159 Y-23.1169 Z0.2314
G1 X34.2147 Y-23.1170 Z0.2306
G1 X34.2135 Y-23.1172 Z0.2299
G1 X34.2124 Y-23.1175 Z0.2291
G1 X34.2113 Y-23.1179 Z0.2284
G1 X34.2102 Y-23.1183 Z0.2276
G1 X34.2092 Y-23.1189 Z0.2269
G1 X34.1047 Y-23.1796 Z0.2269 F22.
G1 X34.1047 Y-23.4209 Z0.2269
G1 X34.3136 Y-23.5407 Z0.2269
G1 X34.5212 Y-23.4209 Z0.2269
G1 X34.5212 Y-23.1796 Z0.2269
G1 X34.3136 Y-23.0582 Z0.2269
G1 X34.2092 Y-23.1189 Z0.2269
G1 X34.1047 Y-23.1796 Z0.2269
G1 X34.1047 Y-23.2587 Z0.2269
G0 Z0.3553
G0 X34.1047 Y-23.2587 
G0 Z0.3553
G0 X34.2297 Y-23.1243 
G1 X34.2297 Y-23.1243 Z0.2303 F21.
G1 X34.2290 Y-23.1233 Z0.2295
G1 X34.2283 Y-23.1224 Z0.2288
G1 X34.2276 Y-23.1215 Z0.2280
G1 X34.2267 Y-23.1207 Z0.2273
G1 X34.2258 Y-23.1199 Z0.2265
G1 X34.2248 Y-23.1193 Z0.2258
G1 X34.2238 Y-23.1187 Z0.2250
G1 X34.2228 Y-23.1181 Z0.2243
G1 X34.2217 Y-23.1177 Z0.2235
G1 X34.2205 Y-23.1174 Z0.2228
G1 X34.2194 Y-23.1171 Z0.2220
G1 X34.2182 Y-23.1169 Z0.2213
G1 X34.2171 Y-23.1169 Z0.2205
G1 X34.2159 Y-23.1169 Z0.2198
G1 X34.2147 Y-23.1170 Z0.2190
G1 X34.2135 Y-23.1172 Z0.2183
G1 X34.2124 Y-23.1175 Z0.2175
G1 X34.2113 Y-23.1179 Z0.2168
G1 X34.2102 Y-23.1183 Z0.2160
G1 X34.2092 Y-23.1189 Z0.2153
G1 X34.1047 Y-23.1796 Z0.2153 F22.
G1 X34.1047 Y-23.4209 Z0.2153
G1 X34.3136 Y-23.5407 Z0.2153
G1 X34.5212 Y-23.4209 Z0.2153
G1 X34.5212 Y-23.1796 Z0.2153
G1 X34.3136 Y-23.0582 Z0.2153
G1 X34.2092 Y-23.1189 Z0.2153
G1 X34.1047 Y-23.1796 Z0.2153
G1 X34.1047 Y-23.2587 Z0.2153
G0 Z0.3437
G0 X34.1047 Y-23.2587 
G0 Z0.3437
G0 X34.2297 Y-23.1243 
G1 X34.2297 Y-23.1243 Z0.2187 F21.
G1 X34.2290 Y-23.1233 Z0.2180
G1 X34.2283 Y-23.1224 Z0.2172
G1 X34.2276 Y-23.1215 Z0.2165
G1 X34.2267 Y-23.1207 Z0.2157
G1 X34.2258 Y-23.1199 Z0.2150
G1 X34.2248 Y-23.1193 Z0.2142
G1 X34.2238 Y-23.1187 Z0.2135
G1 X34.2228 Y-23.1181 Z0.2127
G1 X34.2217 Y-23.1177 Z0.2120
G1 X34.2205 Y-23.1174 Z0.2112
G1 X34.2194 Y-23.1171 Z0.2105
G1 X34.2182 Y-23.1169 Z0.2097
G1 X34.2171 Y-23.1169 Z0.2090
G1 X34.2159 Y-23.1169 Z0.2082
G1 X34.2147 Y-23.1170 Z0.2075
G1 X34.2135 Y-23.1172 Z0.2067
G1 X34.2124 Y-23.1175 Z0.2060
G1 X34.2113 Y-23.1179 Z0.2052
G1 X34.2102 Y-23.1183 Z0.2045
G1 X34.2092 Y-23.1189 Z0.2037
G1 X34.1047 Y-23.1796 Z0.2037 F22.
G1 X34.1047 Y-23.4209 Z0.2037
G1 X34.3136 Y-23.5407 Z0.2037
G1 X34.5212 Y-23.4209 Z0.2037
G1 X34.5212 Y-23.1796 Z0.2037
G1 X34.3136 Y-23.0582 Z0.2037
G1 X34.2092 Y-23.1189 Z0.2037
G1 X34.1047 Y-23.1796 Z0.2037
G1 X34.1047 Y-23.2587 Z0.2037
G0 Z0.3321
G0 X34.1047 Y-23.2587 
G0 Z0.3321
G0 X34.2297 Y-23.1243 
G1 X34.2297 Y-23.1243 Z0.2071 F21.
G1 X34.2290 Y-23.1233 Z0.2064
G1 X34.2283 Y-23.1224 Z0.2056
G1 X34.2276 Y-23.1215 Z0.2049
G1 X34.2267 Y-23.1207 Z0.2041
G1 X34.2258 Y-23.1199 Z0.2034
G1 X34.2248 Y-23.1193 Z0.2026
G1 X34.2238 Y-23.1187 Z0.2019
G1 X34.2228 Y-23.1181 Z0.2011
G1 X34.2217 Y-23.1177 Z0.2004
G1 X34.2205 Y-23.1174 Z0.1996
G1 X34.2194 Y-23.1171 Z0.1989
G1 X34.2182 Y-23.1169 Z0.1981
G1 X34.2171 Y-23.1169 Z0.1974
G1 X34.2159 Y-23.1169 Z0.1966
G1 X34.2147 Y-23.1170 Z0.1959
G1 X34.2135 Y-23.1172 Z0.1951
G1 X34.2124 Y-23.1175 Z0.1944
G1 X34.2113 Y-23.1179 Z0.1936
G1 X34.2102 Y-23.1183 Z0.1929
G1 X34.2092 Y-23.1189 Z0.1921
G1 X34.1047 Y-23.1796 Z0.1921 F22.
G1 X34.1047 Y-23.4209 Z0.1921
G1 X34.3136 Y-23.5407 Z0.1921
G1 X34.5212 Y-23.4209 Z0.1921
G1 X34.5212 Y-23.1796 Z0.1921
G1 X34.3136 Y-23.0582 Z0.1921
G1 X34.2092 Y-23.1189 Z0.1921
G1 X34.1047 Y-23.1796 Z0.1921
G1 X34.1047 Y-23.2587 Z0.1921
G0 Z0.3206
G0 X34.1047 Y-23.2587 
G0 Z0.3206
G0 X34.2297 Y-23.1243 
G1 X34.2297 Y-23.1243 Z0.1956 F21.
G1 X34.2290 Y-23.1233 Z0.1948
G1 X34.2283 Y-23.1224 Z0.1941
G1 X34.2276 Y-23.1215 Z0.1933
G1 X34.2267 Y-23.1207 Z0.1926
G1 X34.2258 Y-23.1199 Z0.1918
G1 X34.2248 Y-23.1193 Z0.1911
G1 X34.2238 Y-23.1187 Z0.1903
G1 X34.2228 Y-23.1181 Z0.1896
G1 X34.2217 Y-23.1177 Z0.1888
G1 X34.2205 Y-23.1174 Z0.1881
G1 X34.2194 Y-23.1171 Z0.1873
G1 X34.2182 Y-23.1169 Z0.1866
G1 X34.2171 Y-23.1169 Z0.1858
G1 X34.2159 Y-23.1169 Z0.1851
G1 X34.2147 Y-23.1170 Z0.1843
G1 X34.2135 Y-23.1172 Z0.1836
G1 X34.2124 Y-23.1175 Z0.1828
G1 X34.2113 Y-23.1179 Z0.1821
G1 X34.2102 Y-23.1183 Z0.1813
G1 X34.2092 Y-23.1189 Z0.1806
G1 X34.1047 Y-23.1796 Z0.1806 F22.
G1 X34.1047 Y-23.4209 Z0.1806
G1 X34.3136 Y-23.5407 Z0.1806
G1 X34.5212 Y-23.4209 Z0.1806
G1 X34.5212 Y-23.1796 Z0.1806
G1 X34.3136 Y-23.0582 Z0.1806
G1 X34.2092 Y-23.1189 Z0.1806
G1 X34.1047 Y-23.1796 Z0.1806
G1 X34.1047 Y-23.2587 Z0.1806
G0 Z0.3090
G0 X34.1047 Y-23.2587 
G0 Z0.3090
G0 X34.2297 Y-23.1243 
G1 X34.2297 Y-23.1243 Z0.1840 F21.
G1 X34.2290 Y-23.1233 Z0.1832
G1 X34.2283 Y-23.1224 Z0.1825
G1 X34.2276 Y-23.1215 Z0.1817
G1 X34.2267 Y-23.1207 Z0.1810
G1 X34.2258 Y-23.1199 Z0.1802
G1 X34.2248 Y-23.1193 Z0.1795
G1 X34.2238 Y-23.1187 Z0.1787
G1 X34.2228 Y-23.1181 Z0.1780
G1 X34.2217 Y-23.1177 Z0.1772
G1 X34.2205 Y-23.1174 Z0.1765
G1 X34.2194 Y-23.1171 Z0.1757
G1 X34.2182 Y-23.1169 Z0.1750
G1 X34.2171 Y-23.1169 Z0.1742
G1 X34.2159 Y-23.1169 Z0.1735
G1 X34.2147 Y-23.1170 Z0.1727
G1 X34.2135 Y-23.1172 Z0.1720
G1 X34.2124 Y-23.1175 Z0.1712
G1 X34.2113 Y-23.1179 Z0.1705
G1 X34.2102 Y-23.1183 Z0.1697
G1 X34.2092 Y-23.1189 Z0.1690
G1 X34.1047 Y-23.1796 Z0.1690 F22.
G1 X34.1047 Y-23.4209 Z0.1690
G1 X34.3136 Y-23.5407 Z0.1690
G1 X34.5212 Y-23.4209 Z0.1690
G1 X34.5212 Y-23.1796 Z0.1690
G1 X34.3136 Y-23.0582 Z0.1690
G1 X34.2092 Y-23.1189 Z0.1690
G1 X34.1047 Y-23.1796 Z0.1690
G1 X34.1047 Y-23.2587 Z0.1690
G0 Z0.3784
G0 X34.1047 Y-23.2587 
G0 Z0.3784
G0 X34.1435 Y-23.3144 
G1 X34.1435 Y-23.3144 Z0.2534 F21.
G1 X34.1446 Y-23.3144 Z0.2527
G1 X34.1458 Y-23.3143 Z0.2519
G1 X34.1470 Y-23.3140 Z0.2512
G1 X34.1481 Y-23.3137 Z0.2504
G1 X34.1492 Y-23.3133 Z0.2497
G1 X34.1503 Y-23.3128 Z0.2489
G1 X34.1513 Y-23.3122 Z0.2482
G1 X34.1523 Y-23.3116 Z0.2474
G1 X34.1532 Y-23.3108 Z0.2467
G1 X34.1541 Y-23.3100 Z0.2459
G1 X34.1549 Y-23.3092 Z0.2452
G1 X34.1556 Y-23.3083 Z0.2444
G1 X34.1562 Y-23.3073 Z0.2437
G1 X34.1568 Y-23.3062 Z0.2429
G1 X34.1573 Y-23.3052 Z0.2422
G1 X34.1577 Y-23.3041 Z0.2414
G1 X34.1580 Y-23.3029 Z0.2407
G1 X34.1583 Y-23.3018 Z0.2399
G1 X34.1584 Y-23.3006 Z0.2392
G1 X34.1585 Y-23.2994 Z0.2384
G2X34.4688Y-23.2994Z0.2384I0.1551J0.0000 F22.
G2X34.1585Y-23.2994Z0.2384I-0.1552J0.0000
G2X34.2705Y-23.1504Z0.2384I0.1551J0.0000
G0 Z0.3669
G0 X34.2705 Y-23.1504 
G0 Z0.3669
G0 X34.1435 Y-23.3144 
G1 X34.1435 Y-23.3144 Z0.2419 F21.
G1 X34.1446 Y-23.3144 Z0.2411
G1 X34.1458 Y-23.3143 Z0.2404
G1 X34.1470 Y-23.3140 Z0.2396
G1 X34.1481 Y-23.3137 Z0.2389
G1 X34.1492 Y-23.3133 Z0.2381
G1 X34.1503 Y-23.3128 Z0.2374
G1 X34.1513 Y-23.3122 Z0.2366
G1 X34.1523 Y-23.3116 Z0.2359
G1 X34.1532 Y-23.3108 Z0.2351
G1 X34.1541 Y-23.3100 Z0.2344
G1 X34.1549 Y-23.3092 Z0.2336
G1 X34.1556 Y-23.3083 Z0.2329
G1 X34.1562 Y-23.3073 Z0.2321
G1 X34.1568 Y-23.3062 Z0.2314
G1 X34.1573 Y-23.3052 Z0.2306
G1 X34.1577 Y-23.3041 Z0.2299
G1 X34.1580 Y-23.3029 Z0.2291
G1 X34.1583 Y-23.3018 Z0.2284
G1 X34.1584 Y-23.3006 Z0.2276
G1 X34.1585 Y-23.2994 Z0.2269
G2X34.4688Y-23.2994Z0.2269I0.1551J0.0000 F22.
G2X34.1585Y-23.2994Z0.2269I-0.1552J0.0000
G2X34.2705Y-23.1504Z0.2269I0.1551J0.0000
G0 Z0.3553
G0 X34.2705 Y-23.1504 
G0 Z0.3553
G0 X34.1435 Y-23.3144 
G1 X34.1435 Y-23.3144 Z0.2303 F21.
G1 X34.1446 Y-23.3144 Z0.2295
G1 X34.1458 Y-23.3143 Z0.2288
G1 X34.1470 Y-23.3140 Z0.2280
G1 X34.1481 Y-23.3137 Z0.2273
G1 X34.1492 Y-23.3133 Z0.2265
G1 X34.1503 Y-23.3128 Z0.2258
G1 X34.1513 Y-23.3122 Z0.2250
G1 X34.1523 Y-23.3116 Z0.2243
G1 X34.1532 Y-23.3108 Z0.2235
G1 X34.1541 Y-23.3100 Z0.2228
G1 X34.1549 Y-23.3092 Z0.2220
G1 X34.1556 Y-23.3083 Z0.2213
G1 X34.1562 Y-23.3073 Z0.2205
G1 X34.1568 Y-23.3062 Z0.2198
G1 X34.1573 Y-23.3052 Z0.2190
G1 X34.1577 Y-23.3041 Z0.2183
G1 X34.1580 Y-23.3029 Z0.2175
G1 X34.1583 Y-23.3018 Z0.2168
G1 X34.1584 Y-23.3006 Z0.2160
G1 X34.1585 Y-23.2994 Z0.2153
G2X34.4688Y-23.2994Z0.2153I0.1551J0.0000 F22.
G2X34.1585Y-23.2994Z0.2153I-0.1552J0.0000
G2X34.2705Y-23.1504Z0.2153I0.1551J0.0000
G0 Z0.3437
G0 X34.2705 Y-23.1504 
G0 Z0.3437
G0 X34.1435 Y-23.3144 
G1 X34.1435 Y-23.3144 Z0.2187 F21.
G1 X34.1446 Y-23.3144 Z0.2180
G1 X34.1458 Y-23.3143 Z0.2172
G1 X34.1470 Y-23.3140 Z0.2165
G1 X34.1481 Y-23.3137 Z0.2157
G1 X34.1492 Y-23.3133 Z0.2150
G1 X34.1503 Y-23.3128 Z0.2142
G1 X34.1513 Y-23.3122 Z0.2135
G1 X34.1523 Y-23.3116 Z0.2127
G1 X34.1532 Y-23.3108 Z0.2120
G1 X34.1541 Y-23.3100 Z0.2112
G1 X34.1549 Y-23.3092 Z0.2105
G1 X34.1556 Y-23.3083 Z0.2097
G1 X34.1562 Y-23.3073 Z0.2090
G1 X34.1568 Y-23.3062 Z0.2082
G1 X34.1573 Y-23.3052 Z0.2075
G1 X34.1577 Y-23.3041 Z0.2067
G1 X34.1580 Y-23.3029 Z0.2060
G1 X34.1583 Y-23.3018 Z0.2052
G1 X34.1584 Y-23.3006 Z0.2045
G1 X34.1585 Y-23.2994 Z0.2037
G2X34.4688Y-23.2994Z0.2037I0.1551J0.0000 F22.
G2X34.1585Y-23.2994Z0.2037I-0.1552J0.0000
G2X34.2705Y-23.1504Z0.2037I0.1551J0.0000
G0 Z0.3321
G0 X34.2705 Y-23.1504 
G0 Z0.3321
G0 X34.1435 Y-23.3144 
G1 X34.1435 Y-23.3144 Z0.2071 F21.
G1 X34.1446 Y-23.3144 Z0.2064
G1 X34.1458 Y-23.3143 Z0.2056
G1 X34.1470 Y-23.3140 Z0.2049
G1 X34.1481 Y-23.3137 Z0.2041
G1 X34.1492 Y-23.3133 Z0.2034
G1 X34.1503 Y-23.3128 Z0.2026
G1 X34.1513 Y-23.3122 Z0.2019
G1 X34.1523 Y-23.3116 Z0.2011
G1 X34.1532 Y-23.3108 Z0.2004
G1 X34.1541 Y-23.3100 Z0.1996
G1 X34.1549 Y-23.3092 Z0.1989
G1 X34.1556 Y-23.3083 Z0.1981
G1 X34.1562 Y-23.3073 Z0.1974
G1 X34.1568 Y-23.3062 Z0.1966
G1 X34.1573 Y-23.3052 Z0.1959
G1 X34.1577 Y-23.3041 Z0.1951
G1 X34.1580 Y-23.3029 Z0.1944
G1 X34.1583 Y-23.3018 Z0.1936
G1 X34.1584 Y-23.3006 Z0.1929
G1 X34.1585 Y-23.2994 Z0.1921
G2X34.4688Y-23.2994Z0.1921I0.1551J0.0000 F22.
G2X34.1585Y-23.2994Z0.1921I-0.1552J0.0000
G2X34.2705Y-23.1504Z0.1921I0.1551J0.0000
G0 Z0.3206
G0 X34.2705 Y-23.1504 
G0 Z0.3206
G0 X34.1435 Y-23.3144 
G1 X34.1435 Y-23.3144 Z0.1956 F21.
G1 X34.1446 Y-23.3144 Z0.1948
G1 X34.1458 Y-23.3143 Z0.1941
G1 X34.1470 Y-23.3140 Z0.1933
G1 X34.1481 Y-23.3137 Z0.1926
G1 X34.1492 Y-23.3133 Z0.1918
G1 X34.1503 Y-23.3128 Z0.1911
G1 X34.1513 Y-23.3122 Z0.1903
G1 X34.1523 Y-23.3116 Z0.1896
G1 X34.1532 Y-23.3108 Z0.1888
G1 X34.1541 Y-23.3100 Z0.1881
G1 X34.1549 Y-23.3092 Z0.1873
G1 X34.1556 Y-23.3083 Z0.1866
G1 X34.1562 Y-23.3073 Z0.1858
G1 X34.1568 Y-23.3062 Z0.1851
G1 X34.1573 Y-23.3052 Z0.1843
G1 X34.1577 Y-23.3041 Z0.1836
G1 X34.1580 Y-23.3029 Z0.1828
G1 X34.1583 Y-23.3018 Z0.1821
G1 X34.1584 Y-23.3006 Z0.1813
G1 X34.1585 Y-23.2994 Z0.1806
G2X34.4688Y-23.2994Z0.1806I0.1551J0.0000 F22.
G2X34.1585Y-23.2994Z0.1806I-0.1552J0.0000
G2X34.2705Y-23.1504Z0.1806I0.1551J0.0000
G0 Z0.3090
G0 X34.2705 Y-23.1504 
G0 Z0.3090
G0 X34.1435 Y-23.3144 
G1 X34.1435 Y-23.3144 Z0.1840 F21.
G1 X34.1446 Y-23.3144 Z0.1832
G1 X34.1458 Y-23.3143 Z0.1825
G1 X34.1470 Y-23.3140 Z0.1817
G1 X34.1481 Y-23.3137 Z0.1810
G1 X34.1492 Y-23.3133 Z0.1802
G1 X34.1503 Y-23.3128 Z0.1795
G1 X34.1513 Y-23.3122 Z0.1787
G1 X34.1523 Y-23.3116 Z0.1780
G1 X34.1532 Y-23.3108 Z0.1772
G1 X34.1541 Y-23.3100 Z0.1765
G1 X34.1549 Y-23.3092 Z0.1757
G1 X34.1556 Y-23.3083 Z0.1750
G1 X34.1562 Y-23.3073 Z0.1742
G1 X34.1568 Y-23.3062 Z0.1735
G1 X34.1573 Y-23.3052 Z0.1727
G1 X34.1577 Y-23.3041 Z0.1720
G1 X34.1580 Y-23.3029 Z0.1712
G1 X34.1583 Y-23.3018 Z0.1705
G1 X34.1584 Y-23.3006 Z0.1697
G1 X34.1585 Y-23.2994 Z0.1690
G2X34.4688Y-23.2994Z0.1690I0.1551J0.0000 F22.
G2X34.1585Y-23.2994Z0.1690I-0.1552J0.0000
G2X34.2705Y-23.1504Z0.1690I0.1551J0.0000
G0 Z0.3784
G0 X34.2705 Y-23.1504 
G0 Z0.3784
G0 X36.5213 Y-22.8144 
G1 X36.5213 Y-22.8144 Z0.2534 F21.
G1 X36.5225 Y-22.8144 Z0.2527
G1 X36.5236 Y-22.8143 Z0.2519
G1 X36.5248 Y-22.8140 Z0.2512
G1 X36.5259 Y-22.8137 Z0.2504
G1 X36.5270 Y-22.8133 Z0.2497
G1 X36.5281 Y-22.8128 Z0.2489
G1 X36.5291 Y-22.8122 Z0.2482
G1 X36.5301 Y-22.8116 Z0.2474
G1 X36.5310 Y-22.8108 Z0.2467
G1 X36.5319 Y-22.8100 Z0.2459
G1 X36.5327 Y-22.8092 Z0.2452
G1 X36.5334 Y-22.8083 Z0.2444
G1 X36.5341 Y-22.8073 Z0.2437
G1 X36.5347 Y-22.8062 Z0.2429
G1 X36.5352 Y-22.8052 Z0.2422
G1 X36.5356 Y-22.8041 Z0.2414
G1 X36.5359 Y-22.8029 Z0.2407
G1 X36.5361 Y-22.8018 Z0.2399
G1 X36.5363 Y-22.8006 Z0.2392
G1 X36.5363 Y-22.7994 Z0.2384
G2X36.8887Y-22.7994Z0.2384I0.1762J0.0000 F22.
G2X36.5363Y-22.7994Z0.2384I-0.1762J0.0000
G2X36.6382Y-22.6397Z0.2384I0.1761J0.0000
G0 Z0.3669
G0 X36.6382 Y-22.6397 
G0 Z0.3669
G0 X36.5213 Y-22.8144 
G1 X36.5213 Y-22.8144 Z0.2419 F21.
G1 X36.5225 Y-22.8144 Z0.2411
G1 X36.5236 Y-22.8143 Z0.2404
G1 X36.5248 Y-22.8140 Z0.2396
G1 X36.5259 Y-22.8137 Z0.2389
G1 X36.5270 Y-22.8133 Z0.2381
G1 X36.5281 Y-22.8128 Z0.2374
G1 X36.5291 Y-22.8122 Z0.2366
G1 X36.5301 Y-22.8116 Z0.2359
G1 X36.5310 Y-22.8108 Z0.2351
G1 X36.5319 Y-22.8100 Z0.2344
G1 X36.5327 Y-22.8092 Z0.2336
G1 X36.5334 Y-22.8083 Z0.2329
G1 X36.5341 Y-22.8073 Z0.2321
G1 X36.5347 Y-22.8062 Z0.2314
G1 X36.5352 Y-22.8052 Z0.2306
G1 X36.5356 Y-22.8041 Z0.2299
G1 X36.5359 Y-22.8029 Z0.2291
G1 X36.5361 Y-22.8018 Z0.2284
G1 X36.5363 Y-22.8006 Z0.2276
G1 X36.5363 Y-22.7994 Z0.2269
G2X36.8887Y-22.7994Z0.2269I0.1762J0.0000 F22.
G2X36.5363Y-22.7994Z0.2269I-0.1762J0.0000
G2X36.6382Y-22.6397Z0.2269I0.1761J0.0000
G0 Z0.3553
G0 X36.6382 Y-22.6397 
G0 Z0.3553
G0 X36.5213 Y-22.8144 
G1 X36.5213 Y-22.8144 Z0.2303 F21.
G1 X36.5225 Y-22.8144 Z0.2295
G1 X36.5236 Y-22.8143 Z0.2288
G1 X36.5248 Y-22.8140 Z0.2280
G1 X36.5259 Y-22.8137 Z0.2273
G1 X36.5270 Y-22.8133 Z0.2265
G1 X36.5281 Y-22.8128 Z0.2258
G1 X36.5291 Y-22.8122 Z0.2250
G1 X36.5301 Y-22.8116 Z0.2243
G1 X36.5310 Y-22.8108 Z0.2235
G1 X36.5319 Y-22.8100 Z0.2228
G1 X36.5327 Y-22.8092 Z0.2220
G1 X36.5334 Y-22.8083 Z0.2213
G1 X36.5341 Y-22.8073 Z0.2205
G1 X36.5347 Y-22.8062 Z0.2198
G1 X36.5352 Y-22.8052 Z0.2190
G1 X36.5356 Y-22.8041 Z0.2183
G1 X36.5359 Y-22.8029 Z0.2175
G1 X36.5361 Y-22.8018 Z0.2168
G1 X36.5363 Y-22.8006 Z0.2160
G1 X36.5363 Y-22.7994 Z0.2153
G2X36.8887Y-22.7994Z0.2153I0.1762J0.0000 F22.
G2X36.5363Y-22.7994Z0.2153I-0.1762J0.0000
G2X36.6382Y-22.6397Z0.2153I0.1761J0.0000
G0 Z0.3437
G0 X36.6382 Y-22.6397 
G0 Z0.3437
G0 X36.5213 Y-22.8144 
G1 X36.5213 Y-22.8144 Z0.2187 F21.
G1 X36.5225 Y-22.8144 Z0.2180
G1 X36.5236 Y-22.8143 Z0.2172
G1 X36.5248 Y-22.8140 Z0.2165
G1 X36.5259 Y-22.8137 Z0.2157
G1 X36.5270 Y-22.8133 Z0.2150
G1 X36.5281 Y-22.8128 Z0.2142
G1 X36.5291 Y-22.8122 Z0.2135
G1 X36.5301 Y-22.8116 Z0.2127
G1 X36.5310 Y-22.8108 Z0.2120
G1 X36.5319 Y-22.8100 Z0.2112
G1 X36.5327 Y-22.8092 Z0.2105
G1 X36.5334 Y-22.8083 Z0.2097
G1 X36.5341 Y-22.8073 Z0.2090
G1 X36.5347 Y-22.8062 Z0.2082
G1 X36.5352 Y-22.8052 Z0.2075
G1 X36.5356 Y-22.8041 Z0.2067
G1 X36.5359 Y-22.8029 Z0.2060
G1 X36.5361 Y-22.8018 Z0.2052
G1 X36.5363 Y-22.8006 Z0.2045
G1 X36.5363 Y-22.7994 Z0.2037
G2X36.8887Y-22.7994Z0.2037I0.1762J0.0000 F22.
G2X36.5363Y-22.7994Z0.2037I-0.1762J0.0000
G2X36.6382Y-22.6397Z0.2037I0.1761J0.0000
G0 Z0.3321
G0 X36.6382 Y-22.6397 
G0 Z0.3321
G0 X36.5213 Y-22.8144 
G1 X36.5213 Y-22.8144 Z0.2071 F21.
G1 X36.5225 Y-22.8144 Z0.2064
G1 X36.5236 Y-22.8143 Z0.2056
G1 X36.5248 Y-22.8140 Z0.2049
G1 X36.5259 Y-22.8137 Z0.2041
G1 X36.5270 Y-22.8133 Z0.2034
G1 X36.5281 Y-22.8128 Z0.2026
G1 X36.5291 Y-22.8122 Z0.2019
G1 X36.5301 Y-22.8116 Z0.2011
G1 X36.5310 Y-22.8108 Z0.2004
G1 X36.5319 Y-22.8100 Z0.1996
G1 X36.5327 Y-22.8092 Z0.1989
G1 X36.5334 Y-22.8083 Z0.1981
G1 X36.5341 Y-22.8073 Z0.1974
G1 X36.5347 Y-22.8062 Z0.1966
G1 X36.5352 Y-22.8052 Z0.1959
G1 X36.5356 Y-22.8041 Z0.1951
G1 X36.5359 Y-22.8029 Z0.1944
G1 X36.5361 Y-22.8018 Z0.1936
G1 X36.5363 Y-22.8006 Z0.1929
G1 X36.5363 Y-22.7994 Z0.1921
G2X36.8887Y-22.7994Z0.1921I0.1762J0.0000 F22.
G2X36.5363Y-22.7994Z0.1921I-0.1762J0.0000
G2X36.6382Y-22.6397Z0.1921I0.1761J0.0000
G0 Z0.3206
G0 X36.6382 Y-22.6397 
G0 Z0.3206
G0 X36.5213 Y-22.8144 
G1 X36.5213 Y-22.8144 Z0.1956 F21.
G1 X36.5225 Y-22.8144 Z0.1948
G1 X36.5236 Y-22.8143 Z0.1941
G1 X36.5248 Y-22.8140 Z0.1933
G1 X36.5259 Y-22.8137 Z0.1926
G1 X36.5270 Y-22.8133 Z0.1918
G1 X36.5281 Y-22.8128 Z0.1911
G1 X36.5291 Y-22.8122 Z0.1903
G1 X36.5301 Y-22.8116 Z0.1896
G1 X36.5310 Y-22.8108 Z0.1888
G1 X36.5319 Y-22.8100 Z0.1881
G1 X36.5327 Y-22.8092 Z0.1873
G1 X36.5334 Y-22.8083 Z0.1866
G1 X36.5341 Y-22.8073 Z0.1858
G1 X36.5347 Y-22.8062 Z0.1851
G1 X36.5352 Y-22.8052 Z0.1843
G1 X36.5356 Y-22.8041 Z0.1836
G1 X36.5359 Y-22.8029 Z0.1828
G1 X36.5361 Y-22.8018 Z0.1821
G1 X36.5363 Y-22.8006 Z0.1813
G1 X36.5363 Y-22.7994 Z0.1806
G2X36.8887Y-22.7994Z0.1806I0.1762J0.0000 F22.
G2X36.5363Y-22.7994Z0.1806I-0.1762J0.0000
G2X36.6382Y-22.6397Z0.1806I0.1761J0.0000
G0 Z0.3090
G0 X36.6382 Y-22.6397 
G0 Z0.3090
G0 X36.5213 Y-22.8144 
G1 X36.5213 Y-22.8144 Z0.1840 F21.
G1 X36.5225 Y-22.8144 Z0.1832
G1 X36.5236 Y-22.8143 Z0.1825
G1 X36.5248 Y-22.8140 Z0.1817
G1 X36.5259 Y-22.8137 Z0.1810
G1 X36.5270 Y-22.8133 Z0.1802
G1 X36.5281 Y-22.8128 Z0.1795
G1 X36.5291 Y-22.8122 Z0.1787
G1 X36.5301 Y-22.8116 Z0.1780
G1 X36.5310 Y-22.8108 Z0.1772
G1 X36.5319 Y-22.8100 Z0.1765
G1 X36.5327 Y-22.8092 Z0.1757
G1 X36.5334 Y-22.8083 Z0.1750
G1 X36.5341 Y-22.8073 Z0.1742
G1 X36.5347 Y-22.8062 Z0.1735
G1 X36.5352 Y-22.8052 Z0.1727
G1 X36.5356 Y-22.8041 Z0.1720
G1 X36.5359 Y-22.8029 Z0.1712
G1 X36.5361 Y-22.8018 Z0.1705
G1 X36.5363 Y-22.8006 Z0.1697
G1 X36.5363 Y-22.7994 Z0.1690
G2X36.8887Y-22.7994Z0.1690I0.1762J0.0000 F22.
G2X36.5363Y-22.7994Z0.1690I-0.1762J0.0000
G2X36.6382Y-22.6397Z0.1690I0.1761J0.0000
G0 Z0.3784
G0 X36.6382 Y-22.6397 
G0 Z0.3784
G0 X36.6128 Y-22.5971 
G1 X36.6128 Y-22.5971 Z0.2534 F21.
G1 X36.6121 Y-22.5961 Z0.2527
G1 X36.6114 Y-22.5952 Z0.2519
G1 X36.6107 Y-22.5943 Z0.2512
G1 X36.6098 Y-22.5935 Z0.2504
G1 X36.6089 Y-22.5927 Z0.2497
G1 X36.6079 Y-22.5920 Z0.2489
G1 X36.6069 Y-22.5914 Z0.2482
G1 X36.6059 Y-22.5909 Z0.2474
G1 X36.6048 Y-22.5905 Z0.2467
G1 X36.6036 Y-22.5901 Z0.2459
G1 X36.6025 Y-22.5899 Z0.2452
G1 X36.6013 Y-22.5897 Z0.2444
G1 X36.6002 Y-22.5897 Z0.2437
G1 X36.5990 Y-22.5897 Z0.2429
G1 X36.5978 Y-22.5898 Z0.2422
G1 X36.5966 Y-22.5900 Z0.2414
G1 X36.5955 Y-22.5903 Z0.2407
G1 X36.5944 Y-22.5907 Z0.2399
G1 X36.5933 Y-22.5911 Z0.2392
G1 X36.5923 Y-22.5917 Z0.2384
G1 X36.4720 Y-22.6615 Z0.2384 F22.
G1 X36.4720 Y-22.9392 Z0.2384
G1 X36.7125 Y-23.0770 Z0.2384
G1 X36.9514 Y-22.9392 Z0.2384
G1 X36.9514 Y-22.6615 Z0.2384
G1 X36.7125 Y-22.5219 Z0.2384
G1 X36.5923 Y-22.5917 Z0.2384
G1 X36.4720 Y-22.6615 Z0.2384
G1 X36.4720 Y-22.7225 Z0.2384
G0 Z0.3669
G0 X36.4720 Y-22.7225 
G0 Z0.3669
G0 X36.6128 Y-22.5971 
G1 X36.6128 Y-22.5971 Z0.2419 F21.
G1 X36.6121 Y-22.5961 Z0.2411
G1 X36.6114 Y-22.5952 Z0.2404
G1 X36.6107 Y-22.5943 Z0.2396
G1 X36.6098 Y-22.5935 Z0.2389
G1 X36.6089 Y-22.5927 Z0.2381
G1 X36.6079 Y-22.5920 Z0.2374
G1 X36.6069 Y-22.5914 Z0.2366
G1 X36.6059 Y-22.5909 Z0.2359
G1 X36.6048 Y-22.5905 Z0.2351
G1 X36.6036 Y-22.5901 Z0.2344
G1 X36.6025 Y-22.5899 Z0.2336
G1 X36.6013 Y-22.5897 Z0.2329
G1 X36.6002 Y-22.5897 Z0.2321
G1 X36.5990 Y-22.5897 Z0.2314
G1 X36.5978 Y-22.5898 Z0.2306
G1 X36.5966 Y-22.5900 Z0.2299
G1 X36.5955 Y-22.5903 Z0.2291
G1 X36.5944 Y-22.5907 Z0.2284
G1 X36.5933 Y-22.5911 Z0.2276
G1 X36.5923 Y-22.5917 Z0.2269
G1 X36.4720 Y-22.6615 Z0.2269 F22.
G1 X36.4720 Y-22.9392 Z0.2269
G1 X36.7125 Y-23.0770 Z0.2269
G1 X36.9514 Y-22.9392 Z0.2269
G1 X36.9514 Y-22.6615 Z0.2269
G1 X36.7125 Y-22.5219 Z0.2269
G1 X36.5923 Y-22.5917 Z0.2269
G1 X36.4720 Y-22.6615 Z0.2269
G1 X36.4720 Y-22.7225 Z0.2269
G0 Z0.3553
G0 X36.4720 Y-22.7225 
G0 Z0.3553
G0 X36.6128 Y-22.5971 
G1 X36.6128 Y-22.5971 Z0.2303 F21.
G1 X36.6121 Y-22.5961 Z0.2295
G1 X36.6114 Y-22.5952 Z0.2288
G1 X36.6107 Y-22.5943 Z0.2280
G1 X36.6098 Y-22.5935 Z0.2273
G1 X36.6089 Y-22.5927 Z0.2265
G1 X36.6079 Y-22.5920 Z0.2258
G1 X36.6069 Y-22.5914 Z0.2250
G1 X36.6059 Y-22.5909 Z0.2243
G1 X36.6048 Y-22.5905 Z0.2235
G1 X36.6036 Y-22.5901 Z0.2228
G1 X36.6025 Y-22.5899 Z0.2220
G1 X36.6013 Y-22.5897 Z0.2213
G1 X36.6002 Y-22.5897 Z0.2205
G1 X36.5990 Y-22.5897 Z0.2198
G1 X36.5978 Y-22.5898 Z0.2190
G1 X36.5966 Y-22.5900 Z0.2183
G1 X36.5955 Y-22.5903 Z0.2175
G1 X36.5944 Y-22.5907 Z0.2168
G1 X36.5933 Y-22.5911 Z0.2160
G1 X36.5923 Y-22.5917 Z0.2153
G1 X36.4720 Y-22.6615 Z0.2153 F22.
G1 X36.4720 Y-22.9392 Z0.2153
G1 X36.7125 Y-23.0770 Z0.2153
G1 X36.9514 Y-22.9392 Z0.2153
G1 X36.9514 Y-22.6615 Z0.2153
G1 X36.7125 Y-22.5219 Z0.2153
G1 X36.5923 Y-22.5917 Z0.2153
G1 X36.4720 Y-22.6615 Z0.2153
G1 X36.4720 Y-22.7225 Z0.2153
G0 Z0.3437
G0 X36.4720 Y-22.7225 
G0 Z0.3437
G0 X36.6128 Y-22.5971 
G1 X36.6128 Y-22.5971 Z0.2187 F21.
G1 X36.6121 Y-22.5961 Z0.2180
G1 X36.6114 Y-22.5952 Z0.2172
G1 X36.6107 Y-22.5943 Z0.2165
G1 X36.6098 Y-22.5935 Z0.2157
G1 X36.6089 Y-22.5927 Z0.2150
G1 X36.6079 Y-22.5920 Z0.2142
G1 X36.6069 Y-22.5914 Z0.2135
G1 X36.6059 Y-22.5909 Z0.2127
G1 X36.6048 Y-22.5905 Z0.2120
G1 X36.6036 Y-22.5901 Z0.2112
G1 X36.6025 Y-22.5899 Z0.2105
G1 X36.6013 Y-22.5897 Z0.2097
G1 X36.6002 Y-22.5897 Z0.2090
G1 X36.5990 Y-22.5897 Z0.2082
G1 X36.5978 Y-22.5898 Z0.2075
G1 X36.5966 Y-22.5900 Z0.2067
G1 X36.5955 Y-22.5903 Z0.2060
G1 X36.5944 Y-22.5907 Z0.2052
G1 X36.5933 Y-22.5911 Z0.2045
G1 X36.5923 Y-22.5917 Z0.2037
G1 X36.4720 Y-22.6615 Z0.2037 F22.
G1 X36.4720 Y-22.9392 Z0.2037
G1 X36.7125 Y-23.0770 Z0.2037
G1 X36.9514 Y-22.9392 Z0.2037
G1 X36.9514 Y-22.6615 Z0.2037
G1 X36.7125 Y-22.5219 Z0.2037
G1 X36.5923 Y-22.5917 Z0.2037
G1 X36.4720 Y-22.6615 Z0.2037
G1 X36.4720 Y-22.7225 Z0.2037
G0 Z0.3321
G0 X36.4720 Y-22.7225 
G0 Z0.3321
G0 X36.6128 Y-22.5971 
G1 X36.6128 Y-22.5971 Z0.2071 F21.
G1 X36.6121 Y-22.5961 Z0.2064
G1 X36.6114 Y-22.5952 Z0.2056
G1 X36.6107 Y-22.5943 Z0.2049
G1 X36.6098 Y-22.5935 Z0.2041
G1 X36.6089 Y-22.5927 Z0.2034
G1 X36.6079 Y-22.5920 Z0.2026
G1 X36.6069 Y-22.5914 Z0.2019
G1 X36.6059 Y-22.5909 Z0.2011
G1 X36.6048 Y-22.5905 Z0.2004
G1 X36.6036 Y-22.5901 Z0.1996
G1 X36.6025 Y-22.5899 Z0.1989
G1 X36.6013 Y-22.5897 Z0.1981
G1 X36.6002 Y-22.5897 Z0.1974
G1 X36.5990 Y-22.5897 Z0.1966
G1 X36.5978 Y-22.5898 Z0.1959
G1 X36.5966 Y-22.5900 Z0.1951
G1 X36.5955 Y-22.5903 Z0.1944
G1 X36.5944 Y-22.5907 Z0.1936
G1 X36.5933 Y-22.5911 Z0.1929
G1 X36.5923 Y-22.5917 Z0.1921
G1 X36.4720 Y-22.6615 Z0.1921 F22.
G1 X36.4720 Y-22.9392 Z0.1921
G1 X36.7125 Y-23.0770 Z0.1921
G1 X36.9514 Y-22.9392 Z0.1921
G1 X36.9514 Y-22.6615 Z0.1921
G1 X36.7125 Y-22.5219 Z0.1921
G1 X36.5923 Y-22.5917 Z0.1921
G1 X36.4720 Y-22.6615 Z0.1921
G1 X36.4720 Y-22.7225 Z0.1921
G0 Z0.3206
G0 X36.4720 Y-22.7225 
G0 Z0.3206
G0 X36.6128 Y-22.5971 
G1 X36.6128 Y-22.5971 Z0.1956 F21.
G1 X36.6121 Y-22.5961 Z0.1948
G1 X36.6114 Y-22.5952 Z0.1941
G1 X36.6107 Y-22.5943 Z0.1933
G1 X36.6098 Y-22.5935 Z0.1926
G1 X36.6089 Y-22.5927 Z0.1918
G1 X36.6079 Y-22.5920 Z0.1911
G1 X36.6069 Y-22.5914 Z0.1903
G1 X36.6059 Y-22.5909 Z0.1896
G1 X36.6048 Y-22.5905 Z0.1888
G1 X36.6036 Y-22.5901 Z0.1881
G1 X36.6025 Y-22.5899 Z0.1873
G1 X36.6013 Y-22.5897 Z0.1866
G1 X36.6002 Y-22.5897 Z0.1858
G1 X36.5990 Y-22.5897 Z0.1851
G1 X36.5978 Y-22.5898 Z0.1843
G1 X36.5966 Y-22.5900 Z0.1836
G1 X36.5955 Y-22.5903 Z0.1828
G1 X36.5944 Y-22.5907 Z0.1821
G1 X36.5933 Y-22.5911 Z0.1813
G1 X36.5923 Y-22.5917 Z0.1806
G1 X36.4720 Y-22.6615 Z0.1806 F22.
G1 X36.4720 Y-22.9392 Z0.1806
G1 X36.7125 Y-23.0770 Z0.1806
G1 X36.9514 Y-22.9392 Z0.1806
G1 X36.9514 Y-22.6615 Z0.1806
G1 X36.7125 Y-22.5219 Z0.1806
G1 X36.5923 Y-22.5917 Z0.1806
G1 X36.4720 Y-22.6615 Z0.1806
G1 X36.4720 Y-22.7225 Z0.1806
G0 Z0.3090
G0 X36.4720 Y-22.7225 
G0 Z0.3090
G0 X36.6128 Y-22.5971 
G1 X36.6128 Y-22.5971 Z0.1840 F21.
G1 X36.6121 Y-22.5961 Z0.1832
G1 X36.6114 Y-22.5952 Z0.1825
G1 X36.6107 Y-22.5943 Z0.1817
G1 X36.6098 Y-22.5935 Z0.1810
G1 X36.6089 Y-22.5927 Z0.1802
G1 X36.6079 Y-22.5920 Z0.1795
G1 X36.6069 Y-22.5914 Z0.1787
G1 X36.6059 Y-22.5909 Z0.1780
G1 X36.6048 Y-22.5905 Z0.1772
G1 X36.6036 Y-22.5901 Z0.1765
G1 X36.6025 Y-22.5899 Z0.1757
G1 X36.6013 Y-22.5897 Z0.1750
G1 X36.6002 Y-22.5897 Z0.1742
G1 X36.5990 Y-22.5897 Z0.1735
G1 X36.5978 Y-22.5898 Z0.1727
G1 X36.5966 Y-22.5900 Z0.1720
G1 X36.5955 Y-22.5903 Z0.1712
G1 X36.5944 Y-22.5907 Z0.1705
G1 X36.5933 Y-22.5911 Z0.1697
G1 X36.5923 Y-22.5917 Z0.1690
G1 X36.4720 Y-22.6615 Z0.1690 F22.
G1 X36.4720 Y-22.9392 Z0.1690
G1 X36.7125 Y-23.0770 Z0.1690
G1 X36.9514 Y-22.9392 Z0.1690
G1 X36.9514 Y-22.6615 Z0.1690
G1 X36.7125 Y-22.5219 Z0.1690
G1 X36.5923 Y-22.5917 Z0.1690
G1 X36.4720 Y-22.6615 Z0.1690
G1 X36.4720 Y-22.7225 Z0.1690
G0 Z0.3784
G0 X36.4720 Y-22.7225 
G0 Z0.3784
G0 X38.3262 Y-22.8144 
G1 X38.3262 Y-22.8144 Z0.2534 F21.
G1 X38.3273 Y-22.8144 Z0.2527
G1 X38.3285 Y-22.8143 Z0.2519
G1 X38.3297 Y-22.8140 Z0.2512
G1 X38.3308 Y-22.8137 Z0.2504
G1 X38.3319 Y-22.8133 Z0.2497
G1 X38.3330 Y-22.8128 Z0.2489
G1 X38.3340 Y-22.8122 Z0.2482
G1 X38.3350 Y-22.8116 Z0.2474
G1 X38.3359 Y-22.8108 Z0.2467
G1 X38.3368 Y-22.8100 Z0.2459
G1 X38.3376 Y-22.8092 Z0.2452
G1 X38.3383 Y-22.8083 Z0.2444
G1 X38.3389 Y-22.8073 Z0.2437
G1 X38.3395 Y-22.8062 Z0.2429
G1 X38.3400 Y-22.8052 Z0.2422
G1 X38.3404 Y-22.8041 Z0.2414
G1 X38.3407 Y-22.8029 Z0.2407
G1 X38.3410 Y-22.8018 Z0.2399
G1 X38.3411 Y-22.8006 Z0.2392
G1 X38.3412 Y-22.7994 Z0.2384
G2X38.7768Y-22.7994Z0.2384I0.2178J0.0000 F22.
G2X38.3412Y-22.7994Z0.2384I-0.2178J0.0000
G2X38.4267Y-22.6264Z0.2384I0.2177J0.0000
G0 Z0.3669
G0 X38.4267 Y-22.6264 
G0 Z0.3669
G0 X38.3262 Y-22.8144 
G1 X38.3262 Y-22.8144 Z0.2419 F21.
G1 X38.3273 Y-22.8144 Z0.2411
G1 X38.3285 Y-22.8143 Z0.2404
G1 X38.3297 Y-22.8140 Z0.2396
G1 X38.3308 Y-22.8137 Z0.2389
G1 X38.3319 Y-22.8133 Z0.2381
G1 X38.3330 Y-22.8128 Z0.2374
G1 X38.3340 Y-22.8122 Z0.2366
G1 X38.3350 Y-22.8116 Z0.2359
G1 X38.3359 Y-22.8108 Z0.2351
G1 X38.3368 Y-22.8100 Z0.2344
G1 X38.3376 Y-22.8092 Z0.2336
G1 X38.3383 Y-22.8083 Z0.2329
G1 X38.3389 Y-22.8073 Z0.2321
G1 X38.3395 Y-22.8062 Z0.2314
G1 X38.3400 Y-22.8052 Z0.2306
G1 X38.3404 Y-22.8041 Z0.2299
G1 X38.3407 Y-22.8029 Z0.2291
G1 X38.3410 Y-22.8018 Z0.2284
G1 X38.3411 Y-22.8006 Z0.2276
G1 X38.3412 Y-22.7994 Z0.2269
G2X38.7768Y-22.7994Z0.2269I0.2178J0.0000 F22.
G2X38.3412Y-22.7994Z0.2269I-0.2178J0.0000
G2X38.4267Y-22.6264Z0.2269I0.2177J0.0000
G0 Z0.3553
G0 X38.4267 Y-22.6264 
G0 Z0.3553
G0 X38.3262 Y-22.8144 
G1 X38.3262 Y-22.8144 Z0.2303 F21.
G1 X38.3273 Y-22.8144 Z0.2295
G1 X38.3285 Y-22.8143 Z0.2288
G1 X38.3297 Y-22.8140 Z0.2280
G1 X38.3308 Y-22.8137 Z0.2273
G1 X38.3319 Y-22.8133 Z0.2265
G1 X38.3330 Y-22.8128 Z0.2258
G1 X38.3340 Y-22.8122 Z0.2250
G1 X38.3350 Y-22.8116 Z0.2243
G1 X38.3359 Y-22.8108 Z0.2235
G1 X38.3368 Y-22.8100 Z0.2228
G1 X38.3376 Y-22.8092 Z0.2220
G1 X38.3383 Y-22.8083 Z0.2213
G1 X38.3389 Y-22.8073 Z0.2205
G1 X38.3395 Y-22.8062 Z0.2198
G1 X38.3400 Y-22.8052 Z0.2190
G1 X38.3404 Y-22.8041 Z0.2183
G1 X38.3407 Y-22.8029 Z0.2175
G1 X38.3410 Y-22.8018 Z0.2168
G1 X38.3411 Y-22.8006 Z0.2160
G1 X38.3412 Y-22.7994 Z0.2153
G2X38.7768Y-22.7994Z0.2153I0.2178J0.0000 F22.
G2X38.3412Y-22.7994Z0.2153I-0.2178J0.0000
G2X38.4267Y-22.6264Z0.2153I0.2177J0.0000
G0 Z0.3437
G0 X38.4267 Y-22.6264 
G0 Z0.3437
G0 X38.3262 Y-22.8144 
G1 X38.3262 Y-22.8144 Z0.2187 F21.
G1 X38.3273 Y-22.8144 Z0.2180
G1 X38.3285 Y-22.8143 Z0.2172
G1 X38.3297 Y-22.8140 Z0.2165
G1 X38.3308 Y-22.8137 Z0.2157
G1 X38.3319 Y-22.8133 Z0.2150
G1 X38.3330 Y-22.8128 Z0.2142
G1 X38.3340 Y-22.8122 Z0.2135
G1 X38.3350 Y-22.8116 Z0.2127
G1 X38.3359 Y-22.8108 Z0.2120
G1 X38.3368 Y-22.8100 Z0.2112
G1 X38.3376 Y-22.8092 Z0.2105
G1 X38.3383 Y-22.8083 Z0.2097
G1 X38.3389 Y-22.8073 Z0.2090
G1 X38.3395 Y-22.8062 Z0.2082
G1 X38.3400 Y-22.8052 Z0.2075
G1 X38.3404 Y-22.8041 Z0.2067
G1 X38.3407 Y-22.8029 Z0.2060
G1 X38.3410 Y-22.8018 Z0.2052
G1 X38.3411 Y-22.8006 Z0.2045
G1 X38.3412 Y-22.7994 Z0.2037
G2X38.7768Y-22.7994Z0.2037I0.2178J0.0000 F22.
G2X38.3412Y-22.7994Z0.2037I-0.2178J0.0000
G2X38.4267Y-22.6264Z0.2037I0.2177J0.0000
G0 Z0.3321
G0 X38.4267 Y-22.6264 
G0 Z0.3321
G0 X38.3262 Y-22.8144 
G1 X38.3262 Y-22.8144 Z0.2071 F21.
G1 X38.3273 Y-22.8144 Z0.2064
G1 X38.3285 Y-22.8143 Z0.2056
G1 X38.3297 Y-22.8140 Z0.2049
G1 X38.3308 Y-22.8137 Z0.2041
G1 X38.3319 Y-22.8133 Z0.2034
G1 X38.3330 Y-22.8128 Z0.2026
G1 X38.3340 Y-22.8122 Z0.2019
G1 X38.3350 Y-22.8116 Z0.2011
G1 X38.3359 Y-22.8108 Z0.2004
G1 X38.3368 Y-22.8100 Z0.1996
G1 X38.3376 Y-22.8092 Z0.1989
G1 X38.3383 Y-22.8083 Z0.1981
G1 X38.3389 Y-22.8073 Z0.1974
G1 X38.3395 Y-22.8062 Z0.1966
G1 X38.3400 Y-22.8052 Z0.1959
G1 X38.3404 Y-22.8041 Z0.1951
G1 X38.3407 Y-22.8029 Z0.1944
G1 X38.3410 Y-22.8018 Z0.1936
G1 X38.3411 Y-22.8006 Z0.1929
G1 X38.3412 Y-22.7994 Z0.1921
G2X38.7768Y-22.7994Z0.1921I0.2178J0.0000 F22.
G2X38.3412Y-22.7994Z0.1921I-0.2178J0.0000
G2X38.4267Y-22.6264Z0.1921I0.2177J0.0000
G0 Z0.3206
G0 X38.4267 Y-22.6264 
G0 Z0.3206
G0 X38.3262 Y-22.8144 
G1 X38.3262 Y-22.8144 Z0.1956 F21.
G1 X38.3273 Y-22.8144 Z0.1948
G1 X38.3285 Y-22.8143 Z0.1941
G1 X38.3297 Y-22.8140 Z0.1933
G1 X38.3308 Y-22.8137 Z0.1926
G1 X38.3319 Y-22.8133 Z0.1918
G1 X38.3330 Y-22.8128 Z0.1911
G1 X38.3340 Y-22.8122 Z0.1903
G1 X38.3350 Y-22.8116 Z0.1896
G1 X38.3359 Y-22.8108 Z0.1888
G1 X38.3368 Y-22.8100 Z0.1881
G1 X38.3376 Y-22.8092 Z0.1873
G1 X38.3383 Y-22.8083 Z0.1866
G1 X38.3389 Y-22.8073 Z0.1858
G1 X38.3395 Y-22.8062 Z0.1851
G1 X38.3400 Y-22.8052 Z0.1843
G1 X38.3404 Y-22.8041 Z0.1836
G1 X38.3407 Y-22.8029 Z0.1828
G1 X38.3410 Y-22.8018 Z0.1821
G1 X38.3411 Y-22.8006 Z0.1813
G1 X38.3412 Y-22.7994 Z0.1806
G2X38.7768Y-22.7994Z0.1806I0.2178J0.0000 F22.
G2X38.3412Y-22.7994Z0.1806I-0.2178J0.0000
G2X38.4267Y-22.6264Z0.1806I0.2177J0.0000
G0 Z0.3090
G0 X38.4267 Y-22.6264 
G0 Z0.3090
G0 X38.3262 Y-22.8144 
G1 X38.3262 Y-22.8144 Z0.1840 F21.
G1 X38.3273 Y-22.8144 Z0.1832
G1 X38.3285 Y-22.8143 Z0.1825
G1 X38.3297 Y-22.8140 Z0.1817
G1 X38.3308 Y-22.8137 Z0.1810
G1 X38.3319 Y-22.8133 Z0.1802
G1 X38.3330 Y-22.8128 Z0.1795
G1 X38.3340 Y-22.8122 Z0.1787
G1 X38.3350 Y-22.8116 Z0.1780
G1 X38.3359 Y-22.8108 Z0.1772
G1 X38.3368 Y-22.8100 Z0.1765
G1 X38.3376 Y-22.8092 Z0.1757
G1 X38.3383 Y-22.8083 Z0.1750
G1 X38.3389 Y-22.8073 Z0.1742
G1 X38.3395 Y-22.8062 Z0.1735
G1 X38.3400 Y-22.8052 Z0.1727
G1 X38.3404 Y-22.8041 Z0.1720
G1 X38.3407 Y-22.8029 Z0.1712
G1 X38.3410 Y-22.8018 Z0.1705
G1 X38.3411 Y-22.8006 Z0.1697
G1 X38.3412 Y-22.7994 Z0.1690
G2X38.7768Y-22.7994Z0.1690I0.2178J0.0000 F22.
G2X38.3412Y-22.7994Z0.1690I-0.2178J0.0000
G2X38.4267Y-22.6264Z0.1690I0.2177J0.0000
G0 Z0.3784
G0 X38.4267 Y-22.6264 
G0 Z0.3784
G0 X38.4280 Y-22.5431 
G1 X38.4280 Y-22.5431 Z0.2534 F21.
G1 X38.4274 Y-22.5422 Z0.2527
G1 X38.4267 Y-22.5412 Z0.2519
G1 X38.4259 Y-22.5403 Z0.2512
G1 X38.4251 Y-22.5395 Z0.2504
G1 X38.4242 Y-22.5388 Z0.2497
G1 X38.4232 Y-22.5381 Z0.2489
G1 X38.4222 Y-22.5375 Z0.2482
G1 X38.4211 Y-22.5370 Z0.2474
G1 X38.4200 Y-22.5365 Z0.2467
G1 X38.4189 Y-22.5362 Z0.2459
G1 X38.4178 Y-22.5359 Z0.2452
G1 X38.4166 Y-22.5358 Z0.2444
G1 X38.4154 Y-22.5357 Z0.2437
G1 X38.4143 Y-22.5357 Z0.2429
G1 X38.4131 Y-22.5358 Z0.2422
G1 X38.4119 Y-22.5360 Z0.2414
G1 X38.4108 Y-22.5363 Z0.2407
G1 X38.4097 Y-22.5367 Z0.2399
G1 X38.4086 Y-22.5372 Z0.2392
G1 X38.4075 Y-22.5377 Z0.2384
G1 X38.2561 Y-22.6257 Z0.2384 F22.
G1 X38.2561 Y-22.9755 Z0.2384
G1 X38.5590 Y-23.1491 Z0.2384
G1 X38.8599 Y-22.9755 Z0.2384
G1 X38.8599 Y-22.6257 Z0.2384
G1 X38.5590 Y-22.4498 Z0.2384
G1 X38.4075 Y-22.5377 Z0.2384
G1 X38.2561 Y-22.6257 Z0.2384
G1 X38.2561 Y-22.6505 Z0.2384
G0 Z0.3669
G0 X38.2561 Y-22.6505 
G0 Z0.3669
G0 X38.4280 Y-22.5431 
G1 X38.4280 Y-22.5431 Z0.2419 F21.
G1 X38.4274 Y-22.5422 Z0.2411
G1 X38.4267 Y-22.5412 Z0.2404
G1 X38.4259 Y-22.5403 Z0.2396
G1 X38.4251 Y-22.5395 Z0.2389
G1 X38.4242 Y-22.5388 Z0.2381
G1 X38.4232 Y-22.5381 Z0.2374
G1 X38.4222 Y-22.5375 Z0.2366
G1 X38.4211 Y-22.5370 Z0.2359
G1 X38.4200 Y-22.5365 Z0.2351
G1 X38.4189 Y-22.5362 Z0.2344
G1 X38.4178 Y-22.5359 Z0.2336
G1 X38.4166 Y-22.5358 Z0.2329
G1 X38.4154 Y-22.5357 Z0.2321
G1 X38.4143 Y-22.5357 Z0.2314
G1 X38.4131 Y-22.5358 Z0.2306
G1 X38.4119 Y-22.5360 Z0.2299
G1 X38.4108 Y-22.5363 Z0.2291
G1 X38.4097 Y-22.5367 Z0.2284
