( MOP:  02-inlay-Fangs-idPT09-s25PT5-02a )
( FILE: G:\Shared drives\AlloyProjectFiles\Customer CAD files\Alloy-Standard-Builds-CAM\Fingerboards-in\02-inlay-Fangs-idPT09-s25PT5-02.nc)
G90
(  BEGIN TOOL LIST )
(  TOOL 17 - Downcut 1.0mm PT0394 - DESC: 0.0394 DIA, 2 FLUTE,  CARBIDE MAT )
(  ENDOF TOOL LIST )
( 02-inlay-Fangs-idPT09-s25PT5-02a)
T17
S12000
M3
G0 Z2.0000
G0 X27.3690 Y-24.0359 
G1 X27.3690 Y-24.0359 Z0.2388 F25.
G17
G3X27.3991Y-24.0650Z0.2388I0.0299J0.0009
G1 X27.4202 Y-24.0644 Z0.2388
G1 X27.4295 Y-24.0638 Z0.2388
G2X27.3968Y-23.5495Z0.2388I0.6250J0.2979
G3X27.2157Y-24.0603Z0.2388I0.7014J-0.5362
G1 X27.2197 Y-24.0607 Z0.2388
G3X27.3371Y-24.0649Z0.2388I0.1306J1.9847
G1 X27.3710 Y-24.0652 Z0.2388
G1 X27.3991 Y-24.0650 Z0.2388
G0 Z0.4888
G0 X27.3991 Y-24.0650 
G0 Z0.4888
G0 X27.3690 Y-24.0359 
G1 X27.3690 Y-24.0359 Z0.2025 F25.
G3X27.3991Y-24.0650Z0.2025I0.0299J0.0009
G1 X27.4202 Y-24.0644 Z0.2025
G1 X27.4295 Y-24.0638 Z0.2025
G2X27.3968Y-23.5495Z0.2025I0.6250J0.2979
G3X27.2157Y-24.0603Z0.2025I0.7014J-0.5362
G1 X27.2197 Y-24.0607 Z0.2025
G3X27.3371Y-24.0649Z0.2025I0.1306J1.9847
G1 X27.3710 Y-24.0652 Z0.2025
G1 X27.3991 Y-24.0650 Z0.2025
G0 Z0.4525
G0 X27.3991 Y-24.0650 
G0 Z0.4525
G0 X27.3690 Y-24.0359 
G1 X27.3690 Y-24.0359 Z0.1663 F25.
G3X27.3991Y-24.0650Z0.1663I0.0299J0.0009
G1 X27.4202 Y-24.0644 Z0.1663
G1 X27.4295 Y-24.0638 Z0.1663
G2X27.3968Y-23.5495Z0.1663I0.6250J0.2979
G3X27.2157Y-24.0603Z0.1663I0.7014J-0.5362
G1 X27.2197 Y-24.0607 Z0.1663
G3X27.3371Y-24.0649Z0.1663I0.1306J1.9847
G1 X27.3710 Y-24.0652 Z0.1663
G1 X27.3991 Y-24.0650 Z0.1663
G0 Z0.4163
G0 X27.3991 Y-24.0650 
G0 Z0.4163
G0 X27.3690 Y-24.0359 
G1 X27.3690 Y-24.0359 Z0.1300 F25.
G3X27.3991Y-24.0650Z0.1300I0.0299J0.0009
G1 X27.4202 Y-24.0644 Z0.1300
G1 X27.4295 Y-24.0638 Z0.1300
G2X27.3968Y-23.5495Z0.1300I0.6250J0.2979
G3X27.2157Y-24.0603Z0.1300I0.7014J-0.5362
G1 X27.2197 Y-24.0607 Z0.1300
G3X27.3371Y-24.0649Z0.1300I0.1306J1.9847
G1 X27.3710 Y-24.0652 Z0.1300
G1 X27.3991 Y-24.0650 Z0.1300
G0 Z0.4888
G0 X27.3991 Y-24.0650 
G0 Z0.4888
G0 X27.3139 Y-21.5754 
G1 X27.3139 Y-21.5754 Z0.2388 F25.
G3X27.2838Y-21.5455Z0.2388I-0.0300J-0.0001
G3X27.2227Y-21.5466Z0.2388I-0.0121J-1.0252
G1 X27.2198 Y-21.5469 Z0.2388
G2X27.2525Y-22.0612Z0.2388I-0.6250J-0.2979
G3X27.4336Y-21.5505Z0.2388I-0.7014J0.5362
G3X27.3461Y-21.5465Z0.2388I-0.1029J-1.2991
G1 X27.3134 Y-21.5458 Z0.2388
G1 X27.2838 Y-21.5455 Z0.2388
G0 Z0.4888
G0 X27.2838 Y-21.5455 
G0 Z0.4888
G0 X27.3139 Y-21.5754 
G1 X27.3139 Y-21.5754 Z0.2025 F25.
G3X27.2838Y-21.5455Z0.2025I-0.0300J-0.0001
G3X27.2227Y-21.5466Z0.2025I-0.0121J-1.0252
G1 X27.2198 Y-21.5469 Z0.2025
G2X27.2525Y-22.0612Z0.2025I-0.6250J-0.2979
G3X27.4336Y-21.5505Z0.2025I-0.7014J0.5362
G3X27.3461Y-21.5465Z0.2025I-0.1029J-1.2991
G1 X27.3134 Y-21.5458 Z0.2025
G1 X27.2838 Y-21.5455 Z0.2025
G0 Z0.4525
G0 X27.2838 Y-21.5455 
G0 Z0.4525
G0 X27.3139 Y-21.5754 
G1 X27.3139 Y-21.5754 Z0.1663 F25.
G3X27.2838Y-21.5455Z0.1663I-0.0300J-0.0001
G3X27.2227Y-21.5466Z0.1663I-0.0121J-1.0252
G1 X27.2198 Y-21.5469 Z0.1663
G2X27.2525Y-22.0612Z0.1663I-0.6250J-0.2979
G3X27.4336Y-21.5505Z0.1663I-0.7014J0.5362
G3X27.3461Y-21.5465Z0.1663I-0.1029J-1.2991
G1 X27.3134 Y-21.5458 Z0.1663
G1 X27.2838 Y-21.5455 Z0.1663
G0 Z0.4163
G0 X27.2838 Y-21.5455 
G0 Z0.4163
G0 X27.3139 Y-21.5754 
G1 X27.3139 Y-21.5754 Z0.1300 F25.
G3X27.2838Y-21.5455Z0.1300I-0.0300J-0.0001
G3X27.2227Y-21.5466Z0.1300I-0.0121J-1.0252
G1 X27.2198 Y-21.5469 Z0.1300
G2X27.2525Y-22.0612Z0.1300I-0.6250J-0.2979
G3X27.4336Y-21.5505Z0.1300I-0.7014J0.5362
G3X27.3461Y-21.5465Z0.1300I-0.1029J-1.2991
G1 X27.3134 Y-21.5458 Z0.1300
G1 X27.2838 Y-21.5455 Z0.1300
G0 Z0.4888
G0 X27.2838 Y-21.5455 
G0 Z0.4888
G0 X28.6152 Y-21.3679 
G1 X28.6152 Y-21.3679 Z0.2388 F25.
G3X28.5851Y-21.3380Z0.2388I-0.0300J-0.0001
G1 X28.5851 Y-21.3380 Z0.2388
G1 X28.5827 Y-21.3380 Z0.2388
G2X28.3765Y-21.3110Z0.2388I0.0000J0.7998
G3X28.3722Y-21.3163Z0.2388I-0.0009J-0.0036
G2X28.4152Y-22.2326Z0.2388I-1.0222J-0.5072
G3X28.4217Y-22.2364Z0.2388I0.0035J-0.0014
G3X28.7617Y-21.3226Z0.2388I-1.1440J0.9458
G3X28.7571Y-21.3188Z0.2388I-0.0038J0.0001
G2X28.5851Y-21.3380Z0.2388I-0.1744J0.7806
G0 Z0.4888
G0 X28.5851 Y-21.3380 
G0 Z0.4888
G0 X28.6152 Y-21.3679 
G1 X28.6152 Y-21.3679 Z0.2025 F25.
G3X28.5851Y-21.3380Z0.2025I-0.0300J-0.0001
G1 X28.5851 Y-21.3380 Z0.2025
G1 X28.5827 Y-21.3380 Z0.2025
G2X28.3765Y-21.3110Z0.2025I0.0000J0.7998
G3X28.3722Y-21.3163Z0.2025I-0.0009J-0.0036
G2X28.4152Y-22.2326Z0.2025I-1.0222J-0.5072
G3X28.4217Y-22.2364Z0.2025I0.0035J-0.0014
G3X28.7617Y-21.3226Z0.2025I-1.1440J0.9458
G3X28.7571Y-21.3188Z0.2025I-0.0038J0.0001
G2X28.5851Y-21.3380Z0.2025I-0.1744J0.7806
G0 Z0.4525
G0 X28.5851 Y-21.3380 
G0 Z0.4525
G0 X28.6152 Y-21.3679 
G1 X28.6152 Y-21.3679 Z0.1663 F25.
G3X28.5851Y-21.3380Z0.1663I-0.0300J-0.0001
G1 X28.5851 Y-21.3380 Z0.1663
G1 X28.5827 Y-21.3380 Z0.1663
G2X28.3765Y-21.3110Z0.1663I0.0000J0.7998
G3X28.3722Y-21.3163Z0.1663I-0.0009J-0.0036
G2X28.4152Y-22.2326Z0.1663I-1.0222J-0.5072
G3X28.4217Y-22.2364Z0.1663I0.0035J-0.0014
G3X28.7617Y-21.3226Z0.1663I-1.1440J0.9458
G3X28.7571Y-21.3188Z0.1663I-0.0038J0.0001
G2X28.5851Y-21.3380Z0.1663I-0.1744J0.7806
G0 Z0.4163
G0 X28.5851 Y-21.3380 
G0 Z0.4163
G0 X28.6152 Y-21.3679 
G1 X28.6152 Y-21.3679 Z0.1300 F25.
G3X28.5851Y-21.3380Z0.1300I-0.0300J-0.0001
G1 X28.5851 Y-21.3380 Z0.1300
G1 X28.5827 Y-21.3380 Z0.1300
G2X28.3765Y-21.3110Z0.1300I0.0000J0.7998
G3X28.3722Y-21.3163Z0.1300I-0.0009J-0.0036
G2X28.4152Y-22.2326Z0.1300I-1.0222J-0.5072
G3X28.4217Y-22.2364Z0.1300I0.0035J-0.0014
G3X28.7617Y-21.3226Z0.1300I-1.1440J0.9458
G3X28.7571Y-21.3188Z0.1300I-0.0038J0.0001
G2X28.5851Y-21.3380Z0.1300I-0.1744J0.7806
G0 Z0.4888
G0 X28.5851 Y-21.3380 
G0 Z0.4888
G0 X29.5517 Y-21.4595 
G1 X29.5517 Y-21.4595 Z0.2388 F25.
G3X29.5223Y-21.4289Z0.2388I-0.0300J0.0006
G2X29.3326Y-21.4020Z0.2388I0.0164J0.7997
G3X29.3282Y-21.4074Z0.2388I-0.0010J-0.0037
G2X29.3712Y-22.3237Z0.2388I-1.0222J-0.5071
G3X29.3777Y-22.3274Z0.2388I0.0036J-0.0013
G3X29.7177Y-21.4136Z0.2388I-1.1440J0.9457
G3X29.7131Y-21.4098Z0.2388I-0.0038J0.0001
G2X29.5223Y-21.4289Z0.2388I-0.1744J0.7806
G0 Z0.4888
G0 X29.5223 Y-21.4289 
G0 Z0.4888
G0 X29.5517 Y-21.4595 
G1 X29.5517 Y-21.4595 Z0.2025 F25.
G3X29.5223Y-21.4289Z0.2025I-0.0300J0.0006
G2X29.3326Y-21.4020Z0.2025I0.0164J0.7997
G3X29.3282Y-21.4074Z0.2025I-0.0010J-0.0037
G2X29.3712Y-22.3237Z0.2025I-1.0222J-0.5071
G3X29.3777Y-22.3274Z0.2025I0.0036J-0.0013
G3X29.7177Y-21.4136Z0.2025I-1.1440J0.9457
G3X29.7131Y-21.4098Z0.2025I-0.0038J0.0001
G2X29.5223Y-21.4289Z0.2025I-0.1744J0.7806
G0 Z0.4525
G0 X29.5223 Y-21.4289 
G0 Z0.4525
G0 X29.5517 Y-21.4595 
G1 X29.5517 Y-21.4595 Z0.1663 F25.
G3X29.5223Y-21.4289Z0.1663I-0.0300J0.0006
G2X29.3326Y-21.4020Z0.1663I0.0164J0.7997
G3X29.3282Y-21.4074Z0.1663I-0.0010J-0.0037
G2X29.3712Y-22.3237Z0.1663I-1.0222J-0.5071
G3X29.3777Y-22.3274Z0.1663I0.0036J-0.0013
G3X29.7177Y-21.4136Z0.1663I-1.1440J0.9457
G3X29.7131Y-21.4098Z0.1663I-0.0038J0.0001
G2X29.5223Y-21.4289Z0.1663I-0.1744J0.7806
G0 Z0.4163
G0 X29.5223 Y-21.4289 
G0 Z0.4163
G0 X29.5517 Y-21.4595 
G1 X29.5517 Y-21.4595 Z0.1300 F25.
G3X29.5223Y-21.4289Z0.1300I-0.0300J0.0006
G2X29.3326Y-21.4020Z0.1300I0.0164J0.7997
G3X29.3282Y-21.4074Z0.1300I-0.0010J-0.0037
G2X29.3712Y-22.3237Z0.1300I-1.0222J-0.5071
G3X29.3777Y-22.3274Z0.1300I0.0036J-0.0013
G3X29.7177Y-21.4136Z0.1300I-1.1440J0.9457
G3X29.7131Y-21.4098Z0.1300I-0.0038J0.0001
G2X29.5223Y-21.4289Z0.1300I-0.1744J0.7806
G0 Z0.4888
G0 X29.5223 Y-21.4289 
G0 Z0.4888
G0 X30.6443 Y-21.5606 
G1 X30.6443 Y-21.5606 Z0.2388 F25.
G3X30.6142Y-21.5307Z0.2388I-0.0300J-0.0001
G2X30.5954Y-21.5305Z0.2388I-0.0024J0.7998
G2X30.4056Y-21.5037Z0.2388I0.0164J0.7996
G3X30.4013Y-21.5090Z0.2388I-0.0009J-0.0036
G2X30.4443Y-22.4253Z0.2388I-1.0222J-0.5072
G3X30.4508Y-22.4291Z0.2388I0.0035J-0.0014
G3X30.7908Y-21.5152Z0.2388I-1.1440J0.9458
G3X30.7862Y-21.5115Z0.2388I-0.0038J0.0000
G2X30.6142Y-21.5307Z0.2388I-0.1744J0.7806
G0 Z0.4888
G0 X30.6142 Y-21.5307 
G0 Z0.4888
G0 X30.6443 Y-21.5606 
G1 X30.6443 Y-21.5606 Z0.2025 F25.
G3X30.6142Y-21.5307Z0.2025I-0.0300J-0.0001
G2X30.5954Y-21.5305Z0.2025I-0.0024J0.7998
G2X30.4056Y-21.5037Z0.2025I0.0164J0.7996
G3X30.4013Y-21.5090Z0.2025I-0.0009J-0.0036
G2X30.4443Y-22.4253Z0.2025I-1.0222J-0.5072
G3X30.4508Y-22.4291Z0.2025I0.0035J-0.0014
G3X30.7908Y-21.5152Z0.2025I-1.1440J0.9458
G3X30.7862Y-21.5115Z0.2025I-0.0038J0.0000
G2X30.6142Y-21.5307Z0.2025I-0.1744J0.7806
G0 Z0.4525
G0 X30.6142 Y-21.5307 
G0 Z0.4525
G0 X30.6443 Y-21.5606 
G1 X30.6443 Y-21.5606 Z0.1663 F25.
G3X30.6142Y-21.5307Z0.1663I-0.0300J-0.0001
G2X30.5954Y-21.5305Z0.1663I-0.0024J0.7998
G2X30.4056Y-21.5037Z0.1663I0.0164J0.7996
G3X30.4013Y-21.5090Z0.1663I-0.0009J-0.0036
G2X30.4443Y-22.4253Z0.1663I-1.0222J-0.5072
G3X30.4508Y-22.4291Z0.1663I0.0035J-0.0014
G3X30.7908Y-21.5152Z0.1663I-1.1440J0.9458
G3X30.7862Y-21.5115Z0.1663I-0.0038J0.0000
G2X30.6142Y-21.5307Z0.1663I-0.1744J0.7806
G0 Z0.4163
G0 X30.6142 Y-21.5307 
G0 Z0.4163
G0 X30.6443 Y-21.5606 
G1 X30.6443 Y-21.5606 Z0.1300 F25.
G3X30.6142Y-21.5307Z0.1300I-0.0300J-0.0001
G2X30.5954Y-21.5305Z0.1300I-0.0024J0.7998
G2X30.4056Y-21.5037Z0.1300I0.0164J0.7996
G3X30.4013Y-21.5090Z0.1300I-0.0009J-0.0036
G2X30.4443Y-22.4253Z0.1300I-1.0222J-0.5072
G3X30.4508Y-22.4291Z0.1300I0.0035J-0.0014
G3X30.7908Y-21.5152Z0.1300I-1.1440J0.9458
G3X30.7862Y-21.5115Z0.1300I-0.0038J0.0000
G2X30.6142Y-21.5307Z0.1300I-0.1744J0.7806
G0 Z0.4888
G0 X30.6142 Y-21.5307 
G0 Z0.4888
G0 X31.8488 Y-21.6870 
G1 X31.8488 Y-21.6870 Z0.2388 F25.
G3X31.8187Y-21.6571Z0.2388I-0.0300J-0.0001
G2X31.6101Y-21.6301Z0.2388I-0.0024J0.7998
G3X31.6058Y-21.6354Z0.2388I-0.0009J-0.0036
G2X31.6488Y-22.5517Z0.2388I-1.0222J-0.5072
G3X31.6553Y-22.5555Z0.2388I0.0035J-0.0014
G3X31.9953Y-21.6417Z0.2388I-1.1440J0.9458
G3X31.9907Y-21.6379Z0.2388I-0.0038J0.0001
G2X31.8187Y-21.6571Z0.2388I-0.1744J0.7806
G0 Z0.4888
G0 X31.8187 Y-21.6571 
G0 Z0.4888
G0 X31.8488 Y-21.6870 
G1 X31.8488 Y-21.6870 Z0.2025 F25.
G3X31.8187Y-21.6571Z0.2025I-0.0300J-0.0001
G2X31.6101Y-21.6301Z0.2025I-0.0024J0.7998
G3X31.6058Y-21.6354Z0.2025I-0.0009J-0.0036
G2X31.6488Y-22.5517Z0.2025I-1.0222J-0.5072
G3X31.6553Y-22.5555Z0.2025I0.0035J-0.0014
G3X31.9953Y-21.6417Z0.2025I-1.1440J0.9458
G3X31.9907Y-21.6379Z0.2025I-0.0038J0.0001
G2X31.8187Y-21.6571Z0.2025I-0.1744J0.7806
G0 Z0.4525
G0 X31.8187 Y-21.6571 
G0 Z0.4525
G0 X31.8488 Y-21.6870 
G1 X31.8488 Y-21.6870 Z0.1663 F25.
G3X31.8187Y-21.6571Z0.1663I-0.0300J-0.0001
G2X31.6101Y-21.6301Z0.1663I-0.0024J0.7998
G3X31.6058Y-21.6354Z0.1663I-0.0009J-0.0036
G2X31.6488Y-22.5517Z0.1663I-1.0222J-0.5072
G3X31.6553Y-22.5555Z0.1663I0.0035J-0.0014
G3X31.9953Y-21.6417Z0.1663I-1.1440J0.9458
G3X31.9907Y-21.6379Z0.1663I-0.0038J0.0001
G2X31.8187Y-21.6571Z0.1663I-0.1744J0.7806
G0 Z0.4163
G0 X31.8187 Y-21.6571 
G0 Z0.4163
G0 X31.8488 Y-21.6870 
G1 X31.8488 Y-21.6870 Z0.1300 F25.
G3X31.8187Y-21.6571Z0.1300I-0.0300J-0.0001
G2X31.6101Y-21.6301Z0.1300I-0.0024J0.7998
G3X31.6058Y-21.6354Z0.1300I-0.0009J-0.0036
G2X31.6488Y-22.5517Z0.1300I-1.0222J-0.5072
G3X31.6553Y-22.5555Z0.1300I0.0035J-0.0014
G3X31.9953Y-21.6417Z0.1300I-1.1440J0.9458
G3X31.9907Y-21.6379Z0.1300I-0.0038J0.0001
G2X31.8187Y-21.6571Z0.1300I-0.1744J0.7806
G0 Z0.4888
G0 X31.8187 Y-21.6571 
G0 Z0.4888
G0 X33.9182 Y-21.7032 
G1 X33.9182 Y-21.7032 Z0.2388 F25.
G3X33.8888Y-21.6726Z0.2388I-0.0300J0.0006
G2X33.6990Y-21.6457Z0.2388I0.0164J0.7997
G3X33.6947Y-21.6510Z0.2388I-0.0010J-0.0036
G2X33.7377Y-22.5674Z0.2388I-1.0222J-0.5072
G3X33.7441Y-22.5711Z0.2388I0.0035J-0.0013
G3X34.0841Y-21.6573Z0.2388I-1.1439J0.9458
G3X34.0795Y-21.6535Z0.2388I-0.0037J0.0001
G2X33.8888Y-21.6726Z0.2388I-0.1743J0.7806
G0 Z0.4888
G0 X33.8888 Y-21.6726 
G0 Z0.4888
G0 X33.9182 Y-21.7032 
G1 X33.9182 Y-21.7032 Z0.2025 F25.
G3X33.8888Y-21.6726Z0.2025I-0.0300J0.0006
G2X33.6990Y-21.6457Z0.2025I0.0164J0.7997
G3X33.6947Y-21.6510Z0.2025I-0.0010J-0.0036
G2X33.7377Y-22.5674Z0.2025I-1.0222J-0.5072
G3X33.7441Y-22.5711Z0.2025I0.0035J-0.0013
G3X34.0841Y-21.6573Z0.2025I-1.1439J0.9458
G3X34.0795Y-21.6535Z0.2025I-0.0037J0.0001
G2X33.8888Y-21.6726Z0.2025I-0.1743J0.7806
G0 Z0.4525
G0 X33.8888 Y-21.6726 
G0 Z0.4525
G0 X33.9182 Y-21.7032 
G1 X33.9182 Y-21.7032 Z0.1663 F25.
G3X33.8888Y-21.6726Z0.1663I-0.0300J0.0006
G2X33.6990Y-21.6457Z0.1663I0.0164J0.7997
G3X33.6947Y-21.6510Z0.1663I-0.0010J-0.0036
G2X33.7377Y-22.5674Z0.1663I-1.0222J-0.5072
G3X33.7441Y-22.5711Z0.1663I0.0035J-0.0013
G3X34.0841Y-21.6573Z0.1663I-1.1439J0.9458
G3X34.0795Y-21.6535Z0.1663I-0.0037J0.0001
G2X33.8888Y-21.6726Z0.1663I-0.1743J0.7806
G0 Z0.4163
G0 X33.8888 Y-21.6726 
G0 Z0.4163
G0 X33.9182 Y-21.7032 
G1 X33.9182 Y-21.7032 Z0.1300 F25.
G3X33.8888Y-21.6726Z0.1300I-0.0300J0.0006
G2X33.6990Y-21.6457Z0.1300I0.0164J0.7997
G3X33.6947Y-21.6510Z0.1300I-0.0010J-0.0036
G2X33.7377Y-22.5674Z0.1300I-1.0222J-0.5072
G3X33.7441Y-22.5711Z0.1300I0.0035J-0.0013
G3X34.0841Y-21.6573Z0.1300I-1.1439J0.9458
G3X34.0795Y-21.6535Z0.1300I-0.0037J0.0001
G2X33.8888Y-21.6726Z0.1300I-0.1743J0.7806
G0 Z0.4888
G0 X33.8888 Y-21.6726 
G0 Z0.4888
G0 X33.8432 Y-23.8887 
G1 X33.8432 Y-23.8887 Z0.2388 F25.
G3X33.8732Y-23.9187Z0.2388I0.0300J0.0000
G2X34.0794Y-23.9457Z0.2388I0.0000J-0.7998
G3X34.0837Y-23.9404Z0.2388I0.0010J0.0036
G2X34.0407Y-23.0240Z0.2388I1.0222J0.5072
G3X34.0343Y-23.0203Z0.2388I-0.0035J0.0013
G3X33.6943Y-23.9341Z0.2388I1.1439J-0.9458
G3X33.6989Y-23.9379Z0.2388I0.0037J-0.0001
G2X33.8732Y-23.9187Z0.2388I0.1743J-0.7806
G0 Z0.4888
G0 X33.8732 Y-23.9187 
G0 Z0.4888
G0 X33.8432 Y-23.8887 
G1 X33.8432 Y-23.8887 Z0.2025 F25.
G3X33.8732Y-23.9187Z0.2025I0.0300J0.0000
G2X34.0794Y-23.9457Z0.2025I0.0000J-0.7998
G3X34.0837Y-23.9404Z0.2025I0.0010J0.0036
G2X34.0407Y-23.0240Z0.2025I1.0222J0.5072
G3X34.0343Y-23.0203Z0.2025I-0.0035J0.0013
G3X33.6943Y-23.9341Z0.2025I1.1439J-0.9458
G3X33.6989Y-23.9379Z0.2025I0.0037J-0.0001
G2X33.8732Y-23.9187Z0.2025I0.1743J-0.7806
G0 Z0.4525
G0 X33.8732 Y-23.9187 
G0 Z0.4525
G0 X33.8432 Y-23.8887 
G1 X33.8432 Y-23.8887 Z0.1663 F25.
G3X33.8732Y-23.9187Z0.1663I0.0300J0.0000
G2X34.0794Y-23.9457Z0.1663I0.0000J-0.7998
G3X34.0837Y-23.9404Z0.1663I0.0010J0.0036
G2X34.0407Y-23.0240Z0.1663I1.0222J0.5072
G3X34.0343Y-23.0203Z0.1663I-0.0035J0.0013
G3X33.6943Y-23.9341Z0.1663I1.1439J-0.9458
G3X33.6989Y-23.9379Z0.1663I0.0037J-0.0001
G2X33.8732Y-23.9187Z0.1663I0.1743J-0.7806
G0 Z0.4163
G0 X33.8732 Y-23.9187 
G0 Z0.4163
G0 X33.8432 Y-23.8887 
G1 X33.8432 Y-23.8887 Z0.1300 F25.
G3X33.8732Y-23.9187Z0.1300I0.0300J0.0000
G2X34.0794Y-23.9457Z0.1300I0.0000J-0.7998
G3X34.0837Y-23.9404Z0.1300I0.0010J0.0036
G2X34.0407Y-23.0240Z0.1300I1.0222J0.5072
G3X34.0343Y-23.0203Z0.1300I-0.0035J0.0013
G3X33.6943Y-23.9341Z0.1300I1.1439J-0.9458
G3X33.6989Y-23.9379Z0.1300I0.0037J-0.0001
G2X33.8732Y-23.9187Z0.1300I0.1743J-0.7806
G0 Z0.4888
G0 X33.8732 Y-23.9187 
G0 Z0.4888
G0 X36.4038 Y-21.5526 
G1 X36.4038 Y-21.5526 Z0.2388 F25.
G3X36.3737Y-21.5227Z0.2388I-0.0300J-0.0001
G2X36.0973Y-21.4869Z0.2388I-0.0031J1.0599
G3X36.0840Y-21.5032Z0.2388I-0.0030J-0.0112
G2X36.1411Y-22.7197Z0.2388I-1.3570J-0.6733
G3X36.1609Y-22.7313Z0.2388I0.0108J-0.0042
G3X36.6157Y-21.5088Z0.2388I-1.5304J1.2653
G3X36.6016Y-21.4972Z0.2388I-0.0116J0.0003
G2X36.3737Y-21.5227Z0.2388I-0.2310J1.0344
G0 Z0.4888
G0 X36.3737 Y-21.5227 
G0 Z0.4888
G0 X36.4038 Y-21.5526 
G1 X36.4038 Y-21.5526 Z0.2025 F25.
G3X36.3737Y-21.5227Z0.2025I-0.0300J-0.0001
G2X36.0973Y-21.4869Z0.2025I-0.0031J1.0599
G3X36.0840Y-21.5032Z0.2025I-0.0030J-0.0112
G2X36.1411Y-22.7197Z0.2025I-1.3570J-0.6733
G3X36.1609Y-22.7313Z0.2025I0.0108J-0.0042
G3X36.6157Y-21.5088Z0.2025I-1.5304J1.2653
G3X36.6016Y-21.4972Z0.2025I-0.0116J0.0003
G2X36.3737Y-21.5227Z0.2025I-0.2310J1.0344
G0 Z0.4525
G0 X36.3737 Y-21.5227 
G0 Z0.4525
G0 X36.4038 Y-21.5526 
G1 X36.4038 Y-21.5526 Z0.1663 F25.
G3X36.3737Y-21.5227Z0.1663I-0.0300J-0.0001
G2X36.0973Y-21.4869Z0.1663I-0.0031J1.0599
G3X36.0840Y-21.5032Z0.1663I-0.0030J-0.0112
G2X36.1411Y-22.7197Z0.1663I-1.3570J-0.6733
G3X36.1609Y-22.7313Z0.1663I0.0108J-0.0042
G3X36.6157Y-21.5088Z0.1663I-1.5304J1.2653
G3X36.6016Y-21.4972Z0.1663I-0.0116J0.0003
G2X36.3737Y-21.5227Z0.1663I-0.2310J1.0344
G0 Z0.4163
G0 X36.3737 Y-21.5227 
G0 Z0.4163
G0 X36.4038 Y-21.5526 
G1 X36.4038 Y-21.5526 Z0.1300 F25.
G3X36.3737Y-21.5227Z0.1300I-0.0300J-0.0001
G2X36.0973Y-21.4869Z0.1300I-0.0031J1.0599
G3X36.0840Y-21.5032Z0.1300I-0.0030J-0.0112
G2X36.1411Y-22.7197Z0.1300I-1.3570J-0.6733
G3X36.1609Y-22.7313Z0.1300I0.0108J-0.0042
G3X36.6157Y-21.5088Z0.1300I-1.5304J1.2653
G3X36.6016Y-21.4972Z0.1300I-0.0116J0.0003
G2X36.3737Y-21.5227Z0.1300I-0.2310J1.0344
G0 Z0.4888
G0 X36.3737 Y-21.5227 
G0 Z0.4888
G0 X38.3158 Y-21.6369 
G1 X38.3158 Y-21.6369 Z0.2388 F25.
G3X38.2858Y-21.6070Z0.2388I-0.0299J-0.0001
G2X38.0094Y-21.5712Z0.2388I-0.0032J1.0598
G3X37.9960Y-21.5876Z0.2388I-0.0030J-0.0112
G2X38.0531Y-22.8041Z0.2388I-1.3570J-0.6733
G3X38.0729Y-22.8156Z0.2388I0.0108J-0.0041
G3X38.5277Y-21.5931Z0.2388I-1.5304J1.2652
G3X38.5136Y-21.5815Z0.2388I-0.0116J0.0002
G2X38.2858Y-21.6070Z0.2388I-0.2310J1.0343
G0 Z0.4888
G0 X38.2858 Y-21.6070 
G0 Z0.4888
G0 X38.3158 Y-21.6369 
G1 X38.3158 Y-21.6369 Z0.2025 F25.
G3X38.2858Y-21.6070Z0.2025I-0.0299J-0.0001
G2X38.0094Y-21.5712Z0.2025I-0.0032J1.0598
G3X37.9960Y-21.5876Z0.2025I-0.0030J-0.0112
G2X38.0531Y-22.8041Z0.2025I-1.3570J-0.6733
G3X38.0729Y-22.8156Z0.2025I0.0108J-0.0041
G3X38.5277Y-21.5931Z0.2025I-1.5304J1.2652
G3X38.5136Y-21.5815Z0.2025I-0.0116J0.0002
G2X38.2858Y-21.6070Z0.2025I-0.2310J1.0343
G0 Z0.4525
G0 X38.2858 Y-21.6070 
G0 Z0.4525
G0 X38.3158 Y-21.6369 
G1 X38.3158 Y-21.6369 Z0.1663 F25.
G3X38.2858Y-21.6070Z0.1663I-0.0299J-0.0001
G2X38.0094Y-21.5712Z0.1663I-0.0032J1.0598
G3X37.9960Y-21.5876Z0.1663I-0.0030J-0.0112
G2X38.0531Y-22.8041Z0.1663I-1.3570J-0.6733
G3X38.0729Y-22.8156Z0.1663I0.0108J-0.0041
G3X38.5277Y-21.5931Z0.1663I-1.5304J1.2652
G3X38.5136Y-21.5815Z0.1663I-0.0116J0.0002
G2X38.2858Y-21.6070Z0.1663I-0.2310J1.0343
G0 Z0.4163
G0 X38.2858 Y-21.6070 
G0 Z0.4163
G0 X38.3158 Y-21.6369 
G1 X38.3158 Y-21.6369 Z0.1300 F25.
G3X38.2858Y-21.6070Z0.1300I-0.0299J-0.0001
G2X38.0094Y-21.5712Z0.1300I-0.0032J1.0598
G3X37.9960Y-21.5876Z0.1300I-0.0030J-0.0112
G2X38.0531Y-22.8041Z0.1300I-1.3570J-0.6733
G3X38.0729Y-22.8156Z0.1300I0.0108J-0.0041
G3X38.5277Y-21.5931Z0.1300I-1.5304J1.2652
G3X38.5136Y-21.5815Z0.1300I-0.0116J0.0002
G2X38.2858Y-21.6070Z0.1300I-0.2310J1.0343
G0 Z0.4888
G0 X38.2858 Y-21.6070 
G0 Z0.4888
G0 X40.4567 Y-21.7136 
G1 X40.4567 Y-21.7136 Z0.2388 F25.
G3X40.4267Y-21.6836Z0.2388I-0.0300J0.0000
G2X40.1535Y-21.6478Z0.2388I0.0000J1.0599
G3X40.1401Y-21.6641Z0.2388I-0.0030J-0.0112
G2X40.1972Y-22.8806Z0.2388I-1.3570J-0.6733
G3X40.2170Y-22.8922Z0.2388I0.0108J-0.0042
G3X40.6718Y-21.6697Z0.2388I-1.5304J1.2653
G3X40.6577Y-21.6581Z0.2388I-0.0116J0.0003
G2X40.4267Y-21.6836Z0.2388I-0.2310J1.0344
G0 Z0.4888
G0 X40.4267 Y-21.6836 
G0 Z0.4888
G0 X40.4567 Y-21.7136 
G1 X40.4567 Y-21.7136 Z0.2025 F25.
G3X40.4267Y-21.6836Z0.2025I-0.0300J0.0000
G2X40.1535Y-21.6478Z0.2025I0.0000J1.0599
G3X40.1401Y-21.6641Z0.2025I-0.0030J-0.0112
G2X40.1972Y-22.8806Z0.2025I-1.3570J-0.6733
G3X40.2170Y-22.8922Z0.2025I0.0108J-0.0042
G3X40.6718Y-21.6697Z0.2025I-1.5304J1.2653
G3X40.6577Y-21.6581Z0.2025I-0.0116J0.0003
G2X40.4267Y-21.6836Z0.2025I-0.2310J1.0344
G0 Z0.4525
G0 X40.4267 Y-21.6836 
G0 Z0.4525
G0 X40.4567 Y-21.7136 
G1 X40.4567 Y-21.7136 Z0.1663 F25.
G3X40.4267Y-21.6836Z0.1663I-0.0300J0.0000
G2X40.1535Y-21.6478Z0.1663I0.0000J1.0599
G3X40.1401Y-21.6641Z0.1663I-0.0030J-0.0112
G2X40.1972Y-22.8806Z0.1663I-1.3570J-0.6733
G3X40.2170Y-22.8922Z0.1663I0.0108J-0.0042
G3X40.6718Y-21.6697Z0.1663I-1.5304J1.2653
G3X40.6577Y-21.6581Z0.1663I-0.0116J0.0003
G2X40.4267Y-21.6836Z0.1663I-0.2310J1.0344
G0 Z0.4163
G0 X40.4267 Y-21.6836 
G0 Z0.4163
G0 X40.4567 Y-21.7136 
G1 X40.4567 Y-21.7136 Z0.1300 F25.
G3X40.4267Y-21.6836Z0.1300I-0.0300J0.0000
G2X40.1535Y-21.6478Z0.1300I0.0000J1.0599
G3X40.1401Y-21.6641Z0.1300I-0.0030J-0.0112
G2X40.1972Y-22.8806Z0.1300I-1.3570J-0.6733
G3X40.2170Y-22.8922Z0.1300I0.0108J-0.0042
G3X40.6718Y-21.6697Z0.1300I-1.5304J1.2653
G3X40.6577Y-21.6581Z0.1300I-0.0116J0.0003
G2X40.4267Y-21.6836Z0.1300I-0.2310J1.0344
G0 Z0.4888
G0 X40.4267 Y-21.6836 
G0 Z0.4888
G0 X42.8674 Y-21.8020 
G1 X42.8674 Y-21.8020 Z0.2388 F25.
G3X42.8374Y-21.7720Z0.2388I-0.0300J0.0000
G2X42.5642Y-21.7362Z0.2388I0.0000J1.0599
G3X42.5508Y-21.7525Z0.2388I-0.0030J-0.0112
G2X42.6079Y-22.9690Z0.2388I-1.3570J-0.6734
G3X42.6277Y-22.9806Z0.2388I0.0109J-0.0042
G3X43.0825Y-21.7581Z0.2388I-1.5304J1.2653
G3X43.0684Y-21.7465Z0.2388I-0.0116J0.0003
G2X42.8374Y-21.7720Z0.2388I-0.2310J1.0344
G0 Z0.4888
G0 X42.8374 Y-21.7720 
G0 Z0.4888
G0 X42.8674 Y-21.8020 
G1 X42.8674 Y-21.8020 Z0.2025 F25.
G3X42.8374Y-21.7720Z0.2025I-0.0300J0.0000
G2X42.5642Y-21.7362Z0.2025I0.0000J1.0599
G3X42.5508Y-21.7525Z0.2025I-0.0030J-0.0112
G2X42.6079Y-22.9690Z0.2025I-1.3570J-0.6734
G3X42.6277Y-22.9806Z0.2025I0.0109J-0.0042
G3X43.0825Y-21.7581Z0.2025I-1.5304J1.2653
G3X43.0684Y-21.7465Z0.2025I-0.0116J0.0003
G2X42.8374Y-21.7720Z0.2025I-0.2310J1.0344
G0 Z0.4525
G0 X42.8374 Y-21.7720 
G0 Z0.4525
G0 X42.8674 Y-21.8020 
G1 X42.8674 Y-21.8020 Z0.1663 F25.
G3X42.8374Y-21.7720Z0.1663I-0.0300J0.0000
G2X42.5642Y-21.7362Z0.1663I0.0000J1.0599
G3X42.5508Y-21.7525Z0.1663I-0.0030J-0.0112
G2X42.6079Y-22.9690Z0.1663I-1.3570J-0.6734
G3X42.6277Y-22.9806Z0.1663I0.0109J-0.0042
G3X43.0825Y-21.7581Z0.1663I-1.5304J1.2653
G3X43.0684Y-21.7465Z0.1663I-0.0116J0.0003
G2X42.8374Y-21.7720Z0.1663I-0.2310J1.0344
G0 Z0.4163
G0 X42.8374 Y-21.7720 
G0 Z0.4163
G0 X42.8674 Y-21.8020 
G1 X42.8674 Y-21.8020 Z0.1300 F25.
G3X42.8374Y-21.7720Z0.1300I-0.0300J0.0000
G2X42.5642Y-21.7362Z0.1300I0.0000J1.0599
G3X42.5508Y-21.7525Z0.1300I-0.0030J-0.0112
G2X42.6079Y-22.9690Z0.1300I-1.3570J-0.6734
G3X42.6277Y-22.9806Z0.1300I0.0109J-0.0042
G3X43.0825Y-21.7581Z0.1300I-1.5304J1.2653
G3X43.0684Y-21.7465Z0.1300I-0.0116J0.0003
G2X42.8374Y-21.7720Z0.1300I-0.2310J1.0344
G0 Z2.0000
G0 X42.8374 Y-21.7720 
( 02-inlay-Fangs-idPT09-s25PT5-02b)
G0 Z2.0000
G0 X27.3138 Y-21.5944 
G1 X27.3138 Y-21.5944 Z0.2388 F25.
G3X27.2841Y-21.5645Z0.2388I-0.0300J-0.0001
G1 X27.2487 Y-21.5647 Z0.2388
G2X27.2965Y-21.9616Z0.2388I-0.6540J-0.2801
G3X27.4139Y-21.5680Z0.2388I-0.7453J0.4365
G3X27.2841Y-21.5645Z0.2388I-0.1339J-2.5657
G0 Z0.4888
G0 X27.2841 Y-21.5645 
G0 Z0.4888
G0 X27.3138 Y-21.5944 
G1 X27.3138 Y-21.5944 Z0.2025 F25.
G3X27.2841Y-21.5645Z0.2025I-0.0300J-0.0001
G1 X27.2487 Y-21.5647 Z0.2025
G2X27.2965Y-21.9616Z0.2025I-0.6540J-0.2801
G3X27.4139Y-21.5680Z0.2025I-0.7453J0.4365
G3X27.2841Y-21.5645Z0.2025I-0.1339J-2.5657
G0 Z0.4525
G0 X27.2841 Y-21.5645 
G0 Z0.4525
G0 X27.3138 Y-21.5944 
G1 X27.3138 Y-21.5944 Z0.1663 F25.
G3X27.2841Y-21.5645Z0.1663I-0.0300J-0.0001
G1 X27.2487 Y-21.5647 Z0.1663
G2X27.2965Y-21.9616Z0.1663I-0.6540J-0.2801
G3X27.4139Y-21.5680Z0.1663I-0.7453J0.4365
G3X27.2841Y-21.5645Z0.1663I-0.1339J-2.5657
G0 Z0.4163
G0 X27.2841 Y-21.5645 
G0 Z0.4163
G0 X27.3138 Y-21.5944 
G1 X27.3138 Y-21.5944 Z0.1300 F25.
G3X27.2841Y-21.5645Z0.1300I-0.0300J-0.0001
G1 X27.2487 Y-21.5647 Z0.1300
G2X27.2965Y-21.9616Z0.1300I-0.6540J-0.2801
G3X27.4139Y-21.5680Z0.1300I-0.7453J0.4365
G3X27.2841Y-21.5645Z0.1300I-0.1339J-2.5657
G0 Z0.4888
G0 X27.2841 Y-21.5645 
G0 Z0.4888
G0 X27.3686 Y-24.0169 
G1 X27.3686 Y-24.0169 Z0.2388 F25.
G3X27.3988Y-24.0460Z0.2388I0.0300J0.0009
G1 X27.4006 Y-24.0460 Z0.2388
G2X27.3528Y-23.6491Z0.2388I0.6541J0.2801
G3X27.2354Y-24.0427Z0.2388I0.7454J-0.4366
G1 X27.2394 Y-24.0430 Z0.2388
G3X27.3988Y-24.0460Z0.2388I0.1354J2.8954
G0 Z0.4888
G0 X27.3988 Y-24.0460 
G0 Z0.4888
G0 X27.3686 Y-24.0169 
G1 X27.3686 Y-24.0169 Z0.2025 F25.
G3X27.3988Y-24.0460Z0.2025I0.0300J0.0009
G1 X27.4006 Y-24.0460 Z0.2025
G2X27.3528Y-23.6491Z0.2025I0.6541J0.2801
G3X27.2354Y-24.0427Z0.2025I0.7454J-0.4366
G1 X27.2394 Y-24.0430 Z0.2025
G3X27.3988Y-24.0460Z0.2025I0.1354J2.8954
G0 Z0.4525
G0 X27.3988 Y-24.0460 
G0 Z0.4525
G0 X27.3686 Y-24.0169 
G1 X27.3686 Y-24.0169 Z0.1663 F25.
G3X27.3988Y-24.0460Z0.1663I0.0300J0.0009
G1 X27.4006 Y-24.0460 Z0.1663
G2X27.3528Y-23.6491Z0.1663I0.6541J0.2801
G3X27.2354Y-24.0427Z0.1663I0.7454J-0.4366
G1 X27.2394 Y-24.0430 Z0.1663
G3X27.3988Y-24.0460Z0.1663I0.1354J2.8954
G0 Z0.4163
G0 X27.3988 Y-24.0460 
G0 Z0.4163
G0 X27.3686 Y-24.0169 
G1 X27.3686 Y-24.0169 Z0.1300 F25.
G3X27.3988Y-24.0460Z0.1300I0.0300J0.0009
G1 X27.4006 Y-24.0460 Z0.1300
G2X27.3528Y-23.6491Z0.1300I0.6541J0.2801
G3X27.2354Y-24.0427Z0.1300I0.7454J-0.4366
G1 X27.2394 Y-24.0430 Z0.1300
G3X27.3988Y-24.0460Z0.1300I0.1354J2.8954
G0 Z0.4888
G0 X27.3988 Y-24.0460 
G0 Z0.4888
G0 X42.8674 Y-21.8210 
G1 X42.8674 Y-21.8210 Z0.2388 F25.
G3X42.8374Y-21.7910Z0.2388I-0.0300J0.0000
G2X42.5749Y-21.7586Z0.2388I0.0000J1.0789
G2X42.6412Y-22.9337Z0.2388I-1.3811J-0.6673
G3X43.0633Y-21.7671Z0.2388I-1.5439J1.2184
G2X42.8374Y-21.7910Z0.2388I-0.2259J1.0550
G0 Z0.4888
G0 X42.8374 Y-21.7910 
G0 Z0.4888
G0 X42.8674 Y-21.8210 
G1 X42.8674 Y-21.8210 Z0.2025 F25.
G3X42.8374Y-21.7910Z0.2025I-0.0300J0.0000
G2X42.5749Y-21.7586Z0.2025I0.0000J1.0789
G2X42.6412Y-22.9337Z0.2025I-1.3811J-0.6673
G3X43.0633Y-21.7671Z0.2025I-1.5439J1.2184
G2X42.8374Y-21.7910Z0.2025I-0.2259J1.0550
G0 Z0.4525
G0 X42.8374 Y-21.7910 
G0 Z0.4525
G0 X42.8674 Y-21.8210 
G1 X42.8674 Y-21.8210 Z0.1663 F25.
G3X42.8374Y-21.7910Z0.1663I-0.0300J0.0000
G2X42.5749Y-21.7586Z0.1663I0.0000J1.0789
G2X42.6412Y-22.9337Z0.1663I-1.3811J-0.6673
G3X43.0633Y-21.7671Z0.1663I-1.5439J1.2184
G2X42.8374Y-21.7910Z0.1663I-0.2259J1.0550
G0 Z0.4163
G0 X42.8374 Y-21.7910 
G0 Z0.4163
G0 X42.8674 Y-21.8210 
G1 X42.8674 Y-21.8210 Z0.1300 F25.
G3X42.8374Y-21.7910Z0.1300I-0.0300J0.0000
G2X42.5749Y-21.7586Z0.1300I0.0000J1.0789
G2X42.6412Y-22.9337Z0.1300I-1.3811J-0.6673
G3X43.0633Y-21.7671Z0.1300I-1.5439J1.2184
G2X42.8374Y-21.7910Z0.1300I-0.2259J1.0550
G0 Z0.4888
G0 X42.8374 Y-21.7910 
G0 Z0.4888
G0 X33.9178 Y-21.7222 
G1 X33.9178 Y-21.7222 Z0.2388 F25.
G3X33.8884Y-21.6916Z0.2388I-0.0300J0.0006
G2X33.7257Y-21.6718Z0.2388I0.0168J0.8187
G2X33.7848Y-22.4878Z0.2388I-1.0532J-0.4864
G3X34.0646Y-21.6761Z0.2388I-1.1846J0.8625
G2X33.8884Y-21.6916Z0.2388I-0.1594J0.8032
G0 Z0.4888
G0 X33.8884 Y-21.6916 
G0 Z0.4888
G0 X33.9178 Y-21.7222 
G1 X33.9178 Y-21.7222 Z0.2025 F25.
G3X33.8884Y-21.6916Z0.2025I-0.0300J0.0006
G2X33.7257Y-21.6718Z0.2025I0.0168J0.8187
G2X33.7848Y-22.4878Z0.2025I-1.0532J-0.4864
G3X34.0646Y-21.6761Z0.2025I-1.1846J0.8625
G2X33.8884Y-21.6916Z0.2025I-0.1594J0.8032
G0 Z0.4525
G0 X33.8884 Y-21.6916 
G0 Z0.4525
G0 X33.9178 Y-21.7222 
G1 X33.9178 Y-21.7222 Z0.1663 F25.
G3X33.8884Y-21.6916Z0.1663I-0.0300J0.0006
G2X33.7257Y-21.6718Z0.1663I0.0168J0.8187
G2X33.7848Y-22.4878Z0.1663I-1.0532J-0.4864
G3X34.0646Y-21.6761Z0.1663I-1.1846J0.8625
G2X33.8884Y-21.6916Z0.1663I-0.1594J0.8032
G0 Z0.4163
G0 X33.8884 Y-21.6916 
G0 Z0.4163
G0 X33.9178 Y-21.7222 
G1 X33.9178 Y-21.7222 Z0.1300 F25.
G3X33.8884Y-21.6916Z0.1300I-0.0300J0.0006
G2X33.7257Y-21.6718Z0.1300I0.0168J0.8187
G2X33.7848Y-22.4878Z0.1300I-1.0532J-0.4864
G3X34.0646Y-21.6761Z0.1300I-1.1846J0.8625
G2X33.8884Y-21.6916Z0.1300I-0.1594J0.8032
G0 Z0.4888
G0 X33.8884 Y-21.6916 
G0 Z0.4888
G0 X31.8489 Y-21.7060 
G1 X31.8489 Y-21.7060 Z0.2388 F25.
G3X31.8188Y-21.6761Z0.2388I-0.0300J-0.0001
G2X31.6368Y-21.6562Z0.2388I-0.0025J0.8188
G2X31.6959Y-22.4722Z0.2388I-1.0532J-0.4864
G3X31.9757Y-21.6605Z0.2388I-1.1846J0.8625
G2X31.8188Y-21.6761Z0.2388I-0.1594J0.8032
G0 Z0.4888
G0 X31.8188 Y-21.6761 
G0 Z0.4888
G0 X31.8489 Y-21.7060 
G1 X31.8489 Y-21.7060 Z0.2025 F25.
G3X31.8188Y-21.6761Z0.2025I-0.0300J-0.0001
G2X31.6368Y-21.6562Z0.2025I-0.0025J0.8188
G2X31.6959Y-22.4722Z0.2025I-1.0532J-0.4864
G3X31.9757Y-21.6605Z0.2025I-1.1846J0.8625
G2X31.8188Y-21.6761Z0.2025I-0.1594J0.8032
G0 Z0.4525
G0 X31.8188 Y-21.6761 
G0 Z0.4525
G0 X31.8489 Y-21.7060 
G1 X31.8489 Y-21.7060 Z0.1663 F25.
G3X31.8188Y-21.6761Z0.1663I-0.0300J-0.0001
G2X31.6368Y-21.6562Z0.1663I-0.0025J0.8188
G2X31.6959Y-22.4722Z0.1663I-1.0532J-0.4864
G3X31.9757Y-21.6605Z0.1663I-1.1846J0.8625
G2X31.8188Y-21.6761Z0.1663I-0.1594J0.8032
G0 Z0.4163
G0 X31.8188 Y-21.6761 
G0 Z0.4163
G0 X31.8489 Y-21.7060 
G1 X31.8489 Y-21.7060 Z0.1300 F25.
G3X31.8188Y-21.6761Z0.1300I-0.0300J-0.0001
G2X31.6368Y-21.6562Z0.1300I-0.0025J0.8188
G2X31.6959Y-22.4722Z0.1300I-1.0532J-0.4864
G3X31.9757Y-21.6605Z0.1300I-1.1846J0.8625
G2X31.8188Y-21.6761Z0.1300I-0.1594J0.8032
G0 Z0.4888
G0 X31.8188 Y-21.6761 
G0 Z0.4888
G0 X28.6152 Y-21.3870 
G1 X28.6152 Y-21.3870 Z0.2388 F25.
G3X28.5851Y-21.3570Z0.2388I-0.0300J0.0000
G1 X28.5827 Y-21.3570 Z0.2388
G2X28.4032Y-21.3371Z0.2388I0.0000J0.8188
G2X28.4623Y-22.1531Z0.2388I-1.0532J-0.4864
G3X28.7421Y-21.3414Z0.2388I-1.1846J0.8625
G2X28.5852Y-21.3570Z0.2388I-0.1594J0.8032
G1 X28.5851 Y-21.3570 Z0.2388
G0 Z0.4888
G0 X28.5851 Y-21.3570 
G0 Z0.4888
G0 X28.6152 Y-21.3870 
G1 X28.6152 Y-21.3870 Z0.2025 F25.
G3X28.5851Y-21.3570Z0.2025I-0.0300J0.0000
G1 X28.5827 Y-21.3570 Z0.2025
G2X28.4032Y-21.3371Z0.2025I0.0000J0.8188
G2X28.4623Y-22.1531Z0.2025I-1.0532J-0.4864
G3X28.7421Y-21.3414Z0.2025I-1.1846J0.8625
G2X28.5852Y-21.3570Z0.2025I-0.1594J0.8032
G1 X28.5851 Y-21.3570 Z0.2025
G0 Z0.4525
G0 X28.5851 Y-21.3570 
G0 Z0.4525
G0 X28.6152 Y-21.3870 
G1 X28.6152 Y-21.3870 Z0.1663 F25.
G3X28.5851Y-21.3570Z0.1663I-0.0300J0.0000
G1 X28.5827 Y-21.3570 Z0.1663
G2X28.4032Y-21.3371Z0.1663I0.0000J0.8188
G2X28.4623Y-22.1531Z0.1663I-1.0532J-0.4864
G3X28.7421Y-21.3414Z0.1663I-1.1846J0.8625
G2X28.5852Y-21.3570Z0.1663I-0.1594J0.8032
G1 X28.5851 Y-21.3570 Z0.1663
G0 Z0.4163
G0 X28.5851 Y-21.3570 
G0 Z0.4163
G0 X28.6152 Y-21.3870 
G1 X28.6152 Y-21.3870 Z0.1300 F25.
G3X28.5851Y-21.3570Z0.1300I-0.0300J0.0000
G1 X28.5827 Y-21.3570 Z0.1300
G2X28.4032Y-21.3371Z0.1300I0.0000J0.8188
G2X28.4623Y-22.1531Z0.1300I-1.0532J-0.4864
G3X28.7421Y-21.3414Z0.1300I-1.1846J0.8625
G2X28.5852Y-21.3570Z0.1300I-0.1594J0.8032
G1 X28.5851 Y-21.3570 Z0.1300
G0 Z0.4888
G0 X28.5851 Y-21.3570 
G0 Z0.4888
G0 X40.4567 Y-21.7326 
G1 X40.4567 Y-21.7326 Z0.2388 F25.
G3X40.4267Y-21.7026Z0.2388I-0.0300J0.0000
G2X40.1642Y-21.6702Z0.2388I0.0000J1.0789
G2X40.2304Y-22.8453Z0.2388I-1.3811J-0.6672
G3X40.6526Y-21.6787Z0.2388I-1.5438J1.2184
G2X40.4267Y-21.7026Z0.2388I-0.2259J1.0550
G0 Z0.4888
G0 X40.4267 Y-21.7026 
G0 Z0.4888
G0 X40.4567 Y-21.7326 
G1 X40.4567 Y-21.7326 Z0.2025 F25.
G3X40.4267Y-21.7026Z0.2025I-0.0300J0.0000
G2X40.1642Y-21.6702Z0.2025I0.0000J1.0789
G2X40.2304Y-22.8453Z0.2025I-1.3811J-0.6672
G3X40.6526Y-21.6787Z0.2025I-1.5438J1.2184
G2X40.4267Y-21.7026Z0.2025I-0.2259J1.0550
G0 Z0.4525
G0 X40.4267 Y-21.7026 
G0 Z0.4525
G0 X40.4567 Y-21.7326 
G1 X40.4567 Y-21.7326 Z0.1663 F25.
G3X40.4267Y-21.7026Z0.1663I-0.0300J0.0000
G2X40.1642Y-21.6702Z0.1663I0.0000J1.0789
G2X40.2304Y-22.8453Z0.1663I-1.3811J-0.6672
G3X40.6526Y-21.6787Z0.1663I-1.5438J1.2184
G2X40.4267Y-21.7026Z0.1663I-0.2259J1.0550
G0 Z0.4163
G0 X40.4267 Y-21.7026 
G0 Z0.4163
G0 X40.4567 Y-21.7326 
G1 X40.4567 Y-21.7326 Z0.1300 F25.
G3X40.4267Y-21.7026Z0.1300I-0.0300J0.0000
G2X40.1642Y-21.6702Z0.1300I0.0000J1.0789
G2X40.2304Y-22.8453Z0.1300I-1.3811J-0.6672
G3X40.6526Y-21.6787Z0.1300I-1.5438J1.2184
G2X40.4267Y-21.7026Z0.1300I-0.2259J1.0550
G0 Z0.4888
G0 X40.4267 Y-21.7026 
G0 Z0.4888
G0 X38.3159 Y-21.6559 
G1 X38.3159 Y-21.6559 Z0.2388 F25.
G3X38.2858Y-21.6260Z0.2388I-0.0300J-0.0001
G2X38.0201Y-21.5936Z0.2388I-0.0032J1.0788
G2X38.0863Y-22.7687Z0.2388I-1.3811J-0.6673
G3X38.5085Y-21.6021Z0.2388I-1.5438J1.2183
G2X38.2858Y-21.6260Z0.2388I-0.2259J1.0549
G0 Z0.4888
G0 X38.2858 Y-21.6260 
G0 Z0.4888
G0 X38.3159 Y-21.6559 
G1 X38.3159 Y-21.6559 Z0.2025 F25.
G3X38.2858Y-21.6260Z0.2025I-0.0300J-0.0001
G2X38.0201Y-21.5936Z0.2025I-0.0032J1.0788
G2X38.0863Y-22.7687Z0.2025I-1.3811J-0.6673
G3X38.5085Y-21.6021Z0.2025I-1.5438J1.2183
G2X38.2858Y-21.6260Z0.2025I-0.2259J1.0549
G0 Z0.4525
G0 X38.2858 Y-21.6260 
G0 Z0.4525
G0 X38.3159 Y-21.6559 
G1 X38.3159 Y-21.6559 Z0.1663 F25.
G3X38.2858Y-21.6260Z0.1663I-0.0300J-0.0001
G2X38.0201Y-21.5936Z0.1663I-0.0032J1.0788
G2X38.0863Y-22.7687Z0.1663I-1.3811J-0.6673
G3X38.5085Y-21.6021Z0.1663I-1.5438J1.2183
G2X38.2858Y-21.6260Z0.1663I-0.2259J1.0549
G0 Z0.4163
G0 X38.2858 Y-21.6260 
G0 Z0.4163
G0 X38.3159 Y-21.6559 
G1 X38.3159 Y-21.6559 Z0.1300 F25.
G3X38.2858Y-21.6260Z0.1300I-0.0300J-0.0001
G2X38.0201Y-21.5936Z0.1300I-0.0032J1.0788
G2X38.0863Y-22.7687Z0.1300I-1.3811J-0.6673
G3X38.5085Y-21.6021Z0.1300I-1.5438J1.2183
G2X38.2858Y-21.6260Z0.1300I-0.2259J1.0549
G0 Z0.4888
G0 X38.2858 Y-21.6260 
G0 Z0.4888
G0 X30.6444 Y-21.5796 
G1 X30.6444 Y-21.5796 Z0.2388 F25.
G3X30.6143Y-21.5497Z0.2388I-0.0300J-0.0001
G2X30.5950Y-21.5495Z0.2388I-0.0025J0.8188
G2X30.4323Y-21.5298Z0.2388I0.0168J0.8186
G2X30.4914Y-22.3458Z0.2388I-1.0532J-0.4864
G3X30.7712Y-21.5340Z0.2388I-1.1846J0.8625
G2X30.6143Y-21.5497Z0.2388I-0.1594J0.8031
G0 Z0.4888
G0 X30.6143 Y-21.5497 
G0 Z0.4888
G0 X30.6444 Y-21.5796 
G1 X30.6444 Y-21.5796 Z0.2025 F25.
G3X30.6143Y-21.5497Z0.2025I-0.0300J-0.0001
G2X30.5950Y-21.5495Z0.2025I-0.0025J0.8188
G2X30.4323Y-21.5298Z0.2025I0.0168J0.8186
G2X30.4914Y-22.3458Z0.2025I-1.0532J-0.4864
G3X30.7712Y-21.5340Z0.2025I-1.1846J0.8625
G2X30.6143Y-21.5497Z0.2025I-0.1594J0.8031
G0 Z0.4525
G0 X30.6143 Y-21.5497 
G0 Z0.4525
G0 X30.6444 Y-21.5796 
G1 X30.6444 Y-21.5796 Z0.1663 F25.
G3X30.6143Y-21.5497Z0.1663I-0.0300J-0.0001
G2X30.5950Y-21.5495Z0.1663I-0.0025J0.8188
G2X30.4323Y-21.5298Z0.1663I0.0168J0.8186
G2X30.4914Y-22.3458Z0.1663I-1.0532J-0.4864
G3X30.7712Y-21.5340Z0.1663I-1.1846J0.8625
G2X30.6143Y-21.5497Z0.1663I-0.1594J0.8031
G0 Z0.4163
G0 X30.6143 Y-21.5497 
G0 Z0.4163
G0 X30.6444 Y-21.5796 
G1 X30.6444 Y-21.5796 Z0.1300 F25.
G3X30.6143Y-21.5497Z0.1300I-0.0300J-0.0001
G2X30.5950Y-21.5495Z0.1300I-0.0025J0.8188
G2X30.4323Y-21.5298Z0.1300I0.0168J0.8186
G2X30.4914Y-22.3458Z0.1300I-1.0532J-0.4864
G3X30.7712Y-21.5340Z0.1300I-1.1846J0.8625
G2X30.6143Y-21.5497Z0.1300I-0.1594J0.8031
G0 Z0.4888
G0 X30.6143 Y-21.5497 
G0 Z0.4888
G0 X29.5513 Y-21.4785 
G1 X29.5513 Y-21.4785 Z0.2388 F25.
G3X29.5219Y-21.4479Z0.2388I-0.0300J0.0006
G2X29.3592Y-21.4281Z0.2388I0.0168J0.8187
G2X29.4183Y-22.2441Z0.2388I-1.0532J-0.4864
G3X29.6981Y-21.4324Z0.2388I-1.1846J0.8624
G2X29.5219Y-21.4479Z0.2388I-0.1594J0.8032
G0 Z0.4888
G0 X29.5219 Y-21.4479 
G0 Z0.4888
G0 X29.5513 Y-21.4785 
G1 X29.5513 Y-21.4785 Z0.2025 F25.
G3X29.5219Y-21.4479Z0.2025I-0.0300J0.0006
G2X29.3592Y-21.4281Z0.2025I0.0168J0.8187
G2X29.4183Y-22.2441Z0.2025I-1.0532J-0.4864
G3X29.6981Y-21.4324Z0.2025I-1.1846J0.8624
G2X29.5219Y-21.4479Z0.2025I-0.1594J0.8032
G0 Z0.4525
G0 X29.5219 Y-21.4479 
G0 Z0.4525
G0 X29.5513 Y-21.4785 
G1 X29.5513 Y-21.4785 Z0.1663 F25.
G3X29.5219Y-21.4479Z0.1663I-0.0300J0.0006
G2X29.3592Y-21.4281Z0.1663I0.0168J0.8187
G2X29.4183Y-22.2441Z0.1663I-1.0532J-0.4864
G3X29.6981Y-21.4324Z0.1663I-1.1846J0.8624
G2X29.5219Y-21.4479Z0.1663I-0.1594J0.8032
G0 Z0.4163
G0 X29.5219 Y-21.4479 
G0 Z0.4163
G0 X29.5513 Y-21.4785 
G1 X29.5513 Y-21.4785 Z0.1300 F25.
G3X29.5219Y-21.4479Z0.1300I-0.0300J0.0006
G2X29.3592Y-21.4281Z0.1300I0.0168J0.8187
G2X29.4183Y-22.2441Z0.1300I-1.0532J-0.4864
G3X29.6981Y-21.4324Z0.1300I-1.1846J0.8624
G2X29.5219Y-21.4479Z0.1300I-0.1594J0.8032
G0 Z0.4888
G0 X29.5219 Y-21.4479 
G0 Z0.4888
G0 X36.4039 Y-21.5716 
G1 X36.4039 Y-21.5716 Z0.2388 F25.
G3X36.3738Y-21.5417Z0.2388I-0.0300J-0.0001
G2X36.1081Y-21.5093Z0.2388I-0.0032J1.0789
G2X36.1743Y-22.6844Z0.2388I-1.3811J-0.6672
G3X36.5965Y-21.5178Z0.2388I-1.5438J1.2184
G2X36.3738Y-21.5417Z0.2388I-0.2259J1.0550
G0 Z0.4888
G0 X36.3738 Y-21.5417 
G0 Z0.4888
G0 X36.4039 Y-21.5716 
G1 X36.4039 Y-21.5716 Z0.2025 F25.
G3X36.3738Y-21.5417Z0.2025I-0.0300J-0.0001
G2X36.1081Y-21.5093Z0.2025I-0.0032J1.0789
G2X36.1743Y-22.6844Z0.2025I-1.3811J-0.6672
G3X36.5965Y-21.5178Z0.2025I-1.5438J1.2184
G2X36.3738Y-21.5417Z0.2025I-0.2259J1.0550
G0 Z0.4525
G0 X36.3738 Y-21.5417 
G0 Z0.4525
G0 X36.4039 Y-21.5716 
G1 X36.4039 Y-21.5716 Z0.1663 F25.
G3X36.3738Y-21.5417Z0.1663I-0.0300J-0.0001
G2X36.1081Y-21.5093Z0.1663I-0.0032J1.0789
G2X36.1743Y-22.6844Z0.1663I-1.3811J-0.6672
G3X36.5965Y-21.5178Z0.1663I-1.5438J1.2184
G2X36.3738Y-21.5417Z0.1663I-0.2259J1.0550
G0 Z0.4163
G0 X36.3738 Y-21.5417 
G0 Z0.4163
G0 X36.4039 Y-21.5716 
G1 X36.4039 Y-21.5716 Z0.1300 F25.
G3X36.3738Y-21.5417Z0.1300I-0.0300J-0.0001
G2X36.1081Y-21.5093Z0.1300I-0.0032J1.0789
G2X36.1743Y-22.6844Z0.1300I-1.3811J-0.6672
G3X36.5965Y-21.5178Z0.1300I-1.5438J1.2184
G2X36.3738Y-21.5417Z0.1300I-0.2259J1.0550
G0 Z0.4888
G0 X36.3738 Y-21.5417 
G0 Z0.4888
G0 X33.8432 Y-23.8697 
G1 X33.8432 Y-23.8697 Z0.2388 F25.
G3X33.8732Y-23.8997Z0.2388I0.0300J0.0000
G2X34.0527Y-23.9196Z0.2388I0.0000J-0.8188
G2X33.9936Y-23.1036Z0.2388I1.0532J0.4864
G3X33.7138Y-23.9153Z0.2388I1.1846J-0.8625
G2X33.8732Y-23.8997Z0.2388I0.1594J-0.8032
G0 Z0.4888
G0 X33.8732 Y-23.8997 
G0 Z0.4888
G0 X33.8432 Y-23.8697 
G1 X33.8432 Y-23.8697 Z0.2025 F25.
G3X33.8732Y-23.8997Z0.2025I0.0300J0.0000
G2X34.0527Y-23.9196Z0.2025I0.0000J-0.8188
G2X33.9936Y-23.1036Z0.2025I1.0532J0.4864
G3X33.7138Y-23.9153Z0.2025I1.1846J-0.8625
G2X33.8732Y-23.8997Z0.2025I0.1594J-0.8032
G0 Z0.4525
G0 X33.8732 Y-23.8997 
G0 Z0.4525
G0 X33.8432 Y-23.8697 
G1 X33.8432 Y-23.8697 Z0.1663 F25.
G3X33.8732Y-23.8997Z0.1663I0.0300J0.0000
G2X34.0527Y-23.9196Z0.1663I0.0000J-0.8188
G2X33.9936Y-23.1036Z0.1663I1.0532J0.4864
G3X33.7138Y-23.9153Z0.1663I1.1846J-0.8625
G2X33.8732Y-23.8997Z0.1663I0.1594J-0.8032
G0 Z0.4163
G0 X33.8732 Y-23.8997 
G0 Z0.4163
G0 X33.8432 Y-23.8697 
G1 X33.8432 Y-23.8697 Z0.1300 F25.
G3X33.8732Y-23.8997Z0.1300I0.0300J0.0000
G2X34.0527Y-23.9196Z0.1300I0.0000J-0.8188
G2X33.9936Y-23.1036Z0.1300I1.0532J0.4864
G3X33.7138Y-23.9153Z0.1300I1.1846J-0.8625
G2X33.8732Y-23.8997Z0.1300I0.1594J-0.8032
G0 Z2.0000
G0 X33.8732 Y-23.8997 
M5
G53 Z
X2Y0
