( MOP:  02-inlay-DoubleFingers-idPT09-s24-01a )
( FILE: G:\Shared drives\AlloyProjectFiles\Customer CAD files\Alloy-Standard-Builds-CAM\Fingerboards-in\02-inlay-DoubleFingers-idPT09-s24-01.nc)
G90
(  BEGIN TOOL LIST )
(  TOOL 7 - Downcut PT125 - DESC: 0.1250 DIA, 2 FLUTE,  CARBIDE MAT )
(  ENDOF TOOL LIST )
( 02-inlay-DoubleFingers-idPT09-s24-01a)
T07
S12000
M3
G0 Z2.0000
G0 X29.6298 Y-22.0806 
G1 X29.6298 Y-22.0806 Z0.2800 F75.
G1 X29.6298 Y-22.0806 Z0.2550 F25.
G1 X29.6298 Y-21.6429 Z0.1377
G1 X29.6298 Y-21.6418 Z0.1374
G1 X29.6297 Y-21.6407 Z0.1371
G1 X29.6296 Y-21.6396 Z0.1368
G1 X29.6294 Y-21.6386 Z0.1365
G1 X29.6292 Y-21.6375 Z0.1362
G1 X29.6289 Y-21.6364 Z0.1360
G1 X29.6285 Y-21.6354 Z0.1357
G1 X29.6281 Y-21.6344 Z0.1354
G1 X29.6277 Y-21.6334 Z0.1351
G1 X29.6272 Y-21.6324 Z0.1348
G1 X29.6266 Y-21.6314 Z0.1345
G1 X29.6261 Y-21.6305 Z0.1342
G1 X29.6254 Y-21.6296 Z0.1339
G1 X29.6248 Y-21.6288 Z0.1336
G1 X29.6240 Y-21.6279 Z0.1333
G1 X29.6238 Y-21.6276 Z0.1332
G1 X29.6235 Y-21.6273 Z0.1331
G1 X29.6232 Y-21.6271 Z0.1330
G1 X29.6229 Y-21.6268 Z0.1329
G1 X29.6226 Y-21.6265 Z0.1328
G1 X29.6223 Y-21.6262 Z0.1327
G1 X29.6220 Y-21.6260 Z0.1325
G1 X29.6217 Y-21.6257 Z0.1324
G1 X29.6214 Y-21.6254 Z0.1323
G1 X29.6210 Y-21.6252 Z0.1322
G1 X29.6207 Y-21.6249 Z0.1321
G1 X29.6204 Y-21.6247 Z0.1320
G1 X29.6201 Y-21.6245 Z0.1319
G1 X29.6197 Y-21.6242 Z0.1318
G1 X29.6194 Y-21.6240 Z0.1317
G1 X29.6190 Y-21.6238 Z0.1316
G1 X29.6187 Y-21.6236 Z0.1315
G1 X29.6183 Y-21.6234 Z0.1313
G1 X29.6179 Y-21.6232 Z0.1312
G1 X29.6176 Y-21.6230 Z0.1311
G1 X29.6172 Y-21.6228 Z0.1310
G1 X29.6168 Y-21.6226 Z0.1309
G1 X29.6164 Y-21.6225 Z0.1308
G1 X29.6160 Y-21.6223 Z0.1307
G1 X29.6157 Y-21.6222 Z0.1306
G1 X29.6153 Y-21.6220 Z0.1304
G1 X29.6149 Y-21.6219 Z0.1303
G1 X29.6145 Y-21.6217 Z0.1302
G1 X29.6141 Y-21.6216 Z0.1301
G1 X29.6137 Y-21.6215 Z0.1300
G17
G3X29.6075Y-21.6206Z0.1300I-0.0062J-0.0214
G3X29.5852Y-21.6429Z0.1300I0.0000J-0.0223
G1 X29.5852 Y-22.1241 Z0.1300
G3X29.6075Y-22.1464Z0.1300I0.0223J0.0000
G3X29.6298Y-22.1241Z0.1300I0.0000J0.0223
G1 X29.6298 Y-21.6429 Z0.1300
G3X29.6240Y-21.6279Z0.1300I-0.0223J0.0000
G3X29.6194Y-21.6240Z0.1300I-0.0165J-0.0150
G3X29.6137Y-21.6215Z0.1300I-0.0119J-0.0189
G1 X29.6223 Y-21.5915 Z0.1300
G3X29.6075Y-21.5894Z0.1300I-0.0148J-0.0514
G3X29.5540Y-21.6429Z0.1300I0.0000J-0.0535
G1 X29.5540 Y-22.1241 Z0.1300
G3X29.6075Y-22.1777Z0.1300I0.0535J0.0000
G3X29.6611Y-22.1241Z0.1300I0.0000J0.0536
G1 X29.6611 Y-21.6429 Z0.1300
G3X29.6472Y-21.6069Z0.1300I-0.0536J0.0000
G3X29.6360Y-21.5975Z0.1300I-0.0397J-0.0360
G3X29.6223Y-21.5915Z0.1300I-0.0285J-0.0454
G0 Z0.5300
G0 X29.6223 Y-21.5915 
G0 Z0.5300
G0 X30.5296 Y-22.0801 
G1 X30.5296 Y-22.0801 Z0.2800 F75.
G1 X30.5296 Y-22.0801 Z0.2550 F25.
G1 X30.5296 Y-21.6553 Z0.1412
G1 X30.5296 Y-21.6544 Z0.1409
G1 X30.5296 Y-21.6535 Z0.1407
G1 X30.5295 Y-21.6526 Z0.1405
G1 X30.5293 Y-21.6517 Z0.1402
G1 X30.5292 Y-21.6509 Z0.1400
G1 X30.5290 Y-21.6500 Z0.1397
G1 X30.5287 Y-21.6491 Z0.1395
G1 X30.5285 Y-21.6483 Z0.1393
G1 X30.5282 Y-21.6474 Z0.1390
G1 X30.5278 Y-21.6466 Z0.1388
G1 X30.5275 Y-21.6458 Z0.1385
G1 X30.5271 Y-21.6450 Z0.1383
G1 X30.5266 Y-21.6442 Z0.1381
G1 X30.5262 Y-21.6434 Z0.1378
G1 X30.5257 Y-21.6427 Z0.1376
G1 X30.5248 Y-21.6415 Z0.1372
G1 X30.5239 Y-21.6404 Z0.1368
G1 X30.5230 Y-21.6394 Z0.1364
G1 X30.5219 Y-21.6384 Z0.1361
G1 X30.5208 Y-21.6376 Z0.1357
G1 X30.5197 Y-21.6367 Z0.1353
G1 X30.5185 Y-21.6360 Z0.1349
G1 X30.5172 Y-21.6353 Z0.1345
G1 X30.5159 Y-21.6347 Z0.1342
G1 X30.5146 Y-21.6342 Z0.1338
G1 X30.5133 Y-21.6338 Z0.1334
G1 X30.5119 Y-21.6335 Z0.1330
G1 X30.5105 Y-21.6332 Z0.1327
G1 X30.5091 Y-21.6331 Z0.1323
G1 X30.5077 Y-21.6330 Z0.1319
G1 X30.5063 Y-21.6330 Z0.1315
G1 X30.5048 Y-21.6332 Z0.1311
G1 X30.5034 Y-21.6334 Z0.1308
G1 X30.5021 Y-21.6336 Z0.1304
G1 X30.5007 Y-21.6340 Z0.1300
G3X30.4850Y-21.6553Z0.1300I0.0066J-0.0213
G1 X30.4850 Y-22.1365 Z0.1300
G3X30.5073Y-22.1588Z0.1300I0.0223J0.0000
G3X30.5296Y-22.1365Z0.1300I0.0000J0.0223
G1 X30.5296 Y-21.6553 Z0.1300
G3X30.5257Y-21.6427Z0.1300I-0.0223J0.0000
G3X30.5007Y-21.6340Z0.1300I-0.0184J-0.0126
G1 X30.4914 Y-21.6042 Z0.1300
G3X30.4538Y-21.6553Z0.1300I0.0159J-0.0511
G1 X30.4538 Y-22.1365 Z0.1300
G3X30.5073Y-22.1900Z0.1300I0.0535J0.0000
G3X30.5609Y-22.1365Z0.1300I0.0000J0.0535
G1 X30.5609 Y-21.6553 Z0.1300
G3X30.5514Y-21.6249Z0.1300I-0.0536J0.0000
G3X30.4914Y-21.6042Z0.1300I-0.0441J-0.0304
G0 Z0.5300
G0 X30.4914 Y-21.6042 
G0 Z0.5300
G0 X31.5396 Y-22.0892 
G1 X31.5396 Y-22.0892 Z0.2800 F75.
G1 X31.5396 Y-22.0892 Z0.2550 F25.
G1 X31.5396 Y-21.6692 Z0.1425
G1 X31.5396 Y-21.6685 Z0.1423
G1 X31.5395 Y-21.6677 Z0.1420
G1 X31.5395 Y-21.6669 Z0.1418
G1 X31.5394 Y-21.6661 Z0.1416
G1 X31.5392 Y-21.6654 Z0.1414
G1 X31.5391 Y-21.6646 Z0.1412
G1 X31.5389 Y-21.6638 Z0.1410
G1 X31.5387 Y-21.6631 Z0.1408
G1 X31.5385 Y-21.6623 Z0.1406
G1 X31.5382 Y-21.6616 Z0.1404
G1 X31.5379 Y-21.6609 Z0.1402
G1 X31.5376 Y-21.6601 Z0.1400
G1 X31.5373 Y-21.6594 Z0.1397
G1 X31.5370 Y-21.6587 Z0.1395
G1 X31.5366 Y-21.6581 Z0.1393
G1 X31.5362 Y-21.6574 Z0.1391
G1 X31.5358 Y-21.6568 Z0.1389
G1 X31.5353 Y-21.6562 Z0.1387
G1 X31.5349 Y-21.6556 Z0.1385
G1 X31.5344 Y-21.6550 Z0.1383
G1 X31.5339 Y-21.6544 Z0.1381
G1 X31.5334 Y-21.6539 Z0.1379
G1 X31.5329 Y-21.6533 Z0.1377
G1 X31.5323 Y-21.6528 Z0.1375
G1 X31.5318 Y-21.6523 Z0.1373
G1 X31.5312 Y-21.6518 Z0.1371
G1 X31.5306 Y-21.6514 Z0.1369
G1 X31.5300 Y-21.6509 Z0.1367
G1 X31.5294 Y-21.6505 Z0.1365
G1 X31.5287 Y-21.6501 Z0.1363
G1 X31.5274 Y-21.6494 Z0.1359
G1 X31.5261 Y-21.6488 Z0.1355
G1 X31.5247 Y-21.6482 Z0.1351
G1 X31.5233 Y-21.6478 Z0.1347
G1 X31.5219 Y-21.6474 Z0.1343
G1 X31.5205 Y-21.6472 Z0.1339
G1 X31.5190 Y-21.6470 Z0.1335
G1 X31.5175 Y-21.6469 Z0.1332
G1 X31.5161 Y-21.6470 Z0.1328
G1 X31.5146 Y-21.6471 Z0.1324
G1 X31.5131 Y-21.6473 Z0.1320
G1 X31.5117 Y-21.6476 Z0.1316
G1 X31.5103 Y-21.6481 Z0.1312
G1 X31.5089 Y-21.6486 Z0.1308
G1 X31.5076 Y-21.6492 Z0.1304
G1 X31.5063 Y-21.6498 Z0.1300
G3X31.4950Y-21.6692Z0.1300I0.0110J-0.0194
G1 X31.4950 Y-22.1504 Z0.1300
G3X31.5173Y-22.1727Z0.1300I0.0223J0.0000
G3X31.5396Y-22.1504Z0.1300I0.0000J0.0223
G1 X31.5396 Y-21.6692 Z0.1300
G3X31.5366Y-21.6581Z0.1300I-0.0223J0.0000
G3X31.5287Y-21.6501Z0.1300I-0.0193J-0.0111
G3X31.5063Y-21.6498Z0.1300I-0.0114J-0.0191
G1 X31.4909 Y-21.6227 Z0.1300
G3X31.4637Y-21.6692Z0.1300I0.0264J-0.0465
G1 X31.4637 Y-22.1504 Z0.1300
G3X31.5173Y-22.2040Z0.1300I0.0536J0.0000
G3X31.5708Y-22.1504Z0.1300I0.0000J0.0536
G1 X31.5708 Y-21.6692 Z0.1300
G3X31.5636Y-21.6424Z0.1300I-0.0535J0.0000
G3X31.5448Y-21.6233Z0.1300I-0.0463J-0.0268
G3X31.4909Y-21.6227Z0.1300I-0.0275J-0.0459
G0 Z0.5300
G0 X31.4909 Y-21.6227 
G0 Z0.5300
G0 X32.6732 Y-22.1096 
G1 X32.6732 Y-22.1096 Z0.2800 F75.
G1 X32.6732 Y-22.1096 Z0.2550 F25.
G1 X32.6732 Y-21.6848 Z0.1412
G1 X32.6732 Y-21.6840 Z0.1409
G1 X32.6732 Y-21.6831 Z0.1407
G1 X32.6731 Y-21.6822 Z0.1405
G1 X32.6729 Y-21.6813 Z0.1402
G1 X32.6728 Y-21.6804 Z0.1400
G1 X32.6726 Y-21.6795 Z0.1397
G1 X32.6723 Y-21.6786 Z0.1395
G1 X32.6721 Y-21.6778 Z0.1393
G1 X32.6718 Y-21.6769 Z0.1390
G1 X32.6714 Y-21.6761 Z0.1388
G1 X32.6711 Y-21.6753 Z0.1385
G1 X32.6707 Y-21.6745 Z0.1383
G1 X32.6702 Y-21.6737 Z0.1381
G1 X32.6698 Y-21.6729 Z0.1378
G1 X32.6693 Y-21.6722 Z0.1376
G1 X32.6684 Y-21.6710 Z0.1372
G1 X32.6675 Y-21.6700 Z0.1368
G1 X32.6665 Y-21.6689 Z0.1364
G1 X32.6655 Y-21.6680 Z0.1361
G1 X32.6644 Y-21.6671 Z0.1357
G1 X32.6633 Y-21.6663 Z0.1353
G1 X32.6621 Y-21.6655 Z0.1349
G1 X32.6608 Y-21.6649 Z0.1345
G1 X32.6595 Y-21.6643 Z0.1342
G1 X32.6582 Y-21.6638 Z0.1338
G1 X32.6568 Y-21.6634 Z0.1334
G1 X32.6555 Y-21.6630 Z0.1330
G1 X32.6541 Y-21.6628 Z0.1327
G1 X32.6527 Y-21.6626 Z0.1323
G1 X32.6513 Y-21.6626 Z0.1319
G1 X32.6498 Y-21.6626 Z0.1315
G1 X32.6484 Y-21.6627 Z0.1311
G1 X32.6470 Y-21.6629 Z0.1308
G1 X32.6457 Y-21.6632 Z0.1304
G1 X32.6443 Y-21.6636 Z0.1300
G3X32.6286Y-21.6848Z0.1300I0.0066J-0.0212
G1 X32.6286 Y-22.1660 Z0.1300
G3X32.6509Y-22.1883Z0.1300I0.0223J0.0000
G3X32.6732Y-22.1660Z0.1300I0.0000J0.0223
G1 X32.6732 Y-21.6848 Z0.1300
G3X32.6693Y-21.6722Z0.1300I-0.0223J0.0000
G3X32.6443Y-21.6636Z0.1300I-0.0184J-0.0126
G1 X32.6350 Y-21.6337 Z0.1300
G3X32.5974Y-21.6848Z0.1300I0.0159J-0.0511
G1 X32.5974 Y-22.1660 Z0.1300
G3X32.6509Y-22.2196Z0.1300I0.0535J0.0000
G3X32.7045Y-22.1660Z0.1300I0.0000J0.0536
G1 X32.7045 Y-21.6848 Z0.1300
G3X32.6950Y-21.6544Z0.1300I-0.0536J0.0000
G3X32.6350Y-21.6337Z0.1300I-0.0441J-0.0304
G0 Z0.5300
G0 X32.6350 Y-21.6337 
G0 Z0.5300
G0 X34.4577 Y-22.1819 
G1 X34.4577 Y-22.1819 Z0.2800 F75.
G1 X34.4577 Y-22.1819 Z0.2550 F25.
G1 X34.4577 Y-21.7214 Z0.1316
G1 X34.4577 Y-21.7210 Z0.1315
G1 X34.4576 Y-21.7206 Z0.1314
G1 X34.4576 Y-21.7202 Z0.1313
G1 X34.4576 Y-21.7198 Z0.1312
G1 X34.4576 Y-21.7194 Z0.1311
G1 X34.4575 Y-21.7190 Z0.1310
G1 X34.4575 Y-21.7186 Z0.1309
G1 X34.4574 Y-21.7182 Z0.1308
G1 X34.4573 Y-21.7178 Z0.1306
G1 X34.4572 Y-21.7174 Z0.1305
G1 X34.4572 Y-21.7170 Z0.1304
G1 X34.4571 Y-21.7167 Z0.1303
G1 X34.4570 Y-21.7163 Z0.1302
G1 X34.4568 Y-21.7159 Z0.1301
G1 X34.4567 Y-21.7155 Z0.1300
G3X34.4540Y-21.7101Z0.1300I-0.0187J-0.0059
G3X34.4184Y-21.7214Z0.1300I-0.0160J-0.0113
G1 X34.4184 Y-22.1935 Z0.1300
G3X34.4380Y-22.2131Z0.1300I0.0196J0.0000
G3X34.4577Y-22.1935Z0.1300I0.0000J0.0196
G1 X34.4577 Y-21.7214 Z0.1300
G3X34.4567Y-21.7155Z0.1300I-0.0197J0.0000
G1 X34.4865 Y-21.7060 Z0.1300
G3X34.4795Y-21.6920Z0.1300I-0.0485J-0.0154
G3X34.3872Y-21.7214Z0.1300I-0.0415J-0.0294
G1 X34.3872 Y-22.1935 Z0.1300
G3X34.4380Y-22.2443Z0.1300I0.0508J0.0000
G3X34.4889Y-22.1935Z0.1300I0.0000J0.0508
G1 X34.4889 Y-21.7214 Z0.1300
G3X34.4865Y-21.7060Z0.1300I-0.0509J0.0000
G0 Z0.5300
G0 X34.4865 Y-21.7060 
G0 Z0.5300
G0 X34.7762 Y-21.7424 
G1 X34.7762 Y-21.7424 Z0.2800 F75.
G1 X34.7762 Y-21.7424 Z0.2550 F25.
G1 X34.7762 Y-22.1935 Z0.1341
G1 X34.7762 Y-22.1945 Z0.1339
G1 X34.7763 Y-22.1955 Z0.1336
G1 X34.7764 Y-22.1966 Z0.1333
G1 X34.7766 Y-22.1976 Z0.1330
G1 X34.7769 Y-22.1986 Z0.1328
G1 X34.7772 Y-22.1995 Z0.1325
G1 X34.7775 Y-22.2005 Z0.1322
G1 X34.7779 Y-22.2015 Z0.1319
G1 X34.7783 Y-22.2024 Z0.1317
G1 X34.7788 Y-22.2033 Z0.1314
G1 X34.7794 Y-22.2042 Z0.1311
G1 X34.7799 Y-22.2050 Z0.1308
G1 X34.7806 Y-22.2058 Z0.1306
G1 X34.7812 Y-22.2066 Z0.1303
G1 X34.7819 Y-22.2074 Z0.1300
G3X34.7958Y-22.2131Z0.1300I0.0139J0.0139
G3X34.8154Y-22.1935Z0.1300I0.0000J0.0196
G1 X34.8154 Y-21.7214 Z0.1300
G3X34.8091Y-21.7070Z0.1300I-0.0196J0.0000
G3X34.7762Y-21.7214Z0.1300I-0.0133J-0.0144
G1 X34.7762 Y-22.1935 Z0.1300
G3X34.7819Y-22.2074Z0.1300I0.0196J0.0000
G1 X34.7598 Y-22.2295 Z0.1300
G3X34.7958Y-22.2443Z0.1300I0.0360J0.0360
G3X34.8467Y-22.1935Z0.1300I0.0000J0.0508
G1 X34.8467 Y-21.7214 Z0.1300
G3X34.8302Y-21.6840Z0.1300I-0.0509J0.0000
G3X34.7449Y-21.7214Z0.1300I-0.0344J-0.0374
G1 X34.7449 Y-22.1935 Z0.1300
G3X34.7598Y-22.2295Z0.1300I0.0509J0.0000
G0 Z0.5300
G0 X34.7598 Y-22.2295 
G0 Z0.5300
G0 X36.9849 Y-21.7850 
G1 X36.9849 Y-21.7850 Z0.2800 F75.
G1 X36.9849 Y-21.7850 Z0.2550 F25.
G1 X36.9845 Y-21.6724 Z0.2248
G1 X36.9845 Y-21.6712 Z0.2245
G1 X36.9845 Y-21.6700 Z0.2242
G1 X36.9843 Y-21.6689 Z0.2239
G1 X36.9842 Y-21.6677 Z0.2236
G1 X36.9840 Y-21.6665 Z0.2233
G1 X36.9837 Y-21.6654 Z0.2229
G1 X36.9834 Y-21.6642 Z0.2226
G1 X36.9831 Y-21.6631 Z0.2223
G1 X36.9827 Y-21.6620 Z0.2220
G1 X36.9823 Y-21.6609 Z0.2217
G1 X36.9819 Y-21.6598 Z0.2214
G1 X36.9814 Y-21.6587 Z0.2210
G1 X36.9808 Y-21.6577 Z0.2207
G1 X36.9802 Y-21.6566 Z0.2204
G1 X36.9796 Y-21.6556 Z0.2201
G1 X36.9794 Y-21.6553 Z0.2200
G1 X36.9792 Y-21.6550 Z0.2199
G1 X36.9790 Y-21.6547 Z0.2198
G1 X36.9788 Y-21.6544 Z0.2197
G1 X36.9785 Y-21.6541 Z0.2196
G1 X36.9783 Y-21.6537 Z0.2195
G1 X36.9781 Y-21.6534 Z0.2194
G1 X36.9778 Y-21.6531 Z0.2193
G1 X36.9776 Y-21.6528 Z0.2192
G1 X36.9774 Y-21.6525 Z0.2191
G1 X36.9771 Y-21.6522 Z0.2190
G1 X36.9769 Y-21.6520 Z0.2189
G1 X36.9766 Y-21.6517 Z0.2188
G1 X36.9763 Y-21.6514 Z0.2186
G1 X36.9761 Y-21.6511 Z0.2185
G1 X36.9749 Y-21.6499 Z0.2181
G1 X36.9736 Y-21.6488 Z0.2176
G1 X36.9723 Y-21.6477 Z0.2172
G1 X36.9710 Y-21.6467 Z0.2167
G1 X36.9696 Y-21.6458 Z0.2163
G1 X36.9681 Y-21.6450 Z0.2158
G1 X36.9666 Y-21.6443 Z0.2154
G1 X36.9651 Y-21.6436 Z0.2149
G1 X36.9635 Y-21.6430 Z0.2145
G1 X36.9619 Y-21.6425 Z0.2140
G1 X36.9602 Y-21.6421 Z0.2136
G1 X36.9586 Y-21.6418 Z0.2131
G1 X36.9569 Y-21.6415 Z0.2127
G1 X36.9553 Y-21.6414 Z0.2122
G1 X36.9536 Y-21.6414 Z0.2118
G1 X36.9519 Y-21.6414 Z0.2113
G1 X36.9502 Y-21.6415 Z0.2109
G1 X36.9486 Y-21.6418 Z0.2104
G1 X36.9469 Y-21.6421 Z0.2100
G1 X36.9453 Y-21.6425 Z0.2095
G1 X36.9437 Y-21.6430 Z0.2091
G1 X36.9421 Y-21.6435 Z0.2086
G1 X36.9405 Y-21.6442 Z0.2082
G1 X36.9390 Y-21.6449 Z0.2077
G1 X36.9376 Y-21.6458 Z0.2073
G1 X36.9362 Y-21.6467 Z0.2068
G1 X36.9348 Y-21.6476 Z0.2064
G1 X36.9335 Y-21.6487 Z0.2059
G1 X36.9322 Y-21.6498 Z0.2055
G1 X36.9310 Y-21.6510 Z0.2050
G1 X36.9299 Y-21.6522 Z0.2046
G1 X36.9288 Y-21.6535 Z0.2041
G1 X36.9279 Y-21.6549 Z0.2037
G1 X36.9270 Y-21.6563 Z0.2032
G1 X36.9261 Y-21.6578 Z0.2028
G1 X36.9254 Y-21.6593 Z0.2023
G1 X36.9247 Y-21.6608 Z0.2019
G1 X36.9241 Y-21.6624 Z0.2014
G1 X36.9236 Y-21.6640 Z0.2010
G1 X36.9232 Y-21.6656 Z0.2005
G1 X36.9229 Y-21.6673 Z0.2001
G1 X36.9226 Y-21.6689 Z0.1996
G1 X36.9225 Y-21.6706 Z0.1992
G1 X36.9225 Y-21.6723 Z0.1987
G1 X36.9232 Y-21.9288 Z0.1300
G1 X36.9239 Y-22.1853 Z0.1300
G3X36.9549Y-22.2164Z0.1300I0.0310J0.0000
G3X36.9860Y-22.1855Z0.1300I0.0000J0.0311
G1 X36.9845 Y-21.6724 Z0.1300
G3X36.9796Y-21.6556Z0.1300I-0.0310J0.0000
G3X36.9761Y-21.6511Z0.1300I-0.0261J-0.0168
G3X36.9225Y-21.6723Z0.1300I-0.0226J-0.0213
G1 X36.9232 Y-21.9288 Z0.1300
G1 X36.8919 Y-21.9289 Z0.1300
G1 X36.8926 Y-22.1853 Z0.1300
G3X36.9549Y-22.2476Z0.1300I0.0623J0.0000
G3X37.0172Y-22.1855Z0.1300I0.0000J0.0623
G1 X37.0158 Y-21.6724 Z0.1300
G3X37.0059Y-21.6388Z0.1300I-0.0623J0.0000
G3X36.9988Y-21.6297Z0.1300I-0.0524J-0.0336
G3X36.8912Y-21.6723Z0.1300I-0.0453J-0.0427
G1 X36.8919 Y-21.9289 Z0.1300
G1 X36.8607 Y-21.9290 Z0.1300
G1 X36.8614 Y-22.1851 Z0.1300
G1 X36.8614 Y-22.1853 Z0.1300
G3X36.9549Y-22.2789Z0.1300I0.0935J0.0000
G3X37.0485Y-22.1854Z0.1300I0.0000J0.0936
G1 X37.0470 Y-21.6726 Z0.1300
G1 X37.0470 Y-21.6724 Z0.1300
G3X37.0322Y-21.6219Z0.1300I-0.0935J0.0000
G3X37.0215Y-21.6082Z0.1300I-0.0787J-0.0505
G3X36.8600Y-21.6723Z0.1300I-0.0680J-0.0642
G1 X36.8607 Y-21.9290 Z0.1300
G0 Z0.5300
G0 X36.8607 Y-21.9290 
G0 Z0.5300
G0 X38.7231 Y-22.0975 
G1 X38.7231 Y-22.0975 Z0.2800 F75.
G1 X38.7231 Y-22.0975 Z0.2550 F25.
G1 X38.7234 Y-22.2101 Z0.2248
G1 X38.7235 Y-22.2118 Z0.2244
G1 X38.7236 Y-22.2135 Z0.2239
G1 X38.7238 Y-22.2151 Z0.2235
G1 X38.7242 Y-22.2168 Z0.2230
G1 X38.7246 Y-22.2184 Z0.2226
G1 X38.7251 Y-22.2200 Z0.2221
G1 X38.7256 Y-22.2216 Z0.2217
G1 X38.7263 Y-22.2232 Z0.2212
G1 X38.7270 Y-22.2247 Z0.2208
G1 X38.7279 Y-22.2261 Z0.2203
G1 X38.7288 Y-22.2275 Z0.2199
G1 X38.7298 Y-22.2289 Z0.2194
G1 X38.7308 Y-22.2302 Z0.2190
G1 X38.7319 Y-22.2315 Z0.2185
G1 X38.7331 Y-22.2327 Z0.2181
G1 X38.7344 Y-22.2338 Z0.2176
G1 X38.7357 Y-22.2348 Z0.2172
G1 X38.7371 Y-22.2358 Z0.2167
G1 X38.7385 Y-22.2367 Z0.2163
G1 X38.7399 Y-22.2375 Z0.2158
G1 X38.7414 Y-22.2383 Z0.2154
G1 X38.7430 Y-22.2390 Z0.2149
G1 X38.7446 Y-22.2395 Z0.2145
G1 X38.7462 Y-22.2400 Z0.2140
G1 X38.7478 Y-22.2404 Z0.2136
G1 X38.7495 Y-22.2408 Z0.2131
G1 X38.7511 Y-22.2410 Z0.2127
G1 X38.7528 Y-22.2411 Z0.2122
G1 X38.7545 Y-22.2412 Z0.2118
G1 X38.7562 Y-22.2411 Z0.2113
G1 X38.7578 Y-22.2410 Z0.2109
G1 X38.7595 Y-22.2408 Z0.2104
G1 X38.7611 Y-22.2404 Z0.2100
G1 X38.7628 Y-22.2400 Z0.2095
G1 X38.7644 Y-22.2395 Z0.2091
G1 X38.7659 Y-22.2390 Z0.2086
G1 X38.7675 Y-22.2383 Z0.2082
G1 X38.7690 Y-22.2376 Z0.2077
G1 X38.7704 Y-22.2367 Z0.2073
G1 X38.7719 Y-22.2358 Z0.2068
G1 X38.7732 Y-22.2349 Z0.2064
G1 X38.7745 Y-22.2338 Z0.2059
G1 X38.7758 Y-22.2327 Z0.2055
G1 X38.7770 Y-22.2315 Z0.2050
G1 X38.7781 Y-22.2303 Z0.2046
G1 X38.7791 Y-22.2290 Z0.2041
G1 X38.7801 Y-22.2276 Z0.2037
G1 X38.7810 Y-22.2262 Z0.2032
G1 X38.7819 Y-22.2247 Z0.2028
G1 X38.7826 Y-22.2232 Z0.2023
G1 X38.7833 Y-22.2217 Z0.2019
G1 X38.7839 Y-22.2201 Z0.2014
G1 X38.7844 Y-22.2185 Z0.2010
G1 X38.7848 Y-22.2169 Z0.2005
G1 X38.7851 Y-22.2152 Z0.2001
G1 X38.7853 Y-22.2136 Z0.1996
G1 X38.7855 Y-22.2119 Z0.1992
G1 X38.7855 Y-22.2102 Z0.1987
G1 X38.7848 Y-21.9537 Z0.1300
G1 X38.7841 Y-21.6972 Z0.1300
G3X38.7760Y-21.6763Z0.1300I-0.0311J0.0000
G3X38.7220Y-21.6971Z0.1300I-0.0230J-0.0209
G1 X38.7234 Y-22.2101 Z0.1300
G3X38.7545Y-22.2412Z0.1300I0.0311J0.0000
G3X38.7855Y-22.2102Z0.1300I0.0000J0.0311
G1 X38.7848 Y-21.9537 Z0.1300
G1 X38.8161 Y-21.9536 Z0.1300
G1 X38.8153 Y-21.6972 Z0.1300
G3X38.7991Y-21.6552Z0.1300I-0.0623J0.0000
G3X38.6908Y-21.6971Z0.1300I-0.0461J-0.0420
G1 X38.6922 Y-22.2101 Z0.1300
G3X38.7545Y-22.2724Z0.1300I0.0623J0.0000
G3X38.8168Y-22.2102Z0.1300I0.0000J0.0623
G1 X38.8161 Y-21.9536 Z0.1300
G1 X38.8473 Y-21.9535 Z0.1300
G1 X38.8466 Y-21.6974 Z0.1300
G1 X38.8466 Y-21.6972 Z0.1300
G3X38.8221Y-21.6341Z0.1300I-0.0936J0.0000
G3X38.6595Y-21.6971Z0.1300I-0.0691J-0.0631
G1 X38.6609 Y-22.2099 Z0.1300
G1 X38.6609 Y-22.2101 Z0.1300
G3X38.7545Y-22.3037Z0.1300I0.0936J0.0000
G3X38.8480Y-22.2102Z0.1300I0.0000J0.0936
G1 X38.8473 Y-21.9535 Z0.1300
G0 Z0.5300
G0 X38.8473 Y-21.9535 
G0 Z0.5300
G0 X40.8055 Y-22.1324 
G1 X40.8055 Y-22.1324 Z0.2800 F75.
G1 X40.8055 Y-22.1324 Z0.2550 F25.
G1 X40.8055 Y-21.7251 Z0.1458
G1 X40.8054 Y-21.7237 Z0.1455
G1 X40.8053 Y-21.7223 Z0.1451
G1 X40.8052 Y-21.7209 Z0.1447
G1 X40.8050 Y-21.7195 Z0.1444
G1 X40.8047 Y-21.7182 Z0.1440
G1 X40.8044 Y-21.7168 Z0.1436
G1 X40.8040 Y-21.7155 Z0.1433
G1 X40.8035 Y-21.7142 Z0.1429
G1 X40.8030 Y-21.7129 Z0.1425
G1 X40.8024 Y-21.7117 Z0.1421
G1 X40.8018 Y-21.7104 Z0.1418
G1 X40.8011 Y-21.7092 Z0.1414
G1 X40.8004 Y-21.7080 Z0.1410
G1 X40.7996 Y-21.7069 Z0.1407
G1 X40.7988 Y-21.7058 Z0.1403
G1 X40.7977 Y-21.7045 Z0.1398
G1 X40.7966 Y-21.7033 Z0.1394
G1 X40.7954 Y-21.7021 Z0.1389
G1 X40.7941 Y-21.7010 Z0.1385
G1 X40.7928 Y-21.7000 Z0.1380
G1 X40.7914 Y-21.6991 Z0.1376
G1 X40.7900 Y-21.6982 Z0.1372
G1 X40.7885 Y-21.6974 Z0.1367
G1 X40.7870 Y-21.6967 Z0.1363
G1 X40.7855 Y-21.6960 Z0.1358
G1 X40.7839 Y-21.6955 Z0.1354
G1 X40.7823 Y-21.6950 Z0.1349
G1 X40.7807 Y-21.6946 Z0.1345
G1 X40.7790 Y-21.6944 Z0.1340
G1 X40.7774 Y-21.6941 Z0.1336
G1 X40.7757 Y-21.6940 Z0.1331
G1 X40.7741 Y-21.6940 Z0.1327
G1 X40.7724 Y-21.6941 Z0.1322
G1 X40.7707 Y-21.6942 Z0.1318
G1 X40.7691 Y-21.6945 Z0.1313
G1 X40.7674 Y-21.6948 Z0.1309
G1 X40.7658 Y-21.6952 Z0.1304
G1 X40.7642 Y-21.6957 Z0.1300
G3X40.7434Y-21.7251Z0.1300I0.0102J-0.0294
G1 X40.7434 Y-22.2380 Z0.1300
G3X40.7744Y-22.2690Z0.1300I0.0310J0.0000
G3X40.8055Y-22.2380Z0.1300I0.0000J0.0310
G1 X40.8055 Y-21.7251 Z0.1300
G3X40.7988Y-21.7058Z0.1300I-0.0311J0.0000
G3X40.7642Y-21.6957Z0.1300I-0.0244J-0.0193
G1 X40.7540 Y-21.6662 Z0.1300
G3X40.7121Y-21.7251Z0.1300I0.0204J-0.0589
G1 X40.7121 Y-22.2380 Z0.1300
G3X40.7744Y-22.3003Z0.1300I0.0623J0.0000
G3X40.8367Y-22.2380Z0.1300I0.0000J0.0623
G1 X40.8367 Y-21.7251 Z0.1300
G3X40.8233Y-21.6864Z0.1300I-0.0623J0.0000
G3X40.7540Y-21.6662Z0.1300I-0.0489J-0.0387
G1 X40.7437 Y-21.6367 Z0.1300
G3X40.6809Y-21.7251Z0.1300I0.0307J-0.0884
G1 X40.6809 Y-22.2380 Z0.1300
G3X40.7744Y-22.3315Z0.1300I0.0935J0.0000
G3X40.8680Y-22.2380Z0.1300I0.0000J0.0935
G1 X40.8680 Y-21.7251 Z0.1300
G3X40.8478Y-21.6670Z0.1300I-0.0936J0.0000
G3X40.7437Y-21.6367Z0.1300I-0.0734J-0.0581
G0 Z0.5300
G0 X40.7437 Y-21.6367 
G0 Z0.5300
G0 X43.0717 Y-21.8689 
G1 X43.0717 Y-21.8689 Z0.2800 F75.
G1 X43.0717 Y-21.8689 Z0.2550 F25.
G1 X43.0713 Y-21.7563 Z0.2248
G1 X43.0713 Y-21.7548 Z0.2244
G1 X43.0712 Y-21.7534 Z0.2241
G1 X43.0710 Y-21.7519 Z0.2237
G1 X43.0708 Y-21.7505 Z0.2233
G1 X43.0705 Y-21.7491 Z0.2229
G1 X43.0701 Y-21.7477 Z0.2225
G1 X43.0697 Y-21.7463 Z0.2221
G1 X43.0692 Y-21.7449 Z0.2217
G1 X43.0686 Y-21.7436 Z0.2213
G1 X43.0680 Y-21.7423 Z0.2209
G1 X43.0673 Y-21.7410 Z0.2206
G1 X43.0666 Y-21.7397 Z0.2202
G1 X43.0658 Y-21.7385 Z0.2198
G1 X43.0649 Y-21.7374 Z0.2194
G1 X43.0640 Y-21.7362 Z0.2190
G1 X43.0629 Y-21.7350 Z0.2185
G1 X43.0617 Y-21.7338 Z0.2181
G1 X43.0604 Y-21.7327 Z0.2176
G1 X43.0591 Y-21.7316 Z0.2172
G1 X43.0578 Y-21.7306 Z0.2167
G1 X43.0564 Y-21.7297 Z0.2163
G1 X43.0549 Y-21.7289 Z0.2158
G1 X43.0534 Y-21.7281 Z0.2154
G1 X43.0519 Y-21.7275 Z0.2149
G1 X43.0503 Y-21.7269 Z0.2145
G1 X43.0487 Y-21.7264 Z0.2140
G1 X43.0470 Y-21.7260 Z0.2136
G1 X43.0454 Y-21.7256 Z0.2131
G1 X43.0437 Y-21.7254 Z0.2127
G1 X43.0421 Y-21.7253 Z0.2122
G1 X43.0404 Y-21.7252 Z0.2118
G1 X43.0387 Y-21.7253 Z0.2113
G1 X43.0370 Y-21.7254 Z0.2109
G1 X43.0354 Y-21.7256 Z0.2104
G1 X43.0337 Y-21.7259 Z0.2100
G1 X43.0321 Y-21.7263 Z0.2095
G1 X43.0305 Y-21.7268 Z0.2091
G1 X43.0289 Y-21.7274 Z0.2086
G1 X43.0273 Y-21.7281 Z0.2082
G1 X43.0258 Y-21.7288 Z0.2077
G1 X43.0244 Y-21.7296 Z0.2073
G1 X43.0230 Y-21.7305 Z0.2068
G1 X43.0216 Y-21.7315 Z0.2064
G1 X43.0203 Y-21.7325 Z0.2059
G1 X43.0190 Y-21.7337 Z0.2055
G1 X43.0178 Y-21.7348 Z0.2050
G1 X43.0167 Y-21.7361 Z0.2046
G1 X43.0156 Y-21.7374 Z0.2041
G1 X43.0147 Y-21.7388 Z0.2037
G1 X43.0138 Y-21.7402 Z0.2032
G1 X43.0129 Y-21.7416 Z0.2028
G1 X43.0122 Y-21.7431 Z0.2023
G1 X43.0115 Y-21.7447 Z0.2019
G1 X43.0109 Y-21.7463 Z0.2014
G1 X43.0104 Y-21.7479 Z0.2010
G1 X43.0100 Y-21.7495 Z0.2005
G1 X43.0097 Y-21.7511 Z0.2001
G1 X43.0094 Y-21.7528 Z0.1996
G1 X43.0093 Y-21.7545 Z0.1992
G1 X43.0093 Y-21.7562 Z0.1987
G1 X43.0100 Y-22.0127 Z0.1300
G1 X43.0107 Y-22.2692 Z0.1300
G3X43.0417Y-22.3002Z0.1300I0.0310J0.0000
G3X43.0728Y-22.2693Z0.1300I0.0000J0.0310
G1 X43.0713 Y-21.7563 Z0.1300
G3X43.0640Y-21.7362Z0.1300I-0.0310J0.0000
G3X43.0093Y-21.7562Z0.1300I-0.0237J-0.0201
G1 X43.0100 Y-22.0127 Z0.1300
G1 X42.9787 Y-22.0128 Z0.1300
G1 X42.9794 Y-22.2692 Z0.1300
G3X43.0417Y-22.3315Z0.1300I0.0623J0.0000
G3X43.1040Y-22.2693Z0.1300I0.0000J0.0623
G1 X43.1026 Y-21.7563 Z0.1300
G3X43.0879Y-21.7160Z0.1300I-0.0623J0.0000
G3X42.9780Y-21.7562Z0.1300I-0.0476J-0.0403
G1 X42.9787 Y-22.0128 Z0.1300
G1 X42.9475 Y-22.0128 Z0.1300
G1 X42.9482 Y-22.2690 Z0.1300
G1 X42.9482 Y-22.2692 Z0.1300
G3X43.0417Y-22.3627Z0.1300I0.0935J0.0000
G3X43.1353Y-22.2693Z0.1300I0.0000J0.0935
G1 X43.1338 Y-21.7565 Z0.1300
G1 X43.1338 Y-21.7563 Z0.1300
G3X43.1117Y-21.6959Z0.1300I-0.0935J0.0000
G3X42.9468Y-21.7562Z0.1300I-0.0714J-0.0604
G1 X42.9475 Y-22.0128 Z0.1300
G0 Z2.0000
G0 X42.9475 Y-22.0128 
( 02-inlay-DoubleFingers-idPT09-s24-01b)
G0 Z2.0000
G0 X28.3575 Y-21.6296 
G1 X28.3575 Y-21.6296 Z0.1300 F20.
G3X28.3568Y-21.6299Z0.1300I-0.0003J-0.0003
G1 X28.3568 Y-22.1851 Z0.1300
G3X28.3572Y-22.1855Z0.1300I0.0004J0.0000
G3X28.3576Y-22.1851Z0.1300I0.0000J0.0004
G1 X28.3576 Y-21.6299 Z0.1300
G1 X28.3575 Y-21.6296 Z0.1300
G3X28.3568Y-21.6299Z0.1300I-0.0003J-0.0003
G1 X28.3568 Y-21.7539 Z0.1300
G0 Z0.3800
G0 X28.3568 Y-21.7539 
G0 Z0.3800
G0 X28.5201 Y-21.6296 
G1 X28.5201 Y-21.6296 Z0.1300 F20.
G3X28.5194Y-21.6299Z0.1300I-0.0002J-0.0003
G1 X28.5194 Y-22.1851 Z0.1300
G3X28.5199Y-22.1855Z0.1300I0.0005J0.0000
G3X28.5203Y-22.1851Z0.1300I0.0000J0.0004
G1 X28.5203 Y-21.6299 Z0.1300
G1 X28.5202 Y-21.6297 Z0.1300
G3X28.5201Y-21.6296Z0.1300I-0.0003J-0.0002
G3X28.5194Y-21.6299Z0.1300I-0.0002J-0.0003
G1 X28.5194 Y-21.7540 Z0.1300
G0 Z0.3800
G0 X28.5194 Y-21.7540 
G0 Z0.3800
G0 X29.6623 Y-21.6608 
G1 X29.6623 Y-21.6608 Z0.1300 F20.
G3X29.6657Y-21.5902Z0.1300I-0.0336J0.0371
G3X29.6493Y-21.5764Z0.1300I-0.0582J-0.0527
G3X29.6075Y-21.5644Z0.1300I-0.0418J-0.0665
G3X29.5290Y-21.6429Z0.1300I0.0000J-0.0785
G1 X29.5290 Y-22.1241 Z0.1300
G3X29.6075Y-22.2027Z0.1300I0.0785J0.0000
G3X29.6861Y-22.1241Z0.1300I0.0000J0.0786
G1 X29.6861 Y-21.6429 Z0.1300
G3X29.6657Y-21.5902Z0.1300I-0.0786J0.0000
G3X29.5536Y-21.5858Z0.1300I-0.0582J-0.0527
G3X29.5516Y-21.6565Z0.1300I0.0343J-0.0364
G0 Z0.3800
G0 X29.5516 Y-21.6565 
G0 Z0.3800
G0 X30.5592 Y-21.6803 
G1 X30.5592 Y-21.6803 Z0.1300 F20.
G3X30.5720Y-21.6107Z0.1300I-0.0284J0.0412
G3X30.4288Y-21.6553Z0.1300I-0.0647J-0.0446
G1 X30.4288 Y-22.1365 Z0.1300
G3X30.5073Y-22.2150Z0.1300I0.0785J0.0000
G3X30.5859Y-22.1365Z0.1300I0.0000J0.0785
G1 X30.5859 Y-21.6553 Z0.1300
G3X30.5720Y-21.6107Z0.1300I-0.0786J0.0000
G3X30.4614Y-21.5916Z0.1300I-0.0647J-0.0446
G3X30.4501Y-21.6614Z0.1300I0.0292J-0.0406
G0 Z0.3800
G0 X30.4501 Y-21.6614 
G0 Z0.3800
G0 X31.5748 Y-21.6704 
G1 X31.5748 Y-21.6704 Z0.1300 F20.
G3X31.5576Y-21.6018Z0.1300I-0.0429J0.0257
G3X31.4387Y-21.6692Z0.1300I-0.0403J-0.0674
G1 X31.4387 Y-22.1504 Z0.1300
G3X31.5173Y-22.2290Z0.1300I0.0786J0.0000
G3X31.5958Y-22.1504Z0.1300I0.0000J0.0786
G1 X31.5958 Y-21.6692 Z0.1300
G3X31.5853Y-21.6299Z0.1300I-0.0785J0.0000
G3X31.5576Y-21.6018Z0.1300I-0.0680J-0.0393
G3X31.4490Y-21.6303Z0.1300I-0.0403J-0.0674
G3X31.4677Y-21.6985Z0.1300I0.0435J-0.0248
G0 Z0.3800
G0 X31.4677 Y-21.6985 
G0 Z0.3800
G0 X32.7028 Y-21.7098 
G1 X32.7028 Y-21.7098 Z0.1300 F20.
G3X32.7156Y-21.6402Z0.1300I-0.0284J0.0412
G3X32.5724Y-21.6848Z0.1300I-0.0647J-0.0446
G1 X32.5724 Y-22.1660 Z0.1300
G3X32.6509Y-22.2446Z0.1300I0.0785J0.0000
G3X32.7295Y-22.1660Z0.1300I0.0000J0.0786
G1 X32.7295 Y-21.6848 Z0.1300
G3X32.7156Y-21.6402Z0.1300I-0.0786J0.0000
G3X32.6050Y-21.6211Z0.1300I-0.0647J-0.0446
G3X32.5937Y-21.6910Z0.1300I0.0292J-0.0406
G0 Z0.3800
G0 X32.5937 Y-21.6910 
G0 Z0.3800
G0 X34.4881 Y-21.7472 
G1 X34.4881 Y-21.7472 Z0.1300 F20.
G3X34.4999Y-21.6775Z0.1300I-0.0290J0.0407
G3X34.3622Y-21.7214Z0.1300I-0.0619J-0.0439
G1 X34.3622 Y-22.1935 Z0.1300
G3X34.4380Y-22.2693Z0.1300I0.0758J0.0000
G3X34.5139Y-22.1935Z0.1300I0.0000J0.0758
G1 X34.5139 Y-21.7214 Z0.1300
G3X34.4999Y-21.6775Z0.1300I-0.0759J0.0000
G3X34.3895Y-21.6632Z0.1300I-0.0618J-0.0439
G3X34.3831Y-21.7336Z0.1300I0.0320J-0.0384
G0 Z0.3800
G0 X34.3831 Y-21.7336 
G0 Z0.3800
G0 X34.8501 Y-21.7362 
G1 X34.8501 Y-21.7362 Z0.1300 F20.
G3X34.8471Y-21.6656Z0.1300I-0.0368J0.0338
G3X34.7199Y-21.7214Z0.1300I-0.0513J-0.0558
G1 X34.7199 Y-22.1935 Z0.1300
G3X34.7958Y-22.2693Z0.1300I0.0759J0.0000
G3X34.8717Y-22.1935Z0.1300I0.0000J0.0758
G1 X34.8717 Y-21.7214 Z0.1300
G3X34.8471Y-21.6656Z0.1300I-0.0759J0.0000
G3X34.7362Y-21.6746Z0.1300I-0.0513J-0.0558
G3X34.7446Y-21.7448Z0.1300I0.0393J-0.0309
G0 Z0.3800
G0 X34.7446 Y-21.7448 
G0 Z0.3800
G0 X37.0377 Y-21.6617 
G1 X37.0377 Y-21.6617 Z0.1300 F20.
G3X37.0397Y-21.5911Z0.1300I-0.0343J0.0363
G3X36.8350Y-21.6723Z0.1300I-0.0862J-0.0813
G1 X36.8364 Y-22.1853 Z0.1300
G3X36.9549Y-22.3039Z0.1300I0.1185J0.0000
G3X37.0735Y-22.1854Z0.1300I0.0000J0.1186
G1 X37.0720 Y-21.6724 Z0.1300
G3X37.0533Y-21.6084Z0.1300I-0.1185J0.0000
G3X37.0397Y-21.5911Z0.1300I-0.0998J-0.0640
G3X36.9253Y-21.5573Z0.1300I-0.0862J-0.0813
G3X36.8886Y-21.6177Z0.1300I0.0119J-0.0485
G0 Z0.3800
G0 X36.8886 Y-21.6177 
G0 Z0.3800
G0 X38.8374 Y-21.6879 
G1 X38.8374 Y-21.6879 Z0.1300 F20.
G3X38.8406Y-21.6173Z0.1300I-0.0337J0.0369
G3X38.6345Y-21.6971Z0.1300I-0.0876J-0.0799
G1 X38.6359 Y-22.2101 Z0.1300
G3X38.7545Y-22.3287Z0.1300I0.1186J0.0000
G3X38.8730Y-22.2102Z0.1300I0.0000J0.1186
G1 X38.8716 Y-21.6972 Z0.1300
G3X38.8406Y-21.6173Z0.1300I-0.1186J0.0000
G3X38.7268Y-21.5816Z0.1300I-0.0875J-0.0799
G3X38.6891Y-21.6415Z0.1300I0.0111J-0.0488
G0 Z0.3800
G0 X38.6891 Y-21.6415 
G0 Z0.3800
G0 X40.8592 Y-21.7218 
G1 X40.8592 Y-21.7218 Z0.1300 F20.
G3X40.8674Y-21.6515Z0.1300I-0.0310J0.0393
G3X40.6559Y-21.7251Z0.1300I-0.0930J-0.0736
G1 X40.6559 Y-22.2380 Z0.1300
G3X40.7744Y-22.3565Z0.1300I0.1185J0.0000
G3X40.8930Y-22.2380Z0.1300I0.0000J0.1185
G1 X40.8930 Y-21.7251 Z0.1300
G3X40.8674Y-21.6515Z0.1300I-0.1186J0.0000
G3X40.7564Y-21.6079Z0.1300I-0.0930J-0.0735
G3X40.7146Y-21.6649Z0.1300I0.0076J-0.0494
G0 Z0.3800
G0 X40.7146 Y-21.6649 
G0 Z0.3800
G0 X43.1249 Y-21.7502 
G1 X43.1249 Y-21.7502 Z0.1300 F20.
G3X43.1308Y-21.6797Z0.1300I-0.0323J0.0382
G3X42.9218Y-21.7562Z0.1300I-0.0905J-0.0766
G1 X42.9232 Y-22.2692 Z0.1300
G3X43.0417Y-22.3877Z0.1300I0.1185J0.0000
G3X43.1603Y-22.2693Z0.1300I0.0000J0.1185
G1 X43.1588 Y-21.7563 Z0.1300
G3X43.1308Y-21.6797Z0.1300I-0.1185J0.0000
G3X43.0184Y-21.6398Z0.1300I-0.0905J-0.0765
G3X42.9785Y-21.6982Z0.1300I0.0092J-0.0491
G0 Z2.0000
G0 X42.9785 Y-21.6982 
M5
G53 Z
X2Y0
