( MOP:  02-inlay-Fangs-idPT09-s24PT625-02a )
( FILE: G:\Shared drives\AlloyProjectFiles\Customer CAD files\Alloy-Standard-Builds-CAM\Fingerboards-in\02-inlay-Fangs-idPT09-s24PT625-02.nc)
G90
(  BEGIN TOOL LIST )
(  TOOL 17 - Downcut 1.0mm PT0394 - DESC: 0.0394 DIA, 2 FLUTE,  CARBIDE MAT )
(  ENDOF TOOL LIST )
( 02-inlay-Fangs-idPT09-s24PT625-02a)
T17
S12000
M3
G0 Z2.0000
G0 X28.0196 Y-24.0335 
G1 X28.0196 Y-24.0335 Z0.2388 F25.
G17
G3X28.0498Y-24.0627Z0.2388I0.0300J0.0008
G1 X28.0708 Y-24.0621 Z0.2388
G1 X28.0801 Y-24.0614 Z0.2388
G2X28.0475Y-23.5471Z0.2388I0.6251J0.2978
G3X27.8664Y-24.0579Z0.2388I0.7014J-0.5362
G1 X27.8703 Y-24.0583 Z0.2388
G3X27.9878Y-24.0625Z0.2388I0.1307J1.9847
G1 X28.0216 Y-24.0628 Z0.2388
G1 X28.0498 Y-24.0627 Z0.2388
G0 Z0.4888
G0 X28.0498 Y-24.0627 
G0 Z0.4888
G0 X28.0196 Y-24.0335 
G1 X28.0196 Y-24.0335 Z0.2025 F25.
G3X28.0498Y-24.0627Z0.2025I0.0300J0.0008
G1 X28.0708 Y-24.0621 Z0.2025
G1 X28.0801 Y-24.0614 Z0.2025
G2X28.0475Y-23.5471Z0.2025I0.6251J0.2978
G3X27.8664Y-24.0579Z0.2025I0.7014J-0.5362
G1 X27.8703 Y-24.0583 Z0.2025
G3X27.9878Y-24.0625Z0.2025I0.1307J1.9847
G1 X28.0216 Y-24.0628 Z0.2025
G1 X28.0498 Y-24.0627 Z0.2025
G0 Z0.4525
G0 X28.0498 Y-24.0627 
G0 Z0.4525
G0 X28.0196 Y-24.0335 
G1 X28.0196 Y-24.0335 Z0.1663 F25.
G3X28.0498Y-24.0627Z0.1663I0.0300J0.0008
G1 X28.0708 Y-24.0621 Z0.1663
G1 X28.0801 Y-24.0614 Z0.1663
G2X28.0475Y-23.5471Z0.1663I0.6251J0.2978
G3X27.8664Y-24.0579Z0.1663I0.7014J-0.5362
G1 X27.8703 Y-24.0583 Z0.1663
G3X27.9878Y-24.0625Z0.1663I0.1307J1.9847
G1 X28.0216 Y-24.0628 Z0.1663
G1 X28.0498 Y-24.0627 Z0.1663
G0 Z0.4163
G0 X28.0498 Y-24.0627 
G0 Z0.4163
G0 X28.0196 Y-24.0335 
G1 X28.0196 Y-24.0335 Z0.1300 F25.
G3X28.0498Y-24.0627Z0.1300I0.0300J0.0008
G1 X28.0708 Y-24.0621 Z0.1300
G1 X28.0801 Y-24.0614 Z0.1300
G2X28.0475Y-23.5471Z0.1300I0.6251J0.2978
G3X27.8664Y-24.0579Z0.1300I0.7014J-0.5362
G1 X27.8703 Y-24.0583 Z0.1300
G3X27.9878Y-24.0625Z0.1300I0.1307J1.9847
G1 X28.0216 Y-24.0628 Z0.1300
G1 X28.0498 Y-24.0627 Z0.1300
G0 Z0.4888
G0 X28.0498 Y-24.0627 
G0 Z0.4888
G0 X27.9646 Y-21.5730 
G1 X27.9646 Y-21.5730 Z0.2388 F25.
G3X27.9344Y-21.5432Z0.2388I-0.0300J-0.0002
G3X27.8733Y-21.5443Z0.2388I-0.0121J-1.0252
G1 X27.8705 Y-21.5445 Z0.2388
G2X27.9032Y-22.0589Z0.2388I-0.6250J-0.2979
G3X28.0842Y-21.5510Z0.2388I-0.7017J0.5364
G1 X28.0843 Y-21.5481 Z0.2388
G3X27.9967Y-21.5441Z0.2388I-0.1030J-1.2992
G1 X27.9641 Y-21.5435 Z0.2388
G1 X27.9344 Y-21.5432 Z0.2388
G0 Z0.4888
G0 X27.9344 Y-21.5432 
G0 Z0.4888
G0 X27.9646 Y-21.5730 
G1 X27.9646 Y-21.5730 Z0.2025 F25.
G3X27.9344Y-21.5432Z0.2025I-0.0300J-0.0002
G3X27.8733Y-21.5443Z0.2025I-0.0121J-1.0252
G1 X27.8705 Y-21.5445 Z0.2025
G2X27.9032Y-22.0589Z0.2025I-0.6250J-0.2979
G3X28.0842Y-21.5510Z0.2025I-0.7017J0.5364
G1 X28.0843 Y-21.5481 Z0.2025
G3X27.9967Y-21.5441Z0.2025I-0.1030J-1.2992
G1 X27.9641 Y-21.5435 Z0.2025
G1 X27.9344 Y-21.5432 Z0.2025
G0 Z0.4525
G0 X27.9344 Y-21.5432 
G0 Z0.4525
G0 X27.9646 Y-21.5730 
G1 X27.9646 Y-21.5730 Z0.1663 F25.
G3X27.9344Y-21.5432Z0.1663I-0.0300J-0.0002
G3X27.8733Y-21.5443Z0.1663I-0.0121J-1.0252
G1 X27.8705 Y-21.5445 Z0.1663
G2X27.9032Y-22.0589Z0.1663I-0.6250J-0.2979
G3X28.0842Y-21.5510Z0.1663I-0.7017J0.5364
G1 X28.0843 Y-21.5481 Z0.1663
G3X27.9967Y-21.5441Z0.1663I-0.1030J-1.2992
G1 X27.9641 Y-21.5435 Z0.1663
G1 X27.9344 Y-21.5432 Z0.1663
G0 Z0.4163
G0 X27.9344 Y-21.5432 
G0 Z0.4163
G0 X27.9646 Y-21.5730 
G1 X27.9646 Y-21.5730 Z0.1300 F25.
G3X27.9344Y-21.5432Z0.1300I-0.0300J-0.0002
G3X27.8733Y-21.5443Z0.1300I-0.0121J-1.0252
G1 X27.8705 Y-21.5445 Z0.1300
G2X27.9032Y-22.0589Z0.1300I-0.6250J-0.2979
G3X28.0842Y-21.5510Z0.1300I-0.7017J0.5364
G1 X28.0843 Y-21.5481 Z0.1300
G3X27.9967Y-21.5441Z0.1300I-0.1030J-1.2992
G1 X27.9641 Y-21.5435 Z0.1300
G1 X27.9344 Y-21.5432 Z0.1300
G0 Z0.4888
G0 X27.9344 Y-21.5432 
G0 Z0.4888
G0 X29.2223 Y-21.3679 
G1 X29.2223 Y-21.3679 Z0.2388 F25.
G3X29.1922Y-21.3380Z0.2388I-0.0300J-0.0001
G1 X29.1922 Y-21.3380 Z0.2388
G1 X29.1898 Y-21.3380 Z0.2388
G2X28.9836Y-21.3110Z0.2388I0.0000J0.7998
G3X28.9792Y-21.3163Z0.2388I-0.0010J-0.0036
G2X29.0223Y-22.2326Z0.2388I-1.0221J-0.5072
G3X29.0287Y-22.2364Z0.2388I0.0035J-0.0014
G3X29.3687Y-21.3226Z0.2388I-1.1440J0.9458
G3X29.3641Y-21.3188Z0.2388I-0.0038J0.0001
G2X29.1922Y-21.3380Z0.2388I-0.1743J0.7806
G0 Z0.4888
G0 X29.1922 Y-21.3380 
G0 Z0.4888
G0 X29.2223 Y-21.3679 
G1 X29.2223 Y-21.3679 Z0.2025 F25.
G3X29.1922Y-21.3380Z0.2025I-0.0300J-0.0001
G1 X29.1922 Y-21.3380 Z0.2025
G1 X29.1898 Y-21.3380 Z0.2025
G2X28.9836Y-21.3110Z0.2025I0.0000J0.7998
G3X28.9792Y-21.3163Z0.2025I-0.0010J-0.0036
G2X29.0223Y-22.2326Z0.2025I-1.0221J-0.5072
G3X29.0287Y-22.2364Z0.2025I0.0035J-0.0014
G3X29.3687Y-21.3226Z0.2025I-1.1440J0.9458
G3X29.3641Y-21.3188Z0.2025I-0.0038J0.0001
G2X29.1922Y-21.3380Z0.2025I-0.1743J0.7806
G0 Z0.4525
G0 X29.1922 Y-21.3380 
G0 Z0.4525
G0 X29.2223 Y-21.3679 
G1 X29.2223 Y-21.3679 Z0.1663 F25.
G3X29.1922Y-21.3380Z0.1663I-0.0300J-0.0001
G1 X29.1922 Y-21.3380 Z0.1663
G1 X29.1898 Y-21.3380 Z0.1663
G2X28.9836Y-21.3110Z0.1663I0.0000J0.7998
G3X28.9792Y-21.3163Z0.1663I-0.0010J-0.0036
G2X29.0223Y-22.2326Z0.1663I-1.0221J-0.5072
G3X29.0287Y-22.2364Z0.1663I0.0035J-0.0014
G3X29.3687Y-21.3226Z0.1663I-1.1440J0.9458
G3X29.3641Y-21.3188Z0.1663I-0.0038J0.0001
G2X29.1922Y-21.3380Z0.1663I-0.1743J0.7806
G0 Z0.4163
G0 X29.1922 Y-21.3380 
G0 Z0.4163
G0 X29.2223 Y-21.3679 
G1 X29.2223 Y-21.3679 Z0.1300 F25.
G3X29.1922Y-21.3380Z0.1300I-0.0300J-0.0001
G1 X29.1922 Y-21.3380 Z0.1300
G1 X29.1898 Y-21.3380 Z0.1300
G2X28.9836Y-21.3110Z0.1300I0.0000J0.7998
G3X28.9792Y-21.3163Z0.1300I-0.0010J-0.0036
G2X29.0223Y-22.2326Z0.1300I-1.0221J-0.5072
G3X29.0287Y-22.2364Z0.1300I0.0035J-0.0014
G3X29.3687Y-21.3226Z0.1300I-1.1440J0.9458
G3X29.3641Y-21.3188Z0.1300I-0.0038J0.0001
G2X29.1922Y-21.3380Z0.1300I-0.1743J0.7806
G0 Z0.4888
G0 X29.1922 Y-21.3380 
G0 Z0.4888
G0 X30.1260 Y-21.4595 
G1 X30.1260 Y-21.4595 Z0.2388 F25.
G3X30.0966Y-21.4289Z0.2388I-0.0300J0.0006
G2X29.9068Y-21.4020Z0.2388I0.0164J0.7997
G3X29.9024Y-21.4074Z0.2388I-0.0010J-0.0037
G2X29.9455Y-22.3237Z0.2388I-1.0221J-0.5071
G3X29.9519Y-22.3274Z0.2388I0.0035J-0.0013
G3X30.2919Y-21.4136Z0.2388I-1.1440J0.9457
G3X30.2873Y-21.4098Z0.2388I-0.0038J0.0001
G2X30.0966Y-21.4289Z0.2388I-0.1743J0.7806
G0 Z0.4888
G0 X30.0966 Y-21.4289 
G0 Z0.4888
G0 X30.1260 Y-21.4595 
G1 X30.1260 Y-21.4595 Z0.2025 F25.
G3X30.0966Y-21.4289Z0.2025I-0.0300J0.0006
G2X29.9068Y-21.4020Z0.2025I0.0164J0.7997
G3X29.9024Y-21.4074Z0.2025I-0.0010J-0.0037
G2X29.9455Y-22.3237Z0.2025I-1.0221J-0.5071
G3X29.9519Y-22.3274Z0.2025I0.0035J-0.0013
G3X30.2919Y-21.4136Z0.2025I-1.1440J0.9457
G3X30.2873Y-21.4098Z0.2025I-0.0038J0.0001
G2X30.0966Y-21.4289Z0.2025I-0.1743J0.7806
G0 Z0.4525
G0 X30.0966 Y-21.4289 
G0 Z0.4525
G0 X30.1260 Y-21.4595 
G1 X30.1260 Y-21.4595 Z0.1663 F25.
G3X30.0966Y-21.4289Z0.1663I-0.0300J0.0006
G2X29.9068Y-21.4020Z0.1663I0.0164J0.7997
G3X29.9024Y-21.4074Z0.1663I-0.0010J-0.0037
G2X29.9455Y-22.3237Z0.1663I-1.0221J-0.5071
G3X29.9519Y-22.3274Z0.1663I0.0035J-0.0013
G3X30.2919Y-21.4136Z0.1663I-1.1440J0.9457
G3X30.2873Y-21.4098Z0.1663I-0.0038J0.0001
G2X30.0966Y-21.4289Z0.1663I-0.1743J0.7806
G0 Z0.4163
G0 X30.0966 Y-21.4289 
G0 Z0.4163
G0 X30.1260 Y-21.4595 
G1 X30.1260 Y-21.4595 Z0.1300 F25.
G3X30.0966Y-21.4289Z0.1300I-0.0300J0.0006
G2X29.9068Y-21.4020Z0.1300I0.0164J0.7997
G3X29.9024Y-21.4074Z0.1300I-0.0010J-0.0037
G2X29.9455Y-22.3237Z0.1300I-1.0221J-0.5071
G3X29.9519Y-22.3274Z0.1300I0.0035J-0.0013
G3X30.2919Y-21.4136Z0.1300I-1.1440J0.9457
G3X30.2873Y-21.4098Z0.1300I-0.0038J0.0001
G2X30.0966Y-21.4289Z0.1300I-0.1743J0.7806
G0 Z0.4888
G0 X30.0966 Y-21.4289 
G0 Z0.4888
G0 X31.1726 Y-21.5606 
G1 X31.1726 Y-21.5606 Z0.2388 F25.
G3X31.1425Y-21.5307Z0.2388I-0.0300J-0.0001
G2X31.1237Y-21.5305Z0.2388I-0.0024J0.7998
G2X30.9339Y-21.5037Z0.2388I0.0164J0.7996
G3X30.9296Y-21.5090Z0.2388I-0.0010J-0.0036
G2X30.9726Y-22.4253Z0.2388I-1.0222J-0.5072
G3X30.9790Y-22.4291Z0.2388I0.0035J-0.0014
G3X31.3190Y-21.5152Z0.2388I-1.1439J0.9458
G3X31.3144Y-21.5115Z0.2388I-0.0037J0.0000
G2X31.1425Y-21.5307Z0.2388I-0.1743J0.7806
G0 Z0.4888
G0 X31.1425 Y-21.5307 
G0 Z0.4888
G0 X31.1726 Y-21.5606 
G1 X31.1726 Y-21.5606 Z0.2025 F25.
G3X31.1425Y-21.5307Z0.2025I-0.0300J-0.0001
G2X31.1237Y-21.5305Z0.2025I-0.0024J0.7998
G2X30.9339Y-21.5037Z0.2025I0.0164J0.7996
G3X30.9296Y-21.5090Z0.2025I-0.0010J-0.0036
G2X30.9726Y-22.4253Z0.2025I-1.0222J-0.5072
G3X30.9790Y-22.4291Z0.2025I0.0035J-0.0014
G3X31.3190Y-21.5152Z0.2025I-1.1439J0.9458
G3X31.3144Y-21.5115Z0.2025I-0.0037J0.0000
G2X31.1425Y-21.5307Z0.2025I-0.1743J0.7806
G0 Z0.4525
G0 X31.1425 Y-21.5307 
G0 Z0.4525
G0 X31.1726 Y-21.5606 
G1 X31.1726 Y-21.5606 Z0.1663 F25.
G3X31.1425Y-21.5307Z0.1663I-0.0300J-0.0001
G2X31.1237Y-21.5305Z0.1663I-0.0024J0.7998
G2X30.9339Y-21.5037Z0.1663I0.0164J0.7996
G3X30.9296Y-21.5090Z0.1663I-0.0010J-0.0036
G2X30.9726Y-22.4253Z0.1663I-1.0222J-0.5072
G3X30.9790Y-22.4291Z0.1663I0.0035J-0.0014
G3X31.3190Y-21.5152Z0.1663I-1.1439J0.9458
G3X31.3144Y-21.5115Z0.1663I-0.0037J0.0000
G2X31.1425Y-21.5307Z0.1663I-0.1743J0.7806
G0 Z0.4163
G0 X31.1425 Y-21.5307 
G0 Z0.4163
G0 X31.1726 Y-21.5606 
G1 X31.1726 Y-21.5606 Z0.1300 F25.
G3X31.1425Y-21.5307Z0.1300I-0.0300J-0.0001
G2X31.1237Y-21.5305Z0.1300I-0.0024J0.7998
G2X30.9339Y-21.5037Z0.1300I0.0164J0.7996
G3X30.9296Y-21.5090Z0.1300I-0.0010J-0.0036
G2X30.9726Y-22.4253Z0.1300I-1.0222J-0.5072
G3X30.9790Y-22.4291Z0.1300I0.0035J-0.0014
G3X31.3190Y-21.5152Z0.1300I-1.1439J0.9458
G3X31.3144Y-21.5115Z0.1300I-0.0037J0.0000
G2X31.1425Y-21.5307Z0.1300I-0.1743J0.7806
G0 Z0.4888
G0 X31.1425 Y-21.5307 
G0 Z0.4888
G0 X32.3456 Y-21.6870 
G1 X32.3456 Y-21.6870 Z0.2388 F25.
G3X32.3155Y-21.6571Z0.2388I-0.0300J-0.0001
G2X32.1069Y-21.6301Z0.2388I-0.0024J0.7998
G3X32.1026Y-21.6354Z0.2388I-0.0010J-0.0036
G2X32.1456Y-22.5517Z0.2388I-1.0222J-0.5072
G3X32.1520Y-22.5555Z0.2388I0.0035J-0.0014
G3X32.4920Y-21.6417Z0.2388I-1.1439J0.9458
G3X32.4874Y-21.6379Z0.2388I-0.0037J0.0001
G2X32.3155Y-21.6571Z0.2388I-0.1743J0.7806
G0 Z0.4888
G0 X32.3155 Y-21.6571 
G0 Z0.4888
G0 X32.3456 Y-21.6870 
G1 X32.3456 Y-21.6870 Z0.2025 F25.
G3X32.3155Y-21.6571Z0.2025I-0.0300J-0.0001
G2X32.1069Y-21.6301Z0.2025I-0.0024J0.7998
G3X32.1026Y-21.6354Z0.2025I-0.0010J-0.0036
G2X32.1456Y-22.5517Z0.2025I-1.0222J-0.5072
G3X32.1520Y-22.5555Z0.2025I0.0035J-0.0014
G3X32.4920Y-21.6417Z0.2025I-1.1439J0.9458
G3X32.4874Y-21.6379Z0.2025I-0.0037J0.0001
G2X32.3155Y-21.6571Z0.2025I-0.1743J0.7806
G0 Z0.4525
G0 X32.3155 Y-21.6571 
G0 Z0.4525
G0 X32.3456 Y-21.6870 
G1 X32.3456 Y-21.6870 Z0.1663 F25.
G3X32.3155Y-21.6571Z0.1663I-0.0300J-0.0001
G2X32.1069Y-21.6301Z0.1663I-0.0024J0.7998
G3X32.1026Y-21.6354Z0.1663I-0.0010J-0.0036
G2X32.1456Y-22.5517Z0.1663I-1.0222J-0.5072
G3X32.1520Y-22.5555Z0.1663I0.0035J-0.0014
G3X32.4920Y-21.6417Z0.1663I-1.1439J0.9458
G3X32.4874Y-21.6379Z0.1663I-0.0037J0.0001
G2X32.3155Y-21.6571Z0.1663I-0.1743J0.7806
G0 Z0.4163
G0 X32.3155 Y-21.6571 
G0 Z0.4163
G0 X32.3456 Y-21.6870 
G1 X32.3456 Y-21.6870 Z0.1300 F25.
G3X32.3155Y-21.6571Z0.1300I-0.0300J-0.0001
G2X32.1069Y-21.6301Z0.1300I-0.0024J0.7998
G3X32.1026Y-21.6354Z0.1300I-0.0010J-0.0036
G2X32.1456Y-22.5517Z0.1300I-1.0222J-0.5072
G3X32.1520Y-22.5555Z0.1300I0.0035J-0.0014
G3X32.4920Y-21.6417Z0.1300I-1.1439J0.9458
G3X32.4874Y-21.6379Z0.1300I-0.0037J0.0001
G2X32.3155Y-21.6571Z0.1300I-0.1743J0.7806
G0 Z0.4888
G0 X32.3155 Y-21.6571 
G0 Z0.4888
G0 X34.3426 Y-21.7032 
G1 X34.3426 Y-21.7032 Z0.2388 F25.
G3X34.3132Y-21.6726Z0.2388I-0.0300J0.0006
G2X34.1234Y-21.6457Z0.2388I0.0164J0.7997
G3X34.1191Y-21.6510Z0.2388I-0.0009J-0.0036
G2X34.1621Y-22.5674Z0.2388I-1.0222J-0.5072
G3X34.1686Y-22.5711Z0.2388I0.0035J-0.0013
G3X34.5086Y-21.6573Z0.2388I-1.1440J0.9458
G3X34.5040Y-21.6535Z0.2388I-0.0038J0.0001
G2X34.3132Y-21.6726Z0.2388I-0.1744J0.7806
G0 Z0.4888
G0 X34.3132 Y-21.6726 
G0 Z0.4888
G0 X34.3426 Y-21.7032 
G1 X34.3426 Y-21.7032 Z0.2025 F25.
G3X34.3132Y-21.6726Z0.2025I-0.0300J0.0006
G2X34.1234Y-21.6457Z0.2025I0.0164J0.7997
G3X34.1191Y-21.6510Z0.2025I-0.0009J-0.0036
G2X34.1621Y-22.5674Z0.2025I-1.0222J-0.5072
G3X34.1686Y-22.5711Z0.2025I0.0035J-0.0013
G3X34.5086Y-21.6573Z0.2025I-1.1440J0.9458
G3X34.5040Y-21.6535Z0.2025I-0.0038J0.0001
G2X34.3132Y-21.6726Z0.2025I-0.1744J0.7806
G0 Z0.4525
G0 X34.3132 Y-21.6726 
G0 Z0.4525
G0 X34.3426 Y-21.7032 
G1 X34.3426 Y-21.7032 Z0.1663 F25.
G3X34.3132Y-21.6726Z0.1663I-0.0300J0.0006
G2X34.1234Y-21.6457Z0.1663I0.0164J0.7997
G3X34.1191Y-21.6510Z0.1663I-0.0009J-0.0036
G2X34.1621Y-22.5674Z0.1663I-1.0222J-0.5072
G3X34.1686Y-22.5711Z0.1663I0.0035J-0.0013
G3X34.5086Y-21.6573Z0.1663I-1.1440J0.9458
G3X34.5040Y-21.6535Z0.1663I-0.0038J0.0001
G2X34.3132Y-21.6726Z0.1663I-0.1744J0.7806
G0 Z0.4163
G0 X34.3132 Y-21.6726 
G0 Z0.4163
G0 X34.3426 Y-21.7032 
G1 X34.3426 Y-21.7032 Z0.1300 F25.
G3X34.3132Y-21.6726Z0.1300I-0.0300J0.0006
G2X34.1234Y-21.6457Z0.1300I0.0164J0.7997
G3X34.1191Y-21.6510Z0.1300I-0.0009J-0.0036
G2X34.1621Y-22.5674Z0.1300I-1.0222J-0.5072
G3X34.1686Y-22.5711Z0.1300I0.0035J-0.0013
G3X34.5086Y-21.6573Z0.1300I-1.1440J0.9458
G3X34.5040Y-21.6535Z0.1300I-0.0038J0.0001
G2X34.3132Y-21.6726Z0.1300I-0.1744J0.7806
G0 Z0.4888
G0 X34.3132 Y-21.6726 
G0 Z0.4888
G0 X34.2676 Y-23.8887 
G1 X34.2676 Y-23.8887 Z0.2388 F25.
G3X34.2976Y-23.9187Z0.2388I0.0300J0.0000
G2X34.5038Y-23.9457Z0.2388I0.0000J-0.7998
G3X34.5082Y-23.9404Z0.2388I0.0010J0.0036
G2X34.4651Y-23.0240Z0.2388I1.0221J0.5072
G3X34.4587Y-23.0203Z0.2388I-0.0035J0.0013
G3X34.1187Y-23.9341Z0.2388I1.1440J-0.9458
G3X34.1233Y-23.9379Z0.2388I0.0038J-0.0001
G2X34.2976Y-23.9187Z0.2388I0.1743J-0.7806
G0 Z0.4888
G0 X34.2976 Y-23.9187 
G0 Z0.4888
G0 X34.2676 Y-23.8887 
G1 X34.2676 Y-23.8887 Z0.2025 F25.
G3X34.2976Y-23.9187Z0.2025I0.0300J0.0000
G2X34.5038Y-23.9457Z0.2025I0.0000J-0.7998
G3X34.5082Y-23.9404Z0.2025I0.0010J0.0036
G2X34.4651Y-23.0240Z0.2025I1.0221J0.5072
G3X34.4587Y-23.0203Z0.2025I-0.0035J0.0013
G3X34.1187Y-23.9341Z0.2025I1.1440J-0.9458
G3X34.1233Y-23.9379Z0.2025I0.0038J-0.0001
G2X34.2976Y-23.9187Z0.2025I0.1743J-0.7806
G0 Z0.4525
G0 X34.2976 Y-23.9187 
G0 Z0.4525
G0 X34.2676 Y-23.8887 
G1 X34.2676 Y-23.8887 Z0.1663 F25.
G3X34.2976Y-23.9187Z0.1663I0.0300J0.0000
G2X34.5038Y-23.9457Z0.1663I0.0000J-0.7998
G3X34.5082Y-23.9404Z0.1663I0.0010J0.0036
G2X34.4651Y-23.0240Z0.1663I1.0221J0.5072
G3X34.4587Y-23.0203Z0.1663I-0.0035J0.0013
G3X34.1187Y-23.9341Z0.1663I1.1440J-0.9458
G3X34.1233Y-23.9379Z0.1663I0.0038J-0.0001
G2X34.2976Y-23.9187Z0.1663I0.1743J-0.7806
G0 Z0.4163
G0 X34.2976 Y-23.9187 
G0 Z0.4163
G0 X34.2676 Y-23.8887 
G1 X34.2676 Y-23.8887 Z0.1300 F25.
G3X34.2976Y-23.9187Z0.1300I0.0300J0.0000
G2X34.5038Y-23.9457Z0.1300I0.0000J-0.7998
G3X34.5082Y-23.9404Z0.1300I0.0010J0.0036
G2X34.4651Y-23.0240Z0.1300I1.0221J0.5072
G3X34.4587Y-23.0203Z0.1300I-0.0035J0.0013
G3X34.1187Y-23.9341Z0.1300I1.1440J-0.9458
G3X34.1233Y-23.9379Z0.1300I0.0038J-0.0001
G2X34.2976Y-23.9187Z0.1300I0.1743J-0.7806
G0 Z0.4888
G0 X34.2976 Y-23.9187 
G0 Z0.4888
G0 X36.7671 Y-21.5526 
G1 X36.7671 Y-21.5526 Z0.2388 F25.
G3X36.7370Y-21.5227Z0.2388I-0.0300J-0.0001
G2X36.4606Y-21.4869Z0.2388I-0.0032J1.0599
G3X36.4472Y-21.5032Z0.2388I-0.0030J-0.0112
G2X36.5044Y-22.7197Z0.2388I-1.3570J-0.6733
G3X36.5241Y-22.7313Z0.2388I0.0108J-0.0042
G3X36.9790Y-21.5088Z0.2388I-1.5303J1.2653
G3X36.9648Y-21.4972Z0.2388I-0.0116J0.0003
G2X36.7370Y-21.5227Z0.2388I-0.2310J1.0344
G0 Z0.4888
G0 X36.7370 Y-21.5227 
G0 Z0.4888
G0 X36.7671 Y-21.5526 
G1 X36.7671 Y-21.5526 Z0.2025 F25.
G3X36.7370Y-21.5227Z0.2025I-0.0300J-0.0001
G2X36.4606Y-21.4869Z0.2025I-0.0032J1.0599
G3X36.4472Y-21.5032Z0.2025I-0.0030J-0.0112
G2X36.5044Y-22.7197Z0.2025I-1.3570J-0.6733
G3X36.5241Y-22.7313Z0.2025I0.0108J-0.0042
G3X36.9790Y-21.5088Z0.2025I-1.5303J1.2653
G3X36.9648Y-21.4972Z0.2025I-0.0116J0.0003
G2X36.7370Y-21.5227Z0.2025I-0.2310J1.0344
G0 Z0.4525
G0 X36.7370 Y-21.5227 
G0 Z0.4525
G0 X36.7671 Y-21.5526 
G1 X36.7671 Y-21.5526 Z0.1663 F25.
G3X36.7370Y-21.5227Z0.1663I-0.0300J-0.0001
G2X36.4606Y-21.4869Z0.1663I-0.0032J1.0599
G3X36.4472Y-21.5032Z0.1663I-0.0030J-0.0112
G2X36.5044Y-22.7197Z0.1663I-1.3570J-0.6733
G3X36.5241Y-22.7313Z0.1663I0.0108J-0.0042
G3X36.9790Y-21.5088Z0.1663I-1.5303J1.2653
G3X36.9648Y-21.4972Z0.1663I-0.0116J0.0003
G2X36.7370Y-21.5227Z0.1663I-0.2310J1.0344
G0 Z0.4163
G0 X36.7370 Y-21.5227 
G0 Z0.4163
G0 X36.7671 Y-21.5526 
G1 X36.7671 Y-21.5526 Z0.1300 F25.
G3X36.7370Y-21.5227Z0.1300I-0.0300J-0.0001
G2X36.4606Y-21.4869Z0.1300I-0.0032J1.0599
G3X36.4472Y-21.5032Z0.1300I-0.0030J-0.0112
G2X36.5044Y-22.7197Z0.1300I-1.3570J-0.6733
G3X36.5241Y-22.7313Z0.1300I0.0108J-0.0042
G3X36.9790Y-21.5088Z0.1300I-1.5303J1.2653
G3X36.9648Y-21.4972Z0.1300I-0.0116J0.0003
G2X36.7370Y-21.5227Z0.1300I-0.2310J1.0344
G0 Z0.4888
G0 X36.7370 Y-21.5227 
G0 Z0.4888
G0 X38.6341 Y-21.6396 
G1 X38.6341 Y-21.6396 Z0.2388 F25.
G3X38.6040Y-21.6097Z0.2388I-0.0300J-0.0001
G2X38.3276Y-21.5739Z0.2388I-0.0032J1.0599
G3X38.3142Y-21.5903Z0.2388I-0.0030J-0.0112
G2X38.3714Y-22.8068Z0.2388I-1.3570J-0.6733
G3X38.3911Y-22.8183Z0.2388I0.0108J-0.0041
G3X38.8460Y-21.5958Z0.2388I-1.5303J1.2652
G3X38.8318Y-21.5842Z0.2388I-0.0116J0.0002
G2X38.6040Y-21.6097Z0.2388I-0.2310J1.0344
G0 Z0.4888
G0 X38.6040 Y-21.6097 
G0 Z0.4888
G0 X38.6341 Y-21.6396 
G1 X38.6341 Y-21.6396 Z0.2025 F25.
G3X38.6040Y-21.6097Z0.2025I-0.0300J-0.0001
G2X38.3276Y-21.5739Z0.2025I-0.0032J1.0599
G3X38.3142Y-21.5903Z0.2025I-0.0030J-0.0112
G2X38.3714Y-22.8068Z0.2025I-1.3570J-0.6733
G3X38.3911Y-22.8183Z0.2025I0.0108J-0.0041
G3X38.8460Y-21.5958Z0.2025I-1.5303J1.2652
G3X38.8318Y-21.5842Z0.2025I-0.0116J0.0002
G2X38.6040Y-21.6097Z0.2025I-0.2310J1.0344
G0 Z0.4525
G0 X38.6040 Y-21.6097 
G0 Z0.4525
G0 X38.6341 Y-21.6396 
G1 X38.6341 Y-21.6396 Z0.1663 F25.
G3X38.6040Y-21.6097Z0.1663I-0.0300J-0.0001
G2X38.3276Y-21.5739Z0.1663I-0.0032J1.0599
G3X38.3142Y-21.5903Z0.1663I-0.0030J-0.0112
G2X38.3714Y-22.8068Z0.1663I-1.3570J-0.6733
G3X38.3911Y-22.8183Z0.1663I0.0108J-0.0041
G3X38.8460Y-21.5958Z0.1663I-1.5303J1.2652
G3X38.8318Y-21.5842Z0.1663I-0.0116J0.0002
G2X38.6040Y-21.6097Z0.1663I-0.2310J1.0344
G0 Z0.4163
G0 X38.6040 Y-21.6097 
G0 Z0.4163
G0 X38.6341 Y-21.6396 
G1 X38.6341 Y-21.6396 Z0.1300 F25.
G3X38.6040Y-21.6097Z0.1300I-0.0300J-0.0001
G2X38.3276Y-21.5739Z0.1300I-0.0032J1.0599
G3X38.3142Y-21.5903Z0.1300I-0.0030J-0.0112
G2X38.3714Y-22.8068Z0.1300I-1.3570J-0.6733
G3X38.3911Y-22.8183Z0.1300I0.0108J-0.0041
G3X38.8460Y-21.5958Z0.1300I-1.5303J1.2652
G3X38.8318Y-21.5842Z0.1300I-0.0116J0.0002
G2X38.6040Y-21.6097Z0.1300I-0.2310J1.0344
G0 Z0.4888
G0 X38.6040 Y-21.6097 
G0 Z0.4888
G0 X40.6828 Y-21.7136 
G1 X40.6828 Y-21.7136 Z0.2388 F25.
G3X40.6528Y-21.6836Z0.2388I-0.0300J0.0000
G2X40.3796Y-21.6478Z0.2388I0.0000J1.0599
G3X40.3662Y-21.6641Z0.2388I-0.0030J-0.0112
G2X40.4234Y-22.8806Z0.2388I-1.3570J-0.6733
G3X40.4431Y-22.8922Z0.2388I0.0108J-0.0042
G3X40.8980Y-21.6697Z0.2388I-1.5303J1.2653
G3X40.8838Y-21.6581Z0.2388I-0.0116J0.0003
G2X40.6528Y-21.6836Z0.2388I-0.2310J1.0344
G0 Z0.4888
G0 X40.6528 Y-21.6836 
G0 Z0.4888
G0 X40.6828 Y-21.7136 
G1 X40.6828 Y-21.7136 Z0.2025 F25.
G3X40.6528Y-21.6836Z0.2025I-0.0300J0.0000
G2X40.3796Y-21.6478Z0.2025I0.0000J1.0599
G3X40.3662Y-21.6641Z0.2025I-0.0030J-0.0112
G2X40.4234Y-22.8806Z0.2025I-1.3570J-0.6733
G3X40.4431Y-22.8922Z0.2025I0.0108J-0.0042
G3X40.8980Y-21.6697Z0.2025I-1.5303J1.2653
G3X40.8838Y-21.6581Z0.2025I-0.0116J0.0003
G2X40.6528Y-21.6836Z0.2025I-0.2310J1.0344
G0 Z0.4525
G0 X40.6528 Y-21.6836 
G0 Z0.4525
G0 X40.6828 Y-21.7136 
G1 X40.6828 Y-21.7136 Z0.1663 F25.
G3X40.6528Y-21.6836Z0.1663I-0.0300J0.0000
G2X40.3796Y-21.6478Z0.1663I0.0000J1.0599
G3X40.3662Y-21.6641Z0.1663I-0.0030J-0.0112
G2X40.4234Y-22.8806Z0.1663I-1.3570J-0.6733
G3X40.4431Y-22.8922Z0.1663I0.0108J-0.0042
G3X40.8980Y-21.6697Z0.1663I-1.5303J1.2653
G3X40.8838Y-21.6581Z0.1663I-0.0116J0.0003
G2X40.6528Y-21.6836Z0.1663I-0.2310J1.0344
G0 Z0.4163
G0 X40.6528 Y-21.6836 
G0 Z0.4163
G0 X40.6828 Y-21.7136 
G1 X40.6828 Y-21.7136 Z0.1300 F25.
G3X40.6528Y-21.6836Z0.1300I-0.0300J0.0000
G2X40.3796Y-21.6478Z0.1300I0.0000J1.0599
G3X40.3662Y-21.6641Z0.1300I-0.0030J-0.0112
G2X40.4234Y-22.8806Z0.1300I-1.3570J-0.6733
G3X40.4431Y-22.8922Z0.1300I0.0108J-0.0042
G3X40.8980Y-21.6697Z0.1300I-1.5303J1.2653
G3X40.8838Y-21.6581Z0.1300I-0.0116J0.0003
G2X40.6528Y-21.6836Z0.1300I-0.2310J1.0344
G0 Z0.4888
G0 X40.6528 Y-21.6836 
G0 Z0.4888
G0 X43.0076 Y-21.8020 
G1 X43.0076 Y-21.8020 Z0.2388 F25.
G3X42.9776Y-21.7720Z0.2388I-0.0300J0.0000
G2X42.7043Y-21.7362Z0.2388I0.0000J1.0599
G3X42.6910Y-21.7525Z0.2388I-0.0029J-0.0112
G2X42.7481Y-22.9690Z0.2388I-1.3570J-0.6734
G3X42.7679Y-22.9806Z0.2388I0.0108J-0.0042
G3X43.2227Y-21.7581Z0.2388I-1.5304J1.2653
G3X43.2086Y-21.7465Z0.2388I-0.0116J0.0003
G2X42.9776Y-21.7720Z0.2388I-0.2310J1.0344
G0 Z0.4888
G0 X42.9776 Y-21.7720 
G0 Z0.4888
G0 X43.0076 Y-21.8020 
G1 X43.0076 Y-21.8020 Z0.2025 F25.
G3X42.9776Y-21.7720Z0.2025I-0.0300J0.0000
G2X42.7043Y-21.7362Z0.2025I0.0000J1.0599
G3X42.6910Y-21.7525Z0.2025I-0.0029J-0.0112
G2X42.7481Y-22.9690Z0.2025I-1.3570J-0.6734
G3X42.7679Y-22.9806Z0.2025I0.0108J-0.0042
G3X43.2227Y-21.7581Z0.2025I-1.5304J1.2653
G3X43.2086Y-21.7465Z0.2025I-0.0116J0.0003
G2X42.9776Y-21.7720Z0.2025I-0.2310J1.0344
G0 Z0.4525
G0 X42.9776 Y-21.7720 
G0 Z0.4525
G0 X43.0076 Y-21.8020 
G1 X43.0076 Y-21.8020 Z0.1663 F25.
G3X42.9776Y-21.7720Z0.1663I-0.0300J0.0000
G2X42.7043Y-21.7362Z0.1663I0.0000J1.0599
G3X42.6910Y-21.7525Z0.1663I-0.0029J-0.0112
G2X42.7481Y-22.9690Z0.1663I-1.3570J-0.6734
G3X42.7679Y-22.9806Z0.1663I0.0108J-0.0042
G3X43.2227Y-21.7581Z0.1663I-1.5304J1.2653
G3X43.2086Y-21.7465Z0.1663I-0.0116J0.0003
G2X42.9776Y-21.7720Z0.1663I-0.2310J1.0344
G0 Z0.4163
G0 X42.9776 Y-21.7720 
G0 Z0.4163
G0 X43.0076 Y-21.8020 
G1 X43.0076 Y-21.8020 Z0.1300 F25.
G3X42.9776Y-21.7720Z0.1300I-0.0300J0.0000
G2X42.7043Y-21.7362Z0.1300I0.0000J1.0599
G3X42.6910Y-21.7525Z0.1300I-0.0029J-0.0112
G2X42.7481Y-22.9690Z0.1300I-1.3570J-0.6734
G3X42.7679Y-22.9806Z0.1300I0.0108J-0.0042
G3X43.2227Y-21.7581Z0.1300I-1.5304J1.2653
G3X43.2086Y-21.7465Z0.1300I-0.0116J0.0003
G2X42.9776Y-21.7720Z0.1300I-0.2310J1.0344
G0 Z2.0000
G0 X42.9776 Y-21.7720 
( 02-inlay-Fangs-idPT09-s24PT625-02b)
G0 Z2.0000
G0 X28.0193 Y-24.0145 
G1 X28.0193 Y-24.0145 Z0.2388 F25.
G3X28.0495Y-24.0437Z0.2388I0.0300J0.0008
G1 X28.0512 Y-24.0436 Z0.2388
G2X28.0035Y-23.6467Z0.2388I0.6541J0.2801
G3X27.8861Y-24.0403Z0.2388I0.7453J-0.4366
G1 X27.8900 Y-24.0406 Z0.2388
G3X28.0495Y-24.0437Z0.2388I0.1354J2.8953
G0 Z0.4888
G0 X28.0495 Y-24.0437 
G0 Z0.4888
G0 X28.0193 Y-24.0145 
G1 X28.0193 Y-24.0145 Z0.2025 F25.
G3X28.0495Y-24.0437Z0.2025I0.0300J0.0008
G1 X28.0512 Y-24.0436 Z0.2025
G2X28.0035Y-23.6467Z0.2025I0.6541J0.2801
G3X27.8861Y-24.0403Z0.2025I0.7453J-0.4366
G1 X27.8900 Y-24.0406 Z0.2025
G3X28.0495Y-24.0437Z0.2025I0.1354J2.8953
G0 Z0.4525
G0 X28.0495 Y-24.0437 
G0 Z0.4525
G0 X28.0193 Y-24.0145 
G1 X28.0193 Y-24.0145 Z0.1663 F25.
G3X28.0495Y-24.0437Z0.1663I0.0300J0.0008
G1 X28.0512 Y-24.0436 Z0.1663
G2X28.0035Y-23.6467Z0.1663I0.6541J0.2801
G3X27.8861Y-24.0403Z0.1663I0.7453J-0.4366
G1 X27.8900 Y-24.0406 Z0.1663
G3X28.0495Y-24.0437Z0.1663I0.1354J2.8953
G0 Z0.4163
G0 X28.0495 Y-24.0437 
G0 Z0.4163
G0 X28.0193 Y-24.0145 
G1 X28.0193 Y-24.0145 Z0.1300 F25.
G3X28.0495Y-24.0437Z0.1300I0.0300J0.0008
G1 X28.0512 Y-24.0436 Z0.1300
G2X28.0035Y-23.6467Z0.1300I0.6541J0.2801
G3X27.8861Y-24.0403Z0.1300I0.7453J-0.4366
G1 X27.8900 Y-24.0406 Z0.1300
G3X28.0495Y-24.0437Z0.1300I0.1354J2.8953
G0 Z0.4888
G0 X28.0495 Y-24.0437 
G0 Z0.4888
G0 X27.9644 Y-21.5920 
G1 X27.9644 Y-21.5920 Z0.2388 F25.
G3X27.9348Y-21.5622Z0.2388I-0.0300J-0.0002
G1 X27.8994 Y-21.5624 Z0.2388
G2X27.9472Y-21.9593Z0.2388I-0.6541J-0.2801
G3X28.0646Y-21.5657Z0.2388I-0.7454J0.4366
G3X27.9348Y-21.5622Z0.2388I-0.1340J-2.5656
G0 Z0.4888
G0 X27.9348 Y-21.5622 
G0 Z0.4888
G0 X27.9644 Y-21.5920 
G1 X27.9644 Y-21.5920 Z0.2025 F25.
G3X27.9348Y-21.5622Z0.2025I-0.0300J-0.0002
G1 X27.8994 Y-21.5624 Z0.2025
G2X27.9472Y-21.9593Z0.2025I-0.6541J-0.2801
G3X28.0646Y-21.5657Z0.2025I-0.7454J0.4366
G3X27.9348Y-21.5622Z0.2025I-0.1340J-2.5656
G0 Z0.4525
G0 X27.9348 Y-21.5622 
G0 Z0.4525
G0 X27.9644 Y-21.5920 
G1 X27.9644 Y-21.5920 Z0.1663 F25.
G3X27.9348Y-21.5622Z0.1663I-0.0300J-0.0002
G1 X27.8994 Y-21.5624 Z0.1663
G2X27.9472Y-21.9593Z0.1663I-0.6541J-0.2801
G3X28.0646Y-21.5657Z0.1663I-0.7454J0.4366
G3X27.9348Y-21.5622Z0.1663I-0.1340J-2.5656
G0 Z0.4163
G0 X27.9348 Y-21.5622 
G0 Z0.4163
G0 X27.9644 Y-21.5920 
G1 X27.9644 Y-21.5920 Z0.1300 F25.
G3X27.9348Y-21.5622Z0.1300I-0.0300J-0.0002
G1 X27.8994 Y-21.5624 Z0.1300
G2X27.9472Y-21.9593Z0.1300I-0.6541J-0.2801
G3X28.0646Y-21.5657Z0.1300I-0.7454J0.4366
G3X27.9348Y-21.5622Z0.1300I-0.1340J-2.5656
G0 Z0.4888
G0 X27.9348 Y-21.5622 
G0 Z0.4888
G0 X43.0076 Y-21.8210 
G1 X43.0076 Y-21.8210 Z0.2388 F25.
G3X42.9776Y-21.7910Z0.2388I-0.0300J0.0000
G2X42.7151Y-21.7586Z0.2388I0.0000J1.0789
G2X42.7813Y-22.9337Z0.2388I-1.3811J-0.6673
G3X43.2035Y-21.7671Z0.2388I-1.5438J1.2184
G2X42.9776Y-21.7910Z0.2388I-0.2259J1.0550
G0 Z0.4888
G0 X42.9776 Y-21.7910 
G0 Z0.4888
G0 X43.0076 Y-21.8210 
G1 X43.0076 Y-21.8210 Z0.2025 F25.
G3X42.9776Y-21.7910Z0.2025I-0.0300J0.0000
G2X42.7151Y-21.7586Z0.2025I0.0000J1.0789
G2X42.7813Y-22.9337Z0.2025I-1.3811J-0.6673
G3X43.2035Y-21.7671Z0.2025I-1.5438J1.2184
G2X42.9776Y-21.7910Z0.2025I-0.2259J1.0550
G0 Z0.4525
G0 X42.9776 Y-21.7910 
G0 Z0.4525
G0 X43.0076 Y-21.8210 
G1 X43.0076 Y-21.8210 Z0.1663 F25.
G3X42.9776Y-21.7910Z0.1663I-0.0300J0.0000
G2X42.7151Y-21.7586Z0.1663I0.0000J1.0789
G2X42.7813Y-22.9337Z0.1663I-1.3811J-0.6673
G3X43.2035Y-21.7671Z0.1663I-1.5438J1.2184
G2X42.9776Y-21.7910Z0.1663I-0.2259J1.0550
G0 Z0.4163
G0 X42.9776 Y-21.7910 
G0 Z0.4163
G0 X43.0076 Y-21.8210 
G1 X43.0076 Y-21.8210 Z0.1300 F25.
G3X42.9776Y-21.7910Z0.1300I-0.0300J0.0000
G2X42.7151Y-21.7586Z0.1300I0.0000J1.0789
G2X42.7813Y-22.9337Z0.1300I-1.3811J-0.6673
G3X43.2035Y-21.7671Z0.1300I-1.5438J1.2184
G2X42.9776Y-21.7910Z0.1300I-0.2259J1.0550
G0 Z0.4888
G0 X42.9776 Y-21.7910 
G0 Z0.4888
G0 X40.6828 Y-21.7326 
G1 X40.6828 Y-21.7326 Z0.2388 F25.
G3X40.6528Y-21.7026Z0.2388I-0.0300J0.0000
G2X40.3903Y-21.6702Z0.2388I0.0000J1.0789
G2X40.4566Y-22.8453Z0.2388I-1.3811J-0.6672
G3X40.8787Y-21.6787Z0.2388I-1.5438J1.2184
G2X40.6528Y-21.7026Z0.2388I-0.2259J1.0550
G0 Z0.4888
G0 X40.6528 Y-21.7026 
G0 Z0.4888
G0 X40.6828 Y-21.7326 
G1 X40.6828 Y-21.7326 Z0.2025 F25.
G3X40.6528Y-21.7026Z0.2025I-0.0300J0.0000
G2X40.3903Y-21.6702Z0.2025I0.0000J1.0789
G2X40.4566Y-22.8453Z0.2025I-1.3811J-0.6672
G3X40.8787Y-21.6787Z0.2025I-1.5438J1.2184
G2X40.6528Y-21.7026Z0.2025I-0.2259J1.0550
G0 Z0.4525
G0 X40.6528 Y-21.7026 
G0 Z0.4525
G0 X40.6828 Y-21.7326 
G1 X40.6828 Y-21.7326 Z0.1663 F25.
G3X40.6528Y-21.7026Z0.1663I-0.0300J0.0000
G2X40.3903Y-21.6702Z0.1663I0.0000J1.0789
G2X40.4566Y-22.8453Z0.1663I-1.3811J-0.6672
G3X40.8787Y-21.6787Z0.1663I-1.5438J1.2184
G2X40.6528Y-21.7026Z0.1663I-0.2259J1.0550
G0 Z0.4163
G0 X40.6528 Y-21.7026 
G0 Z0.4163
G0 X40.6828 Y-21.7326 
G1 X40.6828 Y-21.7326 Z0.1300 F25.
G3X40.6528Y-21.7026Z0.1300I-0.0300J0.0000
G2X40.3903Y-21.6702Z0.1300I0.0000J1.0789
G2X40.4566Y-22.8453Z0.1300I-1.3811J-0.6672
G3X40.8787Y-21.6787Z0.1300I-1.5438J1.2184
G2X40.6528Y-21.7026Z0.1300I-0.2259J1.0550
G0 Z0.4888
G0 X40.6528 Y-21.7026 
G0 Z0.4888
G0 X38.6342 Y-21.6586 
G1 X38.6342 Y-21.6586 Z0.2388 F25.
G3X38.6041Y-21.6287Z0.2388I-0.0300J-0.0001
G2X38.3383Y-21.5963Z0.2388I-0.0033J1.0789
G2X38.4046Y-22.7714Z0.2388I-1.3811J-0.6673
G3X38.8268Y-21.6048Z0.2388I-1.5438J1.2183
G2X38.6041Y-21.6287Z0.2388I-0.2260J1.0550
G0 Z0.4888
G0 X38.6041 Y-21.6287 
G0 Z0.4888
G0 X38.6342 Y-21.6586 
G1 X38.6342 Y-21.6586 Z0.2025 F25.
G3X38.6041Y-21.6287Z0.2025I-0.0300J-0.0001
G2X38.3383Y-21.5963Z0.2025I-0.0033J1.0789
G2X38.4046Y-22.7714Z0.2025I-1.3811J-0.6673
G3X38.8268Y-21.6048Z0.2025I-1.5438J1.2183
G2X38.6041Y-21.6287Z0.2025I-0.2260J1.0550
G0 Z0.4525
G0 X38.6041 Y-21.6287 
G0 Z0.4525
G0 X38.6342 Y-21.6586 
G1 X38.6342 Y-21.6586 Z0.1663 F25.
G3X38.6041Y-21.6287Z0.1663I-0.0300J-0.0001
G2X38.3383Y-21.5963Z0.1663I-0.0033J1.0789
G2X38.4046Y-22.7714Z0.1663I-1.3811J-0.6673
G3X38.8268Y-21.6048Z0.1663I-1.5438J1.2183
G2X38.6041Y-21.6287Z0.1663I-0.2260J1.0550
G0 Z0.4163
G0 X38.6041 Y-21.6287 
G0 Z0.4163
G0 X38.6342 Y-21.6586 
G1 X38.6342 Y-21.6586 Z0.1300 F25.
G3X38.6041Y-21.6287Z0.1300I-0.0300J-0.0001
G2X38.3383Y-21.5963Z0.1300I-0.0033J1.0789
G2X38.4046Y-22.7714Z0.1300I-1.3811J-0.6673
G3X38.8268Y-21.6048Z0.1300I-1.5438J1.2183
G2X38.6041Y-21.6287Z0.1300I-0.2260J1.0550
G0 Z0.4888
G0 X38.6041 Y-21.6287 
G0 Z0.4888
G0 X36.7671 Y-21.5716 
G1 X36.7671 Y-21.5716 Z0.2388 F25.
G3X36.7371Y-21.5417Z0.2388I-0.0300J-0.0001
G2X36.4713Y-21.5093Z0.2388I-0.0033J1.0789
G2X36.5376Y-22.6844Z0.2388I-1.3811J-0.6672
G3X36.9597Y-21.5178Z0.2388I-1.5438J1.2184
G2X36.7371Y-21.5417Z0.2388I-0.2259J1.0550
G0 Z0.4888
G0 X36.7371 Y-21.5417 
G0 Z0.4888
G0 X36.7671 Y-21.5716 
G1 X36.7671 Y-21.5716 Z0.2025 F25.
G3X36.7371Y-21.5417Z0.2025I-0.0300J-0.0001
G2X36.4713Y-21.5093Z0.2025I-0.0033J1.0789
G2X36.5376Y-22.6844Z0.2025I-1.3811J-0.6672
G3X36.9597Y-21.5178Z0.2025I-1.5438J1.2184
G2X36.7371Y-21.5417Z0.2025I-0.2259J1.0550
G0 Z0.4525
G0 X36.7371 Y-21.5417 
G0 Z0.4525
G0 X36.7671 Y-21.5716 
G1 X36.7671 Y-21.5716 Z0.1663 F25.
G3X36.7371Y-21.5417Z0.1663I-0.0300J-0.0001
G2X36.4713Y-21.5093Z0.1663I-0.0033J1.0789
G2X36.5376Y-22.6844Z0.1663I-1.3811J-0.6672
G3X36.9597Y-21.5178Z0.1663I-1.5438J1.2184
G2X36.7371Y-21.5417Z0.1663I-0.2259J1.0550
G0 Z0.4163
G0 X36.7371 Y-21.5417 
G0 Z0.4163
G0 X36.7671 Y-21.5716 
G1 X36.7671 Y-21.5716 Z0.1300 F25.
G3X36.7371Y-21.5417Z0.1300I-0.0300J-0.0001
G2X36.4713Y-21.5093Z0.1300I-0.0033J1.0789
G2X36.5376Y-22.6844Z0.1300I-1.3811J-0.6672
G3X36.9597Y-21.5178Z0.1300I-1.5438J1.2184
G2X36.7371Y-21.5417Z0.1300I-0.2259J1.0550
G0 Z0.4888
G0 X36.7371 Y-21.5417 
G0 Z0.4888
G0 X34.2676 Y-23.8697 
G1 X34.2676 Y-23.8697 Z0.2388 F25.
G3X34.2976Y-23.8997Z0.2388I0.0300J0.0000
G2X34.4771Y-23.9196Z0.2388I0.0000J-0.8188
G2X34.4180Y-23.1036Z0.2388I1.0532J0.4864
G3X34.1382Y-23.9153Z0.2388I1.1847J-0.8625
G2X34.2976Y-23.8997Z0.2388I0.1594J-0.8032
G0 Z0.4888
G0 X34.2976 Y-23.8997 
G0 Z0.4888
G0 X34.2676 Y-23.8697 
G1 X34.2676 Y-23.8697 Z0.2025 F25.
G3X34.2976Y-23.8997Z0.2025I0.0300J0.0000
G2X34.4771Y-23.9196Z0.2025I0.0000J-0.8188
G2X34.4180Y-23.1036Z0.2025I1.0532J0.4864
G3X34.1382Y-23.9153Z0.2025I1.1847J-0.8625
G2X34.2976Y-23.8997Z0.2025I0.1594J-0.8032
G0 Z0.4525
G0 X34.2976 Y-23.8997 
G0 Z0.4525
G0 X34.2676 Y-23.8697 
G1 X34.2676 Y-23.8697 Z0.1663 F25.
G3X34.2976Y-23.8997Z0.1663I0.0300J0.0000
G2X34.4771Y-23.9196Z0.1663I0.0000J-0.8188
G2X34.4180Y-23.1036Z0.1663I1.0532J0.4864
G3X34.1382Y-23.9153Z0.1663I1.1847J-0.8625
G2X34.2976Y-23.8997Z0.1663I0.1594J-0.8032
G0 Z0.4163
G0 X34.2976 Y-23.8997 
G0 Z0.4163
G0 X34.2676 Y-23.8697 
G1 X34.2676 Y-23.8697 Z0.1300 F25.
G3X34.2976Y-23.8997Z0.1300I0.0300J0.0000
G2X34.4771Y-23.9196Z0.1300I0.0000J-0.8188
G2X34.4180Y-23.1036Z0.1300I1.0532J0.4864
G3X34.1382Y-23.9153Z0.1300I1.1847J-0.8625
G2X34.2976Y-23.8997Z0.1300I0.1594J-0.8032
G0 Z0.4888
G0 X34.2976 Y-23.8997 
G0 Z0.4888
G0 X34.3422 Y-21.7222 
G1 X34.3422 Y-21.7222 Z0.2388 F25.
G3X34.3128Y-21.6916Z0.2388I-0.0300J0.0006
G2X34.1501Y-21.6718Z0.2388I0.0168J0.8187
G2X34.2092Y-22.4878Z0.2388I-1.0532J-0.4864
G3X34.4890Y-21.6761Z0.2388I-1.1846J0.8625
G2X34.3128Y-21.6916Z0.2388I-0.1594J0.8032
G0 Z0.4888
G0 X34.3128 Y-21.6916 
G0 Z0.4888
G0 X34.3422 Y-21.7222 
G1 X34.3422 Y-21.7222 Z0.2025 F25.
G3X34.3128Y-21.6916Z0.2025I-0.0300J0.0006
G2X34.1501Y-21.6718Z0.2025I0.0168J0.8187
G2X34.2092Y-22.4878Z0.2025I-1.0532J-0.4864
G3X34.4890Y-21.6761Z0.2025I-1.1846J0.8625
G2X34.3128Y-21.6916Z0.2025I-0.1594J0.8032
G0 Z0.4525
G0 X34.3128 Y-21.6916 
G0 Z0.4525
G0 X34.3422 Y-21.7222 
G1 X34.3422 Y-21.7222 Z0.1663 F25.
G3X34.3128Y-21.6916Z0.1663I-0.0300J0.0006
G2X34.1501Y-21.6718Z0.1663I0.0168J0.8187
G2X34.2092Y-22.4878Z0.1663I-1.0532J-0.4864
G3X34.4890Y-21.6761Z0.1663I-1.1846J0.8625
G2X34.3128Y-21.6916Z0.1663I-0.1594J0.8032
G0 Z0.4163
G0 X34.3128 Y-21.6916 
G0 Z0.4163
G0 X34.3422 Y-21.7222 
G1 X34.3422 Y-21.7222 Z0.1300 F25.
G3X34.3128Y-21.6916Z0.1300I-0.0300J0.0006
G2X34.1501Y-21.6718Z0.1300I0.0168J0.8187
G2X34.2092Y-22.4878Z0.1300I-1.0532J-0.4864
G3X34.4890Y-21.6761Z0.1300I-1.1846J0.8625
G2X34.3128Y-21.6916Z0.1300I-0.1594J0.8032
G0 Z0.4888
G0 X34.3128 Y-21.6916 
G0 Z0.4888
G0 X32.3457 Y-21.7060 
G1 X32.3457 Y-21.7060 Z0.2388 F25.
G3X32.3156Y-21.6761Z0.2388I-0.0300J-0.0001
G2X32.1336Y-21.6562Z0.2388I-0.0025J0.8188
G2X32.1927Y-22.4722Z0.2388I-1.0532J-0.4864
G3X32.4725Y-21.6605Z0.2388I-1.1846J0.8625
G2X32.3156Y-21.6761Z0.2388I-0.1594J0.8032
G0 Z0.4888
G0 X32.3156 Y-21.6761 
G0 Z0.4888
G0 X32.3457 Y-21.7060 
G1 X32.3457 Y-21.7060 Z0.2025 F25.
G3X32.3156Y-21.6761Z0.2025I-0.0300J-0.0001
G2X32.1336Y-21.6562Z0.2025I-0.0025J0.8188
G2X32.1927Y-22.4722Z0.2025I-1.0532J-0.4864
G3X32.4725Y-21.6605Z0.2025I-1.1846J0.8625
G2X32.3156Y-21.6761Z0.2025I-0.1594J0.8032
G0 Z0.4525
G0 X32.3156 Y-21.6761 
G0 Z0.4525
G0 X32.3457 Y-21.7060 
G1 X32.3457 Y-21.7060 Z0.1663 F25.
G3X32.3156Y-21.6761Z0.1663I-0.0300J-0.0001
G2X32.1336Y-21.6562Z0.1663I-0.0025J0.8188
G2X32.1927Y-22.4722Z0.1663I-1.0532J-0.4864
G3X32.4725Y-21.6605Z0.1663I-1.1846J0.8625
G2X32.3156Y-21.6761Z0.1663I-0.1594J0.8032
G0 Z0.4163
G0 X32.3156 Y-21.6761 
G0 Z0.4163
G0 X32.3457 Y-21.7060 
G1 X32.3457 Y-21.7060 Z0.1300 F25.
G3X32.3156Y-21.6761Z0.1300I-0.0300J-0.0001
G2X32.1336Y-21.6562Z0.1300I-0.0025J0.8188
G2X32.1927Y-22.4722Z0.1300I-1.0532J-0.4864
G3X32.4725Y-21.6605Z0.1300I-1.1846J0.8625
G2X32.3156Y-21.6761Z0.1300I-0.1594J0.8032
G0 Z0.4888
G0 X32.3156 Y-21.6761 
G0 Z0.4888
G0 X31.1727 Y-21.5796 
G1 X31.1727 Y-21.5796 Z0.2388 F25.
G3X31.1426Y-21.5497Z0.2388I-0.0300J-0.0001
G2X31.1233Y-21.5495Z0.2388I-0.0025J0.8188
G2X30.9606Y-21.5298Z0.2388I0.0168J0.8186
G2X31.0197Y-22.3458Z0.2388I-1.0532J-0.4864
G3X31.2995Y-21.5340Z0.2388I-1.1846J0.8625
G2X31.1426Y-21.5497Z0.2388I-0.1594J0.8031
G0 Z0.4888
G0 X31.1426 Y-21.5497 
G0 Z0.4888
G0 X31.1727 Y-21.5796 
G1 X31.1727 Y-21.5796 Z0.2025 F25.
G3X31.1426Y-21.5497Z0.2025I-0.0300J-0.0001
G2X31.1233Y-21.5495Z0.2025I-0.0025J0.8188
G2X30.9606Y-21.5298Z0.2025I0.0168J0.8186
G2X31.0197Y-22.3458Z0.2025I-1.0532J-0.4864
G3X31.2995Y-21.5340Z0.2025I-1.1846J0.8625
G2X31.1426Y-21.5497Z0.2025I-0.1594J0.8031
G0 Z0.4525
G0 X31.1426 Y-21.5497 
G0 Z0.4525
G0 X31.1727 Y-21.5796 
G1 X31.1727 Y-21.5796 Z0.1663 F25.
G3X31.1426Y-21.5497Z0.1663I-0.0300J-0.0001
G2X31.1233Y-21.5495Z0.1663I-0.0025J0.8188
G2X30.9606Y-21.5298Z0.1663I0.0168J0.8186
G2X31.0197Y-22.3458Z0.1663I-1.0532J-0.4864
G3X31.2995Y-21.5340Z0.1663I-1.1846J0.8625
G2X31.1426Y-21.5497Z0.1663I-0.1594J0.8031
G0 Z0.4163
G0 X31.1426 Y-21.5497 
G0 Z0.4163
G0 X31.1727 Y-21.5796 
G1 X31.1727 Y-21.5796 Z0.1300 F25.
G3X31.1426Y-21.5497Z0.1300I-0.0300J-0.0001
G2X31.1233Y-21.5495Z0.1300I-0.0025J0.8188
G2X30.9606Y-21.5298Z0.1300I0.0168J0.8186
G2X31.0197Y-22.3458Z0.1300I-1.0532J-0.4864
G3X31.2995Y-21.5340Z0.1300I-1.1846J0.8625
G2X31.1426Y-21.5497Z0.1300I-0.1594J0.8031
G0 Z0.4888
G0 X31.1426 Y-21.5497 
G0 Z0.4888
G0 X30.1256 Y-21.4785 
G1 X30.1256 Y-21.4785 Z0.2388 F25.
G3X30.0962Y-21.4479Z0.2388I-0.0300J0.0006
G2X29.9334Y-21.4281Z0.2388I0.0168J0.8187
G2X29.9925Y-22.2441Z0.2388I-1.0531J-0.4864
G3X30.2724Y-21.4324Z0.2388I-1.1846J0.8624
G2X30.0962Y-21.4479Z0.2388I-0.1594J0.8032
G0 Z0.4888
G0 X30.0962 Y-21.4479 
G0 Z0.4888
G0 X30.1256 Y-21.4785 
G1 X30.1256 Y-21.4785 Z0.2025 F25.
G3X30.0962Y-21.4479Z0.2025I-0.0300J0.0006
G2X29.9334Y-21.4281Z0.2025I0.0168J0.8187
G2X29.9925Y-22.2441Z0.2025I-1.0531J-0.4864
G3X30.2724Y-21.4324Z0.2025I-1.1846J0.8624
G2X30.0962Y-21.4479Z0.2025I-0.1594J0.8032
G0 Z0.4525
G0 X30.0962 Y-21.4479 
G0 Z0.4525
G0 X30.1256 Y-21.4785 
G1 X30.1256 Y-21.4785 Z0.1663 F25.
G3X30.0962Y-21.4479Z0.1663I-0.0300J0.0006
G2X29.9334Y-21.4281Z0.1663I0.0168J0.8187
G2X29.9925Y-22.2441Z0.1663I-1.0531J-0.4864
G3X30.2724Y-21.4324Z0.1663I-1.1846J0.8624
G2X30.0962Y-21.4479Z0.1663I-0.1594J0.8032
G0 Z0.4163
G0 X30.0962 Y-21.4479 
G0 Z0.4163
G0 X30.1256 Y-21.4785 
G1 X30.1256 Y-21.4785 Z0.1300 F25.
G3X30.0962Y-21.4479Z0.1300I-0.0300J0.0006
G2X29.9334Y-21.4281Z0.1300I0.0168J0.8187
G2X29.9925Y-22.2441Z0.1300I-1.0531J-0.4864
G3X30.2724Y-21.4324Z0.1300I-1.1846J0.8624
G2X30.0962Y-21.4479Z0.1300I-0.1594J0.8032
G0 Z0.4888
G0 X30.0962 Y-21.4479 
G0 Z0.4888
G0 X29.2222 Y-21.3870 
G1 X29.2222 Y-21.3870 Z0.2388 F25.
G3X29.1922Y-21.3570Z0.2388I-0.0300J0.0000
G1 X29.1898 Y-21.3570 Z0.2388
G2X29.0103Y-21.3371Z0.2388I0.0000J0.8188
G2X29.0694Y-22.1531Z0.2388I-1.0532J-0.4864
G3X29.3492Y-21.3414Z0.2388I-1.1847J0.8625
G2X29.1922Y-21.3570Z0.2388I-0.1594J0.8032
G1 X29.1922 Y-21.3570 Z0.2388
G0 Z0.4888
G0 X29.1922 Y-21.3570 
G0 Z0.4888
G0 X29.2222 Y-21.3870 
G1 X29.2222 Y-21.3870 Z0.2025 F25.
G3X29.1922Y-21.3570Z0.2025I-0.0300J0.0000
G1 X29.1898 Y-21.3570 Z0.2025
G2X29.0103Y-21.3371Z0.2025I0.0000J0.8188
G2X29.0694Y-22.1531Z0.2025I-1.0532J-0.4864
G3X29.3492Y-21.3414Z0.2025I-1.1847J0.8625
G2X29.1922Y-21.3570Z0.2025I-0.1594J0.8032
G1 X29.1922 Y-21.3570 Z0.2025
G0 Z0.4525
G0 X29.1922 Y-21.3570 
G0 Z0.4525
G0 X29.2222 Y-21.3870 
G1 X29.2222 Y-21.3870 Z0.1663 F25.
G3X29.1922Y-21.3570Z0.1663I-0.0300J0.0000
G1 X29.1898 Y-21.3570 Z0.1663
G2X29.0103Y-21.3371Z0.1663I0.0000J0.8188
G2X29.0694Y-22.1531Z0.1663I-1.0532J-0.4864
G3X29.3492Y-21.3414Z0.1663I-1.1847J0.8625
G2X29.1922Y-21.3570Z0.1663I-0.1594J0.8032
G1 X29.1922 Y-21.3570 Z0.1663
G0 Z0.4163
G0 X29.1922 Y-21.3570 
G0 Z0.4163
G0 X29.2222 Y-21.3870 
G1 X29.2222 Y-21.3870 Z0.1300 F25.
G3X29.1922Y-21.3570Z0.1300I-0.0300J0.0000
G1 X29.1898 Y-21.3570 Z0.1300
G2X29.0103Y-21.3371Z0.1300I0.0000J0.8188
G2X29.0694Y-22.1531Z0.1300I-1.0532J-0.4864
G3X29.3492Y-21.3414Z0.1300I-1.1847J0.8625
G2X29.1922Y-21.3570Z0.1300I-0.1594J0.8032
G1 X29.1922 Y-21.3570 Z0.1300
G0 Z2.0000
G0 X29.1922 Y-21.3570 
M5
G53 Z
X2Y0
