( MOP:  02-inlay-McSwainHex-idPT081-s24PT625-04 )
( FILE: G:\Shared drives\AlloyProjectFiles\Customer CAD files\Alloy-Standard-Builds-CAM\Fingerboards-in\02-inlay-McSwainHex-idPT081-s24PT625-04.nc)
G90
(  BEGIN TOOL LIST )
(  TOOL 19 - Downcut 1.5mm PT0590 - DESC: 0.0590 DIA, 2 FLUTE,  CARBIDE MAT )
(  ENDOF TOOL LIST )
( 02-inlay-McSwainHex-idPT081-s24PT625-04)
T19
S12000
M3
G0 Z4.0000
G0 X34.1559 Y-23.3813 
G1 X34.1559 Y-23.3813 Z0.2447 F75.
G1 X34.1553 Y-23.3801 Z0.2445 F25.
G1 X34.1535 Y-23.3765 Z0.2438
G1 X34.1519 Y-23.3729 Z0.2431
G1 X34.1502 Y-23.3693 Z0.2424
G1 X34.1487 Y-23.3656 Z0.2417
G1 X34.1473 Y-23.3619 Z0.2410
G1 X34.1459 Y-23.3581 Z0.2403
G1 X34.1446 Y-23.3543 Z0.2396
G1 X34.1435 Y-23.3505 Z0.2389
G1 X34.1424 Y-23.3467 Z0.2382
G1 X34.1413 Y-23.3428 Z0.2375
G1 X34.1404 Y-23.3390 Z0.2368
G1 X34.1396 Y-23.3351 Z0.2361
G1 X34.1388 Y-23.3312 Z0.2354
G1 X34.1381 Y-23.3272 Z0.2347
G1 X34.1376 Y-23.3233 Z0.2340
G1 X34.1371 Y-23.3193 Z0.2333
G1 X34.1367 Y-23.3154 Z0.2326
G1 X34.1364 Y-23.3114 Z0.2319
G1 X34.1361 Y-23.3074 Z0.2312
G1 X34.1360 Y-23.3034 Z0.2305
G1 X34.1360 Y-23.2994 Z0.2297
G17
G2X34.4913Y-23.2994Z0.2297I0.1776J0.0000 F30.
G2X34.1360Y-23.2994Z0.2297I-0.1777J0.0000
G2X34.2371Y-23.1391Z0.2297I0.1776J0.0000
G0 Z0.3547
G0 X34.2371 Y-23.1391 
G0 Z0.3547
G0 X34.1559 Y-23.3813 
G1 X34.1559 Y-23.3813 Z0.2245 F75.
G1 X34.1553 Y-23.3801 Z0.2243 F25.
G1 X34.1535 Y-23.3765 Z0.2236
G1 X34.1519 Y-23.3729 Z0.2229
G1 X34.1502 Y-23.3693 Z0.2222
G1 X34.1487 Y-23.3656 Z0.2215
G1 X34.1473 Y-23.3619 Z0.2207
G1 X34.1459 Y-23.3581 Z0.2200
G1 X34.1446 Y-23.3543 Z0.2193
G1 X34.1435 Y-23.3505 Z0.2186
G1 X34.1424 Y-23.3467 Z0.2179
G1 X34.1413 Y-23.3428 Z0.2172
G1 X34.1404 Y-23.3390 Z0.2165
G1 X34.1396 Y-23.3351 Z0.2158
G1 X34.1388 Y-23.3312 Z0.2151
G1 X34.1381 Y-23.3272 Z0.2144
G1 X34.1376 Y-23.3233 Z0.2137
G1 X34.1371 Y-23.3193 Z0.2130
G1 X34.1367 Y-23.3154 Z0.2123
G1 X34.1364 Y-23.3114 Z0.2116
G1 X34.1361 Y-23.3074 Z0.2109
G1 X34.1360 Y-23.3034 Z0.2102
G1 X34.1360 Y-23.2994 Z0.2095
G2X34.4913Y-23.2994Z0.2095I0.1776J0.0000 F30.
G2X34.1360Y-23.2994Z0.2095I-0.1777J0.0000
G2X34.2371Y-23.1391Z0.2095I0.1776J0.0000
G0 Z0.3345
G0 X34.2371 Y-23.1391 
G0 Z0.3345
G0 X34.1559 Y-23.3813 
G1 X34.1559 Y-23.3813 Z0.2042 F75.
G1 X34.1553 Y-23.3801 Z0.2040 F25.
G1 X34.1535 Y-23.3765 Z0.2033
G1 X34.1519 Y-23.3729 Z0.2026
G1 X34.1502 Y-23.3693 Z0.2019
G1 X34.1487 Y-23.3656 Z0.2012
G1 X34.1473 Y-23.3619 Z0.2005
G1 X34.1459 Y-23.3581 Z0.1998
G1 X34.1446 Y-23.3543 Z0.1991
G1 X34.1435 Y-23.3505 Z0.1984
G1 X34.1424 Y-23.3467 Z0.1977
G1 X34.1413 Y-23.3428 Z0.1970
G1 X34.1404 Y-23.3390 Z0.1963
G1 X34.1396 Y-23.3351 Z0.1956
G1 X34.1388 Y-23.3312 Z0.1949
G1 X34.1381 Y-23.3272 Z0.1942
G1 X34.1376 Y-23.3233 Z0.1935
G1 X34.1371 Y-23.3193 Z0.1928
G1 X34.1367 Y-23.3154 Z0.1921
G1 X34.1364 Y-23.3114 Z0.1914
G1 X34.1361 Y-23.3074 Z0.1907
G1 X34.1360 Y-23.3034 Z0.1900
G1 X34.1360 Y-23.2994 Z0.1892
G2X34.4913Y-23.2994Z0.1892I0.1776J0.0000 F30.
G2X34.1360Y-23.2994Z0.1892I-0.1777J0.0000
G2X34.2371Y-23.1391Z0.1892I0.1776J0.0000
G0 Z0.3142
G0 X34.2371 Y-23.1391 
G0 Z0.3142
G0 X34.1559 Y-23.3813 
G1 X34.1559 Y-23.3813 Z0.1840 F75.
G1 X34.1553 Y-23.3801 Z0.1838 F25.
G1 X34.1535 Y-23.3765 Z0.1831
G1 X34.1519 Y-23.3729 Z0.1824
G1 X34.1502 Y-23.3693 Z0.1817
G1 X34.1487 Y-23.3656 Z0.1810
G1 X34.1473 Y-23.3619 Z0.1802
G1 X34.1459 Y-23.3581 Z0.1795
G1 X34.1446 Y-23.3543 Z0.1788
G1 X34.1435 Y-23.3505 Z0.1781
G1 X34.1424 Y-23.3467 Z0.1774
G1 X34.1413 Y-23.3428 Z0.1767
G1 X34.1404 Y-23.3390 Z0.1760
G1 X34.1396 Y-23.3351 Z0.1753
G1 X34.1388 Y-23.3312 Z0.1746
G1 X34.1381 Y-23.3272 Z0.1739
G1 X34.1376 Y-23.3233 Z0.1732
G1 X34.1371 Y-23.3193 Z0.1725
G1 X34.1367 Y-23.3154 Z0.1718
G1 X34.1364 Y-23.3114 Z0.1711
G1 X34.1361 Y-23.3074 Z0.1704
G1 X34.1360 Y-23.3034 Z0.1697
G1 X34.1360 Y-23.2994 Z0.1690
G2X34.4913Y-23.2994Z0.1690I0.1776J0.0000 F30.
G2X34.1360Y-23.2994Z0.1690I-0.1777J0.0000
G2X34.2371Y-23.1391Z0.1690I0.1776J0.0000
G0 Z0.3697
G0 X34.2371 Y-23.1391 
G0 Z0.3697
G0 X34.2940 Y-23.0956 
G1 X34.2940 Y-23.0956 Z0.2447 F75.
G1 X34.2205 Y-23.1383 Z0.2297 F25.
G1 X34.1272 Y-23.1925 Z0.2297 F30.
G1 X34.1272 Y-23.4079 Z0.2297
G1 X34.3136 Y-23.5147 Z0.2297
G1 X34.4987 Y-23.4079 Z0.2297
G1 X34.4987 Y-23.1925 Z0.2297
G1 X34.3136 Y-23.0843 Z0.2297
G1 X34.2205 Y-23.1383 Z0.2297
G1 X34.1272 Y-23.1925 Z0.2297
G1 X34.1272 Y-23.2846 Z0.2297
G0 Z0.3547
G0 X34.1272 Y-23.2846 
G0 Z0.3547
G0 X34.2940 Y-23.0956 
G1 X34.2940 Y-23.0956 Z0.2245 F75.
G1 X34.2205 Y-23.1383 Z0.2095 F25.
G1 X34.1272 Y-23.1925 Z0.2095 F30.
G1 X34.1272 Y-23.4079 Z0.2095
G1 X34.3136 Y-23.5147 Z0.2095
G1 X34.4987 Y-23.4079 Z0.2095
G1 X34.4987 Y-23.1925 Z0.2095
G1 X34.3136 Y-23.0843 Z0.2095
G1 X34.2205 Y-23.1383 Z0.2095
G1 X34.1272 Y-23.1925 Z0.2095
G1 X34.1272 Y-23.2846 Z0.2095
G0 Z0.3345
G0 X34.1272 Y-23.2846 
G0 Z0.3345
G0 X34.2940 Y-23.0956 
G1 X34.2940 Y-23.0956 Z0.2042 F75.
G1 X34.2205 Y-23.1383 Z0.1892 F25.
G1 X34.1272 Y-23.1925 Z0.1892 F30.
G1 X34.1272 Y-23.4079 Z0.1892
G1 X34.3136 Y-23.5147 Z0.1892
G1 X34.4987 Y-23.4079 Z0.1892
G1 X34.4987 Y-23.1925 Z0.1892
G1 X34.3136 Y-23.0843 Z0.1892
G1 X34.2205 Y-23.1383 Z0.1892
G1 X34.1272 Y-23.1925 Z0.1892
G1 X34.1272 Y-23.2846 Z0.1892
G0 Z0.3142
G0 X34.1272 Y-23.2846 
G0 Z0.3142
G0 X34.2940 Y-23.0956 
G1 X34.2940 Y-23.0956 Z0.1840 F75.
G1 X34.2205 Y-23.1383 Z0.1690 F25.
G1 X34.1272 Y-23.1925 Z0.1690 F30.
G1 X34.1272 Y-23.4079 Z0.1690
G1 X34.3136 Y-23.5147 Z0.1690
G1 X34.4987 Y-23.4079 Z0.1690
G1 X34.4987 Y-23.1925 Z0.1690
G1 X34.3136 Y-23.0843 Z0.1690
G1 X34.2205 Y-23.1383 Z0.1690
G1 X34.1272 Y-23.1925 Z0.1690
G1 X34.1272 Y-23.2846 Z0.1690
G0 Z0.3697
G0 X34.1272 Y-23.2846 
G0 Z0.3697
G0 X34.1559 Y-22.3813 
G1 X34.1559 Y-22.3813 Z0.2447 F75.
G1 X34.1553 Y-22.3801 Z0.2445 F25.
G1 X34.1535 Y-22.3765 Z0.2438
G1 X34.1519 Y-22.3729 Z0.2431
G1 X34.1502 Y-22.3693 Z0.2424
G1 X34.1487 Y-22.3656 Z0.2417
G1 X34.1473 Y-22.3619 Z0.2410
G1 X34.1459 Y-22.3581 Z0.2403
G1 X34.1446 Y-22.3543 Z0.2396
G1 X34.1435 Y-22.3505 Z0.2389
G1 X34.1424 Y-22.3467 Z0.2382
G1 X34.1413 Y-22.3428 Z0.2375
G1 X34.1404 Y-22.3390 Z0.2368
G1 X34.1396 Y-22.3351 Z0.2361
G1 X34.1388 Y-22.3312 Z0.2354
G1 X34.1381 Y-22.3272 Z0.2347
G1 X34.1376 Y-22.3233 Z0.2340
G1 X34.1371 Y-22.3193 Z0.2333
G1 X34.1367 Y-22.3154 Z0.2326
G1 X34.1364 Y-22.3114 Z0.2319
G1 X34.1361 Y-22.3074 Z0.2312
G1 X34.1360 Y-22.3034 Z0.2305
G1 X34.1360 Y-22.2994 Z0.2297
G2X34.4913Y-22.2994Z0.2297I0.1776J0.0000 F30.
G2X34.1360Y-22.2994Z0.2297I-0.1777J0.0000
G2X34.2371Y-22.1391Z0.2297I0.1776J0.0000
G0 Z0.3547
G0 X34.2371 Y-22.1391 
G0 Z0.3547
G0 X34.1559 Y-22.3813 
G1 X34.1559 Y-22.3813 Z0.2245 F75.
G1 X34.1553 Y-22.3801 Z0.2243 F25.
G1 X34.1535 Y-22.3765 Z0.2236
G1 X34.1519 Y-22.3729 Z0.2229
G1 X34.1502 Y-22.3693 Z0.2222
G1 X34.1487 Y-22.3656 Z0.2215
G1 X34.1473 Y-22.3619 Z0.2207
G1 X34.1459 Y-22.3581 Z0.2200
G1 X34.1446 Y-22.3543 Z0.2193
G1 X34.1435 Y-22.3505 Z0.2186
G1 X34.1424 Y-22.3467 Z0.2179
G1 X34.1413 Y-22.3428 Z0.2172
G1 X34.1404 Y-22.3390 Z0.2165
G1 X34.1396 Y-22.3351 Z0.2158
G1 X34.1388 Y-22.3312 Z0.2151
G1 X34.1381 Y-22.3272 Z0.2144
G1 X34.1376 Y-22.3233 Z0.2137
G1 X34.1371 Y-22.3193 Z0.2130
G1 X34.1367 Y-22.3154 Z0.2123
G1 X34.1364 Y-22.3114 Z0.2116
G1 X34.1361 Y-22.3074 Z0.2109
G1 X34.1360 Y-22.3034 Z0.2102
G1 X34.1360 Y-22.2994 Z0.2095
G2X34.4913Y-22.2994Z0.2095I0.1776J0.0000 F30.
G2X34.1360Y-22.2994Z0.2095I-0.1777J0.0000
G2X34.2371Y-22.1391Z0.2095I0.1776J0.0000
G0 Z0.3345
G0 X34.2371 Y-22.1391 
G0 Z0.3345
G0 X34.1559 Y-22.3813 
G1 X34.1559 Y-22.3813 Z0.2042 F75.
G1 X34.1553 Y-22.3801 Z0.2040 F25.
G1 X34.1535 Y-22.3765 Z0.2033
G1 X34.1519 Y-22.3729 Z0.2026
G1 X34.1502 Y-22.3693 Z0.2019
G1 X34.1487 Y-22.3656 Z0.2012
G1 X34.1473 Y-22.3619 Z0.2005
G1 X34.1459 Y-22.3581 Z0.1998
G1 X34.1446 Y-22.3543 Z0.1991
G1 X34.1435 Y-22.3505 Z0.1984
G1 X34.1424 Y-22.3467 Z0.1977
G1 X34.1413 Y-22.3428 Z0.1970
G1 X34.1404 Y-22.3390 Z0.1963
G1 X34.1396 Y-22.3351 Z0.1956
G1 X34.1388 Y-22.3312 Z0.1949
G1 X34.1381 Y-22.3272 Z0.1942
G1 X34.1376 Y-22.3233 Z0.1935
G1 X34.1371 Y-22.3193 Z0.1928
G1 X34.1367 Y-22.3154 Z0.1921
G1 X34.1364 Y-22.3114 Z0.1914
G1 X34.1361 Y-22.3074 Z0.1907
G1 X34.1360 Y-22.3034 Z0.1900
G1 X34.1360 Y-22.2994 Z0.1892
G2X34.4913Y-22.2994Z0.1892I0.1776J0.0000 F30.
G2X34.1360Y-22.2994Z0.1892I-0.1777J0.0000
G2X34.2371Y-22.1391Z0.1892I0.1776J0.0000
G0 Z0.3142
G0 X34.2371 Y-22.1391 
G0 Z0.3142
G0 X34.1559 Y-22.3813 
G1 X34.1559 Y-22.3813 Z0.1840 F75.
G1 X34.1553 Y-22.3801 Z0.1838 F25.
G1 X34.1535 Y-22.3765 Z0.1831
G1 X34.1519 Y-22.3729 Z0.1824
G1 X34.1502 Y-22.3693 Z0.1817
G1 X34.1487 Y-22.3656 Z0.1810
G1 X34.1473 Y-22.3619 Z0.1802
G1 X34.1459 Y-22.3581 Z0.1795
G1 X34.1446 Y-22.3543 Z0.1788
G1 X34.1435 Y-22.3505 Z0.1781
G1 X34.1424 Y-22.3467 Z0.1774
G1 X34.1413 Y-22.3428 Z0.1767
G1 X34.1404 Y-22.3390 Z0.1760
G1 X34.1396 Y-22.3351 Z0.1753
G1 X34.1388 Y-22.3312 Z0.1746
G1 X34.1381 Y-22.3272 Z0.1739
G1 X34.1376 Y-22.3233 Z0.1732
G1 X34.1371 Y-22.3193 Z0.1725
G1 X34.1367 Y-22.3154 Z0.1718
G1 X34.1364 Y-22.3114 Z0.1711
G1 X34.1361 Y-22.3074 Z0.1704
G1 X34.1360 Y-22.3034 Z0.1697
G1 X34.1360 Y-22.2994 Z0.1690
G2X34.4913Y-22.2994Z0.1690I0.1776J0.0000 F30.
G2X34.1360Y-22.2994Z0.1690I-0.1777J0.0000
G2X34.2371Y-22.1391Z0.1690I0.1776J0.0000
G0 Z0.3697
G0 X34.2371 Y-22.1391 
G0 Z0.3697
G0 X34.2940 Y-22.0956 
G1 X34.2940 Y-22.0956 Z0.2447 F75.
G1 X34.2205 Y-22.1383 Z0.2297 F25.
G1 X34.1272 Y-22.1925 Z0.2297 F30.
G1 X34.1272 Y-22.4079 Z0.2297
G1 X34.3136 Y-22.5147 Z0.2297
G1 X34.4987 Y-22.4079 Z0.2297
G1 X34.4987 Y-22.1925 Z0.2297
G1 X34.3136 Y-22.0843 Z0.2297
G1 X34.2205 Y-22.1383 Z0.2297
G1 X34.1272 Y-22.1925 Z0.2297
G1 X34.1272 Y-22.2846 Z0.2297
G0 Z0.3547
G0 X34.1272 Y-22.2846 
G0 Z0.3547
G0 X34.2940 Y-22.0956 
G1 X34.2940 Y-22.0956 Z0.2245 F75.
G1 X34.2205 Y-22.1383 Z0.2095 F25.
G1 X34.1272 Y-22.1925 Z0.2095 F30.
G1 X34.1272 Y-22.4079 Z0.2095
G1 X34.3136 Y-22.5147 Z0.2095
G1 X34.4987 Y-22.4079 Z0.2095
G1 X34.4987 Y-22.1925 Z0.2095
G1 X34.3136 Y-22.0843 Z0.2095
G1 X34.2205 Y-22.1383 Z0.2095
G1 X34.1272 Y-22.1925 Z0.2095
G1 X34.1272 Y-22.2846 Z0.2095
G0 Z0.3345
G0 X34.1272 Y-22.2846 
G0 Z0.3345
G0 X34.2940 Y-22.0956 
G1 X34.2940 Y-22.0956 Z0.2042 F75.
G1 X34.2205 Y-22.1383 Z0.1892 F25.
G1 X34.1272 Y-22.1925 Z0.1892 F30.
G1 X34.1272 Y-22.4079 Z0.1892
G1 X34.3136 Y-22.5147 Z0.1892
G1 X34.4987 Y-22.4079 Z0.1892
G1 X34.4987 Y-22.1925 Z0.1892
G1 X34.3136 Y-22.0843 Z0.1892
G1 X34.2205 Y-22.1383 Z0.1892
G1 X34.1272 Y-22.1925 Z0.1892
G1 X34.1272 Y-22.2846 Z0.1892
G0 Z0.3142
G0 X34.1272 Y-22.2846 
G0 Z0.3142
G0 X34.2940 Y-22.0956 
G1 X34.2940 Y-22.0956 Z0.1840 F75.
G1 X34.2205 Y-22.1383 Z0.1690 F25.
G1 X34.1272 Y-22.1925 Z0.1690 F30.
G1 X34.1272 Y-22.4079 Z0.1690
G1 X34.3136 Y-22.5147 Z0.1690
G1 X34.4987 Y-22.4079 Z0.1690
G1 X34.4987 Y-22.1925 Z0.1690
G1 X34.3136 Y-22.0843 Z0.1690
G1 X34.2205 Y-22.1383 Z0.1690
G1 X34.1272 Y-22.1925 Z0.1690
G1 X34.1272 Y-22.2846 Z0.1690
G0 Z0.3697
G0 X34.1272 Y-22.2846 
G0 Z0.3697
G0 X36.6771 Y-22.5684 
G1 X36.6771 Y-22.5684 Z0.2447 F75.
G1 X36.6036 Y-22.6111 Z0.2297 F25.
G1 X36.4945 Y-22.6745 Z0.2297 F30.
G1 X36.4945 Y-22.9262 Z0.2297
G1 X36.7124 Y-23.0511 Z0.2297
G1 X36.9289 Y-22.9262 Z0.2297
G1 X36.9289 Y-22.6744 Z0.2297
G1 X36.7124 Y-22.5479 Z0.2297
G1 X36.6036 Y-22.6111 Z0.2297
G1 X36.4945 Y-22.6745 Z0.2297
G1 X36.4945 Y-22.7484 Z0.2297
G0 Z0.3547
G0 X36.4945 Y-22.7484 
G0 Z0.3547
G0 X36.6771 Y-22.5684 
G1 X36.6771 Y-22.5684 Z0.2245 F75.
G1 X36.6036 Y-22.6111 Z0.2095 F25.
G1 X36.4945 Y-22.6745 Z0.2095 F30.
G1 X36.4945 Y-22.9262 Z0.2095
G1 X36.7124 Y-23.0511 Z0.2095
G1 X36.9289 Y-22.9262 Z0.2095
G1 X36.9289 Y-22.6744 Z0.2095
G1 X36.7124 Y-22.5479 Z0.2095
G1 X36.6036 Y-22.6111 Z0.2095
G1 X36.4945 Y-22.6745 Z0.2095
G1 X36.4945 Y-22.7484 Z0.2095
G0 Z0.3345
G0 X36.4945 Y-22.7484 
G0 Z0.3345
G0 X36.6771 Y-22.5684 
G1 X36.6771 Y-22.5684 Z0.2042 F75.
G1 X36.6036 Y-22.6111 Z0.1892 F25.
G1 X36.4945 Y-22.6745 Z0.1892 F30.
G1 X36.4945 Y-22.9262 Z0.1892
G1 X36.7124 Y-23.0511 Z0.1892
G1 X36.9289 Y-22.9262 Z0.1892
G1 X36.9289 Y-22.6744 Z0.1892
G1 X36.7124 Y-22.5479 Z0.1892
G1 X36.6036 Y-22.6111 Z0.1892
G1 X36.4945 Y-22.6745 Z0.1892
G1 X36.4945 Y-22.7484 Z0.1892
G0 Z0.3142
G0 X36.4945 Y-22.7484 
G0 Z0.3142
G0 X36.6771 Y-22.5684 
G1 X36.6771 Y-22.5684 Z0.1840 F75.
G1 X36.6036 Y-22.6111 Z0.1690 F25.
G1 X36.4945 Y-22.6745 Z0.1690 F30.
G1 X36.4945 Y-22.9262 Z0.1690
G1 X36.7124 Y-23.0511 Z0.1690
G1 X36.9289 Y-22.9262 Z0.1690
G1 X36.9289 Y-22.6744 Z0.1690
G1 X36.7124 Y-22.5479 Z0.1690
G1 X36.6036 Y-22.6111 Z0.1690
G1 X36.4945 Y-22.6745 Z0.1690
G1 X36.4945 Y-22.7484 Z0.1690
G0 Z0.3697
G0 X36.4945 Y-22.7484 
G0 Z0.3697
G0 X36.5317 Y-22.8819 
G1 X36.5317 Y-22.8819 Z0.2447 F75.
G1 X36.5313 Y-22.8810 Z0.2446 F25.
G1 X36.5296 Y-22.8772 Z0.2438
G1 X36.5280 Y-22.8733 Z0.2431
G1 X36.5265 Y-22.8694 Z0.2423
G1 X36.5251 Y-22.8654 Z0.2416
G1 X36.5237 Y-22.8614 Z0.2409
G1 X36.5225 Y-22.8574 Z0.2401
G1 X36.5213 Y-22.8534 Z0.2394
G1 X36.5202 Y-22.8493 Z0.2386
G1 X36.5192 Y-22.8453 Z0.2379
G1 X36.5182 Y-22.8412 Z0.2372
G1 X36.5174 Y-22.8370 Z0.2364
G1 X36.5166 Y-22.8329 Z0.2357
G1 X36.5160 Y-22.8287 Z0.2349
G1 X36.5154 Y-22.8246 Z0.2342
G1 X36.5149 Y-22.8204 Z0.2335
G1 X36.5145 Y-22.8162 Z0.2327
G1 X36.5142 Y-22.8120 Z0.2320
G1 X36.5140 Y-22.8078 Z0.2312
G1 X36.5138 Y-22.8036 Z0.2305
G1 X36.5138 Y-22.7994 Z0.2297
G2X36.9112Y-22.7994Z0.2297I0.1987J0.0000 F30.
G2X36.5138Y-22.7994Z0.2297I-0.1987J0.0000
G2X36.6063Y-22.6316Z0.2297I0.1986J0.0000
G0 Z0.3547
G0 X36.6063 Y-22.6316 
G0 Z0.3547
G0 X36.5317 Y-22.8819 
G1 X36.5317 Y-22.8819 Z0.2245 F75.
G1 X36.5313 Y-22.8810 Z0.2243 F25.
G1 X36.5296 Y-22.8772 Z0.2236
G1 X36.5280 Y-22.8733 Z0.2228
G1 X36.5265 Y-22.8694 Z0.2221
G1 X36.5251 Y-22.8654 Z0.2214
G1 X36.5237 Y-22.8614 Z0.2206
G1 X36.5225 Y-22.8574 Z0.2199
G1 X36.5213 Y-22.8534 Z0.2191
G1 X36.5202 Y-22.8493 Z0.2184
G1 X36.5192 Y-22.8453 Z0.2177
G1 X36.5182 Y-22.8412 Z0.2169
G1 X36.5174 Y-22.8370 Z0.2162
G1 X36.5166 Y-22.8329 Z0.2154
G1 X36.5160 Y-22.8287 Z0.2147
G1 X36.5154 Y-22.8246 Z0.2139
G1 X36.5149 Y-22.8204 Z0.2132
G1 X36.5145 Y-22.8162 Z0.2125
G1 X36.5142 Y-22.8120 Z0.2117
G1 X36.5140 Y-22.8078 Z0.2110
G1 X36.5138 Y-22.8036 Z0.2102
G1 X36.5138 Y-22.7994 Z0.2095
G2X36.9112Y-22.7994Z0.2095I0.1987J0.0000 F30.
G2X36.5138Y-22.7994Z0.2095I-0.1987J0.0000
G2X36.6063Y-22.6316Z0.2095I0.1986J0.0000
G0 Z0.3345
G0 X36.6063 Y-22.6316 
G0 Z0.3345
G0 X36.5317 Y-22.8819 
G1 X36.5317 Y-22.8819 Z0.2042 F75.
G1 X36.5313 Y-22.8810 Z0.2041 F25.
G1 X36.5296 Y-22.8772 Z0.2033
G1 X36.5280 Y-22.8733 Z0.2026
G1 X36.5265 Y-22.8694 Z0.2018
G1 X36.5251 Y-22.8654 Z0.2011
G1 X36.5237 Y-22.8614 Z0.2004
G1 X36.5225 Y-22.8574 Z0.1996
G1 X36.5213 Y-22.8534 Z0.1989
G1 X36.5202 Y-22.8493 Z0.1981
G1 X36.5192 Y-22.8453 Z0.1974
G1 X36.5182 Y-22.8412 Z0.1967
G1 X36.5174 Y-22.8370 Z0.1959
G1 X36.5166 Y-22.8329 Z0.1952
G1 X36.5160 Y-22.8287 Z0.1944
G1 X36.5154 Y-22.8246 Z0.1937
G1 X36.5149 Y-22.8204 Z0.1930
G1 X36.5145 Y-22.8162 Z0.1922
G1 X36.5142 Y-22.8120 Z0.1915
G1 X36.5140 Y-22.8078 Z0.1907
G1 X36.5138 Y-22.8036 Z0.1900
G1 X36.5138 Y-22.7994 Z0.1892
G2X36.9112Y-22.7994Z0.1892I0.1987J0.0000 F30.
G2X36.5138Y-22.7994Z0.1892I-0.1987J0.0000
G2X36.6063Y-22.6316Z0.1892I0.1986J0.0000
G0 Z0.3142
G0 X36.6063 Y-22.6316 
G0 Z0.3142
G0 X36.5317 Y-22.8819 
G1 X36.5317 Y-22.8819 Z0.1840 F75.
G1 X36.5313 Y-22.8810 Z0.1838 F25.
G1 X36.5296 Y-22.8772 Z0.1831
G1 X36.5280 Y-22.8733 Z0.1823
G1 X36.5265 Y-22.8694 Z0.1816
G1 X36.5251 Y-22.8654 Z0.1809
G1 X36.5237 Y-22.8614 Z0.1801
G1 X36.5225 Y-22.8574 Z0.1794
G1 X36.5213 Y-22.8534 Z0.1786
G1 X36.5202 Y-22.8493 Z0.1779
G1 X36.5192 Y-22.8453 Z0.1772
G1 X36.5182 Y-22.8412 Z0.1764
G1 X36.5174 Y-22.8370 Z0.1757
G1 X36.5166 Y-22.8329 Z0.1749
G1 X36.5160 Y-22.8287 Z0.1742
G1 X36.5154 Y-22.8246 Z0.1734
G1 X36.5149 Y-22.8204 Z0.1727
G1 X36.5145 Y-22.8162 Z0.1720
G1 X36.5142 Y-22.8120 Z0.1712
G1 X36.5140 Y-22.8078 Z0.1705
G1 X36.5138 Y-22.8036 Z0.1697
G1 X36.5138 Y-22.7994 Z0.1690
G2X36.9112Y-22.7994Z0.1690I0.1987J0.0000 F30.
G2X36.5138Y-22.7994Z0.1690I-0.1987J0.0000
G2X36.6063Y-22.6316Z0.1690I0.1986J0.0000
G0 Z4.0000
G0 X36.6063 Y-22.6316 
M5
G53 Z
X2Y0
