( MOP:  02-inlay-Fangs-idPT09-s25PT5-01 )
( FILE: G:\Shared drives\AlloyProjectFiles\Customer CAD files\Alloy-Standard-Builds-CAM\Fingerboards-in\02-inlay-Fangs-idPT09-s25PT5-01.nc)
G90
(  BEGIN TOOL LIST )
(  TOOL 18 - Downcut 0.5mm - DESC: 0.0197 DIA, 2 FLUTE,  CARBIDE MAT )
(  ENDOF TOOL LIST )
( 02-inlay-Fangs-idPT09-s25PT5-01)
T18
S12000
M3
G0 Z2.0000
G0 X27.3147 Y-21.5651 
G1 X27.3147 Y-21.5651 Z0.2653 F10.
G17
G3X27.2841Y-21.5357Z0.2653I-0.0300J-0.0006
G1 X27.2224 Y-21.5368 Z0.2653
G1 X27.2062 Y-21.5394 Z0.2653
G1 X27.2068 Y-21.5427 Z0.2653
G2X27.2319Y-22.0896Z0.2653I-0.6122J-0.3021
G3X27.2391Y-22.0938Z0.2653I0.0040J-0.0015
G3X27.4436Y-21.5454Z0.2653I-0.6879J0.5687
G1 X27.4428 Y-21.5423 Z0.2653
G1 X27.4343 Y-21.5406 Z0.2653
G1 X27.4016 Y-21.5385 Z0.2653
G1 X27.2841 Y-21.5357 Z0.2653
G0 Z0.5153
G0 X27.2841 Y-21.5357 
G0 Z0.5153
G0 X27.3147 Y-21.5651 
G1 X27.3147 Y-21.5651 Z0.2557 F10.
G3X27.2841Y-21.5357Z0.2557I-0.0300J-0.0006
G1 X27.2224 Y-21.5368 Z0.2557
G1 X27.2062 Y-21.5394 Z0.2557
G1 X27.2068 Y-21.5427 Z0.2557
G2X27.2319Y-22.0896Z0.2557I-0.6122J-0.3021
G3X27.2391Y-22.0938Z0.2557I0.0040J-0.0015
G3X27.4436Y-21.5454Z0.2557I-0.6879J0.5687
G1 X27.4428 Y-21.5423 Z0.2557
G1 X27.4343 Y-21.5406 Z0.2557
G1 X27.4016 Y-21.5385 Z0.2557
G1 X27.2841 Y-21.5357 Z0.2557
G0 Z0.5057
G0 X27.2841 Y-21.5357 
G0 Z0.5057
G0 X27.3147 Y-21.5651 
G1 X27.3147 Y-21.5651 Z0.2460 F10.
G3X27.2841Y-21.5357Z0.2460I-0.0300J-0.0006
G1 X27.2224 Y-21.5368 Z0.2460
G1 X27.2062 Y-21.5394 Z0.2460
G1 X27.2068 Y-21.5427 Z0.2460
G2X27.2319Y-22.0896Z0.2460I-0.6122J-0.3021
G3X27.2391Y-22.0938Z0.2460I0.0040J-0.0015
G3X27.4436Y-21.5454Z0.2460I-0.6879J0.5687
G1 X27.4428 Y-21.5423 Z0.2460
G1 X27.4343 Y-21.5406 Z0.2460
G1 X27.4016 Y-21.5385 Z0.2460
G1 X27.2841 Y-21.5357 Z0.2460
G0 Z0.4960
G0 X27.2841 Y-21.5357 
G0 Z0.4960
G0 X27.3147 Y-21.5651 
G1 X27.3147 Y-21.5651 Z0.2363 F10.
G3X27.2841Y-21.5357Z0.2363I-0.0300J-0.0006
G1 X27.2224 Y-21.5368 Z0.2363
G1 X27.2062 Y-21.5394 Z0.2363
G1 X27.2068 Y-21.5427 Z0.2363
G2X27.2319Y-22.0896Z0.2363I-0.6122J-0.3021
G3X27.2391Y-22.0938Z0.2363I0.0040J-0.0015
G3X27.4436Y-21.5454Z0.2363I-0.6879J0.5687
G1 X27.4428 Y-21.5423 Z0.2363
G1 X27.4343 Y-21.5406 Z0.2363
G1 X27.4016 Y-21.5385 Z0.2363
G1 X27.2841 Y-21.5357 Z0.2363
G0 Z0.4863
G0 X27.2841 Y-21.5357 
G0 Z0.4863
G0 X27.3147 Y-21.5651 
G1 X27.3147 Y-21.5651 Z0.2267 F10.
G3X27.2841Y-21.5357Z0.2267I-0.0300J-0.0006
G1 X27.2224 Y-21.5368 Z0.2267
G1 X27.2062 Y-21.5394 Z0.2267
G1 X27.2068 Y-21.5427 Z0.2267
G2X27.2319Y-22.0896Z0.2267I-0.6122J-0.3021
G3X27.2391Y-22.0938Z0.2267I0.0040J-0.0015
G3X27.4436Y-21.5454Z0.2267I-0.6879J0.5687
G1 X27.4428 Y-21.5423 Z0.2267
G1 X27.4343 Y-21.5406 Z0.2267
G1 X27.4016 Y-21.5385 Z0.2267
G1 X27.2841 Y-21.5357 Z0.2267
G0 Z0.4767
G0 X27.2841 Y-21.5357 
G0 Z0.4767
G0 X27.3147 Y-21.5651 
G1 X27.3147 Y-21.5651 Z0.2170 F10.
G3X27.2841Y-21.5357Z0.2170I-0.0300J-0.0006
G1 X27.2224 Y-21.5368 Z0.2170
G1 X27.2062 Y-21.5394 Z0.2170
G1 X27.2068 Y-21.5427 Z0.2170
G2X27.2319Y-22.0896Z0.2170I-0.6122J-0.3021
G3X27.2391Y-22.0938Z0.2170I0.0040J-0.0015
G3X27.4436Y-21.5454Z0.2170I-0.6879J0.5687
G1 X27.4428 Y-21.5423 Z0.2170
G1 X27.4343 Y-21.5406 Z0.2170
G1 X27.4016 Y-21.5385 Z0.2170
G1 X27.2841 Y-21.5357 Z0.2170
G0 Z0.4670
G0 X27.2841 Y-21.5357 
G0 Z0.4670
G0 X27.3147 Y-21.5651 
G1 X27.3147 Y-21.5651 Z0.2073 F10.
G3X27.2841Y-21.5357Z0.2073I-0.0300J-0.0006
G1 X27.2224 Y-21.5368 Z0.2073
G1 X27.2062 Y-21.5394 Z0.2073
G1 X27.2068 Y-21.5427 Z0.2073
G2X27.2319Y-22.0896Z0.2073I-0.6122J-0.3021
G3X27.2391Y-22.0938Z0.2073I0.0040J-0.0015
G3X27.4436Y-21.5454Z0.2073I-0.6879J0.5687
G1 X27.4428 Y-21.5423 Z0.2073
G1 X27.4343 Y-21.5406 Z0.2073
G1 X27.4016 Y-21.5385 Z0.2073
G1 X27.2841 Y-21.5357 Z0.2073
G0 Z0.4573
G0 X27.2841 Y-21.5357 
G0 Z0.4573
G0 X27.3147 Y-21.5651 
G1 X27.3147 Y-21.5651 Z0.1977 F10.
G3X27.2841Y-21.5357Z0.1977I-0.0300J-0.0006
G1 X27.2224 Y-21.5368 Z0.1977
G1 X27.2062 Y-21.5394 Z0.1977
G1 X27.2068 Y-21.5427 Z0.1977
G2X27.2319Y-22.0896Z0.1977I-0.6122J-0.3021
G3X27.2391Y-22.0938Z0.1977I0.0040J-0.0015
G3X27.4436Y-21.5454Z0.1977I-0.6879J0.5687
G1 X27.4428 Y-21.5423 Z0.1977
G1 X27.4343 Y-21.5406 Z0.1977
G1 X27.4016 Y-21.5385 Z0.1977
G1 X27.2841 Y-21.5357 Z0.1977
G0 Z0.4477
G0 X27.2841 Y-21.5357 
G0 Z0.4477
G0 X27.3147 Y-21.5651 
G1 X27.3147 Y-21.5651 Z0.1880 F10.
G3X27.2841Y-21.5357Z0.1880I-0.0300J-0.0006
G1 X27.2224 Y-21.5368 Z0.1880
G1 X27.2062 Y-21.5394 Z0.1880
G1 X27.2068 Y-21.5427 Z0.1880
G2X27.2319Y-22.0896Z0.1880I-0.6122J-0.3021
G3X27.2391Y-22.0938Z0.1880I0.0040J-0.0015
G3X27.4436Y-21.5454Z0.1880I-0.6879J0.5687
G1 X27.4428 Y-21.5423 Z0.1880
G1 X27.4343 Y-21.5406 Z0.1880
G1 X27.4016 Y-21.5385 Z0.1880
G1 X27.2841 Y-21.5357 Z0.1880
G0 Z0.4380
G0 X27.2841 Y-21.5357 
G0 Z0.4380
G0 X27.3147 Y-21.5651 
G1 X27.3147 Y-21.5651 Z0.1783 F10.
G3X27.2841Y-21.5357Z0.1783I-0.0300J-0.0006
G1 X27.2224 Y-21.5368 Z0.1783
G1 X27.2062 Y-21.5394 Z0.1783
G1 X27.2068 Y-21.5427 Z0.1783
G2X27.2319Y-22.0896Z0.1783I-0.6122J-0.3021
G3X27.2391Y-22.0938Z0.1783I0.0040J-0.0015
G3X27.4436Y-21.5454Z0.1783I-0.6879J0.5687
G1 X27.4428 Y-21.5423 Z0.1783
G1 X27.4343 Y-21.5406 Z0.1783
G1 X27.4016 Y-21.5385 Z0.1783
G1 X27.2841 Y-21.5357 Z0.1783
G0 Z0.4283
G0 X27.2841 Y-21.5357 
G0 Z0.4283
G0 X27.3147 Y-21.5651 
G1 X27.3147 Y-21.5651 Z0.1687 F10.
G3X27.2841Y-21.5357Z0.1687I-0.0300J-0.0006
G1 X27.2224 Y-21.5368 Z0.1687
G1 X27.2062 Y-21.5394 Z0.1687
G1 X27.2068 Y-21.5427 Z0.1687
G2X27.2319Y-22.0896Z0.1687I-0.6122J-0.3021
G3X27.2391Y-22.0938Z0.1687I0.0040J-0.0015
G3X27.4436Y-21.5454Z0.1687I-0.6879J0.5687
G1 X27.4428 Y-21.5423 Z0.1687
G1 X27.4343 Y-21.5406 Z0.1687
G1 X27.4016 Y-21.5385 Z0.1687
G1 X27.2841 Y-21.5357 Z0.1687
G0 Z0.4187
G0 X27.2841 Y-21.5357 
G0 Z0.4187
G0 X27.3147 Y-21.5651 
G1 X27.3147 Y-21.5651 Z0.1590 F10.
G3X27.2841Y-21.5357Z0.1590I-0.0300J-0.0006
G1 X27.2224 Y-21.5368 Z0.1590
G1 X27.2062 Y-21.5394 Z0.1590
G1 X27.2068 Y-21.5427 Z0.1590
G2X27.2319Y-22.0896Z0.1590I-0.6122J-0.3021
G3X27.2391Y-22.0938Z0.1590I0.0040J-0.0015
G3X27.4436Y-21.5454Z0.1590I-0.6879J0.5687
G1 X27.4428 Y-21.5423 Z0.1590
G1 X27.4343 Y-21.5406 Z0.1590
G1 X27.4016 Y-21.5385 Z0.1590
G1 X27.2841 Y-21.5357 Z0.1590
G0 Z0.4090
G0 X27.2841 Y-21.5357 
G0 Z0.4090
G0 X27.3147 Y-21.5651 
G1 X27.3147 Y-21.5651 Z0.1493 F10.
G3X27.2841Y-21.5357Z0.1493I-0.0300J-0.0006
G1 X27.2224 Y-21.5368 Z0.1493
G1 X27.2062 Y-21.5394 Z0.1493
G1 X27.2068 Y-21.5427 Z0.1493
G2X27.2319Y-22.0896Z0.1493I-0.6122J-0.3021
G3X27.2391Y-22.0938Z0.1493I0.0040J-0.0015
G3X27.4436Y-21.5454Z0.1493I-0.6879J0.5687
G1 X27.4428 Y-21.5423 Z0.1493
G1 X27.4343 Y-21.5406 Z0.1493
G1 X27.4016 Y-21.5385 Z0.1493
G1 X27.2841 Y-21.5357 Z0.1493
G0 Z0.3993
G0 X27.2841 Y-21.5357 
G0 Z0.3993
G0 X27.3147 Y-21.5651 
G1 X27.3147 Y-21.5651 Z0.1397 F10.
G3X27.2841Y-21.5357Z0.1397I-0.0300J-0.0006
G1 X27.2224 Y-21.5368 Z0.1397
G1 X27.2062 Y-21.5394 Z0.1397
G1 X27.2068 Y-21.5427 Z0.1397
G2X27.2319Y-22.0896Z0.1397I-0.6122J-0.3021
G3X27.2391Y-22.0938Z0.1397I0.0040J-0.0015
G3X27.4436Y-21.5454Z0.1397I-0.6879J0.5687
G1 X27.4428 Y-21.5423 Z0.1397
G1 X27.4343 Y-21.5406 Z0.1397
G1 X27.4016 Y-21.5385 Z0.1397
G1 X27.2841 Y-21.5357 Z0.1397
G0 Z0.3897
G0 X27.2841 Y-21.5357 
G0 Z0.3897
G0 X27.3147 Y-21.5651 
G1 X27.3147 Y-21.5651 Z0.1300 F10.
G3X27.2841Y-21.5357Z0.1300I-0.0300J-0.0006
G1 X27.2224 Y-21.5368 Z0.1300
G1 X27.2062 Y-21.5394 Z0.1300
G1 X27.2068 Y-21.5427 Z0.1300
G2X27.2319Y-22.0896Z0.1300I-0.6122J-0.3021
G3X27.2391Y-22.0938Z0.1300I0.0040J-0.0015
G3X27.4436Y-21.5454Z0.1300I-0.6879J0.5687
G1 X27.4428 Y-21.5423 Z0.1300
G1 X27.4343 Y-21.5406 Z0.1300
G1 X27.4016 Y-21.5385 Z0.1300
G1 X27.2841 Y-21.5357 Z0.1300
G0 Z0.5153
G0 X27.2841 Y-21.5357 
G0 Z0.5153
G0 X27.3698 Y-24.0462 
G1 X27.3698 Y-24.0462 Z0.2653 F10.
G3X27.3993Y-24.0749Z0.2653I0.0300J0.0013
G1 X27.4354 Y-24.0733 Z0.2653
G1 X27.4431 Y-24.0716 Z0.2653
G1 X27.4425 Y-24.0681 Z0.2653
G2X27.4174Y-23.5211Z0.2653I0.6122J0.3022
G3X27.4102Y-23.5169Z0.2653I-0.0040J0.0015
G3X27.2058Y-24.0653Z0.2653I0.6879J-0.5687
G1 X27.2065 Y-24.0683 Z0.2653
G1 X27.2191 Y-24.0705 Z0.2653
G1 X27.2643 Y-24.0729 Z0.2653
G1 X27.3993 Y-24.0749 Z0.2653
G0 Z0.5153
G0 X27.3993 Y-24.0749 
G0 Z0.5153
G0 X27.3698 Y-24.0462 
G1 X27.3698 Y-24.0462 Z0.2557 F10.
G3X27.3993Y-24.0749Z0.2557I0.0300J0.0013
G1 X27.4354 Y-24.0733 Z0.2557
G1 X27.4431 Y-24.0716 Z0.2557
G1 X27.4425 Y-24.0681 Z0.2557
G2X27.4174Y-23.5211Z0.2557I0.6122J0.3022
G3X27.4102Y-23.5169Z0.2557I-0.0040J0.0015
G3X27.2058Y-24.0653Z0.2557I0.6879J-0.5687
G1 X27.2065 Y-24.0683 Z0.2557
G1 X27.2191 Y-24.0705 Z0.2557
G1 X27.2643 Y-24.0729 Z0.2557
G1 X27.3993 Y-24.0749 Z0.2557
G0 Z0.5057
G0 X27.3993 Y-24.0749 
G0 Z0.5057
G0 X27.3698 Y-24.0462 
G1 X27.3698 Y-24.0462 Z0.2460 F10.
G3X27.3993Y-24.0749Z0.2460I0.0300J0.0013
G1 X27.4354 Y-24.0733 Z0.2460
G1 X27.4431 Y-24.0716 Z0.2460
G1 X27.4425 Y-24.0681 Z0.2460
G2X27.4174Y-23.5211Z0.2460I0.6122J0.3022
G3X27.4102Y-23.5169Z0.2460I-0.0040J0.0015
G3X27.2058Y-24.0653Z0.2460I0.6879J-0.5687
G1 X27.2065 Y-24.0683 Z0.2460
G1 X27.2191 Y-24.0705 Z0.2460
G1 X27.2643 Y-24.0729 Z0.2460
G1 X27.3993 Y-24.0749 Z0.2460
G0 Z0.4960
G0 X27.3993 Y-24.0749 
G0 Z0.4960
G0 X27.3698 Y-24.0462 
G1 X27.3698 Y-24.0462 Z0.2363 F10.
G3X27.3993Y-24.0749Z0.2363I0.0300J0.0013
G1 X27.4354 Y-24.0733 Z0.2363
G1 X27.4431 Y-24.0716 Z0.2363
G1 X27.4425 Y-24.0681 Z0.2363
G2X27.4174Y-23.5211Z0.2363I0.6122J0.3022
G3X27.4102Y-23.5169Z0.2363I-0.0040J0.0015
G3X27.2058Y-24.0653Z0.2363I0.6879J-0.5687
G1 X27.2065 Y-24.0683 Z0.2363
G1 X27.2191 Y-24.0705 Z0.2363
G1 X27.2643 Y-24.0729 Z0.2363
G1 X27.3993 Y-24.0749 Z0.2363
G0 Z0.4863
G0 X27.3993 Y-24.0749 
G0 Z0.4863
G0 X27.3698 Y-24.0462 
G1 X27.3698 Y-24.0462 Z0.2267 F10.
G3X27.3993Y-24.0749Z0.2267I0.0300J0.0013
G1 X27.4354 Y-24.0733 Z0.2267
G1 X27.4431 Y-24.0716 Z0.2267
G1 X27.4425 Y-24.0681 Z0.2267
G2X27.4174Y-23.5211Z0.2267I0.6122J0.3022
G3X27.4102Y-23.5169Z0.2267I-0.0040J0.0015
G3X27.2058Y-24.0653Z0.2267I0.6879J-0.5687
G1 X27.2065 Y-24.0683 Z0.2267
G1 X27.2191 Y-24.0705 Z0.2267
G1 X27.2643 Y-24.0729 Z0.2267
G1 X27.3993 Y-24.0749 Z0.2267
G0 Z0.4767
G0 X27.3993 Y-24.0749 
G0 Z0.4767
G0 X27.3698 Y-24.0462 
G1 X27.3698 Y-24.0462 Z0.2170 F10.
G3X27.3993Y-24.0749Z0.2170I0.0300J0.0013
G1 X27.4354 Y-24.0733 Z0.2170
G1 X27.4431 Y-24.0716 Z0.2170
G1 X27.4425 Y-24.0681 Z0.2170
G2X27.4174Y-23.5211Z0.2170I0.6122J0.3022
G3X27.4102Y-23.5169Z0.2170I-0.0040J0.0015
G3X27.2058Y-24.0653Z0.2170I0.6879J-0.5687
G1 X27.2065 Y-24.0683 Z0.2170
G1 X27.2191 Y-24.0705 Z0.2170
G1 X27.2643 Y-24.0729 Z0.2170
G1 X27.3993 Y-24.0749 Z0.2170
G0 Z0.4670
G0 X27.3993 Y-24.0749 
G0 Z0.4670
G0 X27.3698 Y-24.0462 
G1 X27.3698 Y-24.0462 Z0.2073 F10.
G3X27.3993Y-24.0749Z0.2073I0.0300J0.0013
G1 X27.4354 Y-24.0733 Z0.2073
G1 X27.4431 Y-24.0716 Z0.2073
G1 X27.4425 Y-24.0681 Z0.2073
G2X27.4174Y-23.5211Z0.2073I0.6122J0.3022
G3X27.4102Y-23.5169Z0.2073I-0.0040J0.0015
G3X27.2058Y-24.0653Z0.2073I0.6879J-0.5687
G1 X27.2065 Y-24.0683 Z0.2073
G1 X27.2191 Y-24.0705 Z0.2073
G1 X27.2643 Y-24.0729 Z0.2073
G1 X27.3993 Y-24.0749 Z0.2073
G0 Z0.4573
G0 X27.3993 Y-24.0749 
G0 Z0.4573
G0 X27.3698 Y-24.0462 
G1 X27.3698 Y-24.0462 Z0.1977 F10.
G3X27.3993Y-24.0749Z0.1977I0.0300J0.0013
G1 X27.4354 Y-24.0733 Z0.1977
G1 X27.4431 Y-24.0716 Z0.1977
G1 X27.4425 Y-24.0681 Z0.1977
G2X27.4174Y-23.5211Z0.1977I0.6122J0.3022
G3X27.4102Y-23.5169Z0.1977I-0.0040J0.0015
G3X27.2058Y-24.0653Z0.1977I0.6879J-0.5687
G1 X27.2065 Y-24.0683 Z0.1977
G1 X27.2191 Y-24.0705 Z0.1977
G1 X27.2643 Y-24.0729 Z0.1977
G1 X27.3993 Y-24.0749 Z0.1977
G0 Z0.4477
G0 X27.3993 Y-24.0749 
G0 Z0.4477
G0 X27.3698 Y-24.0462 
G1 X27.3698 Y-24.0462 Z0.1880 F10.
G3X27.3993Y-24.0749Z0.1880I0.0300J0.0013
G1 X27.4354 Y-24.0733 Z0.1880
G1 X27.4431 Y-24.0716 Z0.1880
G1 X27.4425 Y-24.0681 Z0.1880
G2X27.4174Y-23.5211Z0.1880I0.6122J0.3022
G3X27.4102Y-23.5169Z0.1880I-0.0040J0.0015
G3X27.2058Y-24.0653Z0.1880I0.6879J-0.5687
G1 X27.2065 Y-24.0683 Z0.1880
G1 X27.2191 Y-24.0705 Z0.1880
G1 X27.2643 Y-24.0729 Z0.1880
G1 X27.3993 Y-24.0749 Z0.1880
G0 Z0.4380
G0 X27.3993 Y-24.0749 
G0 Z0.4380
G0 X27.3698 Y-24.0462 
G1 X27.3698 Y-24.0462 Z0.1783 F10.
G3X27.3993Y-24.0749Z0.1783I0.0300J0.0013
G1 X27.4354 Y-24.0733 Z0.1783
G1 X27.4431 Y-24.0716 Z0.1783
G1 X27.4425 Y-24.0681 Z0.1783
G2X27.4174Y-23.5211Z0.1783I0.6122J0.3022
G3X27.4102Y-23.5169Z0.1783I-0.0040J0.0015
G3X27.2058Y-24.0653Z0.1783I0.6879J-0.5687
G1 X27.2065 Y-24.0683 Z0.1783
G1 X27.2191 Y-24.0705 Z0.1783
G1 X27.2643 Y-24.0729 Z0.1783
G1 X27.3993 Y-24.0749 Z0.1783
G0 Z0.4283
G0 X27.3993 Y-24.0749 
G0 Z0.4283
G0 X27.3698 Y-24.0462 
G1 X27.3698 Y-24.0462 Z0.1687 F10.
G3X27.3993Y-24.0749Z0.1687I0.0300J0.0013
G1 X27.4354 Y-24.0733 Z0.1687
G1 X27.4431 Y-24.0716 Z0.1687
G1 X27.4425 Y-24.0681 Z0.1687
G2X27.4174Y-23.5211Z0.1687I0.6122J0.3022
G3X27.4102Y-23.5169Z0.1687I-0.0040J0.0015
G3X27.2058Y-24.0653Z0.1687I0.6879J-0.5687
G1 X27.2065 Y-24.0683 Z0.1687
G1 X27.2191 Y-24.0705 Z0.1687
G1 X27.2643 Y-24.0729 Z0.1687
G1 X27.3993 Y-24.0749 Z0.1687
G0 Z0.4187
G0 X27.3993 Y-24.0749 
G0 Z0.4187
G0 X27.3698 Y-24.0462 
G1 X27.3698 Y-24.0462 Z0.1590 F10.
G3X27.3993Y-24.0749Z0.1590I0.0300J0.0013
G1 X27.4354 Y-24.0733 Z0.1590
G1 X27.4431 Y-24.0716 Z0.1590
G1 X27.4425 Y-24.0681 Z0.1590
G2X27.4174Y-23.5211Z0.1590I0.6122J0.3022
G3X27.4102Y-23.5169Z0.1590I-0.0040J0.0015
G3X27.2058Y-24.0653Z0.1590I0.6879J-0.5687
G1 X27.2065 Y-24.0683 Z0.1590
G1 X27.2191 Y-24.0705 Z0.1590
G1 X27.2643 Y-24.0729 Z0.1590
G1 X27.3993 Y-24.0749 Z0.1590
G0 Z0.4090
G0 X27.3993 Y-24.0749 
G0 Z0.4090
G0 X27.3698 Y-24.0462 
G1 X27.3698 Y-24.0462 Z0.1493 F10.
G3X27.3993Y-24.0749Z0.1493I0.0300J0.0013
G1 X27.4354 Y-24.0733 Z0.1493
G1 X27.4431 Y-24.0716 Z0.1493
G1 X27.4425 Y-24.0681 Z0.1493
G2X27.4174Y-23.5211Z0.1493I0.6122J0.3022
G3X27.4102Y-23.5169Z0.1493I-0.0040J0.0015
G3X27.2058Y-24.0653Z0.1493I0.6879J-0.5687
G1 X27.2065 Y-24.0683 Z0.1493
G1 X27.2191 Y-24.0705 Z0.1493
G1 X27.2643 Y-24.0729 Z0.1493
G1 X27.3993 Y-24.0749 Z0.1493
G0 Z0.3993
G0 X27.3993 Y-24.0749 
G0 Z0.3993
G0 X27.3698 Y-24.0462 
G1 X27.3698 Y-24.0462 Z0.1397 F10.
G3X27.3993Y-24.0749Z0.1397I0.0300J0.0013
G1 X27.4354 Y-24.0733 Z0.1397
G1 X27.4431 Y-24.0716 Z0.1397
G1 X27.4425 Y-24.0681 Z0.1397
G2X27.4174Y-23.5211Z0.1397I0.6122J0.3022
G3X27.4102Y-23.5169Z0.1397I-0.0040J0.0015
G3X27.2058Y-24.0653Z0.1397I0.6879J-0.5687
G1 X27.2065 Y-24.0683 Z0.1397
G1 X27.2191 Y-24.0705 Z0.1397
G1 X27.2643 Y-24.0729 Z0.1397
G1 X27.3993 Y-24.0749 Z0.1397
G0 Z0.3897
G0 X27.3993 Y-24.0749 
G0 Z0.3897
G0 X27.3698 Y-24.0462 
G1 X27.3698 Y-24.0462 Z0.1300 F10.
G3X27.3993Y-24.0749Z0.1300I0.0300J0.0013
G1 X27.4354 Y-24.0733 Z0.1300
G1 X27.4431 Y-24.0716 Z0.1300
G1 X27.4425 Y-24.0681 Z0.1300
G2X27.4174Y-23.5211Z0.1300I0.6122J0.3022
G3X27.4102Y-23.5169Z0.1300I-0.0040J0.0015
G3X27.2058Y-24.0653Z0.1300I0.6879J-0.5687
G1 X27.2065 Y-24.0683 Z0.1300
G1 X27.2191 Y-24.0705 Z0.1300
G1 X27.2643 Y-24.0729 Z0.1300
G1 X27.3993 Y-24.0749 Z0.1300
G0 Z2.0000
G0 X27.3993 Y-24.0749 
M5
G53 Z
X2Y0
