( MOP:  02-inlay-RectanglesNoTwelveth-idPT06-s25PT5-01 )
( FILE: G:\Shared drives\AlloyProjectFiles\Customer CAD files\Alloy-Standard-Builds-CAM\Fingerboards-in\02-inlay-RectanglesNoTwelveth-idPT06-s25PT5-01.nc)
G90
(  BEGIN TOOL LIST )
(  TOOL 15 - Fretkerf PT025 - DESC: 0.0250 DIA, 2 FLUTE,  CARBIDE MAT )
(  ENDOF TOOL LIST )
( 02-inlay-RectanglesNoTwelveth-idPT06-s25PT5-01)
T15
S14000
M3
G0 Z4.0000
G0 X27.7716 Y-22.6848 
G1 X27.7716 Y-22.6848 Z0.2580 F21.
G1 X27.7716 Y-22.7982 Z0.2380
G1 X27.7716 Y-23.4530 Z0.2380 F22.
G1 X27.7720 Y-23.4546 Z0.2380
G1 X27.7732 Y-23.4558 Z0.2380
G1 X27.7747 Y-23.4562 Z0.2380
G1 X27.9904 Y-23.4562 Z0.2380
G1 X27.9920 Y-23.4558 Z0.2380
G1 X27.9932 Y-23.4546 Z0.2380
G1 X27.9936 Y-23.4530 Z0.2380
G1 X27.9936 Y-22.1433 Z0.2380
G1 X27.9932 Y-22.1418 Z0.2380
G1 X27.9920 Y-22.1406 Z0.2380
G1 X27.9904 Y-22.1402 Z0.2380
G1 X27.7747 Y-22.1402 Z0.2380
G1 X27.7732 Y-22.1406 Z0.2380
G1 X27.7720 Y-22.1418 Z0.2380
G1 X27.7716 Y-22.1433 Z0.2380
G1 X27.7716 Y-22.7982 Z0.2380
G1 X27.7716 Y-23.0482 Z0.2380
G0 Z0.3460
G0 X27.7716 Y-23.0482 
G0 Z0.3460
G0 X27.7716 Y-22.9116 
G1 X27.7716 Y-22.9116 Z0.2460 F21.
G1 X27.7716 Y-22.7982 Z0.2260
G1 X27.7716 Y-22.1433 Z0.2260 F22.
G1 X27.7720 Y-22.1418 Z0.2260
G1 X27.7732 Y-22.1406 Z0.2260
G1 X27.7747 Y-22.1402 Z0.2260
G1 X27.9904 Y-22.1402 Z0.2260
G1 X27.9920 Y-22.1406 Z0.2260
G1 X27.9932 Y-22.1418 Z0.2260
G1 X27.9936 Y-22.1433 Z0.2260
G1 X27.9936 Y-23.4530 Z0.2260
G1 X27.9932 Y-23.4546 Z0.2260
G1 X27.9920 Y-23.4558 Z0.2260
G1 X27.9904 Y-23.4562 Z0.2260
G1 X27.7747 Y-23.4562 Z0.2260
G1 X27.7732 Y-23.4558 Z0.2260
G1 X27.7720 Y-23.4546 Z0.2260
G1 X27.7716 Y-23.4530 Z0.2260
G1 X27.7716 Y-22.7982 Z0.2260
G1 X27.7716 Y-22.5482 Z0.2260
G0 Z0.3340
G0 X27.7716 Y-22.5482 
G0 Z0.3340
G0 X27.7716 Y-22.6848 
G1 X27.7716 Y-22.6848 Z0.2340 F21.
G1 X27.7716 Y-22.7982 Z0.2140
G1 X27.7716 Y-23.4530 Z0.2140 F22.
G1 X27.7720 Y-23.4546 Z0.2140
G1 X27.7732 Y-23.4558 Z0.2140
G1 X27.7747 Y-23.4562 Z0.2140
G1 X27.9904 Y-23.4562 Z0.2140
G1 X27.9920 Y-23.4558 Z0.2140
G1 X27.9932 Y-23.4546 Z0.2140
G1 X27.9936 Y-23.4530 Z0.2140
G1 X27.9936 Y-22.1433 Z0.2140
G1 X27.9932 Y-22.1418 Z0.2140
G1 X27.9920 Y-22.1406 Z0.2140
G1 X27.9904 Y-22.1402 Z0.2140
G1 X27.7747 Y-22.1402 Z0.2140
G1 X27.7732 Y-22.1406 Z0.2140
G1 X27.7720 Y-22.1418 Z0.2140
G1 X27.7716 Y-22.1433 Z0.2140
G1 X27.7716 Y-22.7982 Z0.2140
G1 X27.7716 Y-23.0482 Z0.2140
G0 Z0.3220
G0 X27.7716 Y-23.0482 
G0 Z0.3220
G0 X27.7716 Y-22.9116 
G1 X27.7716 Y-22.9116 Z0.2220 F21.
G1 X27.7716 Y-22.7982 Z0.2020
G1 X27.7716 Y-22.1433 Z0.2020 F22.
G1 X27.7720 Y-22.1418 Z0.2020
G1 X27.7732 Y-22.1406 Z0.2020
G1 X27.7747 Y-22.1402 Z0.2020
G1 X27.9904 Y-22.1402 Z0.2020
G1 X27.9920 Y-22.1406 Z0.2020
G1 X27.9932 Y-22.1418 Z0.2020
G1 X27.9936 Y-22.1433 Z0.2020
G1 X27.9936 Y-23.4530 Z0.2020
G1 X27.9932 Y-23.4546 Z0.2020
G1 X27.9920 Y-23.4558 Z0.2020
G1 X27.9904 Y-23.4562 Z0.2020
G1 X27.7747 Y-23.4562 Z0.2020
G1 X27.7732 Y-23.4558 Z0.2020
G1 X27.7720 Y-23.4546 Z0.2020
G1 X27.7716 Y-23.4530 Z0.2020
G1 X27.7716 Y-22.7982 Z0.2020
G1 X27.7716 Y-22.5482 Z0.2020
G0 Z0.3100
G0 X27.7716 Y-22.5482 
G0 Z0.3100
G0 X27.7716 Y-22.6848 
G1 X27.7716 Y-22.6848 Z0.2100 F21.
G1 X27.7716 Y-22.7982 Z0.1900
G1 X27.7716 Y-23.4530 Z0.1900 F22.
G1 X27.7720 Y-23.4546 Z0.1900
G1 X27.7732 Y-23.4558 Z0.1900
G1 X27.7747 Y-23.4562 Z0.1900
G1 X27.9904 Y-23.4562 Z0.1900
G1 X27.9920 Y-23.4558 Z0.1900
G1 X27.9932 Y-23.4546 Z0.1900
G1 X27.9936 Y-23.4530 Z0.1900
G1 X27.9936 Y-22.1433 Z0.1900
G1 X27.9932 Y-22.1418 Z0.1900
G1 X27.9920 Y-22.1406 Z0.1900
G1 X27.9904 Y-22.1402 Z0.1900
G1 X27.7747 Y-22.1402 Z0.1900
G1 X27.7732 Y-22.1406 Z0.1900
G1 X27.7720 Y-22.1418 Z0.1900
G1 X27.7716 Y-22.1433 Z0.1900
G1 X27.7716 Y-22.7982 Z0.1900
G1 X27.7716 Y-23.0482 Z0.1900
G0 Z0.3580
G0 X27.7716 Y-23.0482 
G0 Z0.3580
G0 X28.9771 Y-22.6848 
G1 X28.9771 Y-22.6848 Z0.2580 F21.
G1 X28.9771 Y-22.7982 Z0.2380
G1 X28.9771 Y-23.4530 Z0.2380 F22.
G1 X28.9775 Y-23.4546 Z0.2380
G1 X28.9787 Y-23.4558 Z0.2380
G1 X28.9803 Y-23.4562 Z0.2380
G1 X29.1960 Y-23.4562 Z0.2380
G1 X29.1975 Y-23.4558 Z0.2380
G1 X29.1987 Y-23.4546 Z0.2380
G1 X29.1991 Y-23.4530 Z0.2380
G1 X29.1991 Y-22.1433 Z0.2380
G1 X29.1987 Y-22.1418 Z0.2380
G1 X29.1975 Y-22.1406 Z0.2380
G1 X29.1960 Y-22.1402 Z0.2380
G1 X28.9803 Y-22.1402 Z0.2380
G1 X28.9787 Y-22.1406 Z0.2380
G1 X28.9775 Y-22.1418 Z0.2380
G1 X28.9771 Y-22.1433 Z0.2380
G1 X28.9771 Y-22.7982 Z0.2380
G1 X28.9771 Y-23.0482 Z0.2380
G0 Z0.3460
G0 X28.9771 Y-23.0482 
G0 Z0.3460
G0 X28.9771 Y-22.9116 
G1 X28.9771 Y-22.9116 Z0.2460 F21.
G1 X28.9771 Y-22.7982 Z0.2260
G1 X28.9771 Y-22.1433 Z0.2260 F22.
G1 X28.9775 Y-22.1418 Z0.2260
G1 X28.9787 Y-22.1406 Z0.2260
G1 X28.9803 Y-22.1402 Z0.2260
G1 X29.1960 Y-22.1402 Z0.2260
G1 X29.1975 Y-22.1406 Z0.2260
G1 X29.1987 Y-22.1418 Z0.2260
G1 X29.1991 Y-22.1433 Z0.2260
G1 X29.1991 Y-23.4530 Z0.2260
G1 X29.1987 Y-23.4546 Z0.2260
G1 X29.1975 Y-23.4558 Z0.2260
G1 X29.1960 Y-23.4562 Z0.2260
G1 X28.9803 Y-23.4562 Z0.2260
G1 X28.9787 Y-23.4558 Z0.2260
G1 X28.9775 Y-23.4546 Z0.2260
G1 X28.9771 Y-23.4530 Z0.2260
G1 X28.9771 Y-22.7982 Z0.2260
G1 X28.9771 Y-22.5482 Z0.2260
G0 Z0.3340
G0 X28.9771 Y-22.5482 
G0 Z0.3340
G0 X28.9771 Y-22.6848 
G1 X28.9771 Y-22.6848 Z0.2340 F21.
G1 X28.9771 Y-22.7982 Z0.2140
G1 X28.9771 Y-23.4530 Z0.2140 F22.
G1 X28.9775 Y-23.4546 Z0.2140
G1 X28.9787 Y-23.4558 Z0.2140
G1 X28.9803 Y-23.4562 Z0.2140
G1 X29.1960 Y-23.4562 Z0.2140
G1 X29.1975 Y-23.4558 Z0.2140
G1 X29.1987 Y-23.4546 Z0.2140
G1 X29.1991 Y-23.4530 Z0.2140
G1 X29.1991 Y-22.1433 Z0.2140
G1 X29.1987 Y-22.1418 Z0.2140
G1 X29.1975 Y-22.1406 Z0.2140
G1 X29.1960 Y-22.1402 Z0.2140
G1 X28.9803 Y-22.1402 Z0.2140
G1 X28.9787 Y-22.1406 Z0.2140
G1 X28.9775 Y-22.1418 Z0.2140
G1 X28.9771 Y-22.1433 Z0.2140
G1 X28.9771 Y-22.7982 Z0.2140
G1 X28.9771 Y-23.0482 Z0.2140
G0 Z0.3220
G0 X28.9771 Y-23.0482 
G0 Z0.3220
G0 X28.9771 Y-22.9116 
G1 X28.9771 Y-22.9116 Z0.2220 F21.
G1 X28.9771 Y-22.7982 Z0.2020
G1 X28.9771 Y-22.1433 Z0.2020 F22.
G1 X28.9775 Y-22.1418 Z0.2020
G1 X28.9787 Y-22.1406 Z0.2020
G1 X28.9803 Y-22.1402 Z0.2020
G1 X29.1960 Y-22.1402 Z0.2020
G1 X29.1975 Y-22.1406 Z0.2020
G1 X29.1987 Y-22.1418 Z0.2020
G1 X29.1991 Y-22.1433 Z0.2020
G1 X29.1991 Y-23.4530 Z0.2020
G1 X29.1987 Y-23.4546 Z0.2020
G1 X29.1975 Y-23.4558 Z0.2020
G1 X29.1960 Y-23.4562 Z0.2020
G1 X28.9803 Y-23.4562 Z0.2020
G1 X28.9787 Y-23.4558 Z0.2020
G1 X28.9775 Y-23.4546 Z0.2020
G1 X28.9771 Y-23.4530 Z0.2020
G1 X28.9771 Y-22.7982 Z0.2020
G1 X28.9771 Y-22.5482 Z0.2020
G0 Z0.3100
G0 X28.9771 Y-22.5482 
G0 Z0.3100
G0 X28.9771 Y-22.6848 
G1 X28.9771 Y-22.6848 Z0.2100 F21.
G1 X28.9771 Y-22.7982 Z0.1900
G1 X28.9771 Y-23.4530 Z0.1900 F22.
G1 X28.9775 Y-23.4546 Z0.1900
G1 X28.9787 Y-23.4558 Z0.1900
G1 X28.9803 Y-23.4562 Z0.1900
G1 X29.1960 Y-23.4562 Z0.1900
G1 X29.1975 Y-23.4558 Z0.1900
G1 X29.1987 Y-23.4546 Z0.1900
G1 X29.1991 Y-23.4530 Z0.1900
G1 X29.1991 Y-22.1433 Z0.1900
G1 X29.1987 Y-22.1418 Z0.1900
G1 X29.1975 Y-22.1406 Z0.1900
G1 X29.1960 Y-22.1402 Z0.1900
G1 X28.9803 Y-22.1402 Z0.1900
G1 X28.9787 Y-22.1406 Z0.1900
G1 X28.9775 Y-22.1418 Z0.1900
G1 X28.9771 Y-22.1433 Z0.1900
G1 X28.9771 Y-22.7982 Z0.1900
G1 X28.9771 Y-23.0482 Z0.1900
G0 Z0.3580
G0 X28.9771 Y-23.0482 
G0 Z0.3580
G0 X29.9010 Y-22.6860 
G1 X29.9010 Y-22.6860 Z0.2580 F21.
G1 X29.9010 Y-22.7994 Z0.2380
G1 X29.9010 Y-23.4193 Z0.2380 F22.
G1 X29.9014 Y-23.4209 Z0.2380
G1 X29.9026 Y-23.4220 Z0.2380
G1 X29.9042 Y-23.4224 Z0.2380
G1 X30.1279 Y-23.4224 Z0.2380
G1 X30.1294 Y-23.4220 Z0.2380
G1 X30.1306 Y-23.4209 Z0.2380
G1 X30.1310 Y-23.4193 Z0.2380
G1 X30.1310 Y-22.1796 Z0.2380
G1 X30.1306 Y-22.1780 Z0.2380
G1 X30.1294 Y-22.1769 Z0.2380
G1 X30.1279 Y-22.1764 Z0.2380
G1 X29.9042 Y-22.1764 Z0.2380
G1 X29.9026 Y-22.1769 Z0.2380
G1 X29.9014 Y-22.1780 Z0.2380
G1 X29.9010 Y-22.1796 Z0.2380
G1 X29.9010 Y-22.7994 Z0.2380
G1 X29.9010 Y-23.0494 Z0.2380
G0 Z0.3460
G0 X29.9010 Y-23.0494 
G0 Z0.3460
G0 X29.9010 Y-22.9129 
G1 X29.9010 Y-22.9129 Z0.2460 F21.
G1 X29.9010 Y-22.7994 Z0.2260
G1 X29.9010 Y-22.1796 Z0.2260 F22.
G1 X29.9014 Y-22.1780 Z0.2260
G1 X29.9026 Y-22.1769 Z0.2260
G1 X29.9042 Y-22.1764 Z0.2260
G1 X30.1279 Y-22.1764 Z0.2260
G1 X30.1294 Y-22.1769 Z0.2260
G1 X30.1306 Y-22.1780 Z0.2260
G1 X30.1310 Y-22.1796 Z0.2260
G1 X30.1310 Y-23.4193 Z0.2260
G1 X30.1306 Y-23.4209 Z0.2260
G1 X30.1294 Y-23.4220 Z0.2260
G1 X30.1279 Y-23.4224 Z0.2260
G1 X29.9042 Y-23.4224 Z0.2260
G1 X29.9026 Y-23.4220 Z0.2260
G1 X29.9014 Y-23.4209 Z0.2260
G1 X29.9010 Y-23.4193 Z0.2260
G1 X29.9010 Y-22.7994 Z0.2260
G1 X29.9010 Y-22.5494 Z0.2260
G0 Z0.3340
G0 X29.9010 Y-22.5494 
G0 Z0.3340
G0 X29.9010 Y-22.6860 
G1 X29.9010 Y-22.6860 Z0.2340 F21.
G1 X29.9010 Y-22.7994 Z0.2140
G1 X29.9010 Y-23.4193 Z0.2140 F22.
G1 X29.9014 Y-23.4209 Z0.2140
G1 X29.9026 Y-23.4220 Z0.2140
G1 X29.9042 Y-23.4224 Z0.2140
G1 X30.1279 Y-23.4224 Z0.2140
G1 X30.1294 Y-23.4220 Z0.2140
G1 X30.1306 Y-23.4209 Z0.2140
G1 X30.1310 Y-23.4193 Z0.2140
G1 X30.1310 Y-22.1796 Z0.2140
G1 X30.1306 Y-22.1780 Z0.2140
G1 X30.1294 Y-22.1769 Z0.2140
G1 X30.1279 Y-22.1764 Z0.2140
G1 X29.9042 Y-22.1764 Z0.2140
G1 X29.9026 Y-22.1769 Z0.2140
G1 X29.9014 Y-22.1780 Z0.2140
G1 X29.9010 Y-22.1796 Z0.2140
G1 X29.9010 Y-22.7994 Z0.2140
G1 X29.9010 Y-23.0494 Z0.2140
G0 Z0.3220
G0 X29.9010 Y-23.0494 
G0 Z0.3220
G0 X29.9010 Y-22.9129 
G1 X29.9010 Y-22.9129 Z0.2220 F21.
G1 X29.9010 Y-22.7994 Z0.2020
G1 X29.9010 Y-22.1796 Z0.2020 F22.
G1 X29.9014 Y-22.1780 Z0.2020
G1 X29.9026 Y-22.1769 Z0.2020
G1 X29.9042 Y-22.1764 Z0.2020
G1 X30.1279 Y-22.1764 Z0.2020
G1 X30.1294 Y-22.1769 Z0.2020
G1 X30.1306 Y-22.1780 Z0.2020
G1 X30.1310 Y-22.1796 Z0.2020
G1 X30.1310 Y-23.4193 Z0.2020
G1 X30.1306 Y-23.4209 Z0.2020
G1 X30.1294 Y-23.4220 Z0.2020
G1 X30.1279 Y-23.4224 Z0.2020
G1 X29.9042 Y-23.4224 Z0.2020
G1 X29.9026 Y-23.4220 Z0.2020
G1 X29.9014 Y-23.4209 Z0.2020
G1 X29.9010 Y-23.4193 Z0.2020
G1 X29.9010 Y-22.7994 Z0.2020
G1 X29.9010 Y-22.5494 Z0.2020
G0 Z0.3100
G0 X29.9010 Y-22.5494 
G0 Z0.3100
G0 X29.9010 Y-22.6860 
G1 X29.9010 Y-22.6860 Z0.2100 F21.
G1 X29.9010 Y-22.7994 Z0.1900
G1 X29.9010 Y-23.4193 Z0.1900 F22.
G1 X29.9014 Y-23.4209 Z0.1900
G1 X29.9026 Y-23.4220 Z0.1900
G1 X29.9042 Y-23.4224 Z0.1900
G1 X30.1279 Y-23.4224 Z0.1900
G1 X30.1294 Y-23.4220 Z0.1900
G1 X30.1306 Y-23.4209 Z0.1900
G1 X30.1310 Y-23.4193 Z0.1900
G1 X30.1310 Y-22.1796 Z0.1900
G1 X30.1306 Y-22.1780 Z0.1900
G1 X30.1294 Y-22.1769 Z0.1900
G1 X30.1279 Y-22.1764 Z0.1900
G1 X29.9042 Y-22.1764 Z0.1900
G1 X29.9026 Y-22.1769 Z0.1900
G1 X29.9014 Y-22.1780 Z0.1900
G1 X29.9010 Y-22.1796 Z0.1900
G1 X29.9010 Y-22.7994 Z0.1900
G1 X29.9010 Y-23.0494 Z0.1900
G0 Z0.3580
G0 X29.9010 Y-23.0494 
G0 Z0.3580
G0 X30.9355 Y-22.6861 
G1 X30.9355 Y-22.6861 Z0.2580 F21.
G1 X30.9355 Y-22.7995 Z0.2380
G1 X30.9355 Y-23.4158 Z0.2380 F22.
G1 X30.9360 Y-23.4174 Z0.2380
G1 X30.9371 Y-23.4186 Z0.2380
G1 X30.9387 Y-23.4190 Z0.2380
G1 X31.1764 Y-23.4190 Z0.2380
G1 X31.1780 Y-23.4186 Z0.2380
G1 X31.1791 Y-23.4174 Z0.2380
G1 X31.1795 Y-23.4158 Z0.2380
G1 X31.1795 Y-22.1831 Z0.2380
G1 X31.1791 Y-22.1816 Z0.2380
G1 X31.1780 Y-22.1804 Z0.2380
G1 X31.1764 Y-22.1800 Z0.2380
G1 X30.9387 Y-22.1800 Z0.2380
G1 X30.9371 Y-22.1804 Z0.2380
G1 X30.9360 Y-22.1816 Z0.2380
G1 X30.9355 Y-22.1831 Z0.2380
G1 X30.9355 Y-22.7995 Z0.2380
G1 X30.9355 Y-23.0495 Z0.2380
G0 Z0.3460
G0 X30.9355 Y-23.0495 
G0 Z0.3460
G0 X30.9355 Y-22.9129 
G1 X30.9355 Y-22.9129 Z0.2460 F21.
G1 X30.9355 Y-22.7995 Z0.2260
G1 X30.9355 Y-22.1831 Z0.2260 F22.
G1 X30.9360 Y-22.1816 Z0.2260
G1 X30.9371 Y-22.1804 Z0.2260
G1 X30.9387 Y-22.1800 Z0.2260
G1 X31.1764 Y-22.1800 Z0.2260
G1 X31.1780 Y-22.1804 Z0.2260
G1 X31.1791 Y-22.1816 Z0.2260
G1 X31.1795 Y-22.1831 Z0.2260
G1 X31.1795 Y-23.4158 Z0.2260
G1 X31.1791 Y-23.4174 Z0.2260
G1 X31.1780 Y-23.4186 Z0.2260
G1 X31.1764 Y-23.4190 Z0.2260
G1 X30.9387 Y-23.4190 Z0.2260
G1 X30.9371 Y-23.4186 Z0.2260
G1 X30.9360 Y-23.4174 Z0.2260
G1 X30.9355 Y-23.4158 Z0.2260
G1 X30.9355 Y-22.7995 Z0.2260
G1 X30.9355 Y-22.5495 Z0.2260
G0 Z0.3340
G0 X30.9355 Y-22.5495 
G0 Z0.3340
G0 X30.9355 Y-22.6861 
G1 X30.9355 Y-22.6861 Z0.2340 F21.
G1 X30.9355 Y-22.7995 Z0.2140
G1 X30.9355 Y-23.4158 Z0.2140 F22.
G1 X30.9360 Y-23.4174 Z0.2140
G1 X30.9371 Y-23.4186 Z0.2140
G1 X30.9387 Y-23.4190 Z0.2140
G1 X31.1764 Y-23.4190 Z0.2140
G1 X31.1780 Y-23.4186 Z0.2140
G1 X31.1791 Y-23.4174 Z0.2140
G1 X31.1795 Y-23.4158 Z0.2140
G1 X31.1795 Y-22.1831 Z0.2140
G1 X31.1791 Y-22.1816 Z0.2140
G1 X31.1780 Y-22.1804 Z0.2140
G1 X31.1764 Y-22.1800 Z0.2140
G1 X30.9387 Y-22.1800 Z0.2140
G1 X30.9371 Y-22.1804 Z0.2140
G1 X30.9360 Y-22.1816 Z0.2140
G1 X30.9355 Y-22.1831 Z0.2140
G1 X30.9355 Y-22.7995 Z0.2140
G1 X30.9355 Y-23.0495 Z0.2140
G0 Z0.3220
G0 X30.9355 Y-23.0495 
G0 Z0.3220
G0 X30.9355 Y-22.9129 
G1 X30.9355 Y-22.9129 Z0.2220 F21.
G1 X30.9355 Y-22.7995 Z0.2020
G1 X30.9355 Y-22.1831 Z0.2020 F22.
G1 X30.9360 Y-22.1816 Z0.2020
G1 X30.9371 Y-22.1804 Z0.2020
G1 X30.9387 Y-22.1800 Z0.2020
G1 X31.1764 Y-22.1800 Z0.2020
G1 X31.1780 Y-22.1804 Z0.2020
G1 X31.1791 Y-22.1816 Z0.2020
G1 X31.1795 Y-22.1831 Z0.2020
G1 X31.1795 Y-23.4158 Z0.2020
G1 X31.1791 Y-23.4174 Z0.2020
G1 X31.1780 Y-23.4186 Z0.2020
G1 X31.1764 Y-23.4190 Z0.2020
G1 X30.9387 Y-23.4190 Z0.2020
G1 X30.9371 Y-23.4186 Z0.2020
G1 X30.9360 Y-23.4174 Z0.2020
G1 X30.9355 Y-23.4158 Z0.2020
G1 X30.9355 Y-22.7995 Z0.2020
G1 X30.9355 Y-22.5495 Z0.2020
G0 Z0.3100
G0 X30.9355 Y-22.5495 
G0 Z0.3100
G0 X30.9355 Y-22.6861 
G1 X30.9355 Y-22.6861 Z0.2100 F21.
G1 X30.9355 Y-22.7995 Z0.1900
G1 X30.9355 Y-23.4158 Z0.1900 F22.
G1 X30.9360 Y-23.4174 Z0.1900
G1 X30.9371 Y-23.4186 Z0.1900
G1 X30.9387 Y-23.4190 Z0.1900
G1 X31.1764 Y-23.4190 Z0.1900
G1 X31.1780 Y-23.4186 Z0.1900
G1 X31.1791 Y-23.4174 Z0.1900
G1 X31.1795 Y-23.4158 Z0.1900
G1 X31.1795 Y-22.1831 Z0.1900
G1 X31.1791 Y-22.1816 Z0.1900
G1 X31.1780 Y-22.1804 Z0.1900
G1 X31.1764 Y-22.1800 Z0.1900
G1 X30.9387 Y-22.1800 Z0.1900
G1 X30.9371 Y-22.1804 Z0.1900
G1 X30.9360 Y-22.1816 Z0.1900
G1 X30.9355 Y-22.1831 Z0.1900
G1 X30.9355 Y-22.7995 Z0.1900
G1 X30.9355 Y-23.0495 Z0.1900
G0 Z0.3580
G0 X30.9355 Y-23.0495 
G0 Z0.3580
G0 X32.0646 Y-22.6860 
G1 X32.0646 Y-22.6860 Z0.2580 F21.
G1 X32.0646 Y-22.7994 Z0.2380
G1 X32.0646 Y-23.3992 Z0.2380 F22.
G1 X32.0650 Y-23.4008 Z0.2380
G1 X32.0662 Y-23.4020 Z0.2380
G1 X32.0678 Y-23.4024 Z0.2380
G1 X32.3855 Y-23.4024 Z0.2380
G1 X32.3870 Y-23.4020 Z0.2380
G1 X32.3882 Y-23.4008 Z0.2380
G1 X32.3886 Y-23.3992 Z0.2380
G1 X32.3886 Y-22.1995 Z0.2380
G1 X32.3882 Y-22.1980 Z0.2380
G1 X32.3870 Y-22.1968 Z0.2380
G1 X32.3855 Y-22.1964 Z0.2380
G1 X32.0678 Y-22.1964 Z0.2380
G1 X32.0662 Y-22.1968 Z0.2380
G1 X32.0650 Y-22.1980 Z0.2380
G1 X32.0646 Y-22.1995 Z0.2380
G1 X32.0646 Y-22.7994 Z0.2380
G1 X32.0646 Y-23.0494 Z0.2380
G0 Z0.3460
G0 X32.0646 Y-23.0494 
G0 Z0.3460
G0 X32.0646 Y-22.9128 
G1 X32.0646 Y-22.9128 Z0.2460 F21.
G1 X32.0646 Y-22.7994 Z0.2260
G1 X32.0646 Y-22.1995 Z0.2260 F22.
G1 X32.0650 Y-22.1980 Z0.2260
G1 X32.0662 Y-22.1968 Z0.2260
G1 X32.0678 Y-22.1964 Z0.2260
G1 X32.3855 Y-22.1964 Z0.2260
G1 X32.3870 Y-22.1968 Z0.2260
G1 X32.3882 Y-22.1980 Z0.2260
G1 X32.3886 Y-22.1995 Z0.2260
G1 X32.3886 Y-23.3992 Z0.2260
G1 X32.3882 Y-23.4008 Z0.2260
G1 X32.3870 Y-23.4020 Z0.2260
G1 X32.3855 Y-23.4024 Z0.2260
G1 X32.0678 Y-23.4024 Z0.2260
G1 X32.0662 Y-23.4020 Z0.2260
G1 X32.0650 Y-23.4008 Z0.2260
G1 X32.0646 Y-23.3992 Z0.2260
G1 X32.0646 Y-22.7994 Z0.2260
G1 X32.0646 Y-22.5494 Z0.2260
G0 Z0.3340
G0 X32.0646 Y-22.5494 
G0 Z0.3340
G0 X32.0646 Y-22.6860 
G1 X32.0646 Y-22.6860 Z0.2340 F21.
G1 X32.0646 Y-22.7994 Z0.2140
G1 X32.0646 Y-23.3992 Z0.2140 F22.
G1 X32.0650 Y-23.4008 Z0.2140
G1 X32.0662 Y-23.4020 Z0.2140
G1 X32.0678 Y-23.4024 Z0.2140
G1 X32.3855 Y-23.4024 Z0.2140
G1 X32.3870 Y-23.4020 Z0.2140
G1 X32.3882 Y-23.4008 Z0.2140
G1 X32.3886 Y-23.3992 Z0.2140
G1 X32.3886 Y-22.1995 Z0.2140
G1 X32.3882 Y-22.1980 Z0.2140
G1 X32.3870 Y-22.1968 Z0.2140
G1 X32.3855 Y-22.1964 Z0.2140
G1 X32.0678 Y-22.1964 Z0.2140
G1 X32.0662 Y-22.1968 Z0.2140
G1 X32.0650 Y-22.1980 Z0.2140
G1 X32.0646 Y-22.1995 Z0.2140
G1 X32.0646 Y-22.7994 Z0.2140
G1 X32.0646 Y-23.0494 Z0.2140
G0 Z0.3220
G0 X32.0646 Y-23.0494 
G0 Z0.3220
G0 X32.0646 Y-22.9128 
G1 X32.0646 Y-22.9128 Z0.2220 F21.
G1 X32.0646 Y-22.7994 Z0.2020
G1 X32.0646 Y-22.1995 Z0.2020 F22.
G1 X32.0650 Y-22.1980 Z0.2020
G1 X32.0662 Y-22.1968 Z0.2020
G1 X32.0678 Y-22.1964 Z0.2020
G1 X32.3855 Y-22.1964 Z0.2020
G1 X32.3870 Y-22.1968 Z0.2020
G1 X32.3882 Y-22.1980 Z0.2020
G1 X32.3886 Y-22.1995 Z0.2020
G1 X32.3886 Y-23.3992 Z0.2020
G1 X32.3882 Y-23.4008 Z0.2020
G1 X32.3870 Y-23.4020 Z0.2020
G1 X32.3855 Y-23.4024 Z0.2020
G1 X32.0678 Y-23.4024 Z0.2020
G1 X32.0662 Y-23.4020 Z0.2020
G1 X32.0650 Y-23.4008 Z0.2020
G1 X32.0646 Y-23.3992 Z0.2020
G1 X32.0646 Y-22.7994 Z0.2020
G1 X32.0646 Y-22.5494 Z0.2020
G0 Z0.3100
G0 X32.0646 Y-22.5494 
G0 Z0.3100
G0 X32.0646 Y-22.6860 
G1 X32.0646 Y-22.6860 Z0.2100 F21.
G1 X32.0646 Y-22.7994 Z0.1900
G1 X32.0646 Y-23.3992 Z0.1900 F22.
G1 X32.0650 Y-23.4008 Z0.1900
G1 X32.0662 Y-23.4020 Z0.1900
G1 X32.0678 Y-23.4024 Z0.1900
G1 X32.3855 Y-23.4024 Z0.1900
G1 X32.3870 Y-23.4020 Z0.1900
G1 X32.3882 Y-23.4008 Z0.1900
G1 X32.3886 Y-23.3992 Z0.1900
G1 X32.3886 Y-22.1995 Z0.1900
G1 X32.3882 Y-22.1980 Z0.1900
G1 X32.3870 Y-22.1968 Z0.1900
G1 X32.3855 Y-22.1964 Z0.1900
G1 X32.0678 Y-22.1964 Z0.1900
G1 X32.0662 Y-22.1968 Z0.1900
G1 X32.0650 Y-22.1980 Z0.1900
G1 X32.0646 Y-22.1995 Z0.1900
G1 X32.0646 Y-22.7994 Z0.1900
G1 X32.0646 Y-23.0494 Z0.1900
G0 Z0.3580
G0 X32.0646 Y-23.0494 
G0 Z0.3580
G0 X36.3859 Y-22.6860 
G1 X36.3859 Y-22.6860 Z0.2580 F21.
G1 X36.3859 Y-22.7994 Z0.2380
G1 X36.3859 Y-23.3328 Z0.2380 F22.
G1 X36.3863 Y-23.3344 Z0.2380
G1 X36.3874 Y-23.3355 Z0.2380
G1 X36.3890 Y-23.3359 Z0.2380
G1 X36.9577 Y-23.3359 Z0.2380
G1 X36.9593 Y-23.3355 Z0.2380
G1 X36.9604 Y-23.3344 Z0.2380
G1 X36.9609 Y-23.3328 Z0.2380
G1 X36.9609 Y-22.2661 Z0.2380
G1 X36.9604 Y-22.2645 Z0.2380
G1 X36.9593 Y-22.2634 Z0.2380
G1 X36.9577 Y-22.2629 Z0.2380
G1 X36.3890 Y-22.2629 Z0.2380
G1 X36.3874 Y-22.2634 Z0.2380
G1 X36.3863 Y-22.2645 Z0.2380
G1 X36.3859 Y-22.2661 Z0.2380
G1 X36.3859 Y-22.7994 Z0.2380
G1 X36.3859 Y-23.0494 Z0.2380
G0 Z0.3460
G0 X36.3859 Y-23.0494 
G0 Z0.3460
G0 X36.3859 Y-22.9129 
G1 X36.3859 Y-22.9129 Z0.2460 F21.
G1 X36.3859 Y-22.7994 Z0.2260
G1 X36.3859 Y-22.2661 Z0.2260 F22.
G1 X36.3863 Y-22.2645 Z0.2260
G1 X36.3874 Y-22.2634 Z0.2260
G1 X36.3890 Y-22.2629 Z0.2260
G1 X36.9577 Y-22.2629 Z0.2260
G1 X36.9593 Y-22.2634 Z0.2260
G1 X36.9604 Y-22.2645 Z0.2260
G1 X36.9609 Y-22.2661 Z0.2260
G1 X36.9609 Y-23.3328 Z0.2260
G1 X36.9604 Y-23.3344 Z0.2260
G1 X36.9593 Y-23.3355 Z0.2260
G1 X36.9577 Y-23.3359 Z0.2260
G1 X36.3890 Y-23.3359 Z0.2260
G1 X36.3874 Y-23.3355 Z0.2260
G1 X36.3863 Y-23.3344 Z0.2260
G1 X36.3859 Y-23.3328 Z0.2260
G1 X36.3859 Y-22.7994 Z0.2260
G1 X36.3859 Y-22.5494 Z0.2260
G0 Z0.3340
G0 X36.3859 Y-22.5494 
G0 Z0.3340
G0 X36.3859 Y-22.6860 
G1 X36.3859 Y-22.6860 Z0.2340 F21.
G1 X36.3859 Y-22.7994 Z0.2140
G1 X36.3859 Y-23.3328 Z0.2140 F22.
G1 X36.3863 Y-23.3344 Z0.2140
G1 X36.3874 Y-23.3355 Z0.2140
G1 X36.3890 Y-23.3359 Z0.2140
G1 X36.9577 Y-23.3359 Z0.2140
G1 X36.9593 Y-23.3355 Z0.2140
G1 X36.9604 Y-23.3344 Z0.2140
G1 X36.9609 Y-23.3328 Z0.2140
G1 X36.9609 Y-22.2661 Z0.2140
G1 X36.9604 Y-22.2645 Z0.2140
G1 X36.9593 Y-22.2634 Z0.2140
G1 X36.9577 Y-22.2629 Z0.2140
G1 X36.3890 Y-22.2629 Z0.2140
G1 X36.3874 Y-22.2634 Z0.2140
G1 X36.3863 Y-22.2645 Z0.2140
G1 X36.3859 Y-22.2661 Z0.2140
G1 X36.3859 Y-22.7994 Z0.2140
G1 X36.3859 Y-23.0494 Z0.2140
G0 Z0.3220
G0 X36.3859 Y-23.0494 
G0 Z0.3220
G0 X36.3859 Y-22.9129 
G1 X36.3859 Y-22.9129 Z0.2220 F21.
G1 X36.3859 Y-22.7994 Z0.2020
G1 X36.3859 Y-22.2661 Z0.2020 F22.
G1 X36.3863 Y-22.2645 Z0.2020
G1 X36.3874 Y-22.2634 Z0.2020
G1 X36.3890 Y-22.2629 Z0.2020
G1 X36.9577 Y-22.2629 Z0.2020
G1 X36.9593 Y-22.2634 Z0.2020
G1 X36.9604 Y-22.2645 Z0.2020
G1 X36.9609 Y-22.2661 Z0.2020
G1 X36.9609 Y-23.3328 Z0.2020
G1 X36.9604 Y-23.3344 Z0.2020
G1 X36.9593 Y-23.3355 Z0.2020
G1 X36.9577 Y-23.3359 Z0.2020
G1 X36.3890 Y-23.3359 Z0.2020
G1 X36.3874 Y-23.3355 Z0.2020
G1 X36.3863 Y-23.3344 Z0.2020
G1 X36.3859 Y-23.3328 Z0.2020
G1 X36.3859 Y-22.7994 Z0.2020
G1 X36.3859 Y-22.5494 Z0.2020
G0 Z0.3100
G0 X36.3859 Y-22.5494 
G0 Z0.3100
G0 X36.3859 Y-22.6860 
G1 X36.3859 Y-22.6860 Z0.2100 F21.
G1 X36.3859 Y-22.7994 Z0.1900
G1 X36.3859 Y-23.3328 Z0.1900 F22.
G1 X36.3863 Y-23.3344 Z0.1900
G1 X36.3874 Y-23.3355 Z0.1900
G1 X36.3890 Y-23.3359 Z0.1900
G1 X36.9577 Y-23.3359 Z0.1900
G1 X36.9593 Y-23.3355 Z0.1900
G1 X36.9604 Y-23.3344 Z0.1900
G1 X36.9609 Y-23.3328 Z0.1900
G1 X36.9609 Y-22.2661 Z0.1900
G1 X36.9604 Y-22.2645 Z0.1900
G1 X36.9593 Y-22.2634 Z0.1900
G1 X36.9577 Y-22.2629 Z0.1900
G1 X36.3890 Y-22.2629 Z0.1900
G1 X36.3874 Y-22.2634 Z0.1900
G1 X36.3863 Y-22.2645 Z0.1900
G1 X36.3859 Y-22.2661 Z0.1900
G1 X36.3859 Y-22.7994 Z0.1900
G1 X36.3859 Y-23.0494 Z0.1900
G0 Z0.3580
G0 X36.3859 Y-23.0494 
G0 Z0.3580
G0 X38.1709 Y-22.6854 
G1 X38.1709 Y-22.6854 Z0.2580 F21.
G1 X38.1709 Y-22.7989 Z0.2380
G1 X38.1709 Y-23.3082 Z0.2380 F22.
G1 X38.1713 Y-23.3098 Z0.2380
G1 X38.1725 Y-23.3109 Z0.2380
G1 X38.1740 Y-23.3114 Z0.2380
G1 X38.8677 Y-23.3114 Z0.2380
G1 X38.8693 Y-23.3109 Z0.2380
G1 X38.8705 Y-23.3098 Z0.2380
G1 X38.8709 Y-23.3082 Z0.2380
G1 X38.8709 Y-22.2895 Z0.2380
G1 X38.8705 Y-22.2879 Z0.2380
G1 X38.8693 Y-22.2868 Z0.2380
G1 X38.8677 Y-22.2864 Z0.2380
G1 X38.1740 Y-22.2864 Z0.2380
G1 X38.1725 Y-22.2868 Z0.2380
G1 X38.1713 Y-22.2879 Z0.2380
G1 X38.1709 Y-22.2895 Z0.2380
G1 X38.1709 Y-22.7989 Z0.2380
G1 X38.1709 Y-23.0489 Z0.2380
G0 Z0.3460
G0 X38.1709 Y-23.0489 
G0 Z0.3460
G0 X38.1709 Y-22.9123 
G1 X38.1709 Y-22.9123 Z0.2460 F21.
G1 X38.1709 Y-22.7989 Z0.2260
G1 X38.1709 Y-22.2895 Z0.2260 F22.
G1 X38.1713 Y-22.2879 Z0.2260
G1 X38.1725 Y-22.2868 Z0.2260
G1 X38.1740 Y-22.2864 Z0.2260
G1 X38.8677 Y-22.2864 Z0.2260
G1 X38.8693 Y-22.2868 Z0.2260
G1 X38.8705 Y-22.2879 Z0.2260
G1 X38.8709 Y-22.2895 Z0.2260
G1 X38.8709 Y-23.3082 Z0.2260
G1 X38.8705 Y-23.3098 Z0.2260
G1 X38.8693 Y-23.3109 Z0.2260
G1 X38.8677 Y-23.3114 Z0.2260
G1 X38.1740 Y-23.3114 Z0.2260
G1 X38.1725 Y-23.3109 Z0.2260
G1 X38.1713 Y-23.3098 Z0.2260
G1 X38.1709 Y-23.3082 Z0.2260
G1 X38.1709 Y-22.7989 Z0.2260
G1 X38.1709 Y-22.5489 Z0.2260
G0 Z0.3340
G0 X38.1709 Y-22.5489 
G0 Z0.3340
G0 X38.1709 Y-22.6854 
G1 X38.1709 Y-22.6854 Z0.2340 F21.
G1 X38.1709 Y-22.7989 Z0.2140
G1 X38.1709 Y-23.3082 Z0.2140 F22.
G1 X38.1713 Y-23.3098 Z0.2140
G1 X38.1725 Y-23.3109 Z0.2140
G1 X38.1740 Y-23.3114 Z0.2140
G1 X38.8677 Y-23.3114 Z0.2140
G1 X38.8693 Y-23.3109 Z0.2140
G1 X38.8705 Y-23.3098 Z0.2140
G1 X38.8709 Y-23.3082 Z0.2140
G1 X38.8709 Y-22.2895 Z0.2140
G1 X38.8705 Y-22.2879 Z0.2140
G1 X38.8693 Y-22.2868 Z0.2140
G1 X38.8677 Y-22.2864 Z0.2140
G1 X38.1740 Y-22.2864 Z0.2140
G1 X38.1725 Y-22.2868 Z0.2140
G1 X38.1713 Y-22.2879 Z0.2140
G1 X38.1709 Y-22.2895 Z0.2140
G1 X38.1709 Y-22.7989 Z0.2140
G1 X38.1709 Y-23.0489 Z0.2140
G0 Z0.3220
G0 X38.1709 Y-23.0489 
G0 Z0.3220
G0 X38.1709 Y-22.9123 
G1 X38.1709 Y-22.9123 Z0.2220 F21.
G1 X38.1709 Y-22.7989 Z0.2020
G1 X38.1709 Y-22.2895 Z0.2020 F22.
G1 X38.1713 Y-22.2879 Z0.2020
G1 X38.1725 Y-22.2868 Z0.2020
G1 X38.1740 Y-22.2864 Z0.2020
G1 X38.8677 Y-22.2864 Z0.2020
G1 X38.8693 Y-22.2868 Z0.2020
G1 X38.8705 Y-22.2879 Z0.2020
G1 X38.8709 Y-22.2895 Z0.2020
G1 X38.8709 Y-23.3082 Z0.2020
G1 X38.8705 Y-23.3098 Z0.2020
G1 X38.8693 Y-23.3109 Z0.2020
G1 X38.8677 Y-23.3114 Z0.2020
G1 X38.1740 Y-23.3114 Z0.2020
G1 X38.1725 Y-23.3109 Z0.2020
G1 X38.1713 Y-23.3098 Z0.2020
G1 X38.1709 Y-23.3082 Z0.2020
G1 X38.1709 Y-22.7989 Z0.2020
G1 X38.1709 Y-22.5489 Z0.2020
G0 Z0.3100
G0 X38.1709 Y-22.5489 
G0 Z0.3100
G0 X38.1709 Y-22.6854 
G1 X38.1709 Y-22.6854 Z0.2100 F21.
G1 X38.1709 Y-22.7989 Z0.1900
G1 X38.1709 Y-23.3082 Z0.1900 F22.
G1 X38.1713 Y-23.3098 Z0.1900
G1 X38.1725 Y-23.3109 Z0.1900
G1 X38.1740 Y-23.3114 Z0.1900
G1 X38.8677 Y-23.3114 Z0.1900
G1 X38.8693 Y-23.3109 Z0.1900
G1 X38.8705 Y-23.3098 Z0.1900
G1 X38.8709 Y-23.3082 Z0.1900
G1 X38.8709 Y-22.2895 Z0.1900
G1 X38.8705 Y-22.2879 Z0.1900
G1 X38.8693 Y-22.2868 Z0.1900
G1 X38.8677 Y-22.2864 Z0.1900
G1 X38.1740 Y-22.2864 Z0.1900
G1 X38.1725 Y-22.2868 Z0.1900
G1 X38.1713 Y-22.2879 Z0.1900
G1 X38.1709 Y-22.2895 Z0.1900
G1 X38.1709 Y-22.7989 Z0.1900
G1 X38.1709 Y-23.0489 Z0.1900
G0 Z0.3580
G0 X38.1709 Y-23.0489 
G0 Z0.3580
G0 X40.1974 Y-22.6857 
G1 X40.1974 Y-22.6857 Z0.2580 F21.
G1 X40.1974 Y-22.7991 Z0.2380
G1 X40.1974 Y-23.2704 Z0.2380 F22.
G1 X40.1979 Y-23.2720 Z0.2380
G1 X40.1990 Y-23.2732 Z0.2380
G1 X40.2006 Y-23.2736 Z0.2380
G1 X41.0073 Y-23.2736 Z0.2380
G1 X41.0089 Y-23.2732 Z0.2380
G1 X41.0100 Y-23.2720 Z0.2380
G1 X41.0104 Y-23.2704 Z0.2380
G1 X41.0104 Y-22.3277 Z0.2380
G1 X41.0100 Y-22.3262 Z0.2380
G1 X41.0089 Y-22.3250 Z0.2380
G1 X41.0073 Y-22.3246 Z0.2380
G1 X40.2006 Y-22.3246 Z0.2380
G1 X40.1990 Y-22.3250 Z0.2380
G1 X40.1979 Y-22.3262 Z0.2380
G1 X40.1974 Y-22.3277 Z0.2380
G1 X40.1974 Y-22.7991 Z0.2380
G1 X40.1974 Y-23.0491 Z0.2380
G0 Z0.3460
G0 X40.1974 Y-23.0491 
G0 Z0.3460
G0 X40.1974 Y-22.9125 
G1 X40.1974 Y-22.9125 Z0.2460 F21.
G1 X40.1974 Y-22.7991 Z0.2260
G1 X40.1974 Y-22.3277 Z0.2260 F22.
G1 X40.1979 Y-22.3262 Z0.2260
G1 X40.1990 Y-22.3250 Z0.2260
G1 X40.2006 Y-22.3246 Z0.2260
G1 X41.0073 Y-22.3246 Z0.2260
G1 X41.0089 Y-22.3250 Z0.2260
G1 X41.0100 Y-22.3262 Z0.2260
G1 X41.0104 Y-22.3277 Z0.2260
G1 X41.0104 Y-23.2704 Z0.2260
G1 X41.0100 Y-23.2720 Z0.2260
G1 X41.0089 Y-23.2732 Z0.2260
G1 X41.0073 Y-23.2736 Z0.2260
G1 X40.2006 Y-23.2736 Z0.2260
G1 X40.1990 Y-23.2732 Z0.2260
G1 X40.1979 Y-23.2720 Z0.2260
G1 X40.1974 Y-23.2704 Z0.2260
G1 X40.1974 Y-22.7991 Z0.2260
G1 X40.1974 Y-22.5491 Z0.2260
G0 Z0.3340
G0 X40.1974 Y-22.5491 
G0 Z0.3340
G0 X40.1974 Y-22.6857 
G1 X40.1974 Y-22.6857 Z0.2340 F21.
G1 X40.1974 Y-22.7991 Z0.2140
G1 X40.1974 Y-23.2704 Z0.2140 F22.
G1 X40.1979 Y-23.2720 Z0.2140
G1 X40.1990 Y-23.2732 Z0.2140
G1 X40.2006 Y-23.2736 Z0.2140
G1 X41.0073 Y-23.2736 Z0.2140
G1 X41.0089 Y-23.2732 Z0.2140
G1 X41.0100 Y-23.2720 Z0.2140
G1 X41.0104 Y-23.2704 Z0.2140
G1 X41.0104 Y-22.3277 Z0.2140
G1 X41.0100 Y-22.3262 Z0.2140
G1 X41.0089 Y-22.3250 Z0.2140
G1 X41.0073 Y-22.3246 Z0.2140
G1 X40.2006 Y-22.3246 Z0.2140
G1 X40.1990 Y-22.3250 Z0.2140
G1 X40.1979 Y-22.3262 Z0.2140
G1 X40.1974 Y-22.3277 Z0.2140
G1 X40.1974 Y-22.7991 Z0.2140
G1 X40.1974 Y-23.0491 Z0.2140
G0 Z0.3220
G0 X40.1974 Y-23.0491 
G0 Z0.3220
G0 X40.1974 Y-22.9125 
G1 X40.1974 Y-22.9125 Z0.2220 F21.
G1 X40.1974 Y-22.7991 Z0.2020
G1 X40.1974 Y-22.3277 Z0.2020 F22.
G1 X40.1979 Y-22.3262 Z0.2020
G1 X40.1990 Y-22.3250 Z0.2020
G1 X40.2006 Y-22.3246 Z0.2020
G1 X41.0073 Y-22.3246 Z0.2020
G1 X41.0089 Y-22.3250 Z0.2020
G1 X41.0100 Y-22.3262 Z0.2020
G1 X41.0104 Y-22.3277 Z0.2020
G1 X41.0104 Y-23.2704 Z0.2020
G1 X41.0100 Y-23.2720 Z0.2020
G1 X41.0089 Y-23.2732 Z0.2020
G1 X41.0073 Y-23.2736 Z0.2020
G1 X40.2006 Y-23.2736 Z0.2020
G1 X40.1990 Y-23.2732 Z0.2020
G1 X40.1979 Y-23.2720 Z0.2020
G1 X40.1974 Y-23.2704 Z0.2020
G1 X40.1974 Y-22.7991 Z0.2020
G1 X40.1974 Y-22.5491 Z0.2020
G0 Z0.3100
G0 X40.1974 Y-22.5491 
G0 Z0.3100
G0 X40.1974 Y-22.6857 
G1 X40.1974 Y-22.6857 Z0.2100 F21.
G1 X40.1974 Y-22.7991 Z0.1900
G1 X40.1974 Y-23.2704 Z0.1900 F22.
G1 X40.1979 Y-23.2720 Z0.1900
G1 X40.1990 Y-23.2732 Z0.1900
G1 X40.2006 Y-23.2736 Z0.1900
G1 X41.0073 Y-23.2736 Z0.1900
G1 X41.0089 Y-23.2732 Z0.1900
G1 X41.0100 Y-23.2720 Z0.1900
G1 X41.0104 Y-23.2704 Z0.1900
G1 X41.0104 Y-22.3277 Z0.1900
G1 X41.0100 Y-22.3262 Z0.1900
G1 X41.0089 Y-22.3250 Z0.1900
G1 X41.0073 Y-22.3246 Z0.1900
G1 X40.2006 Y-22.3246 Z0.1900
G1 X40.1990 Y-22.3250 Z0.1900
G1 X40.1979 Y-22.3262 Z0.1900
G1 X40.1974 Y-22.3277 Z0.1900
G1 X40.1974 Y-22.7991 Z0.1900
G1 X40.1974 Y-23.0491 Z0.1900
G0 Z0.3580
G0 X40.1974 Y-23.0491 
G0 Z0.3580
G0 X42.8287 Y-23.2475 
G1 X42.8287 Y-23.2475 Z0.2580 F21.
G1 X42.9421 Y-23.2475 Z0.2380
G1 X43.4074 Y-23.2475 Z0.2380 F22.
G1 X43.4090 Y-23.2471 Z0.2380
G1 X43.4102 Y-23.2459 Z0.2380
G1 X43.4106 Y-23.2443 Z0.2380
G1 X43.4106 Y-22.3536 Z0.2380
G1 X43.4102 Y-22.3521 Z0.2380
G1 X43.4090 Y-22.3509 Z0.2380
G1 X43.4074 Y-22.3505 Z0.2380
G1 X42.4767 Y-22.3505 Z0.2380
G1 X42.4752 Y-22.3509 Z0.2380
G1 X42.4740 Y-22.3521 Z0.2380
G1 X42.4736 Y-22.3536 Z0.2380
G1 X42.4736 Y-23.2443 Z0.2380
G1 X42.4740 Y-23.2459 Z0.2380
G1 X42.4752 Y-23.2471 Z0.2380
G1 X42.4767 Y-23.2475 Z0.2380
G1 X42.9421 Y-23.2475 Z0.2380
G1 X43.1921 Y-23.2475 Z0.2380
G0 Z0.3460
G0 X43.1921 Y-23.2475 
G0 Z0.3460
G0 X43.0555 Y-23.2475 
G1 X43.0555 Y-23.2475 Z0.2460 F21.
G1 X42.9421 Y-23.2475 Z0.2260
G1 X42.4767 Y-23.2475 Z0.2260 F22.
G1 X42.4752 Y-23.2471 Z0.2260
G1 X42.4740 Y-23.2459 Z0.2260
G1 X42.4736 Y-23.2443 Z0.2260
G1 X42.4736 Y-22.3536 Z0.2260
G1 X42.4740 Y-22.3521 Z0.2260
G1 X42.4752 Y-22.3509 Z0.2260
G1 X42.4767 Y-22.3505 Z0.2260
G1 X43.4074 Y-22.3505 Z0.2260
G1 X43.4090 Y-22.3509 Z0.2260
G1 X43.4102 Y-22.3521 Z0.2260
G1 X43.4106 Y-22.3536 Z0.2260
G1 X43.4106 Y-23.2443 Z0.2260
G1 X43.4102 Y-23.2459 Z0.2260
G1 X43.4090 Y-23.2471 Z0.2260
G1 X43.4074 Y-23.2475 Z0.2260
G1 X42.9421 Y-23.2475 Z0.2260
G1 X42.6921 Y-23.2475 Z0.2260
G0 Z0.3340
G0 X42.6921 Y-23.2475 
G0 Z0.3340
G0 X42.8287 Y-23.2475 
G1 X42.8287 Y-23.2475 Z0.2340 F21.
G1 X42.9421 Y-23.2475 Z0.2140
G1 X43.4074 Y-23.2475 Z0.2140 F22.
G1 X43.4090 Y-23.2471 Z0.2140
G1 X43.4102 Y-23.2459 Z0.2140
G1 X43.4106 Y-23.2443 Z0.2140
G1 X43.4106 Y-22.3536 Z0.2140
G1 X43.4102 Y-22.3521 Z0.2140
G1 X43.4090 Y-22.3509 Z0.2140
G1 X43.4074 Y-22.3505 Z0.2140
G1 X42.4767 Y-22.3505 Z0.2140
G1 X42.4752 Y-22.3509 Z0.2140
G1 X42.4740 Y-22.3521 Z0.2140
G1 X42.4736 Y-22.3536 Z0.2140
G1 X42.4736 Y-23.2443 Z0.2140
G1 X42.4740 Y-23.2459 Z0.2140
G1 X42.4752 Y-23.2471 Z0.2140
G1 X42.4767 Y-23.2475 Z0.2140
G1 X42.9421 Y-23.2475 Z0.2140
G1 X43.1921 Y-23.2475 Z0.2140
G0 Z0.3220
G0 X43.1921 Y-23.2475 
G0 Z0.3220
G0 X43.0555 Y-23.2475 
G1 X43.0555 Y-23.2475 Z0.2220 F21.
G1 X42.9421 Y-23.2475 Z0.2020
G1 X42.4767 Y-23.2475 Z0.2020 F22.
G1 X42.4752 Y-23.2471 Z0.2020
G1 X42.4740 Y-23.2459 Z0.2020
G1 X42.4736 Y-23.2443 Z0.2020
G1 X42.4736 Y-22.3536 Z0.2020
G1 X42.4740 Y-22.3521 Z0.2020
G1 X42.4752 Y-22.3509 Z0.2020
G1 X42.4767 Y-22.3505 Z0.2020
G1 X43.4074 Y-22.3505 Z0.2020
G1 X43.4090 Y-22.3509 Z0.2020
G1 X43.4102 Y-22.3521 Z0.2020
G1 X43.4106 Y-22.3536 Z0.2020
G1 X43.4106 Y-23.2443 Z0.2020
G1 X43.4102 Y-23.2459 Z0.2020
G1 X43.4090 Y-23.2471 Z0.2020
G1 X43.4074 Y-23.2475 Z0.2020
G1 X42.9421 Y-23.2475 Z0.2020
G1 X42.6921 Y-23.2475 Z0.2020
G0 Z0.3100
G0 X42.6921 Y-23.2475 
G0 Z0.3100
G0 X42.8287 Y-23.2475 
G1 X42.8287 Y-23.2475 Z0.2100 F21.
G1 X42.9421 Y-23.2475 Z0.1900
G1 X43.4074 Y-23.2475 Z0.1900 F22.
G1 X43.4090 Y-23.2471 Z0.1900
G1 X43.4102 Y-23.2459 Z0.1900
G1 X43.4106 Y-23.2443 Z0.1900
G1 X43.4106 Y-22.3536 Z0.1900
G1 X43.4102 Y-22.3521 Z0.1900
G1 X43.4090 Y-22.3509 Z0.1900
G1 X43.4074 Y-22.3505 Z0.1900
G1 X42.4767 Y-22.3505 Z0.1900
G1 X42.4752 Y-22.3509 Z0.1900
G1 X42.4740 Y-22.3521 Z0.1900
G1 X42.4736 Y-22.3536 Z0.1900
G1 X42.4736 Y-23.2443 Z0.1900
G1 X42.4740 Y-23.2459 Z0.1900
G1 X42.4752 Y-23.2471 Z0.1900
G1 X42.4767 Y-23.2475 Z0.1900
G1 X42.9421 Y-23.2475 Z0.1900
G1 X43.1921 Y-23.2475 Z0.1900
G0 Z0.3580
G0 X43.1921 Y-23.2475 
G0 Z0.3580
G0 X45.4531 Y-23.2123 
G1 X45.4531 Y-23.2123 Z0.2580 F21.
G1 X45.5666 Y-23.2123 Z0.2380
G1 X46.0834 Y-23.2123 Z0.2380 F22.
G1 X46.0850 Y-23.2118 Z0.2380
G1 X46.0861 Y-23.2107 Z0.2380
G1 X46.0866 Y-23.2091 Z0.2380
G1 X46.0866 Y-22.3874 Z0.2380
G1 X46.0861 Y-22.3858 Z0.2380
G1 X46.0850 Y-22.3847 Z0.2380
G1 X46.0834 Y-22.3843 Z0.2380
G1 X45.0497 Y-22.3843 Z0.2380
G1 X45.0481 Y-22.3847 Z0.2380
G1 X45.0470 Y-22.3858 Z0.2380
G1 X45.0466 Y-22.3874 Z0.2380
G1 X45.0466 Y-23.2091 Z0.2380
G1 X45.0470 Y-23.2107 Z0.2380
G1 X45.0481 Y-23.2118 Z0.2380
G1 X45.0497 Y-23.2123 Z0.2380
G1 X45.5666 Y-23.2123 Z0.2380
G1 X45.8166 Y-23.2123 Z0.2380
G0 Z0.3460
G0 X45.8166 Y-23.2123 
G0 Z0.3460
G0 X45.6800 Y-23.2123 
G1 X45.6800 Y-23.2123 Z0.2460 F21.
G1 X45.5666 Y-23.2123 Z0.2260
G1 X45.0497 Y-23.2123 Z0.2260 F22.
G1 X45.0481 Y-23.2118 Z0.2260
G1 X45.0470 Y-23.2107 Z0.2260
G1 X45.0466 Y-23.2091 Z0.2260
G1 X45.0466 Y-22.3874 Z0.2260
G1 X45.0470 Y-22.3858 Z0.2260
G1 X45.0481 Y-22.3847 Z0.2260
G1 X45.0497 Y-22.3843 Z0.2260
G1 X46.0834 Y-22.3843 Z0.2260
G1 X46.0850 Y-22.3847 Z0.2260
G1 X46.0861 Y-22.3858 Z0.2260
G1 X46.0866 Y-22.3874 Z0.2260
G1 X46.0866 Y-23.2091 Z0.2260
G1 X46.0861 Y-23.2107 Z0.2260
G1 X46.0850 Y-23.2118 Z0.2260
G1 X46.0834 Y-23.2123 Z0.2260
G1 X45.5666 Y-23.2123 Z0.2260
G1 X45.3166 Y-23.2123 Z0.2260
G0 Z0.3340
G0 X45.3166 Y-23.2123 
G0 Z0.3340
G0 X45.4531 Y-23.2123 
G1 X45.4531 Y-23.2123 Z0.2340 F21.
G1 X45.5666 Y-23.2123 Z0.2140
G1 X46.0834 Y-23.2123 Z0.2140 F22.
G1 X46.0850 Y-23.2118 Z0.2140
G1 X46.0861 Y-23.2107 Z0.2140
G1 X46.0866 Y-23.2091 Z0.2140
G1 X46.0866 Y-22.3874 Z0.2140
G1 X46.0861 Y-22.3858 Z0.2140
G1 X46.0850 Y-22.3847 Z0.2140
G1 X46.0834 Y-22.3843 Z0.2140
G1 X45.0497 Y-22.3843 Z0.2140
G1 X45.0481 Y-22.3847 Z0.2140
G1 X45.0470 Y-22.3858 Z0.2140
G1 X45.0466 Y-22.3874 Z0.2140
G1 X45.0466 Y-23.2091 Z0.2140
G1 X45.0470 Y-23.2107 Z0.2140
G1 X45.0481 Y-23.2118 Z0.2140
G1 X45.0497 Y-23.2123 Z0.2140
G1 X45.5666 Y-23.2123 Z0.2140
G1 X45.8166 Y-23.2123 Z0.2140
G0 Z0.3220
G0 X45.8166 Y-23.2123 
G0 Z0.3220
G0 X45.6800 Y-23.2123 
G1 X45.6800 Y-23.2123 Z0.2220 F21.
G1 X45.5666 Y-23.2123 Z0.2020
G1 X45.0497 Y-23.2123 Z0.2020 F22.
G1 X45.0481 Y-23.2118 Z0.2020
G1 X45.0470 Y-23.2107 Z0.2020
G1 X45.0466 Y-23.2091 Z0.2020
G1 X45.0466 Y-22.3874 Z0.2020
G1 X45.0470 Y-22.3858 Z0.2020
G1 X45.0481 Y-22.3847 Z0.2020
G1 X45.0497 Y-22.3843 Z0.2020
G1 X46.0834 Y-22.3843 Z0.2020
G1 X46.0850 Y-22.3847 Z0.2020
G1 X46.0861 Y-22.3858 Z0.2020
G1 X46.0866 Y-22.3874 Z0.2020
G1 X46.0866 Y-23.2091 Z0.2020
G1 X46.0861 Y-23.2107 Z0.2020
G1 X46.0850 Y-23.2118 Z0.2020
G1 X46.0834 Y-23.2123 Z0.2020
G1 X45.5666 Y-23.2123 Z0.2020
G1 X45.3166 Y-23.2123 Z0.2020
G0 Z0.3100
G0 X45.3166 Y-23.2123 
G0 Z0.3100
G0 X45.4531 Y-23.2123 
G1 X45.4531 Y-23.2123 Z0.2100 F21.
G1 X45.5666 Y-23.2123 Z0.1900
G1 X46.0834 Y-23.2123 Z0.1900 F22.
G1 X46.0850 Y-23.2118 Z0.1900
G1 X46.0861 Y-23.2107 Z0.1900
G1 X46.0866 Y-23.2091 Z0.1900
G1 X46.0866 Y-22.3874 Z0.1900
G1 X46.0861 Y-22.3858 Z0.1900
G1 X46.0850 Y-22.3847 Z0.1900
G1 X46.0834 Y-22.3843 Z0.1900
G1 X45.0497 Y-22.3843 Z0.1900
G1 X45.0481 Y-22.3847 Z0.1900
G1 X45.0470 Y-22.3858 Z0.1900
G1 X45.0466 Y-22.3874 Z0.1900
G1 X45.0466 Y-23.2091 Z0.1900
G1 X45.0470 Y-23.2107 Z0.1900
G1 X45.0481 Y-23.2118 Z0.1900
G1 X45.0497 Y-23.2123 Z0.1900
G1 X45.5666 Y-23.2123 Z0.1900
G1 X45.8166 Y-23.2123 Z0.1900
G0 Z4.0000
G0 X45.8166 Y-23.2123 
M5
G53 Z
X2Y0
