( MOP:  02-inlay-Trapezoids-idPT06-s25PT5-03 )
( FILE: G:\Shared drives\AlloyProjectFiles\Customer CAD files\Alloy-Standard-Builds-CAM\Fingerboards-in\02-inlay-Trapezoids-idPT06-s25PT5-03.nc)
G90
(  BEGIN TOOL LIST )
(  TOOL 6 - Downcut PT250 - DESC: 0.2500 DIA, 2 FLUTE,  CARBIDE MAT )
(  ENDOF TOOL LIST )
( 02-inlay-Trapezoids-idPT06-s25PT5-03)
( Max Depth 1.75)
T06
S12000
M3
G0 Z1.0000
G0 X31.8332 Y-22.6632 
G1 X31.8332 Y-22.6632 Z0.2670 F75.
G1 X31.8332 Y-22.6632 Z0.2420 F25.
G1 X31.8332 Y-22.3797 Z0.1920
G17
G2X31.7692Y-22.3992Z0.1920I-0.2195J0.6051 F75.
G1 X31.7692 Y-23.1971 Z0.1920
G2X31.8332Y-23.2166Z0.1920I-0.1555J-0.6246
G1 X31.8332 Y-22.3797 Z0.1920
G0 Z0.3475
G0 X31.8332 Y-22.3797 
G0 Z0.3475
G0 X33.9221 Y-22.6632 
G1 X33.9221 Y-22.6632 Z0.2670 F75.
G1 X33.9221 Y-22.6632 Z0.2420 F25.
G1 X33.9221 Y-22.3797 Z0.1920
G2X33.8581Y-22.3992Z0.1920I-0.2195J0.6051 F75.
G1 X33.8581 Y-23.1971 Z0.1920
G2X33.9221Y-23.2166Z0.1920I-0.1555J-0.6246
G1 X33.9221 Y-22.3797 Z0.1920
G0 Z0.3475
G0 X33.9221 Y-22.3797 
G0 Z0.3475
G0 X38.3813 Y-22.7018 
G1 X38.3813 Y-22.7018 Z0.2670 F75.
G1 X38.3813 Y-22.7018 Z0.2420 F25.
G1 X38.3813 Y-22.4182 Z0.1920
G2X38.1913Y-22.4692Z0.1920I-0.3450J0.9051 F75.
G1 X38.1913 Y-23.1271 Z0.1920
G2X38.3813Y-23.1781Z0.1920I-0.1550J-0.9561
G1 X38.3813 Y-22.4182 Z0.1920
G0 Z0.3475
G0 X38.3813 Y-22.4182 
G0 Z0.3475
G0 X42.7815 Y-22.8482 
G1 X42.7815 Y-22.8482 Z0.2670 F75.
G1 X42.7815 Y-22.8482 Z0.2420 F25.
G1 X42.7815 Y-22.6259 Z0.2028
G1 X42.7855 Y-22.6253 Z0.2021
G1 X42.7895 Y-22.6246 Z0.2014
G1 X42.7936 Y-22.6239 Z0.2006
G1 X42.7976 Y-22.6232 Z0.1999
G1 X42.8016 Y-22.6225 Z0.1992
G1 X42.8056 Y-22.6217 Z0.1985
G1 X42.8096 Y-22.6210 Z0.1978
G1 X42.8137 Y-22.6202 Z0.1970
G1 X42.8177 Y-22.6195 Z0.1963
G1 X42.8217 Y-22.6187 Z0.1956
G1 X42.8257 Y-22.6179 Z0.1949
G1 X42.8297 Y-22.6171 Z0.1942
G1 X42.8337 Y-22.6163 Z0.1934
G1 X42.8377 Y-22.6155 Z0.1927
G1 X42.8417 Y-22.6147 Z0.1920
G3X42.9015Y-22.6010Z0.1920I-0.3120J1.5038 F75.
G1 X42.9015 Y-22.9946 Z0.1920
G3X42.7815Y-22.9698Z0.1920I-0.3674J-1.4740
G1 X42.7815 Y-22.6259 Z0.1920
G3X42.8417Y-22.6147Z0.1920I-0.2518J1.5150
G1 X42.8214 Y-22.5168 Z0.1920
G2X42.6815Y-22.5387Z0.1920I-0.2917J1.4059
G1 X42.6815 Y-23.0572 Z0.1920
G2X43.0015Y-23.1287Z0.1920I-0.1474J-1.4114
G1 X43.0015 Y-22.4670 Z0.1920
G2X42.8214Y-22.5168Z0.1920I-0.4718J1.3561
G0 Z0.3475
G0 X42.8214 Y-22.5168 
G0 Z0.3475
G0 X40.4925 Y-22.7723 
G1 X40.4925 Y-22.7723 Z0.2670 F75.
G1 X40.4925 Y-22.7723 Z0.2420 F25.
G1 X40.4925 Y-22.9946 Z0.2028
G1 X40.4885 Y-22.9936 Z0.2021
G1 X40.4845 Y-22.9927 Z0.2014
G1 X40.4806 Y-22.9917 Z0.2006
G1 X40.4766 Y-22.9908 Z0.1999
G1 X40.4726 Y-22.9898 Z0.1992
G1 X40.4686 Y-22.9889 Z0.1985
G1 X40.4647 Y-22.9880 Z0.1978
G1 X40.4607 Y-22.9871 Z0.1970
G1 X40.4567 Y-22.9862 Z0.1963
G1 X40.4527 Y-22.9853 Z0.1956
G1 X40.4487 Y-22.9844 Z0.1949
G1 X40.4447 Y-22.9835 Z0.1942
G1 X40.4407 Y-22.9827 Z0.1934
G1 X40.4367 Y-22.9818 Z0.1927
G1 X40.4327 Y-22.9810 Z0.1920
G3X40.3725Y-22.9698Z0.1920I-0.3076J-1.4876 F75.
G1 X40.3725 Y-22.6259 Z0.1920
G3X40.4925Y-22.6010Z0.1920I-0.2518J1.5150
G1 X40.4925 Y-22.9946 Z0.1920
G3X40.4327Y-22.9810Z0.1920I-0.3674J-1.4740
G1 X40.4125 Y-23.0789 Z0.1920
G2X40.5925Y-23.1287Z0.1920I-0.2874J-1.3897
G1 X40.5925 Y-22.4670 Z0.1920
G2X40.2725Y-22.5387Z0.1920I-0.4718J1.3561
G1 X40.2725 Y-23.0572 Z0.1920
G2X40.4125Y-23.0789Z0.1920I-0.1474J-1.4114
G0 Z0.3475
G0 X40.4125 Y-23.0789 
G0 Z0.3475
G0 X36.4692 Y-22.7018 
G1 X36.4692 Y-22.7018 Z0.2670 F75.
G1 X36.4692 Y-22.7018 Z0.2420 F25.
G1 X36.4692 Y-22.4182 Z0.1920
G2X36.2792Y-22.4692Z0.1920I-0.3450J0.9051 F75.
G1 X36.2792 Y-23.1271 Z0.1920
G2X36.4692Y-23.1781Z0.1920I-0.1550J-0.9561
G1 X36.4692 Y-22.7982 Z0.1920
G1 X36.4692 Y-22.4182 Z0.1920
G0 Z1.0000
G0 X36.4692 Y-22.4182 
M5
G53 Z
X2Y0
