( MOP:  02-inlay-McSwainStars-idPT081-s24PT625-03 )
( FILE: G:\Shared drives\AlloyProjectFiles\Customer CAD files\Alloy-Standard-Builds-CAM\Fingerboards-in\02-inlay-McSwainStars-idPT081-s24PT625-03.nc)
G90
(  BEGIN TOOL LIST )
(  TOOL 7 - Downcut PT125 - DESC: 0.1250 DIA, 2 FLUTE,  CARBIDE MAT )
(  ENDOF TOOL LIST )
( 02-inlay-McSwainStars-idPT081-s24PT625-03)
T07
S12000
M3
G0 Z4.0000
G0 X30.0879 Y-22.7956 
G1 X30.0879 Y-22.7956 Z0.2538 F75.
G1 X30.0879 Y-22.7953 Z0.2537 F25.
G1 X30.0771 Y-22.7989 Z0.2517
G1 X30.0879 Y-22.8053 Z0.2495
G1 X30.0879 Y-22.7953 Z0.2478
G1 X30.0771 Y-22.7989 Z0.2458
G1 X30.0879 Y-22.8053 Z0.2435
G1 X30.0879 Y-22.7953 Z0.2418
G1 X30.0771 Y-22.7989 Z0.2398
G1 X30.0879 Y-22.8053 Z0.2376
G1 X30.0879 Y-22.7953 Z0.2358
G1 X30.0771 Y-22.7989 Z0.2338
G1 X30.0879 Y-22.8053 Z0.2338 F35.
G1 X30.0879 Y-22.7953 Z0.2338
G1 X30.0771 Y-22.7989 Z0.2338
G0 Z0.2376
G0 X30.0771 Y-22.7989 
G0 Z0.2376
G0 X30.0879 Y-22.7956 
G1 X30.0879 Y-22.7953 Z0.2375 F25.
G1 X30.0771 Y-22.7989 Z0.2355
G1 X30.0879 Y-22.8053 Z0.2333
G1 X30.0879 Y-22.7953 Z0.2316
G1 X30.0771 Y-22.7989 Z0.2296
G1 X30.0879 Y-22.8053 Z0.2273
G1 X30.0879 Y-22.7953 Z0.2256
G1 X30.0771 Y-22.7989 Z0.2236
G1 X30.0879 Y-22.8053 Z0.2214
G1 X30.0879 Y-22.7953 Z0.2196
G1 X30.0771 Y-22.7989 Z0.2176
G1 X30.0879 Y-22.8053 Z0.2176 F35.
G1 X30.0879 Y-22.7953 Z0.2176
G1 X30.0771 Y-22.7989 Z0.2176
G0 Z0.2214
G0 X30.0771 Y-22.7989 
G0 Z0.2214
G0 X30.0879 Y-22.7956 
G1 X30.0879 Y-22.7953 Z0.2213 F25.
G1 X30.0771 Y-22.7989 Z0.2193
G1 X30.0879 Y-22.8053 Z0.2171
G1 X30.0879 Y-22.7953 Z0.2154
G1 X30.0771 Y-22.7989 Z0.2134
G1 X30.0879 Y-22.8053 Z0.2111
G1 X30.0879 Y-22.7953 Z0.2094
G1 X30.0771 Y-22.7989 Z0.2074
G1 X30.0879 Y-22.8053 Z0.2052
G1 X30.0879 Y-22.7953 Z0.2034
G1 X30.0771 Y-22.7989 Z0.2014
G1 X30.0879 Y-22.8053 Z0.2014 F35.
G1 X30.0879 Y-22.7953 Z0.2014
G1 X30.0771 Y-22.7989 Z0.2014
G0 Z0.2052
G0 X30.0771 Y-22.7989 
G0 Z0.2052
G0 X30.0879 Y-22.7956 
G1 X30.0879 Y-22.7953 Z0.2051 F25.
G1 X30.0771 Y-22.7989 Z0.2031
G1 X30.0879 Y-22.8053 Z0.2009
G1 X30.0879 Y-22.7953 Z0.1992
G1 X30.0771 Y-22.7989 Z0.1972
G1 X30.0879 Y-22.8053 Z0.1949
G1 X30.0879 Y-22.7953 Z0.1932
G1 X30.0771 Y-22.7989 Z0.1912
G1 X30.0879 Y-22.8053 Z0.1890
G1 X30.0879 Y-22.7953 Z0.1872
G1 X30.0771 Y-22.7989 Z0.1852
G1 X30.0879 Y-22.8053 Z0.1852 F35.
G1 X30.0879 Y-22.7953 Z0.1852
G1 X30.0771 Y-22.7989 Z0.1852
G0 Z0.1890
G0 X30.0771 Y-22.7989 
G0 Z0.1890
G0 X30.0879 Y-22.7956 
G1 X30.0879 Y-22.7953 Z0.1889 F25.
G1 X30.0771 Y-22.7989 Z0.1869
G1 X30.0879 Y-22.8053 Z0.1847
G1 X30.0879 Y-22.7953 Z0.1830
G1 X30.0771 Y-22.7989 Z0.1810
G1 X30.0879 Y-22.8053 Z0.1787
G1 X30.0879 Y-22.7953 Z0.1770
G1 X30.0771 Y-22.7989 Z0.1750
G1 X30.0879 Y-22.8053 Z0.1728
G1 X30.0879 Y-22.7953 Z0.1710
G1 X30.0771 Y-22.7989 Z0.1690
G1 X30.0879 Y-22.8053 Z0.1690 F35.
G1 X30.0879 Y-22.7953 Z0.1690
G1 X30.0771 Y-22.7989 Z0.1690
G0 Z0.3788
G0 X30.0771 Y-22.7989 
G0 Z0.3788
G0 X31.1210 Y-22.8229 
G1 X31.1210 Y-22.8229 Z0.2538 F75.
G1 X31.1244 Y-22.8240 Z0.2532 F25.
G1 X31.1278 Y-22.8271 Z0.2524
G1 X31.1288 Y-22.8224 Z0.2515
G1 X31.1437 Y-22.8016 Z0.2470
G1 X31.1456 Y-22.8004 Z0.2466
G1 X31.1437 Y-22.7992 Z0.2462
G1 X31.1288 Y-22.7783 Z0.2417
G1 X31.1278 Y-22.7737 Z0.2408
G1 X31.1244 Y-22.7768 Z0.2400
G1 X31.1002 Y-22.7849 Z0.2355
G1 X31.0904 Y-22.7840 Z0.2338
G1 X31.0921 Y-22.7879 Z0.2338 F35.
G1 X31.0921 Y-22.8129 Z0.2338
G1 X31.0904 Y-22.8168 Z0.2338
G1 X31.1002 Y-22.8159 Z0.2338
G1 X31.1244 Y-22.8240 Z0.2338
G1 X31.1278 Y-22.8271 Z0.2338
G1 X31.1288 Y-22.8224 Z0.2338
G1 X31.1437 Y-22.8016 Z0.2338
G1 X31.1456 Y-22.8004 Z0.2338
G1 X31.1437 Y-22.7992 Z0.2338
G1 X31.1288 Y-22.7783 Z0.2338
G1 X31.1278 Y-22.7737 Z0.2338
G1 X31.1244 Y-22.7768 Z0.2338
G1 X31.1002 Y-22.7849 Z0.2338
G1 X31.0904 Y-22.7840 Z0.2338
G0 Z0.2376
G0 X31.0904 Y-22.7840 
G0 Z0.2376
G0 X31.1210 Y-22.8229 
G1 X31.1244 Y-22.8240 Z0.2370 F25.
G1 X31.1278 Y-22.8271 Z0.2362
G1 X31.1288 Y-22.8224 Z0.2353
G1 X31.1437 Y-22.8016 Z0.2308
G1 X31.1456 Y-22.8004 Z0.2304
G1 X31.1437 Y-22.7992 Z0.2300
G1 X31.1288 Y-22.7783 Z0.2255
G1 X31.1278 Y-22.7737 Z0.2246
G1 X31.1244 Y-22.7768 Z0.2238
G1 X31.1002 Y-22.7849 Z0.2193
G1 X31.0904 Y-22.7840 Z0.2176
G1 X31.0921 Y-22.7879 Z0.2176 F35.
G1 X31.0921 Y-22.8129 Z0.2176
G1 X31.0904 Y-22.8168 Z0.2176
G1 X31.1002 Y-22.8159 Z0.2176
G1 X31.1244 Y-22.8240 Z0.2176
G1 X31.1278 Y-22.8271 Z0.2176
G1 X31.1288 Y-22.8224 Z0.2176
G1 X31.1437 Y-22.8016 Z0.2176
G1 X31.1456 Y-22.8004 Z0.2176
G1 X31.1437 Y-22.7992 Z0.2176
G1 X31.1288 Y-22.7783 Z0.2176
G1 X31.1278 Y-22.7737 Z0.2176
G1 X31.1244 Y-22.7768 Z0.2176
G1 X31.1002 Y-22.7849 Z0.2176
G1 X31.0904 Y-22.7840 Z0.2176
G0 Z0.2214
G0 X31.0904 Y-22.7840 
G0 Z0.2214
G0 X31.1210 Y-22.8229 
G1 X31.1244 Y-22.8240 Z0.2208 F25.
G1 X31.1278 Y-22.8271 Z0.2200
G1 X31.1288 Y-22.8224 Z0.2191
G1 X31.1437 Y-22.8016 Z0.2146
G1 X31.1456 Y-22.8004 Z0.2142
G1 X31.1437 Y-22.7992 Z0.2138
G1 X31.1288 Y-22.7783 Z0.2093
G1 X31.1278 Y-22.7737 Z0.2084
G1 X31.1244 Y-22.7768 Z0.2076
G1 X31.1002 Y-22.7849 Z0.2031
G1 X31.0904 Y-22.7840 Z0.2014
G1 X31.0921 Y-22.7879 Z0.2014 F35.
G1 X31.0921 Y-22.8129 Z0.2014
G1 X31.0904 Y-22.8168 Z0.2014
G1 X31.1002 Y-22.8159 Z0.2014
G1 X31.1244 Y-22.8240 Z0.2014
G1 X31.1278 Y-22.8271 Z0.2014
G1 X31.1288 Y-22.8224 Z0.2014
G1 X31.1437 Y-22.8016 Z0.2014
G1 X31.1456 Y-22.8004 Z0.2014
G1 X31.1437 Y-22.7992 Z0.2014
G1 X31.1288 Y-22.7783 Z0.2014
G1 X31.1278 Y-22.7737 Z0.2014
G1 X31.1244 Y-22.7768 Z0.2014
G1 X31.1002 Y-22.7849 Z0.2014
G1 X31.0904 Y-22.7840 Z0.2014
G0 Z0.2052
G0 X31.0904 Y-22.7840 
G0 Z0.2052
G0 X31.1210 Y-22.8229 
G1 X31.1244 Y-22.8240 Z0.2046 F25.
G1 X31.1278 Y-22.8271 Z0.2038
G1 X31.1288 Y-22.8224 Z0.2029
G1 X31.1437 Y-22.8016 Z0.1984
G1 X31.1456 Y-22.8004 Z0.1980
G1 X31.1437 Y-22.7992 Z0.1976
G1 X31.1288 Y-22.7783 Z0.1931
G1 X31.1278 Y-22.7737 Z0.1922
G1 X31.1244 Y-22.7768 Z0.1914
G1 X31.1002 Y-22.7849 Z0.1869
G1 X31.0904 Y-22.7840 Z0.1852
G1 X31.0921 Y-22.7879 Z0.1852 F35.
G1 X31.0921 Y-22.8129 Z0.1852
G1 X31.0904 Y-22.8168 Z0.1852
G1 X31.1002 Y-22.8159 Z0.1852
G1 X31.1244 Y-22.8240 Z0.1852
G1 X31.1278 Y-22.8271 Z0.1852
G1 X31.1288 Y-22.8224 Z0.1852
G1 X31.1437 Y-22.8016 Z0.1852
G1 X31.1456 Y-22.8004 Z0.1852
G1 X31.1437 Y-22.7992 Z0.1852
G1 X31.1288 Y-22.7783 Z0.1852
G1 X31.1278 Y-22.7737 Z0.1852
G1 X31.1244 Y-22.7768 Z0.1852
G1 X31.1002 Y-22.7849 Z0.1852
G1 X31.0904 Y-22.7840 Z0.1852
G0 Z0.1890
G0 X31.0904 Y-22.7840 
G0 Z0.1890
G0 X31.1210 Y-22.8229 
G1 X31.1244 Y-22.8240 Z0.1884 F25.
G1 X31.1278 Y-22.8271 Z0.1876
G1 X31.1288 Y-22.8224 Z0.1867
G1 X31.1437 Y-22.8016 Z0.1822
G1 X31.1456 Y-22.8004 Z0.1818
G1 X31.1437 Y-22.7992 Z0.1814
G1 X31.1288 Y-22.7783 Z0.1769
G1 X31.1278 Y-22.7737 Z0.1760
G1 X31.1244 Y-22.7768 Z0.1752
G1 X31.1002 Y-22.7849 Z0.1707
G1 X31.0904 Y-22.7840 Z0.1690
G1 X31.0921 Y-22.7879 Z0.1690 F35.
G1 X31.0921 Y-22.8129 Z0.1690
G1 X31.0904 Y-22.8168 Z0.1690
G1 X31.1002 Y-22.8159 Z0.1690
G1 X31.1244 Y-22.8240 Z0.1690
G1 X31.1278 Y-22.8271 Z0.1690
G1 X31.1288 Y-22.8224 Z0.1690
G1 X31.1437 Y-22.8016 Z0.1690
G1 X31.1456 Y-22.8004 Z0.1690
G1 X31.1437 Y-22.7992 Z0.1690
G1 X31.1288 Y-22.7783 Z0.1690
G1 X31.1278 Y-22.7737 Z0.1690
G1 X31.1244 Y-22.7768 Z0.1690
G1 X31.1002 Y-22.7849 Z0.1690
G1 X31.0904 Y-22.7840 Z0.1690
G0 Z0.3788
G0 X31.0904 Y-22.7840 
G0 Z0.3788
G0 X32.2848 Y-22.8237 
G1 X32.2848 Y-22.8237 Z0.2538 F75.
G1 X32.2883 Y-22.8248 Z0.2532 F25.
G1 X32.2917 Y-22.8279 Z0.2524
G1 X32.2926 Y-22.8232 Z0.2515
G1 X32.3075 Y-22.8024 Z0.2470
G1 X32.3095 Y-22.8012 Z0.2466
G1 X32.3075 Y-22.8000 Z0.2462
G1 X32.2926 Y-22.7791 Z0.2417
G1 X32.2917 Y-22.7745 Z0.2408
G1 X32.2883 Y-22.7776 Z0.2400
G1 X32.2641 Y-22.7857 Z0.2355
G1 X32.2543 Y-22.7848 Z0.2338
G1 X32.2560 Y-22.7887 Z0.2338 F35.
G1 X32.2560 Y-22.8137 Z0.2338
G1 X32.2543 Y-22.8176 Z0.2338
G1 X32.2641 Y-22.8167 Z0.2338
G1 X32.2883 Y-22.8248 Z0.2338
G1 X32.2917 Y-22.8279 Z0.2338
G1 X32.2926 Y-22.8232 Z0.2338
G1 X32.3075 Y-22.8024 Z0.2338
G1 X32.3095 Y-22.8012 Z0.2338
G1 X32.3075 Y-22.8000 Z0.2338
G1 X32.2926 Y-22.7791 Z0.2338
G1 X32.2917 Y-22.7745 Z0.2338
G1 X32.2883 Y-22.7776 Z0.2338
G1 X32.2641 Y-22.7857 Z0.2338
G1 X32.2543 Y-22.7848 Z0.2338
G0 Z0.2376
G0 X32.2543 Y-22.7848 
G0 Z0.2376
G0 X32.2848 Y-22.8237 
G1 X32.2883 Y-22.8248 Z0.2370 F25.
G1 X32.2917 Y-22.8279 Z0.2362
G1 X32.2926 Y-22.8232 Z0.2353
G1 X32.3075 Y-22.8024 Z0.2308
G1 X32.3095 Y-22.8012 Z0.2304
G1 X32.3075 Y-22.8000 Z0.2300
G1 X32.2926 Y-22.7791 Z0.2255
G1 X32.2917 Y-22.7745 Z0.2246
G1 X32.2883 Y-22.7776 Z0.2238
G1 X32.2641 Y-22.7857 Z0.2193
G1 X32.2543 Y-22.7848 Z0.2176
G1 X32.2560 Y-22.7887 Z0.2176 F35.
G1 X32.2560 Y-22.8137 Z0.2176
G1 X32.2543 Y-22.8176 Z0.2176
G1 X32.2641 Y-22.8167 Z0.2176
G1 X32.2883 Y-22.8248 Z0.2176
G1 X32.2917 Y-22.8279 Z0.2176
G1 X32.2926 Y-22.8232 Z0.2176
G1 X32.3075 Y-22.8024 Z0.2176
G1 X32.3095 Y-22.8012 Z0.2176
G1 X32.3075 Y-22.8000 Z0.2176
G1 X32.2926 Y-22.7791 Z0.2176
G1 X32.2917 Y-22.7745 Z0.2176
G1 X32.2883 Y-22.7776 Z0.2176
G1 X32.2641 Y-22.7857 Z0.2176
G1 X32.2543 Y-22.7848 Z0.2176
G0 Z0.2214
G0 X32.2543 Y-22.7848 
G0 Z0.2214
G0 X32.2848 Y-22.8237 
G1 X32.2883 Y-22.8248 Z0.2208 F25.
G1 X32.2917 Y-22.8279 Z0.2200
G1 X32.2926 Y-22.8232 Z0.2191
G1 X32.3075 Y-22.8024 Z0.2146
G1 X32.3095 Y-22.8012 Z0.2142
G1 X32.3075 Y-22.8000 Z0.2138
G1 X32.2926 Y-22.7791 Z0.2093
G1 X32.2917 Y-22.7745 Z0.2084
G1 X32.2883 Y-22.7776 Z0.2076
G1 X32.2641 Y-22.7857 Z0.2031
G1 X32.2543 Y-22.7848 Z0.2014
G1 X32.2560 Y-22.7887 Z0.2014 F35.
G1 X32.2560 Y-22.8137 Z0.2014
G1 X32.2543 Y-22.8176 Z0.2014
G1 X32.2641 Y-22.8167 Z0.2014
G1 X32.2883 Y-22.8248 Z0.2014
G1 X32.2917 Y-22.8279 Z0.2014
G1 X32.2926 Y-22.8232 Z0.2014
G1 X32.3075 Y-22.8024 Z0.2014
G1 X32.3095 Y-22.8012 Z0.2014
G1 X32.3075 Y-22.8000 Z0.2014
G1 X32.2926 Y-22.7791 Z0.2014
G1 X32.2917 Y-22.7745 Z0.2014
G1 X32.2883 Y-22.7776 Z0.2014
G1 X32.2641 Y-22.7857 Z0.2014
G1 X32.2543 Y-22.7848 Z0.2014
G0 Z0.2052
G0 X32.2543 Y-22.7848 
G0 Z0.2052
G0 X32.2848 Y-22.8237 
G1 X32.2883 Y-22.8248 Z0.2046 F25.
G1 X32.2917 Y-22.8279 Z0.2038
G1 X32.2926 Y-22.8232 Z0.2029
G1 X32.3075 Y-22.8024 Z0.1984
G1 X32.3095 Y-22.8012 Z0.1980
G1 X32.3075 Y-22.8000 Z0.1976
G1 X32.2926 Y-22.7791 Z0.1931
G1 X32.2917 Y-22.7745 Z0.1922
G1 X32.2883 Y-22.7776 Z0.1914
G1 X32.2641 Y-22.7857 Z0.1869
G1 X32.2543 Y-22.7848 Z0.1852
G1 X32.2560 Y-22.7887 Z0.1852 F35.
G1 X32.2560 Y-22.8137 Z0.1852
G1 X32.2543 Y-22.8176 Z0.1852
G1 X32.2641 Y-22.8167 Z0.1852
G1 X32.2883 Y-22.8248 Z0.1852
G1 X32.2917 Y-22.8279 Z0.1852
G1 X32.2926 Y-22.8232 Z0.1852
G1 X32.3075 Y-22.8024 Z0.1852
G1 X32.3095 Y-22.8012 Z0.1852
G1 X32.3075 Y-22.8000 Z0.1852
G1 X32.2926 Y-22.7791 Z0.1852
G1 X32.2917 Y-22.7745 Z0.1852
G1 X32.2883 Y-22.7776 Z0.1852
G1 X32.2641 Y-22.7857 Z0.1852
G1 X32.2543 Y-22.7848 Z0.1852
G0 Z0.1890
G0 X32.2543 Y-22.7848 
G0 Z0.1890
G0 X32.2848 Y-22.8237 
G1 X32.2883 Y-22.8248 Z0.1884 F25.
G1 X32.2917 Y-22.8279 Z0.1876
G1 X32.2926 Y-22.8232 Z0.1867
G1 X32.3075 Y-22.8024 Z0.1822
G1 X32.3095 Y-22.8012 Z0.1818
G1 X32.3075 Y-22.8000 Z0.1814
G1 X32.2926 Y-22.7791 Z0.1769
G1 X32.2917 Y-22.7745 Z0.1760
G1 X32.2883 Y-22.7776 Z0.1752
G1 X32.2641 Y-22.7857 Z0.1707
G1 X32.2543 Y-22.7848 Z0.1690
G1 X32.2560 Y-22.7887 Z0.1690 F35.
G1 X32.2560 Y-22.8137 Z0.1690
G1 X32.2543 Y-22.8176 Z0.1690
G1 X32.2641 Y-22.8167 Z0.1690
G1 X32.2883 Y-22.8248 Z0.1690
G1 X32.2917 Y-22.8279 Z0.1690
G1 X32.2926 Y-22.8232 Z0.1690
G1 X32.3075 Y-22.8024 Z0.1690
G1 X32.3095 Y-22.8012 Z0.1690
G1 X32.3075 Y-22.8000 Z0.1690
G1 X32.2926 Y-22.7791 Z0.1690
G1 X32.2917 Y-22.7745 Z0.1690
G1 X32.2883 Y-22.7776 Z0.1690
G1 X32.2641 Y-22.7857 Z0.1690
G1 X32.2543 Y-22.7848 Z0.1690
G0 Z0.3788
G0 X32.2543 Y-22.7848 
G0 Z0.3788
G0 X34.3034 Y-22.7847 
G1 X34.3034 Y-22.7847 Z0.2538 F75.
G1 X34.3153 Y-22.8013 Z0.2502 F25.
G1 X34.3014 Y-22.8207 Z0.2460
G1 X34.2776 Y-22.8127 Z0.2416
G1 X34.2704 Y-22.8112 Z0.2403
G1 X34.2704 Y-22.7914 Z0.2368
G1 X34.2719 Y-22.7912 Z0.2365
G1 X34.2866 Y-22.7865 Z0.2338
G1 X34.3014 Y-22.7819 Z0.2338 F35.
G1 X34.3153 Y-22.8013 Z0.2338
G1 X34.3014 Y-22.8207 Z0.2338
G1 X34.2776 Y-22.8127 Z0.2338
G1 X34.2704 Y-22.8112 Z0.2338
G1 X34.2704 Y-22.7914 Z0.2338
G1 X34.2719 Y-22.7912 Z0.2338
G1 X34.2866 Y-22.7865 Z0.2338
G1 X34.2768 Y-22.7572 Z0.2338
G1 X34.2677 Y-22.7602 Z0.2338
G1 X34.2422 Y-22.7580 Z0.2338
G1 X34.2191 Y-22.7510 Z0.2338
G17
G2X34.2191Y-22.8516Z0.2338I-0.0492J-0.0503
G2X34.3216Y-22.8822Z0.2338I0.0371J-0.0626
G2X34.3741Y-22.8013Z0.2338I0.0673J0.0138
G2X34.3216Y-22.7203Z0.2338I0.0138J0.0665
G1 X34.3108 Y-22.7351 Z0.2338
G1 X34.2919 Y-22.7521 Z0.2338
G1 X34.2768 Y-22.7572 Z0.2338
G0 Z0.2376
G0 X34.2768 Y-22.7572 
G0 Z0.2376
G0 X34.3034 Y-22.7847 
G1 X34.3153 Y-22.8013 Z0.2340 F25.
G1 X34.3014 Y-22.8207 Z0.2298
G1 X34.2776 Y-22.8127 Z0.2254
G1 X34.2704 Y-22.8112 Z0.2241
G1 X34.2704 Y-22.7914 Z0.2206
G1 X34.2719 Y-22.7912 Z0.2203
G1 X34.2866 Y-22.7865 Z0.2176
G1 X34.3014 Y-22.7819 Z0.2176 F35.
G1 X34.3153 Y-22.8013 Z0.2176
G1 X34.3014 Y-22.8207 Z0.2176
G1 X34.2776 Y-22.8127 Z0.2176
G1 X34.2704 Y-22.8112 Z0.2176
G1 X34.2704 Y-22.7914 Z0.2176
G1 X34.2719 Y-22.7912 Z0.2176
G1 X34.2866 Y-22.7865 Z0.2176
G1 X34.2768 Y-22.7572 Z0.2176
G1 X34.2677 Y-22.7602 Z0.2176
G1 X34.2422 Y-22.7580 Z0.2176
G1 X34.2191 Y-22.7510 Z0.2176
G2X34.2191Y-22.8516Z0.2176I-0.0492J-0.0503
G2X34.3216Y-22.8822Z0.2176I0.0371J-0.0626
G2X34.3741Y-22.8013Z0.2176I0.0673J0.0138
G2X34.3216Y-22.7203Z0.2176I0.0138J0.0665
G1 X34.3108 Y-22.7351 Z0.2176
G1 X34.2919 Y-22.7521 Z0.2176
G1 X34.2768 Y-22.7572 Z0.2176
G0 Z0.2214
G0 X34.2768 Y-22.7572 
G0 Z0.2214
G0 X34.3034 Y-22.7847 
G1 X34.3153 Y-22.8013 Z0.2178 F25.
G1 X34.3014 Y-22.8207 Z0.2136
G1 X34.2776 Y-22.8127 Z0.2092
G1 X34.2704 Y-22.8112 Z0.2079
G1 X34.2704 Y-22.7914 Z0.2044
G1 X34.2719 Y-22.7912 Z0.2041
G1 X34.2866 Y-22.7865 Z0.2014
G1 X34.3014 Y-22.7819 Z0.2014 F35.
G1 X34.3153 Y-22.8013 Z0.2014
G1 X34.3014 Y-22.8207 Z0.2014
G1 X34.2776 Y-22.8127 Z0.2014
G1 X34.2704 Y-22.8112 Z0.2014
G1 X34.2704 Y-22.7914 Z0.2014
G1 X34.2719 Y-22.7912 Z0.2014
G1 X34.2866 Y-22.7865 Z0.2014
G1 X34.2768 Y-22.7572 Z0.2014
G1 X34.2677 Y-22.7602 Z0.2014
G1 X34.2422 Y-22.7580 Z0.2014
G1 X34.2191 Y-22.7510 Z0.2014
G2X34.2191Y-22.8516Z0.2014I-0.0492J-0.0503
G2X34.3216Y-22.8822Z0.2014I0.0371J-0.0626
G2X34.3741Y-22.8013Z0.2014I0.0673J0.0138
G2X34.3216Y-22.7203Z0.2014I0.0138J0.0665
G1 X34.3108 Y-22.7351 Z0.2014
G1 X34.2919 Y-22.7521 Z0.2014
G1 X34.2768 Y-22.7572 Z0.2014
G0 Z0.2052
G0 X34.2768 Y-22.7572 
G0 Z0.2052
G0 X34.3034 Y-22.7847 
G1 X34.3153 Y-22.8013 Z0.2016 F25.
G1 X34.3014 Y-22.8207 Z0.1974
G1 X34.2776 Y-22.8127 Z0.1930
G1 X34.2704 Y-22.8112 Z0.1917
G1 X34.2704 Y-22.7914 Z0.1882
G1 X34.2719 Y-22.7912 Z0.1879
G1 X34.2866 Y-22.7865 Z0.1852
G1 X34.3014 Y-22.7819 Z0.1852 F35.
G1 X34.3153 Y-22.8013 Z0.1852
G1 X34.3014 Y-22.8207 Z0.1852
G1 X34.2776 Y-22.8127 Z0.1852
G1 X34.2704 Y-22.8112 Z0.1852
G1 X34.2704 Y-22.7914 Z0.1852
G1 X34.2719 Y-22.7912 Z0.1852
G1 X34.2866 Y-22.7865 Z0.1852
G1 X34.2768 Y-22.7572 Z0.1852
G1 X34.2677 Y-22.7602 Z0.1852
G1 X34.2422 Y-22.7580 Z0.1852
G1 X34.2191 Y-22.7510 Z0.1852
G2X34.2191Y-22.8516Z0.1852I-0.0492J-0.0503
G2X34.3216Y-22.8822Z0.1852I0.0371J-0.0626
G2X34.3741Y-22.8013Z0.1852I0.0673J0.0138
G2X34.3216Y-22.7203Z0.1852I0.0138J0.0665
G1 X34.3108 Y-22.7351 Z0.1852
G1 X34.2919 Y-22.7521 Z0.1852
G1 X34.2768 Y-22.7572 Z0.1852
G0 Z0.1890
G0 X34.2768 Y-22.7572 
G0 Z0.1890
G0 X34.3034 Y-22.7847 
G1 X34.3153 Y-22.8013 Z0.1854 F25.
G1 X34.3014 Y-22.8207 Z0.1812
G1 X34.2776 Y-22.8127 Z0.1768
G1 X34.2704 Y-22.8112 Z0.1755
G1 X34.2704 Y-22.7914 Z0.1720
G1 X34.2719 Y-22.7912 Z0.1717
G1 X34.2866 Y-22.7865 Z0.1690
G1 X34.3014 Y-22.7819 Z0.1690 F35.
G1 X34.3153 Y-22.8013 Z0.1690
G1 X34.3014 Y-22.8207 Z0.1690
G1 X34.2776 Y-22.8127 Z0.1690
G1 X34.2704 Y-22.8112 Z0.1690
G1 X34.2704 Y-22.7914 Z0.1690
G1 X34.2719 Y-22.7912 Z0.1690
G1 X34.2866 Y-22.7865 Z0.1690
G1 X34.2768 Y-22.7572 Z0.1690
G1 X34.2677 Y-22.7602 Z0.1690
G1 X34.2422 Y-22.7580 Z0.1690
G1 X34.2191 Y-22.7510 Z0.1690
G2X34.2191Y-22.8516Z0.1690I-0.0492J-0.0503
G2X34.3216Y-22.8822Z0.1690I0.0371J-0.0626
G2X34.3741Y-22.8013Z0.1690I0.0673J0.0138
G2X34.3216Y-22.7203Z0.1690I0.0138J0.0665
G1 X34.3108 Y-22.7351 Z0.1690
G1 X34.2919 Y-22.7521 Z0.1690
G1 X34.2768 Y-22.7572 Z0.1690
G0 Z0.3788
G0 X34.2768 Y-22.7572 
G0 Z0.3788
G0 X36.6506 Y-22.7894 
G1 X36.6506 Y-22.7894 Z0.2538 F75.
G1 X36.6506 Y-22.7880 Z0.2536 F25.
G1 X36.6506 Y-22.7872 Z0.2534
G1 X36.6506 Y-22.7865 Z0.2533
G1 X36.6505 Y-22.7857 Z0.2531
G1 X36.6505 Y-22.7849 Z0.2530
G1 X36.6504 Y-22.7842 Z0.2529
G1 X36.6503 Y-22.7834 Z0.2527
G1 X36.6502 Y-22.7826 Z0.2526
G1 X36.6500 Y-22.7819 Z0.2525
G1 X36.6499 Y-22.7811 Z0.2523
G1 X36.6497 Y-22.7804 Z0.2522
G1 X36.6495 Y-22.7796 Z0.2521
G1 X36.6493 Y-22.7789 Z0.2519
G1 X36.6490 Y-22.7781 Z0.2518
G1 X36.6488 Y-22.7774 Z0.2516
G1 X36.6485 Y-22.7767 Z0.2515
G1 X36.6557 Y-22.7773 Z0.2502
G1 X36.6566 Y-22.7774 Z0.2501
G1 X36.6574 Y-22.7774 Z0.2499
G1 X36.6583 Y-22.7775 Z0.2498
G1 X36.6591 Y-22.7775 Z0.2496
G1 X36.6600 Y-22.7774 Z0.2495
G1 X36.6608 Y-22.7774 Z0.2493
G1 X36.6617 Y-22.7773 Z0.2492
G1 X36.6625 Y-22.7772 Z0.2490
G1 X36.6634 Y-22.7771 Z0.2489
G1 X36.6642 Y-22.7769 Z0.2487
G1 X36.6651 Y-22.7768 Z0.2486
G1 X36.6659 Y-22.7766 Z0.2484
G1 X36.6667 Y-22.7763 Z0.2483
G1 X36.6676 Y-22.7761 Z0.2481
G1 X36.6684 Y-22.7759 Z0.2480
G1 X36.6926 Y-22.7678 Z0.2435
G1 X36.6933 Y-22.7675 Z0.2433
G1 X36.6941 Y-22.7672 Z0.2432
G1 X36.6949 Y-22.7669 Z0.2430
G1 X36.6956 Y-22.7666 Z0.2429
G1 X36.6963 Y-22.7662 Z0.2428
G1 X36.6971 Y-22.7659 Z0.2426
G1 X36.6978 Y-22.7655 Z0.2425
G1 X36.6985 Y-22.7651 Z0.2423
G1 X36.6992 Y-22.7647 Z0.2422
G1 X36.6999 Y-22.7642 Z0.2420
G1 X36.7005 Y-22.7638 Z0.2419
G1 X36.7012 Y-22.7633 Z0.2418
G1 X36.7018 Y-22.7628 Z0.2416
G1 X36.7025 Y-22.7623 Z0.2415
G1 X36.7031 Y-22.7618 Z0.2413
G1 X36.7033 Y-22.7626 Z0.2412
G1 X36.7035 Y-22.7634 Z0.2410
G1 X36.7037 Y-22.7642 Z0.2409
G1 X36.7040 Y-22.7650 Z0.2407
G1 X36.7043 Y-22.7658 Z0.2406
G1 X36.7046 Y-22.7665 Z0.2404
G1 X36.7049 Y-22.7673 Z0.2403
G1 X36.7052 Y-22.7681 Z0.2402
G1 X36.7056 Y-22.7688 Z0.2400
G1 X36.7060 Y-22.7695 Z0.2399
G1 X36.7064 Y-22.7703 Z0.2397
G1 X36.7068 Y-22.7710 Z0.2396
G1 X36.7072 Y-22.7717 Z0.2394
G1 X36.7077 Y-22.7724 Z0.2393
G1 X36.7082 Y-22.7731 Z0.2391
G1 X36.7231 Y-22.7940 Z0.2346
G1 X36.7262 Y-22.7972 Z0.2338
G1 X36.7294 Y-22.8005 Z0.2338 F35.
G1 X36.7231 Y-22.8071 Z0.2338
G1 X36.7082 Y-22.8280 Z0.2338
G3X36.7031Y-22.8393Z0.2338I0.0254J-0.0181
G3X36.6926Y-22.8333Z0.2338I-0.0204J-0.0236
G1 X36.6684 Y-22.8252 Z0.2338
G3X36.6557Y-22.8237Z0.2338I-0.0099J-0.0297
G1 X36.6485 Y-22.8244 Z0.2338
G3X36.6506Y-22.8131Z0.2338I-0.0291J0.0113
G1 X36.6506 Y-22.7880 Z0.2338
G3X36.6485Y-22.7767Z0.2338I-0.0312J0.0000
G1 X36.6557 Y-22.7773 Z0.2338
G3X36.6684Y-22.7759Z0.2338I0.0028J0.0311
G1 X36.6926 Y-22.7678 Z0.2338
G3X36.7031Y-22.7618Z0.2338I-0.0099J0.0297
G3X36.7082Y-22.7731Z0.2338I0.0305J0.0069
G1 X36.7231 Y-22.7940 Z0.2338
G1 X36.7262 Y-22.7972 Z0.2338
G1 X36.7485 Y-22.7758 Z0.2338
G1 X36.7336 Y-22.7549 Z0.2338
G1 X36.7283 Y-22.7298 Z0.2338
G1 X36.7283 Y-22.6846 Z0.2338
G2X36.5849Y-22.7294Z0.2338I-0.0876J0.0284
G2X36.5849Y-22.8717Z0.2338I-0.0539J-0.0711
G2X36.7283Y-22.9165Z0.2338I0.0556J-0.0739
G2X36.8043Y-22.8005Z0.2338I0.0819J0.0293
G1 X36.7705 Y-22.7889 Z0.2338
G1 X36.7485 Y-22.7758 Z0.2338
G0 Z0.2376
G0 X36.7485 Y-22.7758 
G0 Z0.2376
G0 X36.6506 Y-22.7894 
G1 X36.6506 Y-22.7880 Z0.2374 F25.
G1 X36.6506 Y-22.7872 Z0.2372
G1 X36.6506 Y-22.7865 Z0.2371
G1 X36.6505 Y-22.7857 Z0.2369
G1 X36.6505 Y-22.7849 Z0.2368
G1 X36.6504 Y-22.7842 Z0.2367
G1 X36.6503 Y-22.7834 Z0.2365
G1 X36.6502 Y-22.7826 Z0.2364
G1 X36.6500 Y-22.7819 Z0.2363
G1 X36.6499 Y-22.7811 Z0.2361
G1 X36.6497 Y-22.7804 Z0.2360
G1 X36.6495 Y-22.7796 Z0.2359
G1 X36.6493 Y-22.7789 Z0.2357
G1 X36.6490 Y-22.7781 Z0.2356
G1 X36.6488 Y-22.7774 Z0.2354
G1 X36.6485 Y-22.7767 Z0.2353
G1 X36.6557 Y-22.7773 Z0.2340
G1 X36.6566 Y-22.7774 Z0.2339
G1 X36.6574 Y-22.7774 Z0.2337
G1 X36.6583 Y-22.7775 Z0.2336
G1 X36.6591 Y-22.7775 Z0.2334
G1 X36.6600 Y-22.7774 Z0.2333
G1 X36.6608 Y-22.7774 Z0.2331
G1 X36.6617 Y-22.7773 Z0.2330
G1 X36.6625 Y-22.7772 Z0.2328
G1 X36.6634 Y-22.7771 Z0.2327
G1 X36.6642 Y-22.7769 Z0.2325
G1 X36.6651 Y-22.7768 Z0.2324
G1 X36.6659 Y-22.7766 Z0.2322
G1 X36.6667 Y-22.7763 Z0.2321
G1 X36.6676 Y-22.7761 Z0.2319
G1 X36.6684 Y-22.7759 Z0.2318
G1 X36.6926 Y-22.7678 Z0.2273
G1 X36.6933 Y-22.7675 Z0.2271
G1 X36.6941 Y-22.7672 Z0.2270
G1 X36.6949 Y-22.7669 Z0.2268
G1 X36.6956 Y-22.7666 Z0.2267
G1 X36.6963 Y-22.7662 Z0.2266
G1 X36.6971 Y-22.7659 Z0.2264
G1 X36.6978 Y-22.7655 Z0.2263
G1 X36.6985 Y-22.7651 Z0.2261
G1 X36.6992 Y-22.7647 Z0.2260
G1 X36.6999 Y-22.7642 Z0.2258
G1 X36.7005 Y-22.7638 Z0.2257
G1 X36.7012 Y-22.7633 Z0.2256
G1 X36.7018 Y-22.7628 Z0.2254
G1 X36.7025 Y-22.7623 Z0.2253
G1 X36.7031 Y-22.7618 Z0.2251
G1 X36.7033 Y-22.7626 Z0.2250
G1 X36.7035 Y-22.7634 Z0.2248
G1 X36.7037 Y-22.7642 Z0.2247
G1 X36.7040 Y-22.7650 Z0.2245
G1 X36.7043 Y-22.7658 Z0.2244
G1 X36.7046 Y-22.7665 Z0.2242
G1 X36.7049 Y-22.7673 Z0.2241
G1 X36.7052 Y-22.7681 Z0.2240
G1 X36.7056 Y-22.7688 Z0.2238
G1 X36.7060 Y-22.7695 Z0.2237
G1 X36.7064 Y-22.7703 Z0.2235
G1 X36.7068 Y-22.7710 Z0.2234
G1 X36.7072 Y-22.7717 Z0.2232
G1 X36.7077 Y-22.7724 Z0.2231
G1 X36.7082 Y-22.7731 Z0.2229
G1 X36.7231 Y-22.7940 Z0.2184
G1 X36.7262 Y-22.7972 Z0.2176
G1 X36.7294 Y-22.8005 Z0.2176 F35.
G1 X36.7231 Y-22.8071 Z0.2176
G1 X36.7082 Y-22.8280 Z0.2176
G3X36.7031Y-22.8393Z0.2176I0.0254J-0.0181
G3X36.6926Y-22.8333Z0.2176I-0.0204J-0.0236
G1 X36.6684 Y-22.8252 Z0.2176
G3X36.6557Y-22.8237Z0.2176I-0.0099J-0.0297
G1 X36.6485 Y-22.8244 Z0.2176
G3X36.6506Y-22.8131Z0.2176I-0.0291J0.0113
G1 X36.6506 Y-22.7880 Z0.2176
G3X36.6485Y-22.7767Z0.2176I-0.0312J0.0000
G1 X36.6557 Y-22.7773 Z0.2176
G3X36.6684Y-22.7759Z0.2176I0.0028J0.0311
G1 X36.6926 Y-22.7678 Z0.2176
G3X36.7031Y-22.7618Z0.2176I-0.0099J0.0297
G3X36.7082Y-22.7731Z0.2176I0.0305J0.0069
G1 X36.7231 Y-22.7940 Z0.2176
G1 X36.7262 Y-22.7972 Z0.2176
G1 X36.7485 Y-22.7758 Z0.2176
G1 X36.7336 Y-22.7549 Z0.2176
G1 X36.7283 Y-22.7298 Z0.2176
G1 X36.7283 Y-22.6846 Z0.2176
G2X36.5849Y-22.7294Z0.2176I-0.0876J0.0284
G2X36.5849Y-22.8717Z0.2176I-0.0539J-0.0711
G2X36.7283Y-22.9165Z0.2176I0.0556J-0.0739
G2X36.8043Y-22.8005Z0.2176I0.0819J0.0293
G1 X36.7705 Y-22.7889 Z0.2176
G1 X36.7485 Y-22.7758 Z0.2176
G0 Z0.2214
G0 X36.7485 Y-22.7758 
G0 Z0.2214
G0 X36.6506 Y-22.7894 
G1 X36.6506 Y-22.7880 Z0.2212 F25.
G1 X36.6506 Y-22.7872 Z0.2210
G1 X36.6506 Y-22.7865 Z0.2209
G1 X36.6505 Y-22.7857 Z0.2207
G1 X36.6505 Y-22.7849 Z0.2206
G1 X36.6504 Y-22.7842 Z0.2205
G1 X36.6503 Y-22.7834 Z0.2203
G1 X36.6502 Y-22.7826 Z0.2202
G1 X36.6500 Y-22.7819 Z0.2201
G1 X36.6499 Y-22.7811 Z0.2199
G1 X36.6497 Y-22.7804 Z0.2198
G1 X36.6495 Y-22.7796 Z0.2197
G1 X36.6493 Y-22.7789 Z0.2195
G1 X36.6490 Y-22.7781 Z0.2194
G1 X36.6488 Y-22.7774 Z0.2192
G1 X36.6485 Y-22.7767 Z0.2191
G1 X36.6557 Y-22.7773 Z0.2178
G1 X36.6566 Y-22.7774 Z0.2177
G1 X36.6574 Y-22.7774 Z0.2175
G1 X36.6583 Y-22.7775 Z0.2174
G1 X36.6591 Y-22.7775 Z0.2172
G1 X36.6600 Y-22.7774 Z0.2171
G1 X36.6608 Y-22.7774 Z0.2169
G1 X36.6617 Y-22.7773 Z0.2168
G1 X36.6625 Y-22.7772 Z0.2166
G1 X36.6634 Y-22.7771 Z0.2165
G1 X36.6642 Y-22.7769 Z0.2163
G1 X36.6651 Y-22.7768 Z0.2162
G1 X36.6659 Y-22.7766 Z0.2160
G1 X36.6667 Y-22.7763 Z0.2159
G1 X36.6676 Y-22.7761 Z0.2157
G1 X36.6684 Y-22.7759 Z0.2156
G1 X36.6926 Y-22.7678 Z0.2111
G1 X36.6933 Y-22.7675 Z0.2109
G1 X36.6941 Y-22.7672 Z0.2108
G1 X36.6949 Y-22.7669 Z0.2106
G1 X36.6956 Y-22.7666 Z0.2105
G1 X36.6963 Y-22.7662 Z0.2104
G1 X36.6971 Y-22.7659 Z0.2102
G1 X36.6978 Y-22.7655 Z0.2101
G1 X36.6985 Y-22.7651 Z0.2099
G1 X36.6992 Y-22.7647 Z0.2098
G1 X36.6999 Y-22.7642 Z0.2096
G1 X36.7005 Y-22.7638 Z0.2095
G1 X36.7012 Y-22.7633 Z0.2094
G1 X36.7018 Y-22.7628 Z0.2092
G1 X36.7025 Y-22.7623 Z0.2091
G1 X36.7031 Y-22.7618 Z0.2089
G1 X36.7033 Y-22.7626 Z0.2088
G1 X36.7035 Y-22.7634 Z0.2086
G1 X36.7037 Y-22.7642 Z0.2085
G1 X36.7040 Y-22.7650 Z0.2083
G1 X36.7043 Y-22.7658 Z0.2082
G1 X36.7046 Y-22.7665 Z0.2080
G1 X36.7049 Y-22.7673 Z0.2079
G1 X36.7052 Y-22.7681 Z0.2078
G1 X36.7056 Y-22.7688 Z0.2076
G1 X36.7060 Y-22.7695 Z0.2075
G1 X36.7064 Y-22.7703 Z0.2073
G1 X36.7068 Y-22.7710 Z0.2072
G1 X36.7072 Y-22.7717 Z0.2070
G1 X36.7077 Y-22.7724 Z0.2069
G1 X36.7082 Y-22.7731 Z0.2067
G1 X36.7231 Y-22.7940 Z0.2022
G1 X36.7262 Y-22.7972 Z0.2014
G1 X36.7294 Y-22.8005 Z0.2014 F35.
G1 X36.7231 Y-22.8071 Z0.2014
G1 X36.7082 Y-22.8280 Z0.2014
G3X36.7031Y-22.8393Z0.2014I0.0254J-0.0181
G3X36.6926Y-22.8333Z0.2014I-0.0204J-0.0236
G1 X36.6684 Y-22.8252 Z0.2014
G3X36.6557Y-22.8237Z0.2014I-0.0099J-0.0297
G1 X36.6485 Y-22.8244 Z0.2014
G3X36.6506Y-22.8131Z0.2014I-0.0291J0.0113
G1 X36.6506 Y-22.7880 Z0.2014
G3X36.6485Y-22.7767Z0.2014I-0.0312J0.0000
G1 X36.6557 Y-22.7773 Z0.2014
G3X36.6684Y-22.7759Z0.2014I0.0028J0.0311
G1 X36.6926 Y-22.7678 Z0.2014
G3X36.7031Y-22.7618Z0.2014I-0.0099J0.0297
G3X36.7082Y-22.7731Z0.2014I0.0305J0.0069
G1 X36.7231 Y-22.7940 Z0.2014
G1 X36.7262 Y-22.7972 Z0.2014
G1 X36.7485 Y-22.7758 Z0.2014
G1 X36.7336 Y-22.7549 Z0.2014
G1 X36.7283 Y-22.7298 Z0.2014
G1 X36.7283 Y-22.6846 Z0.2014
G2X36.5849Y-22.7294Z0.2014I-0.0876J0.0284
G2X36.5849Y-22.8717Z0.2014I-0.0539J-0.0711
G2X36.7283Y-22.9165Z0.2014I0.0556J-0.0739
G2X36.8043Y-22.8005Z0.2014I0.0819J0.0293
G1 X36.7705 Y-22.7889 Z0.2014
G1 X36.7485 Y-22.7758 Z0.2014
G0 Z0.2052
G0 X36.7485 Y-22.7758 
G0 Z0.2052
G0 X36.6506 Y-22.7894 
G1 X36.6506 Y-22.7880 Z0.2050 F25.
G1 X36.6506 Y-22.7872 Z0.2048
G1 X36.6506 Y-22.7865 Z0.2047
G1 X36.6505 Y-22.7857 Z0.2045
G1 X36.6505 Y-22.7849 Z0.2044
G1 X36.6504 Y-22.7842 Z0.2043
G1 X36.6503 Y-22.7834 Z0.2041
G1 X36.6502 Y-22.7826 Z0.2040
G1 X36.6500 Y-22.7819 Z0.2039
G1 X36.6499 Y-22.7811 Z0.2037
G1 X36.6497 Y-22.7804 Z0.2036
G1 X36.6495 Y-22.7796 Z0.2035
G1 X36.6493 Y-22.7789 Z0.2033
G1 X36.6490 Y-22.7781 Z0.2032
G1 X36.6488 Y-22.7774 Z0.2030
G1 X36.6485 Y-22.7767 Z0.2029
G1 X36.6557 Y-22.7773 Z0.2016
G1 X36.6566 Y-22.7774 Z0.2015
G1 X36.6574 Y-22.7774 Z0.2013
G1 X36.6583 Y-22.7775 Z0.2012
G1 X36.6591 Y-22.7775 Z0.2010
G1 X36.6600 Y-22.7774 Z0.2009
G1 X36.6608 Y-22.7774 Z0.2007
G1 X36.6617 Y-22.7773 Z0.2006
G1 X36.6625 Y-22.7772 Z0.2004
G1 X36.6634 Y-22.7771 Z0.2003
G1 X36.6642 Y-22.7769 Z0.2001
G1 X36.6651 Y-22.7768 Z0.2000
G1 X36.6659 Y-22.7766 Z0.1998
G1 X36.6667 Y-22.7763 Z0.1997
G1 X36.6676 Y-22.7761 Z0.1995
G1 X36.6684 Y-22.7759 Z0.1994
G1 X36.6926 Y-22.7678 Z0.1949
G1 X36.6933 Y-22.7675 Z0.1947
G1 X36.6941 Y-22.7672 Z0.1946
G1 X36.6949 Y-22.7669 Z0.1944
G1 X36.6956 Y-22.7666 Z0.1943
G1 X36.6963 Y-22.7662 Z0.1942
G1 X36.6971 Y-22.7659 Z0.1940
G1 X36.6978 Y-22.7655 Z0.1939
G1 X36.6985 Y-22.7651 Z0.1937
G1 X36.6992 Y-22.7647 Z0.1936
G1 X36.6999 Y-22.7642 Z0.1934
G1 X36.7005 Y-22.7638 Z0.1933
G1 X36.7012 Y-22.7633 Z0.1932
G1 X36.7018 Y-22.7628 Z0.1930
G1 X36.7025 Y-22.7623 Z0.1929
G1 X36.7031 Y-22.7618 Z0.1927
G1 X36.7033 Y-22.7626 Z0.1926
G1 X36.7035 Y-22.7634 Z0.1924
G1 X36.7037 Y-22.7642 Z0.1923
G1 X36.7040 Y-22.7650 Z0.1921
G1 X36.7043 Y-22.7658 Z0.1920
G1 X36.7046 Y-22.7665 Z0.1918
G1 X36.7049 Y-22.7673 Z0.1917
G1 X36.7052 Y-22.7681 Z0.1916
G1 X36.7056 Y-22.7688 Z0.1914
G1 X36.7060 Y-22.7695 Z0.1913
G1 X36.7064 Y-22.7703 Z0.1911
G1 X36.7068 Y-22.7710 Z0.1910
G1 X36.7072 Y-22.7717 Z0.1908
G1 X36.7077 Y-22.7724 Z0.1907
G1 X36.7082 Y-22.7731 Z0.1905
G1 X36.7231 Y-22.7940 Z0.1860
G1 X36.7262 Y-22.7972 Z0.1852
G1 X36.7294 Y-22.8005 Z0.1852 F35.
G1 X36.7231 Y-22.8071 Z0.1852
G1 X36.7082 Y-22.8280 Z0.1852
G3X36.7031Y-22.8393Z0.1852I0.0254J-0.0181
G3X36.6926Y-22.8333Z0.1852I-0.0204J-0.0236
G1 X36.6684 Y-22.8252 Z0.1852
G3X36.6557Y-22.8237Z0.1852I-0.0099J-0.0297
G1 X36.6485 Y-22.8244 Z0.1852
G3X36.6506Y-22.8131Z0.1852I-0.0291J0.0113
G1 X36.6506 Y-22.7880 Z0.1852
G3X36.6485Y-22.7767Z0.1852I-0.0312J0.0000
G1 X36.6557 Y-22.7773 Z0.1852
G3X36.6684Y-22.7759Z0.1852I0.0028J0.0311
G1 X36.6926 Y-22.7678 Z0.1852
G3X36.7031Y-22.7618Z0.1852I-0.0099J0.0297
G3X36.7082Y-22.7731Z0.1852I0.0305J0.0069
G1 X36.7231 Y-22.7940 Z0.1852
G1 X36.7262 Y-22.7972 Z0.1852
G1 X36.7485 Y-22.7758 Z0.1852
G1 X36.7336 Y-22.7549 Z0.1852
G1 X36.7283 Y-22.7298 Z0.1852
G1 X36.7283 Y-22.6846 Z0.1852
G2X36.5849Y-22.7294Z0.1852I-0.0876J0.0284
G2X36.5849Y-22.8717Z0.1852I-0.0539J-0.0711
G2X36.7283Y-22.9165Z0.1852I0.0556J-0.0739
G2X36.8043Y-22.8005Z0.1852I0.0819J0.0293
G1 X36.7705 Y-22.7889 Z0.1852
G1 X36.7485 Y-22.7758 Z0.1852
G0 Z0.1890
G0 X36.7485 Y-22.7758 
G0 Z0.1890
G0 X36.6506 Y-22.7894 
G1 X36.6506 Y-22.7880 Z0.1888 F25.
G1 X36.6506 Y-22.7872 Z0.1886
G1 X36.6506 Y-22.7865 Z0.1885
G1 X36.6505 Y-22.7857 Z0.1883
G1 X36.6505 Y-22.7849 Z0.1882
G1 X36.6504 Y-22.7842 Z0.1881
G1 X36.6503 Y-22.7834 Z0.1879
G1 X36.6502 Y-22.7826 Z0.1878
G1 X36.6500 Y-22.7819 Z0.1877
G1 X36.6499 Y-22.7811 Z0.1875
G1 X36.6497 Y-22.7804 Z0.1874
G1 X36.6495 Y-22.7796 Z0.1873
G1 X36.6493 Y-22.7789 Z0.1871
G1 X36.6490 Y-22.7781 Z0.1870
G1 X36.6488 Y-22.7774 Z0.1868
G1 X36.6485 Y-22.7767 Z0.1867
G1 X36.6557 Y-22.7773 Z0.1854
G1 X36.6566 Y-22.7774 Z0.1853
G1 X36.6574 Y-22.7774 Z0.1851
G1 X36.6583 Y-22.7775 Z0.1850
G1 X36.6591 Y-22.7775 Z0.1848
G1 X36.6600 Y-22.7774 Z0.1847
G1 X36.6608 Y-22.7774 Z0.1845
G1 X36.6617 Y-22.7773 Z0.1844
G1 X36.6625 Y-22.7772 Z0.1842
G1 X36.6634 Y-22.7771 Z0.1841
G1 X36.6642 Y-22.7769 Z0.1839
G1 X36.6651 Y-22.7768 Z0.1838
G1 X36.6659 Y-22.7766 Z0.1836
G1 X36.6667 Y-22.7763 Z0.1835
G1 X36.6676 Y-22.7761 Z0.1833
G1 X36.6684 Y-22.7759 Z0.1832
G1 X36.6926 Y-22.7678 Z0.1787
G1 X36.6933 Y-22.7675 Z0.1785
G1 X36.6941 Y-22.7672 Z0.1784
G1 X36.6949 Y-22.7669 Z0.1782
G1 X36.6956 Y-22.7666 Z0.1781
G1 X36.6963 Y-22.7662 Z0.1780
G1 X36.6971 Y-22.7659 Z0.1778
G1 X36.6978 Y-22.7655 Z0.1777
G1 X36.6985 Y-22.7651 Z0.1775
G1 X36.6992 Y-22.7647 Z0.1774
G1 X36.6999 Y-22.7642 Z0.1772
G1 X36.7005 Y-22.7638 Z0.1771
G1 X36.7012 Y-22.7633 Z0.1770
G1 X36.7018 Y-22.7628 Z0.1768
G1 X36.7025 Y-22.7623 Z0.1767
G1 X36.7031 Y-22.7618 Z0.1765
G1 X36.7033 Y-22.7626 Z0.1764
G1 X36.7035 Y-22.7634 Z0.1762
G1 X36.7037 Y-22.7642 Z0.1761
G1 X36.7040 Y-22.7650 Z0.1759
G1 X36.7043 Y-22.7658 Z0.1758
G1 X36.7046 Y-22.7665 Z0.1756
G1 X36.7049 Y-22.7673 Z0.1755
G1 X36.7052 Y-22.7681 Z0.1754
G1 X36.7056 Y-22.7688 Z0.1752
G1 X36.7060 Y-22.7695 Z0.1751
G1 X36.7064 Y-22.7703 Z0.1749
G1 X36.7068 Y-22.7710 Z0.1748
G1 X36.7072 Y-22.7717 Z0.1746
G1 X36.7077 Y-22.7724 Z0.1745
G1 X36.7082 Y-22.7731 Z0.1743
G1 X36.7231 Y-22.7940 Z0.1698
G1 X36.7262 Y-22.7972 Z0.1690
G1 X36.7294 Y-22.8005 Z0.1690 F35.
G1 X36.7231 Y-22.8071 Z0.1690
G1 X36.7082 Y-22.8280 Z0.1690
G3X36.7031Y-22.8393Z0.1690I0.0254J-0.0181
G3X36.6926Y-22.8333Z0.1690I-0.0204J-0.0236
G1 X36.6684 Y-22.8252 Z0.1690
G3X36.6557Y-22.8237Z0.1690I-0.0099J-0.0297
G1 X36.6485 Y-22.8244 Z0.1690
G3X36.6506Y-22.8131Z0.1690I-0.0291J0.0113
G1 X36.6506 Y-22.7880 Z0.1690
G3X36.6485Y-22.7767Z0.1690I-0.0312J0.0000
G1 X36.6557 Y-22.7773 Z0.1690
G3X36.6684Y-22.7759Z0.1690I0.0028J0.0311
G1 X36.6926 Y-22.7678 Z0.1690
G3X36.7031Y-22.7618Z0.1690I-0.0099J0.0297
G3X36.7082Y-22.7731Z0.1690I0.0305J0.0069
G1 X36.7231 Y-22.7940 Z0.1690
G1 X36.7262 Y-22.7972 Z0.1690
G1 X36.7485 Y-22.7758 Z0.1690
G1 X36.7336 Y-22.7549 Z0.1690
G1 X36.7283 Y-22.7298 Z0.1690
G1 X36.7283 Y-22.6846 Z0.1690
G2X36.5849Y-22.7294Z0.1690I-0.0876J0.0284
G2X36.5849Y-22.8717Z0.1690I-0.0539J-0.0711
G2X36.7283Y-22.9165Z0.1690I0.0556J-0.0739
G2X36.8043Y-22.8005Z0.1690I0.0819J0.0293
G1 X36.7705 Y-22.7889 Z0.1690
G1 X36.7485 Y-22.7758 Z0.1690
G0 Z0.3788
G0 X36.7485 Y-22.7758 
G0 Z0.3788
G0 X38.5093 Y-22.7721 
G1 X38.5093 Y-22.7721 Z0.2538 F75.
G1 X38.5110 Y-22.7706 Z0.2534 F25.
G1 X38.5222 Y-22.7669 Z0.2513
G1 X38.5575 Y-22.7784 Z0.2448
G1 X38.5602 Y-22.7821 Z0.2440
G1 X38.5602 Y-22.8184 Z0.2376
G1 X38.5588 Y-22.8203 Z0.2372
G1 X38.5575 Y-22.8222 Z0.2368
G1 X38.5416 Y-22.8273 Z0.2338
G1 X38.5334 Y-22.8021 Z0.2338
G1 X38.5321 Y-22.8040 Z0.2338 F35.
G1 X38.5209 Y-22.8003 Z0.2338
G1 X38.5321 Y-22.7965 Z0.2338
G1 X38.5347 Y-22.8003 Z0.2338
G1 X38.5334 Y-22.8021 Z0.2338
G1 X38.5588 Y-22.8203 Z0.2338
G1 X38.5669 Y-22.8090 Z0.2338
G1 X38.5744 Y-22.8003 Z0.2338
G1 X38.5669 Y-22.7916 Z0.2338
G1 X38.5520 Y-22.7707 Z0.2338
G1 X38.5448 Y-22.7576 Z0.2338
G1 X38.5317 Y-22.7637 Z0.2338
G1 X38.5075 Y-22.7718 Z0.2338
G2X38.4853Y-22.7751Z0.2338I-0.0205J0.0619
G1 X38.4830 Y-22.7749 Z0.2338
G1 X38.4843 Y-22.7878 Z0.2338
G1 X38.4843 Y-22.8128 Z0.2338
G1 X38.4830 Y-22.8257 Z0.2338
G2X38.5075Y-22.8287Z0.2338I0.0047J-0.0622
G1 X38.5317 Y-22.8368 Z0.2338
G1 X38.5448 Y-22.8430 Z0.2338
G1 X38.5520 Y-22.8299 Z0.2338
G1 X38.5588 Y-22.8203 Z0.2338
G1 X38.5843 Y-22.8385 Z0.2338
G1 X38.5774 Y-22.8480 Z0.2338
G3X38.5723Y-22.8598Z0.2338I0.0255J-0.0182
G1 X38.5670 Y-22.8849 Z0.2338
G1 X38.5663 Y-22.9088 Z0.2338
G1 X38.5517 Y-22.8900 Z0.2338
G1 X38.5328 Y-22.8729 Z0.2338
G3X38.5218Y-22.8665Z0.2338I-0.0209J-0.0232
G1 X38.4976 Y-22.8584 Z0.2338
G3X38.4849Y-22.8569Z0.2338I-0.0099J-0.0296
G1 X38.4595 Y-22.8592 Z0.2338
G1 X38.4532 Y-22.8604 Z0.2338
G1 X38.4276 Y-22.8681 Z0.2338
G1 X38.4407 Y-22.8481 Z0.2338
G1 X38.4506 Y-22.8251 Z0.2338
G3X38.4531Y-22.8128Z0.2338I-0.0288J0.0123
G1 X38.4531 Y-22.7878 Z0.2338
G3X38.4506Y-22.7755Z0.2338I-0.0313J0.0000
G1 X38.4407 Y-22.7524 Z0.2338
G1 X38.4276 Y-22.7324 Z0.2338
G1 X38.4532 Y-22.7402 Z0.2338
G1 X38.4595 Y-22.7414 Z0.2338
G1 X38.4849 Y-22.7437 Z0.2338
G3X38.4976Y-22.7422Z0.2338I0.0028J0.0312
G1 X38.5218 Y-22.7341 Z0.2338
G3X38.5328Y-22.7277Z0.2338I-0.0099J0.0297
G1 X38.5517 Y-22.7106 Z0.2338
G1 X38.5663 Y-22.6917 Z0.2338
G1 X38.5670 Y-22.7157 Z0.2338
G1 X38.5723 Y-22.7408 Z0.2338
G3X38.5774Y-22.7525Z0.2338I0.0306J0.0064
G1 X38.5923 Y-22.7734 Z0.2338
G3X38.6018Y-22.7821Z0.2338I0.0255J0.0182
G1 X38.6238 Y-22.7952 Z0.2338
G1 X38.6365 Y-22.8003 Z0.2338
G1 X38.6238 Y-22.8053 Z0.2338
G1 X38.6018 Y-22.8185 Z0.2338
G3X38.5923Y-22.8272Z0.2338I0.0160J-0.0268
G1 X38.5843 Y-22.8385 Z0.2338
G1 X38.6097 Y-22.8566 Z0.2338
G1 X38.6178 Y-22.8453 Z0.2338
G1 X38.6398 Y-22.8322 Z0.2338
G1 X38.7327 Y-22.8003 Z0.2338
G2X38.6029Y-22.7344Z0.2338I0.0102J0.1810
G1 X38.5976 Y-22.7093 Z0.2338
G1 X38.5976 Y-22.5961 Z0.2338
G2X38.4877Y-22.7125Z0.2338I-0.1885J0.0679
G1 X38.4622 Y-22.7103 Z0.2338
G1 X38.3510 Y-22.6765 Z0.2338
G2X38.4218Y-22.8128Z0.2338I-0.1242J-0.1511
G1 X38.4120 Y-22.8358 Z0.2338
G1 X38.3510 Y-22.9240 Z0.2338
G2X38.5119Y-22.8961Z0.2338I0.1124J-0.1706
G1 X38.5308 Y-22.9132 Z0.2338
G1 X38.5976 Y-23.0045 Z0.2338
G2X38.6097Y-22.8566Z0.2338I0.2179J0.0566
G0 Z0.3626
G0 X38.6097 Y-22.8566 
G0 Z0.3626
G0 X38.5093 Y-22.7721 
G1 X38.5093 Y-22.7721 Z0.2376 F75.
G1 X38.5110 Y-22.7706 Z0.2372 F25.
G1 X38.5222 Y-22.7669 Z0.2351
G1 X38.5575 Y-22.7784 Z0.2286
G1 X38.5602 Y-22.7821 Z0.2278
G1 X38.5602 Y-22.8184 Z0.2214
G1 X38.5588 Y-22.8203 Z0.2210
G1 X38.5575 Y-22.8222 Z0.2206
G1 X38.5416 Y-22.8273 Z0.2176
G1 X38.5334 Y-22.8021 Z0.2176
G1 X38.5321 Y-22.8040 Z0.2176 F35.
G1 X38.5209 Y-22.8003 Z0.2176
G1 X38.5321 Y-22.7965 Z0.2176
G1 X38.5347 Y-22.8003 Z0.2176
G1 X38.5334 Y-22.8021 Z0.2176
G1 X38.5588 Y-22.8203 Z0.2176
G1 X38.5669 Y-22.8090 Z0.2176
G1 X38.5744 Y-22.8003 Z0.2176
G1 X38.5669 Y-22.7916 Z0.2176
G1 X38.5520 Y-22.7707 Z0.2176
G1 X38.5448 Y-22.7576 Z0.2176
G1 X38.5317 Y-22.7637 Z0.2176
G1 X38.5075 Y-22.7718 Z0.2176
G2X38.4853Y-22.7751Z0.2176I-0.0205J0.0619
G1 X38.4830 Y-22.7749 Z0.2176
G1 X38.4843 Y-22.7878 Z0.2176
G1 X38.4843 Y-22.8128 Z0.2176
G1 X38.4830 Y-22.8257 Z0.2176
G2X38.5075Y-22.8287Z0.2176I0.0047J-0.0622
G1 X38.5317 Y-22.8368 Z0.2176
G1 X38.5448 Y-22.8430 Z0.2176
G1 X38.5520 Y-22.8299 Z0.2176
G1 X38.5588 Y-22.8203 Z0.2176
G1 X38.5843 Y-22.8385 Z0.2176
G1 X38.5774 Y-22.8480 Z0.2176
G3X38.5723Y-22.8598Z0.2176I0.0255J-0.0182
G1 X38.5670 Y-22.8849 Z0.2176
G1 X38.5663 Y-22.9088 Z0.2176
G1 X38.5517 Y-22.8900 Z0.2176
G1 X38.5328 Y-22.8729 Z0.2176
G3X38.5218Y-22.8665Z0.2176I-0.0209J-0.0232
G1 X38.4976 Y-22.8584 Z0.2176
G3X38.4849Y-22.8569Z0.2176I-0.0099J-0.0296
G1 X38.4595 Y-22.8592 Z0.2176
G1 X38.4532 Y-22.8604 Z0.2176
G1 X38.4276 Y-22.8681 Z0.2176
G1 X38.4407 Y-22.8481 Z0.2176
G1 X38.4506 Y-22.8251 Z0.2176
G3X38.4531Y-22.8128Z0.2176I-0.0288J0.0123
G1 X38.4531 Y-22.7878 Z0.2176
G3X38.4506Y-22.7755Z0.2176I-0.0313J0.0000
G1 X38.4407 Y-22.7524 Z0.2176
G1 X38.4276 Y-22.7324 Z0.2176
G1 X38.4532 Y-22.7402 Z0.2176
G1 X38.4595 Y-22.7414 Z0.2176
G1 X38.4849 Y-22.7437 Z0.2176
G3X38.4976Y-22.7422Z0.2176I0.0028J0.0312
G1 X38.5218 Y-22.7341 Z0.2176
G3X38.5328Y-22.7277Z0.2176I-0.0099J0.0297
G1 X38.5517 Y-22.7106 Z0.2176
G1 X38.5663 Y-22.6917 Z0.2176
G1 X38.5670 Y-22.7157 Z0.2176
G1 X38.5723 Y-22.7408 Z0.2176
G3X38.5774Y-22.7525Z0.2176I0.0306J0.0064
G1 X38.5923 Y-22.7734 Z0.2176
G3X38.6018Y-22.7821Z0.2176I0.0255J0.0182
G1 X38.6238 Y-22.7952 Z0.2176
G1 X38.6365 Y-22.8003 Z0.2176
G1 X38.6238 Y-22.8053 Z0.2176
G1 X38.6018 Y-22.8185 Z0.2176
G3X38.5923Y-22.8272Z0.2176I0.0160J-0.0268
G1 X38.5843 Y-22.8385 Z0.2176
G1 X38.6097 Y-22.8566 Z0.2176
G1 X38.6178 Y-22.8453 Z0.2176
G1 X38.6398 Y-22.8322 Z0.2176
G1 X38.7327 Y-22.8003 Z0.2176
G2X38.6029Y-22.7344Z0.2176I0.0102J0.1810
G1 X38.5976 Y-22.7093 Z0.2176
G1 X38.5976 Y-22.5961 Z0.2176
G2X38.4877Y-22.7125Z0.2176I-0.1885J0.0679
G1 X38.4622 Y-22.7103 Z0.2176
G1 X38.3510 Y-22.6765 Z0.2176
G2X38.4218Y-22.8128Z0.2176I-0.1242J-0.1511
G1 X38.4120 Y-22.8358 Z0.2176
G1 X38.3510 Y-22.9240 Z0.2176
G2X38.5119Y-22.8961Z0.2176I0.1124J-0.1706
G1 X38.5308 Y-22.9132 Z0.2176
G1 X38.5976 Y-23.0045 Z0.2176
G2X38.6097Y-22.8566Z0.2176I0.2179J0.0566
G0 Z0.3464
G0 X38.6097 Y-22.8566 
G0 Z0.3464
G0 X38.5093 Y-22.7721 
G1 X38.5093 Y-22.7721 Z0.2214 F75.
G1 X38.5110 Y-22.7706 Z0.2210 F25.
G1 X38.5222 Y-22.7669 Z0.2189
G1 X38.5575 Y-22.7784 Z0.2124
G1 X38.5602 Y-22.7821 Z0.2116
G1 X38.5602 Y-22.8184 Z0.2052
G1 X38.5588 Y-22.8203 Z0.2048
G1 X38.5575 Y-22.8222 Z0.2044
G1 X38.5416 Y-22.8273 Z0.2014
G1 X38.5334 Y-22.8021 Z0.2014
G1 X38.5321 Y-22.8040 Z0.2014 F35.
G1 X38.5209 Y-22.8003 Z0.2014
G1 X38.5321 Y-22.7965 Z0.2014
G1 X38.5347 Y-22.8003 Z0.2014
G1 X38.5334 Y-22.8021 Z0.2014
G1 X38.5588 Y-22.8203 Z0.2014
G1 X38.5669 Y-22.8090 Z0.2014
G1 X38.5744 Y-22.8003 Z0.2014
G1 X38.5669 Y-22.7916 Z0.2014
G1 X38.5520 Y-22.7707 Z0.2014
G1 X38.5448 Y-22.7576 Z0.2014
G1 X38.5317 Y-22.7637 Z0.2014
G1 X38.5075 Y-22.7718 Z0.2014
G2X38.4853Y-22.7751Z0.2014I-0.0205J0.0619
G1 X38.4830 Y-22.7749 Z0.2014
G1 X38.4843 Y-22.7878 Z0.2014
G1 X38.4843 Y-22.8128 Z0.2014
G1 X38.4830 Y-22.8257 Z0.2014
G2X38.5075Y-22.8287Z0.2014I0.0047J-0.0622
G1 X38.5317 Y-22.8368 Z0.2014
G1 X38.5448 Y-22.8430 Z0.2014
G1 X38.5520 Y-22.8299 Z0.2014
G1 X38.5588 Y-22.8203 Z0.2014
G1 X38.5843 Y-22.8385 Z0.2014
G1 X38.5774 Y-22.8480 Z0.2014
G3X38.5723Y-22.8598Z0.2014I0.0255J-0.0182
G1 X38.5670 Y-22.8849 Z0.2014
G1 X38.5663 Y-22.9088 Z0.2014
G1 X38.5517 Y-22.8900 Z0.2014
G1 X38.5328 Y-22.8729 Z0.2014
G3X38.5218Y-22.8665Z0.2014I-0.0209J-0.0232
G1 X38.4976 Y-22.8584 Z0.2014
G3X38.4849Y-22.8569Z0.2014I-0.0099J-0.0296
G1 X38.4595 Y-22.8592 Z0.2014
G1 X38.4532 Y-22.8604 Z0.2014
G1 X38.4276 Y-22.8681 Z0.2014
G1 X38.4407 Y-22.8481 Z0.2014
G1 X38.4506 Y-22.8251 Z0.2014
G3X38.4531Y-22.8128Z0.2014I-0.0288J0.0123
G1 X38.4531 Y-22.7878 Z0.2014
G3X38.4506Y-22.7755Z0.2014I-0.0313J0.0000
G1 X38.4407 Y-22.7524 Z0.2014
G1 X38.4276 Y-22.7324 Z0.2014
G1 X38.4532 Y-22.7402 Z0.2014
G1 X38.4595 Y-22.7414 Z0.2014
G1 X38.4849 Y-22.7437 Z0.2014
G3X38.4976Y-22.7422Z0.2014I0.0028J0.0312
G1 X38.5218 Y-22.7341 Z0.2014
G3X38.5328Y-22.7277Z0.2014I-0.0099J0.0297
G1 X38.5517 Y-22.7106 Z0.2014
G1 X38.5663 Y-22.6917 Z0.2014
G1 X38.5670 Y-22.7157 Z0.2014
G1 X38.5723 Y-22.7408 Z0.2014
G3X38.5774Y-22.7525Z0.2014I0.0306J0.0064
G1 X38.5923 Y-22.7734 Z0.2014
G3X38.6018Y-22.7821Z0.2014I0.0255J0.0182
G1 X38.6238 Y-22.7952 Z0.2014
G1 X38.6365 Y-22.8003 Z0.2014
G1 X38.6238 Y-22.8053 Z0.2014
G1 X38.6018 Y-22.8185 Z0.2014
G3X38.5923Y-22.8272Z0.2014I0.0160J-0.0268
G1 X38.5843 Y-22.8385 Z0.2014
G1 X38.6097 Y-22.8566 Z0.2014
G1 X38.6178 Y-22.8453 Z0.2014
G1 X38.6398 Y-22.8322 Z0.2014
G1 X38.7327 Y-22.8003 Z0.2014
G2X38.6029Y-22.7344Z0.2014I0.0102J0.1810
G1 X38.5976 Y-22.7093 Z0.2014
G1 X38.5976 Y-22.5961 Z0.2014
G2X38.4877Y-22.7125Z0.2014I-0.1885J0.0679
G1 X38.4622 Y-22.7103 Z0.2014
G1 X38.3510 Y-22.6765 Z0.2014
G2X38.4218Y-22.8128Z0.2014I-0.1242J-0.1511
G1 X38.4120 Y-22.8358 Z0.2014
G1 X38.3510 Y-22.9240 Z0.2014
G2X38.5119Y-22.8961Z0.2014I0.1124J-0.1706
G1 X38.5308 Y-22.9132 Z0.2014
G1 X38.5976 Y-23.0045 Z0.2014
G2X38.6097Y-22.8566Z0.2014I0.2179J0.0566
G0 Z0.3302
G0 X38.6097 Y-22.8566 
G0 Z0.3302
G0 X38.5093 Y-22.7721 
G1 X38.5093 Y-22.7721 Z0.2052 F75.
G1 X38.5110 Y-22.7706 Z0.2048 F25.
G1 X38.5222 Y-22.7669 Z0.2027
G1 X38.5575 Y-22.7784 Z0.1962
G1 X38.5602 Y-22.7821 Z0.1954
G1 X38.5602 Y-22.8184 Z0.1890
G1 X38.5588 Y-22.8203 Z0.1886
G1 X38.5575 Y-22.8222 Z0.1882
G1 X38.5416 Y-22.8273 Z0.1852
G1 X38.5334 Y-22.8021 Z0.1852
G1 X38.5321 Y-22.8040 Z0.1852 F35.
G1 X38.5209 Y-22.8003 Z0.1852
G1 X38.5321 Y-22.7965 Z0.1852
G1 X38.5347 Y-22.8003 Z0.1852
G1 X38.5334 Y-22.8021 Z0.1852
G1 X38.5588 Y-22.8203 Z0.1852
G1 X38.5669 Y-22.8090 Z0.1852
G1 X38.5744 Y-22.8003 Z0.1852
G1 X38.5669 Y-22.7916 Z0.1852
G1 X38.5520 Y-22.7707 Z0.1852
G1 X38.5448 Y-22.7576 Z0.1852
G1 X38.5317 Y-22.7637 Z0.1852
G1 X38.5075 Y-22.7718 Z0.1852
G2X38.4853Y-22.7751Z0.1852I-0.0205J0.0619
G1 X38.4830 Y-22.7749 Z0.1852
G1 X38.4843 Y-22.7878 Z0.1852
G1 X38.4843 Y-22.8128 Z0.1852
G1 X38.4830 Y-22.8257 Z0.1852
G2X38.5075Y-22.8287Z0.1852I0.0047J-0.0622
G1 X38.5317 Y-22.8368 Z0.1852
G1 X38.5448 Y-22.8430 Z0.1852
G1 X38.5520 Y-22.8299 Z0.1852
G1 X38.5588 Y-22.8203 Z0.1852
G1 X38.5843 Y-22.8385 Z0.1852
G1 X38.5774 Y-22.8480 Z0.1852
G3X38.5723Y-22.8598Z0.1852I0.0255J-0.0182
G1 X38.5670 Y-22.8849 Z0.1852
G1 X38.5663 Y-22.9088 Z0.1852
G1 X38.5517 Y-22.8900 Z0.1852
G1 X38.5328 Y-22.8729 Z0.1852
G3X38.5218Y-22.8665Z0.1852I-0.0209J-0.0232
G1 X38.4976 Y-22.8584 Z0.1852
G3X38.4849Y-22.8569Z0.1852I-0.0099J-0.0296
G1 X38.4595 Y-22.8592 Z0.1852
G1 X38.4532 Y-22.8604 Z0.1852
G1 X38.4276 Y-22.8681 Z0.1852
G1 X38.4407 Y-22.8481 Z0.1852
G1 X38.4506 Y-22.8251 Z0.1852
G3X38.4531Y-22.8128Z0.1852I-0.0288J0.0123
G1 X38.4531 Y-22.7878 Z0.1852
G3X38.4506Y-22.7755Z0.1852I-0.0313J0.0000
G1 X38.4407 Y-22.7524 Z0.1852
G1 X38.4276 Y-22.7324 Z0.1852
G1 X38.4532 Y-22.7402 Z0.1852
G1 X38.4595 Y-22.7414 Z0.1852
G1 X38.4849 Y-22.7437 Z0.1852
G3X38.4976Y-22.7422Z0.1852I0.0028J0.0312
G1 X38.5218 Y-22.7341 Z0.1852
G3X38.5328Y-22.7277Z0.1852I-0.0099J0.0297
G1 X38.5517 Y-22.7106 Z0.1852
G1 X38.5663 Y-22.6917 Z0.1852
G1 X38.5670 Y-22.7157 Z0.1852
G1 X38.5723 Y-22.7408 Z0.1852
G3X38.5774Y-22.7525Z0.1852I0.0306J0.0064
G1 X38.5923 Y-22.7734 Z0.1852
G3X38.6018Y-22.7821Z0.1852I0.0255J0.0182
G1 X38.6238 Y-22.7952 Z0.1852
G1 X38.6365 Y-22.8003 Z0.1852
G1 X38.6238 Y-22.8053 Z0.1852
G1 X38.6018 Y-22.8185 Z0.1852
G3X38.5923Y-22.8272Z0.1852I0.0160J-0.0268
G1 X38.5843 Y-22.8385 Z0.1852
G1 X38.6097 Y-22.8566 Z0.1852
G1 X38.6178 Y-22.8453 Z0.1852
G1 X38.6398 Y-22.8322 Z0.1852
G1 X38.7327 Y-22.8003 Z0.1852
G2X38.6029Y-22.7344Z0.1852I0.0102J0.1810
G1 X38.5976 Y-22.7093 Z0.1852
G1 X38.5976 Y-22.5961 Z0.1852
G2X38.4877Y-22.7125Z0.1852I-0.1885J0.0679
G1 X38.4622 Y-22.7103 Z0.1852
G1 X38.3510 Y-22.6765 Z0.1852
G2X38.4218Y-22.8128Z0.1852I-0.1242J-0.1511
G1 X38.4120 Y-22.8358 Z0.1852
G1 X38.3510 Y-22.9240 Z0.1852
G2X38.5119Y-22.8961Z0.1852I0.1124J-0.1706
G1 X38.5308 Y-22.9132 Z0.1852
G1 X38.5976 Y-23.0045 Z0.1852
G2X38.6097Y-22.8566Z0.1852I0.2179J0.0566
G0 Z0.3140
G0 X38.6097 Y-22.8566 
G0 Z0.3140
G0 X38.5093 Y-22.7721 
G1 X38.5093 Y-22.7721 Z0.1890 F75.
G1 X38.5110 Y-22.7706 Z0.1886 F25.
G1 X38.5222 Y-22.7669 Z0.1865
G1 X38.5575 Y-22.7784 Z0.1800
G1 X38.5602 Y-22.7821 Z0.1792
G1 X38.5602 Y-22.8184 Z0.1728
G1 X38.5588 Y-22.8203 Z0.1724
G1 X38.5575 Y-22.8222 Z0.1720
G1 X38.5416 Y-22.8273 Z0.1690
G1 X38.5334 Y-22.8021 Z0.1690
G1 X38.5321 Y-22.8040 Z0.1690 F35.
G1 X38.5209 Y-22.8003 Z0.1690
G1 X38.5321 Y-22.7965 Z0.1690
G1 X38.5347 Y-22.8003 Z0.1690
G1 X38.5334 Y-22.8021 Z0.1690
G1 X38.5588 Y-22.8203 Z0.1690
G1 X38.5669 Y-22.8090 Z0.1690
G1 X38.5744 Y-22.8003 Z0.1690
G1 X38.5669 Y-22.7916 Z0.1690
G1 X38.5520 Y-22.7707 Z0.1690
G1 X38.5448 Y-22.7576 Z0.1690
G1 X38.5317 Y-22.7637 Z0.1690
G1 X38.5075 Y-22.7718 Z0.1690
G2X38.4853Y-22.7751Z0.1690I-0.0205J0.0619
G1 X38.4830 Y-22.7749 Z0.1690
G1 X38.4843 Y-22.7878 Z0.1690
G1 X38.4843 Y-22.8128 Z0.1690
G1 X38.4830 Y-22.8257 Z0.1690
G2X38.5075Y-22.8287Z0.1690I0.0047J-0.0622
G1 X38.5317 Y-22.8368 Z0.1690
G1 X38.5448 Y-22.8430 Z0.1690
G1 X38.5520 Y-22.8299 Z0.1690
G1 X38.5588 Y-22.8203 Z0.1690
G1 X38.5843 Y-22.8385 Z0.1690
G1 X38.5774 Y-22.8480 Z0.1690
G3X38.5723Y-22.8598Z0.1690I0.0255J-0.0182
G1 X38.5670 Y-22.8849 Z0.1690
G1 X38.5663 Y-22.9088 Z0.1690
G1 X38.5517 Y-22.8900 Z0.1690
G1 X38.5328 Y-22.8729 Z0.1690
G3X38.5218Y-22.8665Z0.1690I-0.0209J-0.0232
G1 X38.4976 Y-22.8584 Z0.1690
G3X38.4849Y-22.8569Z0.1690I-0.0099J-0.0296
G1 X38.4595 Y-22.8592 Z0.1690
G1 X38.4532 Y-22.8604 Z0.1690
G1 X38.4276 Y-22.8681 Z0.1690
G1 X38.4407 Y-22.8481 Z0.1690
G1 X38.4506 Y-22.8251 Z0.1690
G3X38.4531Y-22.8128Z0.1690I-0.0288J0.0123
G1 X38.4531 Y-22.7878 Z0.1690
G3X38.4506Y-22.7755Z0.1690I-0.0313J0.0000
G1 X38.4407 Y-22.7524 Z0.1690
G1 X38.4276 Y-22.7324 Z0.1690
G1 X38.4532 Y-22.7402 Z0.1690
G1 X38.4595 Y-22.7414 Z0.1690
G1 X38.4849 Y-22.7437 Z0.1690
G3X38.4976Y-22.7422Z0.1690I0.0028J0.0312
G1 X38.5218 Y-22.7341 Z0.1690
G3X38.5328Y-22.7277Z0.1690I-0.0099J0.0297
G1 X38.5517 Y-22.7106 Z0.1690
G1 X38.5663 Y-22.6917 Z0.1690
G1 X38.5670 Y-22.7157 Z0.1690
G1 X38.5723 Y-22.7408 Z0.1690
G3X38.5774Y-22.7525Z0.1690I0.0306J0.0064
G1 X38.5923 Y-22.7734 Z0.1690
G3X38.6018Y-22.7821Z0.1690I0.0255J0.0182
G1 X38.6238 Y-22.7952 Z0.1690
G1 X38.6365 Y-22.8003 Z0.1690
G1 X38.6238 Y-22.8053 Z0.1690
G1 X38.6018 Y-22.8185 Z0.1690
G3X38.5923Y-22.8272Z0.1690I0.0160J-0.0268
G1 X38.5843 Y-22.8385 Z0.1690
G1 X38.6097 Y-22.8566 Z0.1690
G1 X38.6178 Y-22.8453 Z0.1690
G1 X38.6398 Y-22.8322 Z0.1690
G1 X38.7327 Y-22.8003 Z0.1690
G2X38.6029Y-22.7344Z0.1690I0.0102J0.1810
G1 X38.5976 Y-22.7093 Z0.1690
G1 X38.5976 Y-22.5961 Z0.1690
G2X38.4877Y-22.7125Z0.1690I-0.1885J0.0679
G1 X38.4622 Y-22.7103 Z0.1690
G1 X38.3510 Y-22.6765 Z0.1690
G2X38.4218Y-22.8128Z0.1690I-0.1242J-0.1511
G1 X38.4120 Y-22.8358 Z0.1690
G1 X38.3510 Y-22.9240 Z0.1690
G2X38.5119Y-22.8961Z0.1690I0.1124J-0.1706
G1 X38.5308 Y-22.9132 Z0.1690
G1 X38.5976 Y-23.0045 Z0.1690
G2X38.6097Y-22.8566Z0.1690I0.2179J0.0566
G0 Z0.3788
G0 X38.6097 Y-22.8566 
G0 Z0.3788
G0 X40.5942 Y-22.8335 
G1 X40.5942 Y-22.8335 Z0.2538 F75.
G1 X40.5941 Y-22.8336 Z0.2538 F25.
G1 X40.5829 Y-22.8298 Z0.2517
G1 X40.5642 Y-22.8128 Z0.2472
G1 X40.5642 Y-22.7875 Z0.2428
G1 X40.5829 Y-22.7705 Z0.2383
G1 X40.5885 Y-22.7687 Z0.2373
G1 X40.5941 Y-22.7668 Z0.2362
G1 X40.6072 Y-22.7711 Z0.2338
G1 X40.5984 Y-22.7983 Z0.2338
G1 X40.6040 Y-22.7964 Z0.2338 F35.
G1 X40.6066 Y-22.8002 Z0.2338
G1 X40.6040 Y-22.8039 Z0.2338
G1 X40.5928 Y-22.8002 Z0.2338
G1 X40.5984 Y-22.7983 Z0.2338
G1 X40.5885 Y-22.7687 Z0.2338
G1 X40.5794 Y-22.7717 Z0.2338
G2X40.5549Y-22.7748Z0.2338I-0.0199J0.0594
G1 X40.5562 Y-22.7877 Z0.2338
G1 X40.5562 Y-22.8127 Z0.2338
G1 X40.5549 Y-22.8256 Z0.2338
G2X40.5794Y-22.8286Z0.2338I0.0047J-0.0622
G1 X40.6036 Y-22.8367 Z0.2338
G1 X40.6167 Y-22.8429 Z0.2338
G1 X40.6239 Y-22.8298 Z0.2338
G1 X40.6388 Y-22.8089 Z0.2338
G1 X40.6463 Y-22.8002 Z0.2338
G1 X40.6388 Y-22.7914 Z0.2338
G1 X40.6239 Y-22.7706 Z0.2338
G1 X40.6167 Y-22.7575 Z0.2338
G1 X40.6036 Y-22.7636 Z0.2338
G1 X40.5885 Y-22.7687 Z0.2338
G1 X40.5786 Y-22.7390 Z0.2338
G1 X40.5937 Y-22.7340 Z0.2338
G3X40.6047Y-22.7276Z0.2338I-0.0099J0.0297
G1 X40.6236 Y-22.7105 Z0.2338
G1 X40.6382 Y-22.6916 Z0.2338
G1 X40.6389 Y-22.7156 Z0.2338
G1 X40.6442 Y-22.7407 Z0.2338
G3X40.6493Y-22.7524Z0.2338I0.0306J0.0064
G1 X40.6642 Y-22.7733 Z0.2338
G3X40.6737Y-22.7820Z0.2338I0.0255J0.0182
G1 X40.6957 Y-22.7951 Z0.2338
G1 X40.7084 Y-22.8002 Z0.2338
G1 X40.6957 Y-22.8052 Z0.2338
G1 X40.6737 Y-22.8184 Z0.2338
G3X40.6642Y-22.8271Z0.2338I0.0160J-0.0268
G1 X40.6493 Y-22.8479 Z0.2338
G3X40.6442Y-22.8597Z0.2338I0.0255J-0.0182
G1 X40.6389 Y-22.8848 Z0.2338
G1 X40.6382 Y-22.9087 Z0.2338
G1 X40.6236 Y-22.8899 Z0.2338
G1 X40.6047 Y-22.8728 Z0.2338
G3X40.5937Y-22.8664Z0.2338I-0.0209J-0.0232
G1 X40.5695 Y-22.8583 Z0.2338
G3X40.5568Y-22.8568Z0.2338I-0.0099J-0.0296
G1 X40.5314 Y-22.8591 Z0.2338
G1 X40.5251 Y-22.8603 Z0.2338
G1 X40.4996 Y-22.8680 Z0.2338
G1 X40.5126 Y-22.8480 Z0.2338
G1 X40.5225 Y-22.8250 Z0.2338
G3X40.5250Y-22.8127Z0.2338I-0.0288J0.0123
G1 X40.5250 Y-22.7877 Z0.2338
G3X40.5225Y-22.7754Z0.2338I-0.0313J0.0000
G1 X40.5126 Y-22.7523 Z0.2338
G1 X40.4996 Y-22.7323 Z0.2338
G1 X40.5251 Y-22.7401 Z0.2338
G1 X40.5314 Y-22.7413 Z0.2338
G1 X40.5568 Y-22.7435 Z0.2338
G3X40.5695Y-22.7421Z0.2338I0.0028J0.0311
G1 X40.5786 Y-22.7390 Z0.2338
G1 X40.5687 Y-22.7094 Z0.2338
G1 X40.5596 Y-22.7124 Z0.2338
G1 X40.5341 Y-22.7102 Z0.2338
G1 X40.4229 Y-22.6764 Z0.2338
G2X40.4937Y-22.8127Z0.2338I-0.1241J-0.1511
G1 X40.4839 Y-22.8357 Z0.2338
G1 X40.4229 Y-22.9239 Z0.2338
G2X40.5838Y-22.8960Z0.2338I0.1124J-0.1706
G1 X40.6027 Y-22.9131 Z0.2338
G1 X40.6695 Y-23.0044 Z0.2338
G2X40.6897Y-22.8452Z0.2338I0.1915J0.0566
G1 X40.7117 Y-22.8321 Z0.2338
G1 X40.8046 Y-22.8002 Z0.2338
G2X40.6748Y-22.7343Z0.2338I0.0102J0.1810
G1 X40.6695 Y-22.7092 Z0.2338
G1 X40.6695 Y-22.5960 Z0.2338
G2X40.5687Y-22.7094Z0.2338I-0.1998J0.0761
G0 Z0.3626
G0 X40.5687 Y-22.7094 
G0 Z0.3626
G0 X40.5942 Y-22.8335 
G1 X40.5942 Y-22.8335 Z0.2376 F75.
G1 X40.5941 Y-22.8336 Z0.2376 F25.
G1 X40.5829 Y-22.8298 Z0.2355
G1 X40.5642 Y-22.8128 Z0.2310
G1 X40.5642 Y-22.7875 Z0.2266
G1 X40.5829 Y-22.7705 Z0.2221
G1 X40.5885 Y-22.7687 Z0.2211
G1 X40.5941 Y-22.7668 Z0.2200
G1 X40.6072 Y-22.7711 Z0.2176
G1 X40.5984 Y-22.7983 Z0.2176
G1 X40.6040 Y-22.7964 Z0.2176 F35.
G1 X40.6066 Y-22.8002 Z0.2176
G1 X40.6040 Y-22.8039 Z0.2176
G1 X40.5928 Y-22.8002 Z0.2176
G1 X40.5984 Y-22.7983 Z0.2176
G1 X40.5885 Y-22.7687 Z0.2176
G1 X40.5794 Y-22.7717 Z0.2176
G2X40.5549Y-22.7748Z0.2176I-0.0199J0.0594
G1 X40.5562 Y-22.7877 Z0.2176
G1 X40.5562 Y-22.8127 Z0.2176
G1 X40.5549 Y-22.8256 Z0.2176
G2X40.5794Y-22.8286Z0.2176I0.0047J-0.0622
G1 X40.6036 Y-22.8367 Z0.2176
G1 X40.6167 Y-22.8429 Z0.2176
G1 X40.6239 Y-22.8298 Z0.2176
G1 X40.6388 Y-22.8089 Z0.2176
G1 X40.6463 Y-22.8002 Z0.2176
G1 X40.6388 Y-22.7914 Z0.2176
G1 X40.6239 Y-22.7706 Z0.2176
G1 X40.6167 Y-22.7575 Z0.2176
G1 X40.6036 Y-22.7636 Z0.2176
G1 X40.5885 Y-22.7687 Z0.2176
G1 X40.5786 Y-22.7390 Z0.2176
G1 X40.5937 Y-22.7340 Z0.2176
G3X40.6047Y-22.7276Z0.2176I-0.0099J0.0297
G1 X40.6236 Y-22.7105 Z0.2176
G1 X40.6382 Y-22.6916 Z0.2176
G1 X40.6389 Y-22.7156 Z0.2176
G1 X40.6442 Y-22.7407 Z0.2176
G3X40.6493Y-22.7524Z0.2176I0.0306J0.0064
G1 X40.6642 Y-22.7733 Z0.2176
G3X40.6737Y-22.7820Z0.2176I0.0255J0.0182
G1 X40.6957 Y-22.7951 Z0.2176
G1 X40.7084 Y-22.8002 Z0.2176
G1 X40.6957 Y-22.8052 Z0.2176
G1 X40.6737 Y-22.8184 Z0.2176
G3X40.6642Y-22.8271Z0.2176I0.0160J-0.0268
G1 X40.6493 Y-22.8479 Z0.2176
G3X40.6442Y-22.8597Z0.2176I0.0255J-0.0182
G1 X40.6389 Y-22.8848 Z0.2176
G1 X40.6382 Y-22.9087 Z0.2176
G1 X40.6236 Y-22.8899 Z0.2176
G1 X40.6047 Y-22.8728 Z0.2176
G3X40.5937Y-22.8664Z0.2176I-0.0209J-0.0232
G1 X40.5695 Y-22.8583 Z0.2176
G3X40.5568Y-22.8568Z0.2176I-0.0099J-0.0296
G1 X40.5314 Y-22.8591 Z0.2176
G1 X40.5251 Y-22.8603 Z0.2176
G1 X40.4996 Y-22.8680 Z0.2176
G1 X40.5126 Y-22.8480 Z0.2176
G1 X40.5225 Y-22.8250 Z0.2176
G3X40.5250Y-22.8127Z0.2176I-0.0288J0.0123
G1 X40.5250 Y-22.7877 Z0.2176
G3X40.5225Y-22.7754Z0.2176I-0.0313J0.0000
G1 X40.5126 Y-22.7523 Z0.2176
G1 X40.4996 Y-22.7323 Z0.2176
G1 X40.5251 Y-22.7401 Z0.2176
G1 X40.5314 Y-22.7413 Z0.2176
G1 X40.5568 Y-22.7435 Z0.2176
G3X40.5695Y-22.7421Z0.2176I0.0028J0.0311
G1 X40.5786 Y-22.7390 Z0.2176
G1 X40.5687 Y-22.7094 Z0.2176
G1 X40.5596 Y-22.7124 Z0.2176
G1 X40.5341 Y-22.7102 Z0.2176
G1 X40.4229 Y-22.6764 Z0.2176
G2X40.4937Y-22.8127Z0.2176I-0.1241J-0.1511
G1 X40.4839 Y-22.8357 Z0.2176
G1 X40.4229 Y-22.9239 Z0.2176
G2X40.5838Y-22.8960Z0.2176I0.1124J-0.1706
G1 X40.6027 Y-22.9131 Z0.2176
G1 X40.6695 Y-23.0044 Z0.2176
G2X40.6897Y-22.8452Z0.2176I0.1915J0.0566
G1 X40.7117 Y-22.8321 Z0.2176
G1 X40.8046 Y-22.8002 Z0.2176
G2X40.6748Y-22.7343Z0.2176I0.0102J0.1810
G1 X40.6695 Y-22.7092 Z0.2176
G1 X40.6695 Y-22.5960 Z0.2176
G2X40.5687Y-22.7094Z0.2176I-0.1998J0.0761
G0 Z0.3464
G0 X40.5687 Y-22.7094 
G0 Z0.3464
G0 X40.5942 Y-22.8335 
G1 X40.5942 Y-22.8335 Z0.2214 F75.
G1 X40.5941 Y-22.8336 Z0.2214 F25.
G1 X40.5829 Y-22.8298 Z0.2193
G1 X40.5642 Y-22.8128 Z0.2148
G1 X40.5642 Y-22.7875 Z0.2104
G1 X40.5829 Y-22.7705 Z0.2059
G1 X40.5885 Y-22.7687 Z0.2049
G1 X40.5941 Y-22.7668 Z0.2038
G1 X40.6072 Y-22.7711 Z0.2014
G1 X40.5984 Y-22.7983 Z0.2014
G1 X40.6040 Y-22.7964 Z0.2014 F35.
G1 X40.6066 Y-22.8002 Z0.2014
G1 X40.6040 Y-22.8039 Z0.2014
G1 X40.5928 Y-22.8002 Z0.2014
G1 X40.5984 Y-22.7983 Z0.2014
G1 X40.5885 Y-22.7687 Z0.2014
G1 X40.5794 Y-22.7717 Z0.2014
G2X40.5549Y-22.7748Z0.2014I-0.0199J0.0594
G1 X40.5562 Y-22.7877 Z0.2014
G1 X40.5562 Y-22.8127 Z0.2014
G1 X40.5549 Y-22.8256 Z0.2014
G2X40.5794Y-22.8286Z0.2014I0.0047J-0.0622
G1 X40.6036 Y-22.8367 Z0.2014
G1 X40.6167 Y-22.8429 Z0.2014
G1 X40.6239 Y-22.8298 Z0.2014
G1 X40.6388 Y-22.8089 Z0.2014
G1 X40.6463 Y-22.8002 Z0.2014
G1 X40.6388 Y-22.7914 Z0.2014
G1 X40.6239 Y-22.7706 Z0.2014
G1 X40.6167 Y-22.7575 Z0.2014
G1 X40.6036 Y-22.7636 Z0.2014
G1 X40.5885 Y-22.7687 Z0.2014
G1 X40.5786 Y-22.7390 Z0.2014
G1 X40.5937 Y-22.7340 Z0.2014
G3X40.6047Y-22.7276Z0.2014I-0.0099J0.0297
G1 X40.6236 Y-22.7105 Z0.2014
G1 X40.6382 Y-22.6916 Z0.2014
G1 X40.6389 Y-22.7156 Z0.2014
G1 X40.6442 Y-22.7407 Z0.2014
G3X40.6493Y-22.7524Z0.2014I0.0306J0.0064
G1 X40.6642 Y-22.7733 Z0.2014
G3X40.6737Y-22.7820Z0.2014I0.0255J0.0182
G1 X40.6957 Y-22.7951 Z0.2014
G1 X40.7084 Y-22.8002 Z0.2014
G1 X40.6957 Y-22.8052 Z0.2014
G1 X40.6737 Y-22.8184 Z0.2014
G3X40.6642Y-22.8271Z0.2014I0.0160J-0.0268
G1 X40.6493 Y-22.8479 Z0.2014
G3X40.6442Y-22.8597Z0.2014I0.0255J-0.0182
G1 X40.6389 Y-22.8848 Z0.2014
G1 X40.6382 Y-22.9087 Z0.2014
G1 X40.6236 Y-22.8899 Z0.2014
G1 X40.6047 Y-22.8728 Z0.2014
G3X40.5937Y-22.8664Z0.2014I-0.0209J-0.0232
G1 X40.5695 Y-22.8583 Z0.2014
G3X40.5568Y-22.8568Z0.2014I-0.0099J-0.0296
G1 X40.5314 Y-22.8591 Z0.2014
G1 X40.5251 Y-22.8603 Z0.2014
G1 X40.4996 Y-22.8680 Z0.2014
G1 X40.5126 Y-22.8480 Z0.2014
G1 X40.5225 Y-22.8250 Z0.2014
G3X40.5250Y-22.8127Z0.2014I-0.0288J0.0123
G1 X40.5250 Y-22.7877 Z0.2014
G3X40.5225Y-22.7754Z0.2014I-0.0313J0.0000
G1 X40.5126 Y-22.7523 Z0.2014
G1 X40.4996 Y-22.7323 Z0.2014
G1 X40.5251 Y-22.7401 Z0.2014
G1 X40.5314 Y-22.7413 Z0.2014
G1 X40.5568 Y-22.7435 Z0.2014
G3X40.5695Y-22.7421Z0.2014I0.0028J0.0311
G1 X40.5786 Y-22.7390 Z0.2014
G1 X40.5687 Y-22.7094 Z0.2014
G1 X40.5596 Y-22.7124 Z0.2014
G1 X40.5341 Y-22.7102 Z0.2014
G1 X40.4229 Y-22.6764 Z0.2014
G2X40.4937Y-22.8127Z0.2014I-0.1241J-0.1511
G1 X40.4839 Y-22.8357 Z0.2014
G1 X40.4229 Y-22.9239 Z0.2014
G2X40.5838Y-22.8960Z0.2014I0.1124J-0.1706
G1 X40.6027 Y-22.9131 Z0.2014
G1 X40.6695 Y-23.0044 Z0.2014
G2X40.6897Y-22.8452Z0.2014I0.1915J0.0566
G1 X40.7117 Y-22.8321 Z0.2014
G1 X40.8046 Y-22.8002 Z0.2014
G2X40.6748Y-22.7343Z0.2014I0.0102J0.1810
G1 X40.6695 Y-22.7092 Z0.2014
G1 X40.6695 Y-22.5960 Z0.2014
G2X40.5687Y-22.7094Z0.2014I-0.1998J0.0761
G0 Z0.3302
G0 X40.5687 Y-22.7094 
G0 Z0.3302
G0 X40.5942 Y-22.8335 
G1 X40.5942 Y-22.8335 Z0.2052 F75.
G1 X40.5941 Y-22.8336 Z0.2052 F25.
G1 X40.5829 Y-22.8298 Z0.2031
G1 X40.5642 Y-22.8128 Z0.1986
G1 X40.5642 Y-22.7875 Z0.1942
G1 X40.5829 Y-22.7705 Z0.1897
G1 X40.5885 Y-22.7687 Z0.1887
G1 X40.5941 Y-22.7668 Z0.1876
G1 X40.6072 Y-22.7711 Z0.1852
G1 X40.5984 Y-22.7983 Z0.1852
G1 X40.6040 Y-22.7964 Z0.1852 F35.
G1 X40.6066 Y-22.8002 Z0.1852
G1 X40.6040 Y-22.8039 Z0.1852
G1 X40.5928 Y-22.8002 Z0.1852
G1 X40.5984 Y-22.7983 Z0.1852
G1 X40.5885 Y-22.7687 Z0.1852
G1 X40.5794 Y-22.7717 Z0.1852
G2X40.5549Y-22.7748Z0.1852I-0.0199J0.0594
G1 X40.5562 Y-22.7877 Z0.1852
G1 X40.5562 Y-22.8127 Z0.1852
G1 X40.5549 Y-22.8256 Z0.1852
G2X40.5794Y-22.8286Z0.1852I0.0047J-0.0622
G1 X40.6036 Y-22.8367 Z0.1852
G1 X40.6167 Y-22.8429 Z0.1852
G1 X40.6239 Y-22.8298 Z0.1852
G1 X40.6388 Y-22.8089 Z0.1852
G1 X40.6463 Y-22.8002 Z0.1852
G1 X40.6388 Y-22.7914 Z0.1852
G1 X40.6239 Y-22.7706 Z0.1852
G1 X40.6167 Y-22.7575 Z0.1852
G1 X40.6036 Y-22.7636 Z0.1852
G1 X40.5885 Y-22.7687 Z0.1852
G1 X40.5786 Y-22.7390 Z0.1852
G1 X40.5937 Y-22.7340 Z0.1852
G3X40.6047Y-22.7276Z0.1852I-0.0099J0.0297
G1 X40.6236 Y-22.7105 Z0.1852
G1 X40.6382 Y-22.6916 Z0.1852
G1 X40.6389 Y-22.7156 Z0.1852
G1 X40.6442 Y-22.7407 Z0.1852
G3X40.6493Y-22.7524Z0.1852I0.0306J0.0064
G1 X40.6642 Y-22.7733 Z0.1852
G3X40.6737Y-22.7820Z0.1852I0.0255J0.0182
G1 X40.6957 Y-22.7951 Z0.1852
G1 X40.7084 Y-22.8002 Z0.1852
G1 X40.6957 Y-22.8052 Z0.1852
G1 X40.6737 Y-22.8184 Z0.1852
G3X40.6642Y-22.8271Z0.1852I0.0160J-0.0268
G1 X40.6493 Y-22.8479 Z0.1852
G3X40.6442Y-22.8597Z0.1852I0.0255J-0.0182
G1 X40.6389 Y-22.8848 Z0.1852
G1 X40.6382 Y-22.9087 Z0.1852
G1 X40.6236 Y-22.8899 Z0.1852
G1 X40.6047 Y-22.8728 Z0.1852
G3X40.5937Y-22.8664Z0.1852I-0.0209J-0.0232
G1 X40.5695 Y-22.8583 Z0.1852
G3X40.5568Y-22.8568Z0.1852I-0.0099J-0.0296
G1 X40.5314 Y-22.8591 Z0.1852
G1 X40.5251 Y-22.8603 Z0.1852
G1 X40.4996 Y-22.8680 Z0.1852
G1 X40.5126 Y-22.8480 Z0.1852
G1 X40.5225 Y-22.8250 Z0.1852
G3X40.5250Y-22.8127Z0.1852I-0.0288J0.0123
G1 X40.5250 Y-22.7877 Z0.1852
G3X40.5225Y-22.7754Z0.1852I-0.0313J0.0000
G1 X40.5126 Y-22.7523 Z0.1852
G1 X40.4996 Y-22.7323 Z0.1852
G1 X40.5251 Y-22.7401 Z0.1852
G1 X40.5314 Y-22.7413 Z0.1852
G1 X40.5568 Y-22.7435 Z0.1852
G3X40.5695Y-22.7421Z0.1852I0.0028J0.0311
G1 X40.5786 Y-22.7390 Z0.1852
G1 X40.5687 Y-22.7094 Z0.1852
G1 X40.5596 Y-22.7124 Z0.1852
G1 X40.5341 Y-22.7102 Z0.1852
G1 X40.4229 Y-22.6764 Z0.1852
G2X40.4937Y-22.8127Z0.1852I-0.1241J-0.1511
G1 X40.4839 Y-22.8357 Z0.1852
G1 X40.4229 Y-22.9239 Z0.1852
G2X40.5838Y-22.8960Z0.1852I0.1124J-0.1706
G1 X40.6027 Y-22.9131 Z0.1852
G1 X40.6695 Y-23.0044 Z0.1852
G2X40.6897Y-22.8452Z0.1852I0.1915J0.0566
G1 X40.7117 Y-22.8321 Z0.1852
G1 X40.8046 Y-22.8002 Z0.1852
G2X40.6748Y-22.7343Z0.1852I0.0102J0.1810
G1 X40.6695 Y-22.7092 Z0.1852
G1 X40.6695 Y-22.5960 Z0.1852
G2X40.5687Y-22.7094Z0.1852I-0.1998J0.0761
G0 Z0.3140
G0 X40.5687 Y-22.7094 
G0 Z0.3140
G0 X40.5942 Y-22.8335 
G1 X40.5942 Y-22.8335 Z0.1890 F75.
G1 X40.5941 Y-22.8336 Z0.1890 F25.
G1 X40.5829 Y-22.8298 Z0.1869
G1 X40.5642 Y-22.8128 Z0.1824
G1 X40.5642 Y-22.7875 Z0.1780
G1 X40.5829 Y-22.7705 Z0.1735
G1 X40.5885 Y-22.7687 Z0.1725
G1 X40.5941 Y-22.7668 Z0.1714
G1 X40.6072 Y-22.7711 Z0.1690
G1 X40.5984 Y-22.7983 Z0.1690
G1 X40.6040 Y-22.7964 Z0.1690 F35.
G1 X40.6066 Y-22.8002 Z0.1690
G1 X40.6040 Y-22.8039 Z0.1690
G1 X40.5928 Y-22.8002 Z0.1690
G1 X40.5984 Y-22.7983 Z0.1690
G1 X40.5885 Y-22.7687 Z0.1690
G1 X40.5794 Y-22.7717 Z0.1690
G2X40.5549Y-22.7748Z0.1690I-0.0199J0.0594
G1 X40.5562 Y-22.7877 Z0.1690
G1 X40.5562 Y-22.8127 Z0.1690
G1 X40.5549 Y-22.8256 Z0.1690
G2X40.5794Y-22.8286Z0.1690I0.0047J-0.0622
G1 X40.6036 Y-22.8367 Z0.1690
G1 X40.6167 Y-22.8429 Z0.1690
G1 X40.6239 Y-22.8298 Z0.1690
G1 X40.6388 Y-22.8089 Z0.1690
G1 X40.6463 Y-22.8002 Z0.1690
G1 X40.6388 Y-22.7914 Z0.1690
G1 X40.6239 Y-22.7706 Z0.1690
G1 X40.6167 Y-22.7575 Z0.1690
G1 X40.6036 Y-22.7636 Z0.1690
G1 X40.5885 Y-22.7687 Z0.1690
G1 X40.5786 Y-22.7390 Z0.1690
G1 X40.5937 Y-22.7340 Z0.1690
G3X40.6047Y-22.7276Z0.1690I-0.0099J0.0297
G1 X40.6236 Y-22.7105 Z0.1690
G1 X40.6382 Y-22.6916 Z0.1690
G1 X40.6389 Y-22.7156 Z0.1690
G1 X40.6442 Y-22.7407 Z0.1690
G3X40.6493Y-22.7524Z0.1690I0.0306J0.0064
G1 X40.6642 Y-22.7733 Z0.1690
G3X40.6737Y-22.7820Z0.1690I0.0255J0.0182
G1 X40.6957 Y-22.7951 Z0.1690
G1 X40.7084 Y-22.8002 Z0.1690
G1 X40.6957 Y-22.8052 Z0.1690
G1 X40.6737 Y-22.8184 Z0.1690
G3X40.6642Y-22.8271Z0.1690I0.0160J-0.0268
G1 X40.6493 Y-22.8479 Z0.1690
G3X40.6442Y-22.8597Z0.1690I0.0255J-0.0182
G1 X40.6389 Y-22.8848 Z0.1690
G1 X40.6382 Y-22.9087 Z0.1690
G1 X40.6236 Y-22.8899 Z0.1690
G1 X40.6047 Y-22.8728 Z0.1690
G3X40.5937Y-22.8664Z0.1690I-0.0209J-0.0232
G1 X40.5695 Y-22.8583 Z0.1690
G3X40.5568Y-22.8568Z0.1690I-0.0099J-0.0296
G1 X40.5314 Y-22.8591 Z0.1690
G1 X40.5251 Y-22.8603 Z0.1690
G1 X40.4996 Y-22.8680 Z0.1690
G1 X40.5126 Y-22.8480 Z0.1690
G1 X40.5225 Y-22.8250 Z0.1690
G3X40.5250Y-22.8127Z0.1690I-0.0288J0.0123
G1 X40.5250 Y-22.7877 Z0.1690
G3X40.5225Y-22.7754Z0.1690I-0.0313J0.0000
G1 X40.5126 Y-22.7523 Z0.1690
G1 X40.4996 Y-22.7323 Z0.1690
G1 X40.5251 Y-22.7401 Z0.1690
G1 X40.5314 Y-22.7413 Z0.1690
G1 X40.5568 Y-22.7435 Z0.1690
G3X40.5695Y-22.7421Z0.1690I0.0028J0.0311
G1 X40.5786 Y-22.7390 Z0.1690
G1 X40.5687 Y-22.7094 Z0.1690
G1 X40.5596 Y-22.7124 Z0.1690
G1 X40.5341 Y-22.7102 Z0.1690
G1 X40.4229 Y-22.6764 Z0.1690
G2X40.4937Y-22.8127Z0.1690I-0.1241J-0.1511
G1 X40.4839 Y-22.8357 Z0.1690
G1 X40.4229 Y-22.9239 Z0.1690
G2X40.5838Y-22.8960Z0.1690I0.1124J-0.1706
G1 X40.6027 Y-22.9131 Z0.1690
G1 X40.6695 Y-23.0044 Z0.1690
G2X40.6897Y-22.8452Z0.1690I0.1915J0.0566
G1 X40.7117 Y-22.8321 Z0.1690
G1 X40.8046 Y-22.8002 Z0.1690
G2X40.6748Y-22.7343Z0.1690I0.0102J0.1810
G1 X40.6695 Y-22.7092 Z0.1690
G1 X40.6695 Y-22.5960 Z0.1690
G2X40.5687Y-22.7094Z0.1690I-0.1998J0.0761
G0 Z0.3788
G0 X40.5687 Y-22.7094 
G0 Z0.3788
G0 X42.8909 Y-22.8012 
G1 X42.8909 Y-22.8012 Z0.2538 F75.
G1 X42.8909 Y-22.7873 Z0.2513 F25.
G1 X42.9096 Y-22.7703 Z0.2469
G1 X42.9208 Y-22.7666 Z0.2448
G1 X42.9562 Y-22.7781 Z0.2383
G1 X42.9591 Y-22.7821 Z0.2374
G1 X42.9588 Y-22.8024 Z0.2338
G1 X42.9323 Y-22.8020 Z0.2338
G1 X42.9310 Y-22.8038 Z0.2338 F35.
G1 X42.9195 Y-22.8000 Z0.2338
G1 X42.9307 Y-22.7962 Z0.2338
G1 X42.9336 Y-22.8003 Z0.2338
G1 X42.9323 Y-22.8020 Z0.2338
G1 X42.9573 Y-22.8206 Z0.2338
G1 X42.9709 Y-22.8022 Z0.2338
G1 X42.9731 Y-22.8000 Z0.2338
G1 X42.9656 Y-22.7912 Z0.2338
G1 X42.9507 Y-22.7704 Z0.2338
G1 X42.9435 Y-22.7573 Z0.2338
G1 X42.9334 Y-22.7624 Z0.2338
G1 X42.9061 Y-22.7715 Z0.2338
G2X42.8817Y-22.7745Z0.2338I-0.0198J0.0594
G1 X42.8830 Y-22.7874 Z0.2338
G1 X42.8830 Y-22.8125 Z0.2338
G1 X42.8817 Y-22.8254 Z0.2338
G2X42.9031Y-22.8274Z0.2338I0.0046J-0.0650
G1 X42.9303 Y-22.8365 Z0.2338
G1 X42.9435 Y-22.8427 Z0.2338
G1 X42.9507 Y-22.8296 Z0.2338
G1 X42.9573 Y-22.8206 Z0.2338
G1 X42.9826 Y-22.8386 Z0.2338
G1 X42.9761 Y-22.8477 Z0.2338
G3X42.9710Y-22.8595Z0.2338I0.0254J-0.0182
G1 X42.9657 Y-22.8846 Z0.2338
G1 X42.9650 Y-22.9085 Z0.2338
G1 X42.9504 Y-22.8897 Z0.2338
G1 X42.9314 Y-22.8726 Z0.2338
G3X42.9204Y-22.8662Z0.2338I-0.0209J-0.0232
G1 X42.8962 Y-22.8581 Z0.2338
G3X42.8836Y-22.8566Z0.2338I-0.0099J-0.0296
G1 X42.8581 Y-22.8588 Z0.2338
G1 X42.8518 Y-22.8601 Z0.2338
G1 X42.8263 Y-22.8678 Z0.2338
G1 X42.8394 Y-22.8478 Z0.2338
G1 X42.8492 Y-22.8248 Z0.2338
G3X42.8517Y-22.8125Z0.2338I-0.0287J0.0123
G1 X42.8517 Y-22.7874 Z0.2338
G3X42.8492Y-22.7752Z0.2338I-0.0312J0.0000
G1 X42.8394 Y-22.7521 Z0.2338
G1 X42.8263 Y-22.7321 Z0.2338
G1 X42.8518 Y-22.7399 Z0.2338
G1 X42.8581 Y-22.7411 Z0.2338
G1 X42.8836 Y-22.7433 Z0.2338
G3X42.8962Y-22.7419Z0.2338I0.0027J0.0311
G1 X42.9204 Y-22.7338 Z0.2338
G3X42.9314Y-22.7273Z0.2338I-0.0099J0.0297
G1 X42.9504 Y-22.7103 Z0.2338
G1 X42.9650 Y-22.6914 Z0.2338
G1 X42.9657 Y-22.7154 Z0.2338
G1 X42.9710 Y-22.7405 Z0.2338
G3X42.9761Y-22.7522Z0.2338I0.0305J0.0064
G1 X42.9910 Y-22.7731 Z0.2338
G3X43.0004Y-22.7818Z0.2338I0.0254J0.0182
G1 X43.0225 Y-22.7949 Z0.2338
G1 X43.0352 Y-22.8000 Z0.2338
G1 X43.0225 Y-22.8050 Z0.2338
G1 X43.0004 Y-22.8182 Z0.2338
G3X42.9910Y-22.8269Z0.2338I0.0160J-0.0268
G1 X42.9826 Y-22.8386 Z0.2338
G1 X43.0081 Y-22.8568 Z0.2338
G1 X43.0164 Y-22.8450 Z0.2338
G1 X43.0385 Y-22.8319 Z0.2338
G1 X43.1314 Y-22.8000 Z0.2338
G2X43.0015Y-22.7341Z0.2338I0.0102J0.1810
G1 X42.9963 Y-22.7089 Z0.2338
G1 X42.9963 Y-22.5958 Z0.2338
G2X42.8863Y-22.7122Z0.2338I-0.1886J0.0679
G1 X42.8609 Y-22.7100 Z0.2338
G1 X42.7496 Y-22.6762 Z0.2338
G2X42.8205Y-22.8125Z0.2338I-0.1241J-0.1511
G1 X42.8107 Y-22.8355 Z0.2338
G1 X42.7497 Y-22.9237 Z0.2338
G2X42.9105Y-22.8958Z0.2338I0.1124J-0.1706
G1 X42.9295 Y-22.9129 Z0.2338
G1 X42.9963 Y-23.0042 Z0.2338
G2X43.0081Y-22.8568Z0.2338I0.2200J0.0566
G0 Z0.3626
G0 X43.0081 Y-22.8568 
G0 Z0.3626
G0 X42.8909 Y-22.8012 
G1 X42.8909 Y-22.8012 Z0.2376 F75.
G1 X42.8909 Y-22.7873 Z0.2351 F25.
G1 X42.9096 Y-22.7703 Z0.2307
G1 X42.9208 Y-22.7666 Z0.2286
G1 X42.9562 Y-22.7781 Z0.2221
G1 X42.9591 Y-22.7821 Z0.2212
G1 X42.9588 Y-22.8024 Z0.2176
G1 X42.9323 Y-22.8020 Z0.2176
G1 X42.9310 Y-22.8038 Z0.2176 F35.
G1 X42.9195 Y-22.8000 Z0.2176
G1 X42.9307 Y-22.7962 Z0.2176
G1 X42.9336 Y-22.8003 Z0.2176
G1 X42.9323 Y-22.8020 Z0.2176
G1 X42.9573 Y-22.8206 Z0.2176
G1 X42.9709 Y-22.8022 Z0.2176
G1 X42.9731 Y-22.8000 Z0.2176
G1 X42.9656 Y-22.7912 Z0.2176
G1 X42.9507 Y-22.7704 Z0.2176
G1 X42.9435 Y-22.7573 Z0.2176
G1 X42.9334 Y-22.7624 Z0.2176
G1 X42.9061 Y-22.7715 Z0.2176
G2X42.8817Y-22.7745Z0.2176I-0.0198J0.0594
G1 X42.8830 Y-22.7874 Z0.2176
G1 X42.8830 Y-22.8125 Z0.2176
G1 X42.8817 Y-22.8254 Z0.2176
G2X42.9031Y-22.8274Z0.2176I0.0046J-0.0650
G1 X42.9303 Y-22.8365 Z0.2176
G1 X42.9435 Y-22.8427 Z0.2176
G1 X42.9507 Y-22.8296 Z0.2176
G1 X42.9573 Y-22.8206 Z0.2176
G1 X42.9826 Y-22.8386 Z0.2176
G1 X42.9761 Y-22.8477 Z0.2176
G3X42.9710Y-22.8595Z0.2176I0.0254J-0.0182
G1 X42.9657 Y-22.8846 Z0.2176
G1 X42.9650 Y-22.9085 Z0.2176
G1 X42.9504 Y-22.8897 Z0.2176
G1 X42.9314 Y-22.8726 Z0.2176
G3X42.9204Y-22.8662Z0.2176I-0.0209J-0.0232
G1 X42.8962 Y-22.8581 Z0.2176
G3X42.8836Y-22.8566Z0.2176I-0.0099J-0.0296
G1 X42.8581 Y-22.8588 Z0.2176
G1 X42.8518 Y-22.8601 Z0.2176
G1 X42.8263 Y-22.8678 Z0.2176
G1 X42.8394 Y-22.8478 Z0.2176
G1 X42.8492 Y-22.8248 Z0.2176
G3X42.8517Y-22.8125Z0.2176I-0.0287J0.0123
G1 X42.8517 Y-22.7874 Z0.2176
G3X42.8492Y-22.7752Z0.2176I-0.0312J0.0000
G1 X42.8394 Y-22.7521 Z0.2176
G1 X42.8263 Y-22.7321 Z0.2176
G1 X42.8518 Y-22.7399 Z0.2176
G1 X42.8581 Y-22.7411 Z0.2176
G1 X42.8836 Y-22.7433 Z0.2176
G3X42.8962Y-22.7419Z0.2176I0.0027J0.0311
G1 X42.9204 Y-22.7338 Z0.2176
G3X42.9314Y-22.7273Z0.2176I-0.0099J0.0297
G1 X42.9504 Y-22.7103 Z0.2176
G1 X42.9650 Y-22.6914 Z0.2176
G1 X42.9657 Y-22.7154 Z0.2176
G1 X42.9710 Y-22.7405 Z0.2176
G3X42.9761Y-22.7522Z0.2176I0.0305J0.0064
G1 X42.9910 Y-22.7731 Z0.2176
G3X43.0004Y-22.7818Z0.2176I0.0254J0.0182
G1 X43.0225 Y-22.7949 Z0.2176
G1 X43.0352 Y-22.8000 Z0.2176
G1 X43.0225 Y-22.8050 Z0.2176
G1 X43.0004 Y-22.8182 Z0.2176
G3X42.9910Y-22.8269Z0.2176I0.0160J-0.0268
G1 X42.9826 Y-22.8386 Z0.2176
G1 X43.0081 Y-22.8568 Z0.2176
G1 X43.0164 Y-22.8450 Z0.2176
G1 X43.0385 Y-22.8319 Z0.2176
G1 X43.1314 Y-22.8000 Z0.2176
G2X43.0015Y-22.7341Z0.2176I0.0102J0.1810
G1 X42.9963 Y-22.7089 Z0.2176
G1 X42.9963 Y-22.5958 Z0.2176
G2X42.8863Y-22.7122Z0.2176I-0.1886J0.0679
G1 X42.8609 Y-22.7100 Z0.2176
G1 X42.7496 Y-22.6762 Z0.2176
G2X42.8205Y-22.8125Z0.2176I-0.1241J-0.1511
G1 X42.8107 Y-22.8355 Z0.2176
G1 X42.7497 Y-22.9237 Z0.2176
G2X42.9105Y-22.8958Z0.2176I0.1124J-0.1706
G1 X42.9295 Y-22.9129 Z0.2176
G1 X42.9963 Y-23.0042 Z0.2176
G2X43.0081Y-22.8568Z0.2176I0.2200J0.0566
G0 Z0.3464
G0 X43.0081 Y-22.8568 
G0 Z0.3464
G0 X42.8909 Y-22.8012 
G1 X42.8909 Y-22.8012 Z0.2214 F75.
G1 X42.8909 Y-22.7873 Z0.2189 F25.
G1 X42.9096 Y-22.7703 Z0.2145
G1 X42.9208 Y-22.7666 Z0.2124
G1 X42.9562 Y-22.7781 Z0.2059
G1 X42.9591 Y-22.7821 Z0.2050
G1 X42.9588 Y-22.8024 Z0.2014
G1 X42.9323 Y-22.8020 Z0.2014
G1 X42.9310 Y-22.8038 Z0.2014 F35.
G1 X42.9195 Y-22.8000 Z0.2014
G1 X42.9307 Y-22.7962 Z0.2014
G1 X42.9336 Y-22.8003 Z0.2014
G1 X42.9323 Y-22.8020 Z0.2014
G1 X42.9573 Y-22.8206 Z0.2014
G1 X42.9709 Y-22.8022 Z0.2014
G1 X42.9731 Y-22.8000 Z0.2014
G1 X42.9656 Y-22.7912 Z0.2014
G1 X42.9507 Y-22.7704 Z0.2014
G1 X42.9435 Y-22.7573 Z0.2014
G1 X42.9334 Y-22.7624 Z0.2014
G1 X42.9061 Y-22.7715 Z0.2014
G2X42.8817Y-22.7745Z0.2014I-0.0198J0.0594
G1 X42.8830 Y-22.7874 Z0.2014
G1 X42.8830 Y-22.8125 Z0.2014
G1 X42.8817 Y-22.8254 Z0.2014
G2X42.9031Y-22.8274Z0.2014I0.0046J-0.0650
G1 X42.9303 Y-22.8365 Z0.2014
G1 X42.9435 Y-22.8427 Z0.2014
G1 X42.9507 Y-22.8296 Z0.2014
G1 X42.9573 Y-22.8206 Z0.2014
G1 X42.9826 Y-22.8386 Z0.2014
G1 X42.9761 Y-22.8477 Z0.2014
G3X42.9710Y-22.8595Z0.2014I0.0254J-0.0182
G1 X42.9657 Y-22.8846 Z0.2014
G1 X42.9650 Y-22.9085 Z0.2014
G1 X42.9504 Y-22.8897 Z0.2014
G1 X42.9314 Y-22.8726 Z0.2014
G3X42.9204Y-22.8662Z0.2014I-0.0209J-0.0232
G1 X42.8962 Y-22.8581 Z0.2014
G3X42.8836Y-22.8566Z0.2014I-0.0099J-0.0296
G1 X42.8581 Y-22.8588 Z0.2014
G1 X42.8518 Y-22.8601 Z0.2014
G1 X42.8263 Y-22.8678 Z0.2014
G1 X42.8394 Y-22.8478 Z0.2014
G1 X42.8492 Y-22.8248 Z0.2014
G3X42.8517Y-22.8125Z0.2014I-0.0287J0.0123
G1 X42.8517 Y-22.7874 Z0.2014
G3X42.8492Y-22.7752Z0.2014I-0.0312J0.0000
G1 X42.8394 Y-22.7521 Z0.2014
G1 X42.8263 Y-22.7321 Z0.2014
G1 X42.8518 Y-22.7399 Z0.2014
G1 X42.8581 Y-22.7411 Z0.2014
G1 X42.8836 Y-22.7433 Z0.2014
G3X42.8962Y-22.7419Z0.2014I0.0027J0.0311
G1 X42.9204 Y-22.7338 Z0.2014
G3X42.9314Y-22.7273Z0.2014I-0.0099J0.0297
G1 X42.9504 Y-22.7103 Z0.2014
G1 X42.9650 Y-22.6914 Z0.2014
G1 X42.9657 Y-22.7154 Z0.2014
G1 X42.9710 Y-22.7405 Z0.2014
G3X42.9761Y-22.7522Z0.2014I0.0305J0.0064
G1 X42.9910 Y-22.7731 Z0.2014
G3X43.0004Y-22.7818Z0.2014I0.0254J0.0182
G1 X43.0225 Y-22.7949 Z0.2014
G1 X43.0352 Y-22.8000 Z0.2014
G1 X43.0225 Y-22.8050 Z0.2014
G1 X43.0004 Y-22.8182 Z0.2014
G3X42.9910Y-22.8269Z0.2014I0.0160J-0.0268
G1 X42.9826 Y-22.8386 Z0.2014
G1 X43.0081 Y-22.8568 Z0.2014
G1 X43.0164 Y-22.8450 Z0.2014
G1 X43.0385 Y-22.8319 Z0.2014
G1 X43.1314 Y-22.8000 Z0.2014
G2X43.0015Y-22.7341Z0.2014I0.0102J0.1810
G1 X42.9963 Y-22.7089 Z0.2014
G1 X42.9963 Y-22.5958 Z0.2014
G2X42.8863Y-22.7122Z0.2014I-0.1886J0.0679
G1 X42.8609 Y-22.7100 Z0.2014
G1 X42.7496 Y-22.6762 Z0.2014
G2X42.8205Y-22.8125Z0.2014I-0.1241J-0.1511
G1 X42.8107 Y-22.8355 Z0.2014
G1 X42.7497 Y-22.9237 Z0.2014
G2X42.9105Y-22.8958Z0.2014I0.1124J-0.1706
G1 X42.9295 Y-22.9129 Z0.2014
G1 X42.9963 Y-23.0042 Z0.2014
G2X43.0081Y-22.8568Z0.2014I0.2200J0.0566
G0 Z0.3302
G0 X43.0081 Y-22.8568 
G0 Z0.3302
G0 X42.8909 Y-22.8012 
G1 X42.8909 Y-22.8012 Z0.2052 F75.
G1 X42.8909 Y-22.7873 Z0.2027 F25.
G1 X42.9096 Y-22.7703 Z0.1983
G1 X42.9208 Y-22.7666 Z0.1962
G1 X42.9562 Y-22.7781 Z0.1897
G1 X42.9591 Y-22.7821 Z0.1888
G1 X42.9588 Y-22.8024 Z0.1852
G1 X42.9323 Y-22.8020 Z0.1852
G1 X42.9310 Y-22.8038 Z0.1852 F35.
G1 X42.9195 Y-22.8000 Z0.1852
G1 X42.9307 Y-22.7962 Z0.1852
G1 X42.9336 Y-22.8003 Z0.1852
G1 X42.9323 Y-22.8020 Z0.1852
G1 X42.9573 Y-22.8206 Z0.1852
G1 X42.9709 Y-22.8022 Z0.1852
G1 X42.9731 Y-22.8000 Z0.1852
G1 X42.9656 Y-22.7912 Z0.1852
G1 X42.9507 Y-22.7704 Z0.1852
G1 X42.9435 Y-22.7573 Z0.1852
G1 X42.9334 Y-22.7624 Z0.1852
G1 X42.9061 Y-22.7715 Z0.1852
G2X42.8817Y-22.7745Z0.1852I-0.0198J0.0594
G1 X42.8830 Y-22.7874 Z0.1852
G1 X42.8830 Y-22.8125 Z0.1852
G1 X42.8817 Y-22.8254 Z0.1852
G2X42.9031Y-22.8274Z0.1852I0.0046J-0.0650
G1 X42.9303 Y-22.8365 Z0.1852
G1 X42.9435 Y-22.8427 Z0.1852
G1 X42.9507 Y-22.8296 Z0.1852
G1 X42.9573 Y-22.8206 Z0.1852
G1 X42.9826 Y-22.8386 Z0.1852
G1 X42.9761 Y-22.8477 Z0.1852
G3X42.9710Y-22.8595Z0.1852I0.0254J-0.0182
G1 X42.9657 Y-22.8846 Z0.1852
G1 X42.9650 Y-22.9085 Z0.1852
G1 X42.9504 Y-22.8897 Z0.1852
G1 X42.9314 Y-22.8726 Z0.1852
G3X42.9204Y-22.8662Z0.1852I-0.0209J-0.0232
G1 X42.8962 Y-22.8581 Z0.1852
G3X42.8836Y-22.8566Z0.1852I-0.0099J-0.0296
G1 X42.8581 Y-22.8588 Z0.1852
G1 X42.8518 Y-22.8601 Z0.1852
G1 X42.8263 Y-22.8678 Z0.1852
G1 X42.8394 Y-22.8478 Z0.1852
G1 X42.8492 Y-22.8248 Z0.1852
G3X42.8517Y-22.8125Z0.1852I-0.0287J0.0123
G1 X42.8517 Y-22.7874 Z0.1852
G3X42.8492Y-22.7752Z0.1852I-0.0312J0.0000
G1 X42.8394 Y-22.7521 Z0.1852
G1 X42.8263 Y-22.7321 Z0.1852
G1 X42.8518 Y-22.7399 Z0.1852
G1 X42.8581 Y-22.7411 Z0.1852
G1 X42.8836 Y-22.7433 Z0.1852
G3X42.8962Y-22.7419Z0.1852I0.0027J0.0311
G1 X42.9204 Y-22.7338 Z0.1852
G3X42.9314Y-22.7273Z0.1852I-0.0099J0.0297
G1 X42.9504 Y-22.7103 Z0.1852
G1 X42.9650 Y-22.6914 Z0.1852
G1 X42.9657 Y-22.7154 Z0.1852
G1 X42.9710 Y-22.7405 Z0.1852
G3X42.9761Y-22.7522Z0.1852I0.0305J0.0064
G1 X42.9910 Y-22.7731 Z0.1852
G3X43.0004Y-22.7818Z0.1852I0.0254J0.0182
G1 X43.0225 Y-22.7949 Z0.1852
G1 X43.0352 Y-22.8000 Z0.1852
G1 X43.0225 Y-22.8050 Z0.1852
G1 X43.0004 Y-22.8182 Z0.1852
G3X42.9910Y-22.8269Z0.1852I0.0160J-0.0268
G1 X42.9826 Y-22.8386 Z0.1852
G1 X43.0081 Y-22.8568 Z0.1852
G1 X43.0164 Y-22.8450 Z0.1852
G1 X43.0385 Y-22.8319 Z0.1852
G1 X43.1314 Y-22.8000 Z0.1852
G2X43.0015Y-22.7341Z0.1852I0.0102J0.1810
G1 X42.9963 Y-22.7089 Z0.1852
G1 X42.9963 Y-22.5958 Z0.1852
G2X42.8863Y-22.7122Z0.1852I-0.1886J0.0679
G1 X42.8609 Y-22.7100 Z0.1852
G1 X42.7496 Y-22.6762 Z0.1852
G2X42.8205Y-22.8125Z0.1852I-0.1241J-0.1511
G1 X42.8107 Y-22.8355 Z0.1852
G1 X42.7497 Y-22.9237 Z0.1852
G2X42.9105Y-22.8958Z0.1852I0.1124J-0.1706
G1 X42.9295 Y-22.9129 Z0.1852
G1 X42.9963 Y-23.0042 Z0.1852
G2X43.0081Y-22.8568Z0.1852I0.2200J0.0566
G0 Z0.3140
G0 X43.0081 Y-22.8568 
G0 Z0.3140
G0 X42.8909 Y-22.8012 
G1 X42.8909 Y-22.8012 Z0.1890 F75.
G1 X42.8909 Y-22.7873 Z0.1865 F25.
G1 X42.9096 Y-22.7703 Z0.1821
G1 X42.9208 Y-22.7666 Z0.1800
G1 X42.9562 Y-22.7781 Z0.1735
G1 X42.9591 Y-22.7821 Z0.1726
G1 X42.9588 Y-22.8024 Z0.1690
G1 X42.9323 Y-22.8020 Z0.1690
G1 X42.9310 Y-22.8038 Z0.1690 F35.
G1 X42.9195 Y-22.8000 Z0.1690
G1 X42.9307 Y-22.7962 Z0.1690
G1 X42.9336 Y-22.8003 Z0.1690
G1 X42.9323 Y-22.8020 Z0.1690
G1 X42.9573 Y-22.8206 Z0.1690
G1 X42.9709 Y-22.8022 Z0.1690
G1 X42.9731 Y-22.8000 Z0.1690
G1 X42.9656 Y-22.7912 Z0.1690
G1 X42.9507 Y-22.7704 Z0.1690
G1 X42.9435 Y-22.7573 Z0.1690
G1 X42.9334 Y-22.7624 Z0.1690
G1 X42.9061 Y-22.7715 Z0.1690
G2X42.8817Y-22.7745Z0.1690I-0.0198J0.0594
G1 X42.8830 Y-22.7874 Z0.1690
G1 X42.8830 Y-22.8125 Z0.1690
G1 X42.8817 Y-22.8254 Z0.1690
G2X42.9031Y-22.8274Z0.1690I0.0046J-0.0650
G1 X42.9303 Y-22.8365 Z0.1690
G1 X42.9435 Y-22.8427 Z0.1690
G1 X42.9507 Y-22.8296 Z0.1690
G1 X42.9573 Y-22.8206 Z0.1690
G1 X42.9826 Y-22.8386 Z0.1690
G1 X42.9761 Y-22.8477 Z0.1690
G3X42.9710Y-22.8595Z0.1690I0.0254J-0.0182
G1 X42.9657 Y-22.8846 Z0.1690
G1 X42.9650 Y-22.9085 Z0.1690
G1 X42.9504 Y-22.8897 Z0.1690
G1 X42.9314 Y-22.8726 Z0.1690
G3X42.9204Y-22.8662Z0.1690I-0.0209J-0.0232
G1 X42.8962 Y-22.8581 Z0.1690
G3X42.8836Y-22.8566Z0.1690I-0.0099J-0.0296
G1 X42.8581 Y-22.8588 Z0.1690
G1 X42.8518 Y-22.8601 Z0.1690
G1 X42.8263 Y-22.8678 Z0.1690
G1 X42.8394 Y-22.8478 Z0.1690
G1 X42.8492 Y-22.8248 Z0.1690
G3X42.8517Y-22.8125Z0.1690I-0.0287J0.0123
G1 X42.8517 Y-22.7874 Z0.1690
G3X42.8492Y-22.7752Z0.1690I-0.0312J0.0000
G1 X42.8394 Y-22.7521 Z0.1690
G1 X42.8263 Y-22.7321 Z0.1690
G1 X42.8518 Y-22.7399 Z0.1690
G1 X42.8581 Y-22.7411 Z0.1690
G1 X42.8836 Y-22.7433 Z0.1690
G3X42.8962Y-22.7419Z0.1690I0.0027J0.0311
G1 X42.9204 Y-22.7338 Z0.1690
G3X42.9314Y-22.7273Z0.1690I-0.0099J0.0297
G1 X42.9504 Y-22.7103 Z0.1690
G1 X42.9650 Y-22.6914 Z0.1690
G1 X42.9657 Y-22.7154 Z0.1690
G1 X42.9710 Y-22.7405 Z0.1690
G3X42.9761Y-22.7522Z0.1690I0.0305J0.0064
G1 X42.9910 Y-22.7731 Z0.1690
G3X43.0004Y-22.7818Z0.1690I0.0254J0.0182
G1 X43.0225 Y-22.7949 Z0.1690
G1 X43.0352 Y-22.8000 Z0.1690
G1 X43.0225 Y-22.8050 Z0.1690
G1 X43.0004 Y-22.8182 Z0.1690
G3X42.9910Y-22.8269Z0.1690I0.0160J-0.0268
G1 X42.9826 Y-22.8386 Z0.1690
G1 X43.0081 Y-22.8568 Z0.1690
G1 X43.0164 Y-22.8450 Z0.1690
G1 X43.0385 Y-22.8319 Z0.1690
G1 X43.1314 Y-22.8000 Z0.1690
G2X43.0015Y-22.7341Z0.1690I0.0102J0.1810
G1 X42.9963 Y-22.7089 Z0.1690
G1 X42.9963 Y-22.5958 Z0.1690
G2X42.8863Y-22.7122Z0.1690I-0.1886J0.0679
G1 X42.8609 Y-22.7100 Z0.1690
G1 X42.7496 Y-22.6762 Z0.1690
G2X42.8205Y-22.8125Z0.1690I-0.1241J-0.1511
G1 X42.8107 Y-22.8355 Z0.1690
G1 X42.7497 Y-22.9237 Z0.1690
G2X42.9105Y-22.8958Z0.1690I0.1124J-0.1706
G1 X42.9295 Y-22.9129 Z0.1690
G1 X42.9963 Y-23.0042 Z0.1690
G2X43.0081Y-22.8568Z0.1690I0.2200J0.0566
G0 Z4.0000
G0 X43.0081 Y-22.8568 
M5
G53 Z
X2Y0
