( MOP:  02-inlay-InglewoodDiamondsDulc-idPT06-s21-02 )
( FILE: G:\Shared drives\AlloyProjectFiles\Customer CAD files\Alloy-Standard-Builds-CAM\Fingerboards-in\02-inlay-InglewoodDiamondsDulc-idPT06-s21-02.nc)
G90
(  BEGIN TOOL LIST )
(  TOOL 20 - Downcut 2MM - DESC: 0.0787 DIA, 2 FLUTE,  CARBIDE MAT )
(  ENDOF TOOL LIST )
( 02-inlay-InglewoodDiamondsDulc-idPT06-s21-02)
T20
S14000
M3
G0 Z1.0000
G0 X33.3490 Y-22.8589 
G1 X33.3490 Y-22.8589 Z0.2650 F75.
G1 X33.3180 Y-22.7994 Z0.2532 F25.
G1 X33.3601 Y-22.7187 Z0.2371
G1 X33.4022 Y-22.7994 Z0.2211
G1 X33.3601 Y-22.8802 Z0.2050
G1 X33.3180 Y-22.7994 Z0.2050 F22.
G1 X33.3601 Y-22.7187 Z0.2050
G1 X33.4022 Y-22.7994 Z0.2050
G1 X33.3601 Y-22.8802 Z0.2050
G1 X33.3816 Y-22.8930 Z0.2050
G1 X33.4304 Y-22.7994 Z0.2050
G1 X33.3601 Y-22.6647 Z0.2050
G1 X33.2898 Y-22.7994 Z0.2050
G1 X33.3601 Y-22.9342 Z0.2050
G1 X33.3816 Y-22.8930 Z0.2050
G1 X33.4304 Y-22.7994 Z0.2050
G1 X33.3636 Y-22.6714 Z0.2050
G0 Z0.3605
G0 X33.3636 Y-22.6714 
G0 Z0.3605
G0 X36.0832 Y-23.0876 
G1 X36.0832 Y-23.0876 Z0.2650 F75.
G1 X36.1142 Y-23.1471 Z0.2532 F25.
G1 X36.0721 Y-23.2279 Z0.2371
G1 X36.0300 Y-23.1471 Z0.2211
G1 X36.0721 Y-23.0664 Z0.2050
G1 X36.1142 Y-23.1471 Z0.2050 F22.
G1 X36.0721 Y-23.2279 Z0.2050
G1 X36.0300 Y-23.1471 Z0.2050
G1 X36.0721 Y-23.0664 Z0.2050
G1 X36.0936 Y-23.0535 Z0.2050
G1 X36.0721 Y-23.0123 Z0.2050
G1 X36.0018 Y-23.1471 Z0.2050
G1 X36.0721 Y-23.2819 Z0.2050
G1 X36.1424 Y-23.1471 Z0.2050
G1 X36.0936 Y-23.0535 Z0.2050
G1 X36.0721 Y-23.0123 Z0.2050
G1 X36.0018 Y-23.1471 Z0.2050
G1 X36.0256 Y-23.1928 Z0.2050
G0 Z0.3605
G0 X36.0256 Y-23.1928 
G0 Z0.3605
G0 X36.0832 Y-22.3923 
G1 X36.0832 Y-22.3923 Z0.2650 F75.
G1 X36.1142 Y-22.4517 Z0.2532 F25.
G1 X36.0721 Y-22.5325 Z0.2371
G1 X36.0300 Y-22.4517 Z0.2211
G1 X36.0721 Y-22.3710 Z0.2050
G1 X36.1142 Y-22.4517 Z0.2050 F22.
G1 X36.0721 Y-22.5325 Z0.2050
G1 X36.0300 Y-22.4517 Z0.2050
G1 X36.0721 Y-22.3710 Z0.2050
G1 X36.0936 Y-22.3582 Z0.2050
G1 X36.0721 Y-22.3170 Z0.2050
G1 X36.0018 Y-22.4517 Z0.2050
G1 X36.0721 Y-22.5865 Z0.2050
G1 X36.1424 Y-22.4517 Z0.2050
G1 X36.0936 Y-22.3582 Z0.2050
G1 X36.0721 Y-22.3170 Z0.2050
G1 X36.0018 Y-22.4517 Z0.2050
G1 X36.0256 Y-22.4974 Z0.2050
G0 Z0.3605
G0 X36.0256 Y-22.4974 
G0 Z0.3605
G0 X41.4490 Y-22.8589 
G1 X41.4490 Y-22.8589 Z0.2650 F75.
G1 X41.4180 Y-22.7994 Z0.2532 F25.
G1 X41.4601 Y-22.7187 Z0.2371
G1 X41.5022 Y-22.7994 Z0.2211
G1 X41.4601 Y-22.8802 Z0.2050
G1 X41.4180 Y-22.7994 Z0.2050 F22.
G1 X41.4601 Y-22.7187 Z0.2050
G1 X41.5022 Y-22.7994 Z0.2050
G1 X41.4601 Y-22.8802 Z0.2050
G1 X41.4816 Y-22.8930 Z0.2050
G1 X41.5304 Y-22.7994 Z0.2050
G1 X41.4601 Y-22.6647 Z0.2050
G1 X41.3898 Y-22.7994 Z0.2050
G1 X41.4601 Y-22.9342 Z0.2050
G1 X41.4816 Y-22.8930 Z0.2050
G1 X41.5304 Y-22.7994 Z0.2050
G1 X41.4636 Y-22.6714 Z0.2050
G0 Z1.0000
G0 X41.4636 Y-22.6714 
M5
G53 Z
X2Y0
