( MOP:  02-inlay-InglewoodDiamonds-idPT06-s21-01 )
( FILE: G:\Shared drives\AlloyProjectFiles\Customer CAD files\Alloy-Standard-Builds-CAM\Fingerboards-in\02-inlay-InglewoodDiamonds-idPT06-s21-01.nc)
G90
(  BEGIN TOOL LIST )
(  TOOL 15 - Fretkerf PT025 - DESC: 0.0250 DIA, 2 FLUTE,  CARBIDE MAT )
(  ENDOF TOOL LIST )
( 02-inlay-InglewoodDiamonds-idPT06-s21-01)
T15
S20000
M3
G0 Z1.0000
G0 X32.4787 Y-22.9948 
G1 X32.4787 Y-22.9948 Z0.2745 F75.
G1 X32.5246 Y-22.9068 Z0.2570 F21.
G1 X32.5806 Y-22.7994 Z0.2570 F22.
G1 X32.5822 Y-22.7994 Z0.2570
G1 X32.5806 Y-22.7994 Z0.2570
G1 X32.4766 Y-22.6001 Z0.2570
G1 X32.4766 Y-22.5856 Z0.2570
G1 X32.4766 Y-22.6001 Z0.2570
G1 X32.3726 Y-22.7994 Z0.2570
G1 X32.3710 Y-22.7994 Z0.2570
G1 X32.3726 Y-22.7994 Z0.2570
G1 X32.4766 Y-22.9988 Z0.2570
G1 X32.4766 Y-23.0133 Z0.2570
G1 X32.4766 Y-22.9988 Z0.2570
G1 X32.5246 Y-22.9068 Z0.2570
G1 X32.5806 Y-22.7994 Z0.2570
G1 X32.5822 Y-22.7994 Z0.2570
G1 X32.5806 Y-22.7994 Z0.2570
G1 X32.5225 Y-22.6880 Z0.2570
G0 Z0.3615
G0 X32.5225 Y-22.6880 
G0 Z0.3615
G0 X32.4787 Y-22.9948 
G1 X32.4787 Y-22.9948 Z0.2615 F75.
G1 X32.5246 Y-22.9068 Z0.2440 F21.
G1 X32.5806 Y-22.7994 Z0.2440 F22.
G1 X32.5822 Y-22.7994 Z0.2440
G1 X32.5806 Y-22.7994 Z0.2440
G1 X32.4766 Y-22.6001 Z0.2440
G1 X32.4766 Y-22.5856 Z0.2440
G1 X32.4766 Y-22.6001 Z0.2440
G1 X32.3726 Y-22.7994 Z0.2440
G1 X32.3710 Y-22.7994 Z0.2440
G1 X32.3726 Y-22.7994 Z0.2440
G1 X32.4766 Y-22.9988 Z0.2440
G1 X32.4766 Y-23.0133 Z0.2440
G1 X32.4766 Y-22.9988 Z0.2440
G1 X32.5246 Y-22.9068 Z0.2440
G1 X32.5806 Y-22.7994 Z0.2440
G1 X32.5822 Y-22.7994 Z0.2440
G1 X32.5806 Y-22.7994 Z0.2440
G1 X32.5225 Y-22.6880 Z0.2440
G0 Z0.3485
G0 X32.5225 Y-22.6880 
G0 Z0.3485
G0 X32.4787 Y-22.9948 
G1 X32.4787 Y-22.9948 Z0.2485 F75.
G1 X32.5246 Y-22.9068 Z0.2310 F21.
G1 X32.5806 Y-22.7994 Z0.2310 F22.
G1 X32.5822 Y-22.7994 Z0.2310
G1 X32.5806 Y-22.7994 Z0.2310
G1 X32.4766 Y-22.6001 Z0.2310
G1 X32.4766 Y-22.5856 Z0.2310
G1 X32.4766 Y-22.6001 Z0.2310
G1 X32.3726 Y-22.7994 Z0.2310
G1 X32.3710 Y-22.7994 Z0.2310
G1 X32.3726 Y-22.7994 Z0.2310
G1 X32.4766 Y-22.9988 Z0.2310
G1 X32.4766 Y-23.0133 Z0.2310
G1 X32.4766 Y-22.9988 Z0.2310
G1 X32.5246 Y-22.9068 Z0.2310
G1 X32.5806 Y-22.7994 Z0.2310
G1 X32.5822 Y-22.7994 Z0.2310
G1 X32.5806 Y-22.7994 Z0.2310
G1 X32.5225 Y-22.6880 Z0.2310
G0 Z0.3355
G0 X32.5225 Y-22.6880 
G0 Z0.3355
G0 X32.4787 Y-22.9948 
G1 X32.4787 Y-22.9948 Z0.2355 F75.
G1 X32.5246 Y-22.9068 Z0.2180 F21.
G1 X32.5806 Y-22.7994 Z0.2180 F22.
G1 X32.5822 Y-22.7994 Z0.2180
G1 X32.5806 Y-22.7994 Z0.2180
G1 X32.4766 Y-22.6001 Z0.2180
G1 X32.4766 Y-22.5856 Z0.2180
G1 X32.4766 Y-22.6001 Z0.2180
G1 X32.3726 Y-22.7994 Z0.2180
G1 X32.3710 Y-22.7994 Z0.2180
G1 X32.3726 Y-22.7994 Z0.2180
G1 X32.4766 Y-22.9988 Z0.2180
G1 X32.4766 Y-23.0133 Z0.2180
G1 X32.4766 Y-22.9988 Z0.2180
G1 X32.5246 Y-22.9068 Z0.2180
G1 X32.5806 Y-22.7994 Z0.2180
G1 X32.5822 Y-22.7994 Z0.2180
G1 X32.5806 Y-22.7994 Z0.2180
G1 X32.5225 Y-22.6880 Z0.2180
G0 Z0.3225
G0 X32.5225 Y-22.6880 
G0 Z0.3225
G0 X32.4787 Y-22.9948 
G1 X32.4787 Y-22.9948 Z0.2225 F75.
G1 X32.5246 Y-22.9068 Z0.2050 F21.
G1 X32.5806 Y-22.7994 Z0.2050 F22.
G1 X32.5822 Y-22.7994 Z0.2050
G1 X32.5806 Y-22.7994 Z0.2050
G1 X32.4766 Y-22.6001 Z0.2050
G1 X32.4766 Y-22.5856 Z0.2050
G1 X32.4766 Y-22.6001 Z0.2050
G1 X32.3726 Y-22.7994 Z0.2050
G1 X32.3710 Y-22.7994 Z0.2050
G1 X32.3726 Y-22.7994 Z0.2050
G1 X32.4766 Y-22.9988 Z0.2050
G1 X32.4766 Y-23.0133 Z0.2050
G1 X32.4766 Y-22.9988 Z0.2050
G1 X32.5246 Y-22.9068 Z0.2050
G1 X32.5806 Y-22.7994 Z0.2050
G1 X32.5822 Y-22.7994 Z0.2050
G1 X32.5806 Y-22.7994 Z0.2050
G1 X32.5225 Y-22.6880 Z0.2050
G0 Z0.3745
G0 X32.5225 Y-22.6880 
G0 Z0.3745
G0 X33.3622 Y-22.9948 
G1 X33.3622 Y-22.9948 Z0.2745 F75.
G1 X33.4081 Y-22.9068 Z0.2570 F21.
G1 X33.4641 Y-22.7994 Z0.2570 F22.
G1 X33.4657 Y-22.7994 Z0.2570
G1 X33.4641 Y-22.7994 Z0.2570
G1 X33.3601 Y-22.6001 Z0.2570
G1 X33.3601 Y-22.5856 Z0.2570
G1 X33.3601 Y-22.6001 Z0.2570
G1 X33.2561 Y-22.7994 Z0.2570
G1 X33.2545 Y-22.7994 Z0.2570
G1 X33.2561 Y-22.7994 Z0.2570
G1 X33.3601 Y-22.9988 Z0.2570
G1 X33.3601 Y-23.0133 Z0.2570
G1 X33.3601 Y-22.9988 Z0.2570
G1 X33.4081 Y-22.9068 Z0.2570
G1 X33.4641 Y-22.7994 Z0.2570
G1 X33.4657 Y-22.7994 Z0.2570
G1 X33.4641 Y-22.7994 Z0.2570
G1 X33.4060 Y-22.6880 Z0.2570
G0 Z0.3615
G0 X33.4060 Y-22.6880 
G0 Z0.3615
G0 X33.3622 Y-22.9948 
G1 X33.3622 Y-22.9948 Z0.2615 F75.
G1 X33.4081 Y-22.9068 Z0.2440 F21.
G1 X33.4641 Y-22.7994 Z0.2440 F22.
G1 X33.4657 Y-22.7994 Z0.2440
G1 X33.4641 Y-22.7994 Z0.2440
G1 X33.3601 Y-22.6001 Z0.2440
G1 X33.3601 Y-22.5856 Z0.2440
G1 X33.3601 Y-22.6001 Z0.2440
G1 X33.2561 Y-22.7994 Z0.2440
G1 X33.2545 Y-22.7994 Z0.2440
G1 X33.2561 Y-22.7994 Z0.2440
G1 X33.3601 Y-22.9988 Z0.2440
G1 X33.3601 Y-23.0133 Z0.2440
G1 X33.3601 Y-22.9988 Z0.2440
G1 X33.4081 Y-22.9068 Z0.2440
G1 X33.4641 Y-22.7994 Z0.2440
G1 X33.4657 Y-22.7994 Z0.2440
G1 X33.4641 Y-22.7994 Z0.2440
G1 X33.4060 Y-22.6880 Z0.2440
G0 Z0.3485
G0 X33.4060 Y-22.6880 
G0 Z0.3485
G0 X33.3622 Y-22.9948 
G1 X33.3622 Y-22.9948 Z0.2485 F75.
G1 X33.4081 Y-22.9068 Z0.2310 F21.
G1 X33.4641 Y-22.7994 Z0.2310 F22.
G1 X33.4657 Y-22.7994 Z0.2310
G1 X33.4641 Y-22.7994 Z0.2310
G1 X33.3601 Y-22.6001 Z0.2310
G1 X33.3601 Y-22.5856 Z0.2310
G1 X33.3601 Y-22.6001 Z0.2310
G1 X33.2561 Y-22.7994 Z0.2310
G1 X33.2545 Y-22.7994 Z0.2310
G1 X33.2561 Y-22.7994 Z0.2310
G1 X33.3601 Y-22.9988 Z0.2310
G1 X33.3601 Y-23.0133 Z0.2310
G1 X33.3601 Y-22.9988 Z0.2310
G1 X33.4081 Y-22.9068 Z0.2310
G1 X33.4641 Y-22.7994 Z0.2310
G1 X33.4657 Y-22.7994 Z0.2310
G1 X33.4641 Y-22.7994 Z0.2310
G1 X33.4060 Y-22.6880 Z0.2310
G0 Z0.3355
G0 X33.4060 Y-22.6880 
G0 Z0.3355
G0 X33.3622 Y-22.9948 
G1 X33.3622 Y-22.9948 Z0.2355 F75.
G1 X33.4081 Y-22.9068 Z0.2180 F21.
G1 X33.4641 Y-22.7994 Z0.2180 F22.
G1 X33.4657 Y-22.7994 Z0.2180
G1 X33.4641 Y-22.7994 Z0.2180
G1 X33.3601 Y-22.6001 Z0.2180
G1 X33.3601 Y-22.5856 Z0.2180
G1 X33.3601 Y-22.6001 Z0.2180
G1 X33.2561 Y-22.7994 Z0.2180
G1 X33.2545 Y-22.7994 Z0.2180
G1 X33.2561 Y-22.7994 Z0.2180
G1 X33.3601 Y-22.9988 Z0.2180
G1 X33.3601 Y-23.0133 Z0.2180
G1 X33.3601 Y-22.9988 Z0.2180
G1 X33.4081 Y-22.9068 Z0.2180
G1 X33.4641 Y-22.7994 Z0.2180
G1 X33.4657 Y-22.7994 Z0.2180
G1 X33.4641 Y-22.7994 Z0.2180
G1 X33.4060 Y-22.6880 Z0.2180
G0 Z0.3225
G0 X33.4060 Y-22.6880 
G0 Z0.3225
G0 X33.3622 Y-22.9948 
G1 X33.3622 Y-22.9948 Z0.2225 F75.
G1 X33.4081 Y-22.9068 Z0.2050 F21.
G1 X33.4641 Y-22.7994 Z0.2050 F22.
G1 X33.4657 Y-22.7994 Z0.2050
G1 X33.4641 Y-22.7994 Z0.2050
G1 X33.3601 Y-22.6001 Z0.2050
G1 X33.3601 Y-22.5856 Z0.2050
G1 X33.3601 Y-22.6001 Z0.2050
G1 X33.2561 Y-22.7994 Z0.2050
G1 X33.2545 Y-22.7994 Z0.2050
G1 X33.2561 Y-22.7994 Z0.2050
G1 X33.3601 Y-22.9988 Z0.2050
G1 X33.3601 Y-23.0133 Z0.2050
G1 X33.3601 Y-22.9988 Z0.2050
G1 X33.4081 Y-22.9068 Z0.2050
G1 X33.4641 Y-22.7994 Z0.2050
G1 X33.4657 Y-22.7994 Z0.2050
G1 X33.4641 Y-22.7994 Z0.2050
G1 X33.4060 Y-22.6880 Z0.2050
G0 Z0.3745
G0 X33.4060 Y-22.6880 
G0 Z0.3745
G0 X34.3537 Y-22.9948 
G1 X34.3537 Y-22.9948 Z0.2745 F75.
G1 X34.3996 Y-22.9068 Z0.2570 F21.
G1 X34.4556 Y-22.7994 Z0.2570 F22.
G1 X34.4572 Y-22.7994 Z0.2570
G1 X34.4556 Y-22.7994 Z0.2570
G1 X34.3516 Y-22.6001 Z0.2570
G1 X34.3516 Y-22.5856 Z0.2570
G1 X34.3516 Y-22.6001 Z0.2570
G1 X34.2476 Y-22.7994 Z0.2570
G1 X34.2460 Y-22.7994 Z0.2570
G1 X34.2476 Y-22.7994 Z0.2570
G1 X34.3516 Y-22.9988 Z0.2570
G1 X34.3516 Y-23.0133 Z0.2570
G1 X34.3516 Y-22.9988 Z0.2570
G1 X34.3996 Y-22.9068 Z0.2570
G1 X34.4556 Y-22.7994 Z0.2570
G1 X34.4572 Y-22.7994 Z0.2570
G1 X34.4556 Y-22.7994 Z0.2570
G1 X34.3975 Y-22.6880 Z0.2570
G0 Z0.3615
G0 X34.3975 Y-22.6880 
G0 Z0.3615
G0 X34.3537 Y-22.9948 
G1 X34.3537 Y-22.9948 Z0.2615 F75.
G1 X34.3996 Y-22.9068 Z0.2440 F21.
G1 X34.4556 Y-22.7994 Z0.2440 F22.
G1 X34.4572 Y-22.7994 Z0.2440
G1 X34.4556 Y-22.7994 Z0.2440
G1 X34.3516 Y-22.6001 Z0.2440
G1 X34.3516 Y-22.5856 Z0.2440
G1 X34.3516 Y-22.6001 Z0.2440
G1 X34.2476 Y-22.7994 Z0.2440
G1 X34.2460 Y-22.7994 Z0.2440
G1 X34.2476 Y-22.7994 Z0.2440
G1 X34.3516 Y-22.9988 Z0.2440
G1 X34.3516 Y-23.0133 Z0.2440
G1 X34.3516 Y-22.9988 Z0.2440
G1 X34.3996 Y-22.9068 Z0.2440
G1 X34.4556 Y-22.7994 Z0.2440
G1 X34.4572 Y-22.7994 Z0.2440
G1 X34.4556 Y-22.7994 Z0.2440
G1 X34.3975 Y-22.6880 Z0.2440
G0 Z0.3485
G0 X34.3975 Y-22.6880 
G0 Z0.3485
G0 X34.3537 Y-22.9948 
G1 X34.3537 Y-22.9948 Z0.2485 F75.
G1 X34.3996 Y-22.9068 Z0.2310 F21.
G1 X34.4556 Y-22.7994 Z0.2310 F22.
G1 X34.4572 Y-22.7994 Z0.2310
G1 X34.4556 Y-22.7994 Z0.2310
G1 X34.3516 Y-22.6001 Z0.2310
G1 X34.3516 Y-22.5856 Z0.2310
G1 X34.3516 Y-22.6001 Z0.2310
G1 X34.2476 Y-22.7994 Z0.2310
G1 X34.2460 Y-22.7994 Z0.2310
G1 X34.2476 Y-22.7994 Z0.2310
G1 X34.3516 Y-22.9988 Z0.2310
G1 X34.3516 Y-23.0133 Z0.2310
G1 X34.3516 Y-22.9988 Z0.2310
G1 X34.3996 Y-22.9068 Z0.2310
G1 X34.4556 Y-22.7994 Z0.2310
G1 X34.4572 Y-22.7994 Z0.2310
G1 X34.4556 Y-22.7994 Z0.2310
G1 X34.3975 Y-22.6880 Z0.2310
G0 Z0.3355
G0 X34.3975 Y-22.6880 
G0 Z0.3355
G0 X34.3537 Y-22.9948 
G1 X34.3537 Y-22.9948 Z0.2355 F75.
G1 X34.3996 Y-22.9068 Z0.2180 F21.
G1 X34.4556 Y-22.7994 Z0.2180 F22.
G1 X34.4572 Y-22.7994 Z0.2180
G1 X34.4556 Y-22.7994 Z0.2180
G1 X34.3516 Y-22.6001 Z0.2180
G1 X34.3516 Y-22.5856 Z0.2180
G1 X34.3516 Y-22.6001 Z0.2180
G1 X34.2476 Y-22.7994 Z0.2180
G1 X34.2460 Y-22.7994 Z0.2180
G1 X34.2476 Y-22.7994 Z0.2180
G1 X34.3516 Y-22.9988 Z0.2180
G1 X34.3516 Y-23.0133 Z0.2180
G1 X34.3516 Y-22.9988 Z0.2180
G1 X34.3996 Y-22.9068 Z0.2180
G1 X34.4556 Y-22.7994 Z0.2180
G1 X34.4572 Y-22.7994 Z0.2180
G1 X34.4556 Y-22.7994 Z0.2180
G1 X34.3975 Y-22.6880 Z0.2180
G0 Z0.3225
G0 X34.3975 Y-22.6880 
G0 Z0.3225
G0 X34.3537 Y-22.9948 
G1 X34.3537 Y-22.9948 Z0.2225 F75.
G1 X34.3996 Y-22.9068 Z0.2050 F21.
G1 X34.4556 Y-22.7994 Z0.2050 F22.
G1 X34.4572 Y-22.7994 Z0.2050
G1 X34.4556 Y-22.7994 Z0.2050
G1 X34.3516 Y-22.6001 Z0.2050
G1 X34.3516 Y-22.5856 Z0.2050
G1 X34.3516 Y-22.6001 Z0.2050
G1 X34.2476 Y-22.7994 Z0.2050
G1 X34.2460 Y-22.7994 Z0.2050
G1 X34.2476 Y-22.7994 Z0.2050
G1 X34.3516 Y-22.9988 Z0.2050
G1 X34.3516 Y-23.0133 Z0.2050
G1 X34.3516 Y-22.9988 Z0.2050
G1 X34.3996 Y-22.9068 Z0.2050
G1 X34.4556 Y-22.7994 Z0.2050
G1 X34.4572 Y-22.7994 Z0.2050
G1 X34.4556 Y-22.7994 Z0.2050
G1 X34.3975 Y-22.6880 Z0.2050
G0 Z0.3745
G0 X34.3975 Y-22.6880 
G0 Z0.3745
G0 X36.1660 Y-23.1277 
G1 X36.1660 Y-23.1277 Z0.2745 F75.
G1 X36.1201 Y-23.0397 Z0.2570 F21.
G1 X36.0721 Y-22.9478 Z0.2570 F22.
G1 X36.0721 Y-22.9333 Z0.2570
G1 X36.0721 Y-22.9478 Z0.2570
G1 X35.9681 Y-23.1471 Z0.2570
G1 X35.9665 Y-23.1471 Z0.2570
G1 X35.9681 Y-23.1471 Z0.2570
G1 X36.0721 Y-23.3465 Z0.2570
G1 X36.0721 Y-23.3610 Z0.2570
G1 X36.0721 Y-23.3465 Z0.2570
G1 X36.1761 Y-23.1471 Z0.2570
G1 X36.1777 Y-23.1471 Z0.2570
G1 X36.1761 Y-23.1471 Z0.2570
G1 X36.1201 Y-23.0397 Z0.2570
G1 X36.0721 Y-22.9478 Z0.2570
G1 X36.0721 Y-22.9333 Z0.2570
G1 X36.0721 Y-22.9478 Z0.2570
G1 X36.0179 Y-23.0517 Z0.2570
G0 Z0.3615
G0 X36.0179 Y-23.0517 
G0 Z0.3615
G0 X36.1660 Y-23.1277 
G1 X36.1660 Y-23.1277 Z0.2615 F75.
G1 X36.1201 Y-23.0397 Z0.2440 F21.
G1 X36.0721 Y-22.9478 Z0.2440 F22.
G1 X36.0721 Y-22.9333 Z0.2440
G1 X36.0721 Y-22.9478 Z0.2440
G1 X35.9681 Y-23.1471 Z0.2440
G1 X35.9665 Y-23.1471 Z0.2440
G1 X35.9681 Y-23.1471 Z0.2440
G1 X36.0721 Y-23.3465 Z0.2440
G1 X36.0721 Y-23.3610 Z0.2440
G1 X36.0721 Y-23.3465 Z0.2440
G1 X36.1761 Y-23.1471 Z0.2440
G1 X36.1777 Y-23.1471 Z0.2440
G1 X36.1761 Y-23.1471 Z0.2440
G1 X36.1201 Y-23.0397 Z0.2440
G1 X36.0721 Y-22.9478 Z0.2440
G1 X36.0721 Y-22.9333 Z0.2440
G1 X36.0721 Y-22.9478 Z0.2440
G1 X36.0179 Y-23.0517 Z0.2440
G0 Z0.3485
G0 X36.0179 Y-23.0517 
G0 Z0.3485
G0 X36.1660 Y-23.1277 
G1 X36.1660 Y-23.1277 Z0.2485 F75.
G1 X36.1201 Y-23.0397 Z0.2310 F21.
G1 X36.0721 Y-22.9478 Z0.2310 F22.
G1 X36.0721 Y-22.9333 Z0.2310
G1 X36.0721 Y-22.9478 Z0.2310
G1 X35.9681 Y-23.1471 Z0.2310
G1 X35.9665 Y-23.1471 Z0.2310
G1 X35.9681 Y-23.1471 Z0.2310
G1 X36.0721 Y-23.3465 Z0.2310
G1 X36.0721 Y-23.3610 Z0.2310
G1 X36.0721 Y-23.3465 Z0.2310
G1 X36.1761 Y-23.1471 Z0.2310
G1 X36.1777 Y-23.1471 Z0.2310
G1 X36.1761 Y-23.1471 Z0.2310
G1 X36.1201 Y-23.0397 Z0.2310
G1 X36.0721 Y-22.9478 Z0.2310
G1 X36.0721 Y-22.9333 Z0.2310
G1 X36.0721 Y-22.9478 Z0.2310
G1 X36.0179 Y-23.0517 Z0.2310
G0 Z0.3355
G0 X36.0179 Y-23.0517 
G0 Z0.3355
G0 X36.1660 Y-23.1277 
G1 X36.1660 Y-23.1277 Z0.2355 F75.
G1 X36.1201 Y-23.0397 Z0.2180 F21.
G1 X36.0721 Y-22.9478 Z0.2180 F22.
G1 X36.0721 Y-22.9333 Z0.2180
G1 X36.0721 Y-22.9478 Z0.2180
G1 X35.9681 Y-23.1471 Z0.2180
G1 X35.9665 Y-23.1471 Z0.2180
G1 X35.9681 Y-23.1471 Z0.2180
G1 X36.0721 Y-23.3465 Z0.2180
G1 X36.0721 Y-23.3610 Z0.2180
G1 X36.0721 Y-23.3465 Z0.2180
G1 X36.1761 Y-23.1471 Z0.2180
G1 X36.1777 Y-23.1471 Z0.2180
G1 X36.1761 Y-23.1471 Z0.2180
G1 X36.1201 Y-23.0397 Z0.2180
G1 X36.0721 Y-22.9478 Z0.2180
G1 X36.0721 Y-22.9333 Z0.2180
G1 X36.0721 Y-22.9478 Z0.2180
G1 X36.0179 Y-23.0517 Z0.2180
G0 Z0.3225
G0 X36.0179 Y-23.0517 
G0 Z0.3225
G0 X36.1660 Y-23.1277 
G1 X36.1660 Y-23.1277 Z0.2225 F75.
G1 X36.1201 Y-23.0397 Z0.2050 F21.
G1 X36.0721 Y-22.9478 Z0.2050 F22.
G1 X36.0721 Y-22.9333 Z0.2050
G1 X36.0721 Y-22.9478 Z0.2050
G1 X35.9681 Y-23.1471 Z0.2050
G1 X35.9665 Y-23.1471 Z0.2050
G1 X35.9681 Y-23.1471 Z0.2050
G1 X36.0721 Y-23.3465 Z0.2050
G1 X36.0721 Y-23.3610 Z0.2050
G1 X36.0721 Y-23.3465 Z0.2050
G1 X36.1761 Y-23.1471 Z0.2050
G1 X36.1777 Y-23.1471 Z0.2050
G1 X36.1761 Y-23.1471 Z0.2050
G1 X36.1201 Y-23.0397 Z0.2050
G1 X36.0721 Y-22.9478 Z0.2050
G1 X36.0721 Y-22.9333 Z0.2050
G1 X36.0721 Y-22.9478 Z0.2050
G1 X36.0179 Y-23.0517 Z0.2050
G0 Z0.3745
G0 X36.0179 Y-23.0517 
G0 Z0.3745
G0 X36.1660 Y-22.4323 
G1 X36.1660 Y-22.4323 Z0.2745 F75.
G1 X36.1201 Y-22.3443 Z0.2570 F21.
G1 X36.0721 Y-22.2524 Z0.2570 F22.
G1 X36.0721 Y-22.2379 Z0.2570
G1 X36.0721 Y-22.2524 Z0.2570
G1 X35.9681 Y-22.4517 Z0.2570
G1 X35.9665 Y-22.4517 Z0.2570
G1 X35.9681 Y-22.4517 Z0.2570
G1 X36.0721 Y-22.6511 Z0.2570
G1 X36.0721 Y-22.6656 Z0.2570
G1 X36.0721 Y-22.6511 Z0.2570
G1 X36.1761 Y-22.4517 Z0.2570
G1 X36.1777 Y-22.4517 Z0.2570
G1 X36.1761 Y-22.4517 Z0.2570
G1 X36.1201 Y-22.3443 Z0.2570
G1 X36.0721 Y-22.2524 Z0.2570
G1 X36.0721 Y-22.2379 Z0.2570
G1 X36.0721 Y-22.2524 Z0.2570
G1 X36.0179 Y-22.3563 Z0.2570
G0 Z0.3615
G0 X36.0179 Y-22.3563 
G0 Z0.3615
G0 X36.1660 Y-22.4323 
G1 X36.1660 Y-22.4323 Z0.2615 F75.
G1 X36.1201 Y-22.3443 Z0.2440 F21.
G1 X36.0721 Y-22.2524 Z0.2440 F22.
G1 X36.0721 Y-22.2379 Z0.2440
G1 X36.0721 Y-22.2524 Z0.2440
G1 X35.9681 Y-22.4517 Z0.2440
G1 X35.9665 Y-22.4517 Z0.2440
G1 X35.9681 Y-22.4517 Z0.2440
G1 X36.0721 Y-22.6511 Z0.2440
G1 X36.0721 Y-22.6656 Z0.2440
G1 X36.0721 Y-22.6511 Z0.2440
G1 X36.1761 Y-22.4517 Z0.2440
G1 X36.1777 Y-22.4517 Z0.2440
G1 X36.1761 Y-22.4517 Z0.2440
G1 X36.1201 Y-22.3443 Z0.2440
G1 X36.0721 Y-22.2524 Z0.2440
G1 X36.0721 Y-22.2379 Z0.2440
G1 X36.0721 Y-22.2524 Z0.2440
G1 X36.0179 Y-22.3563 Z0.2440
G0 Z0.3485
G0 X36.0179 Y-22.3563 
G0 Z0.3485
G0 X36.1660 Y-22.4323 
G1 X36.1660 Y-22.4323 Z0.2485 F75.
G1 X36.1201 Y-22.3443 Z0.2310 F21.
G1 X36.0721 Y-22.2524 Z0.2310 F22.
G1 X36.0721 Y-22.2379 Z0.2310
G1 X36.0721 Y-22.2524 Z0.2310
G1 X35.9681 Y-22.4517 Z0.2310
G1 X35.9665 Y-22.4517 Z0.2310
G1 X35.9681 Y-22.4517 Z0.2310
G1 X36.0721 Y-22.6511 Z0.2310
G1 X36.0721 Y-22.6656 Z0.2310
G1 X36.0721 Y-22.6511 Z0.2310
G1 X36.1761 Y-22.4517 Z0.2310
G1 X36.1777 Y-22.4517 Z0.2310
G1 X36.1761 Y-22.4517 Z0.2310
G1 X36.1201 Y-22.3443 Z0.2310
G1 X36.0721 Y-22.2524 Z0.2310
G1 X36.0721 Y-22.2379 Z0.2310
G1 X36.0721 Y-22.2524 Z0.2310
G1 X36.0179 Y-22.3563 Z0.2310
G0 Z0.3355
G0 X36.0179 Y-22.3563 
G0 Z0.3355
G0 X36.1660 Y-22.4323 
G1 X36.1660 Y-22.4323 Z0.2355 F75.
G1 X36.1201 Y-22.3443 Z0.2180 F21.
G1 X36.0721 Y-22.2524 Z0.2180 F22.
G1 X36.0721 Y-22.2379 Z0.2180
G1 X36.0721 Y-22.2524 Z0.2180
G1 X35.9681 Y-22.4517 Z0.2180
G1 X35.9665 Y-22.4517 Z0.2180
G1 X35.9681 Y-22.4517 Z0.2180
G1 X36.0721 Y-22.6511 Z0.2180
G1 X36.0721 Y-22.6656 Z0.2180
G1 X36.0721 Y-22.6511 Z0.2180
G1 X36.1761 Y-22.4517 Z0.2180
G1 X36.1777 Y-22.4517 Z0.2180
G1 X36.1761 Y-22.4517 Z0.2180
G1 X36.1201 Y-22.3443 Z0.2180
G1 X36.0721 Y-22.2524 Z0.2180
G1 X36.0721 Y-22.2379 Z0.2180
G1 X36.0721 Y-22.2524 Z0.2180
G1 X36.0179 Y-22.3563 Z0.2180
G0 Z0.3225
G0 X36.0179 Y-22.3563 
G0 Z0.3225
G0 X36.1660 Y-22.4323 
G1 X36.1660 Y-22.4323 Z0.2225 F75.
G1 X36.1201 Y-22.3443 Z0.2050 F21.
G1 X36.0721 Y-22.2524 Z0.2050 F22.
G1 X36.0721 Y-22.2379 Z0.2050
G1 X36.0721 Y-22.2524 Z0.2050
G1 X35.9681 Y-22.4517 Z0.2050
G1 X35.9665 Y-22.4517 Z0.2050
G1 X35.9681 Y-22.4517 Z0.2050
G1 X36.0721 Y-22.6511 Z0.2050
G1 X36.0721 Y-22.6656 Z0.2050
G1 X36.0721 Y-22.6511 Z0.2050
G1 X36.1761 Y-22.4517 Z0.2050
G1 X36.1777 Y-22.4517 Z0.2050
G1 X36.1761 Y-22.4517 Z0.2050
G1 X36.1201 Y-22.3443 Z0.2050
G1 X36.0721 Y-22.2524 Z0.2050
G1 X36.0721 Y-22.2379 Z0.2050
G1 X36.0721 Y-22.2524 Z0.2050
G1 X36.0179 Y-22.3563 Z0.2050
G0 Z0.3745
G0 X36.0179 Y-22.3563 
G0 Z0.3745
G0 X38.1202 Y-22.9948 
G1 X38.1202 Y-22.9948 Z0.2745 F75.
G1 X38.1661 Y-22.9068 Z0.2570 F21.
G1 X38.2221 Y-22.7994 Z0.2570 F22.
G1 X38.2237 Y-22.7994 Z0.2570
G1 X38.2221 Y-22.7994 Z0.2570
G1 X38.1181 Y-22.6001 Z0.2570
G1 X38.1181 Y-22.5856 Z0.2570
G1 X38.1181 Y-22.6001 Z0.2570
G1 X38.0141 Y-22.7994 Z0.2570
G1 X38.0125 Y-22.7994 Z0.2570
G1 X38.0141 Y-22.7994 Z0.2570
G1 X38.1181 Y-22.9988 Z0.2570
G1 X38.1181 Y-23.0133 Z0.2570
G1 X38.1181 Y-22.9988 Z0.2570
G1 X38.1661 Y-22.9068 Z0.2570
G1 X38.2221 Y-22.7994 Z0.2570
G1 X38.2237 Y-22.7994 Z0.2570
G1 X38.2221 Y-22.7994 Z0.2570
G1 X38.1640 Y-22.6880 Z0.2570
G0 Z0.3615
G0 X38.1640 Y-22.6880 
G0 Z0.3615
G0 X38.1202 Y-22.9948 
G1 X38.1202 Y-22.9948 Z0.2615 F75.
G1 X38.1661 Y-22.9068 Z0.2440 F21.
G1 X38.2221 Y-22.7994 Z0.2440 F22.
G1 X38.2237 Y-22.7994 Z0.2440
G1 X38.2221 Y-22.7994 Z0.2440
G1 X38.1181 Y-22.6001 Z0.2440
G1 X38.1181 Y-22.5856 Z0.2440
G1 X38.1181 Y-22.6001 Z0.2440
G1 X38.0141 Y-22.7994 Z0.2440
G1 X38.0125 Y-22.7994 Z0.2440
G1 X38.0141 Y-22.7994 Z0.2440
G1 X38.1181 Y-22.9988 Z0.2440
G1 X38.1181 Y-23.0133 Z0.2440
G1 X38.1181 Y-22.9988 Z0.2440
G1 X38.1661 Y-22.9068 Z0.2440
G1 X38.2221 Y-22.7994 Z0.2440
G1 X38.2237 Y-22.7994 Z0.2440
G1 X38.2221 Y-22.7994 Z0.2440
G1 X38.1640 Y-22.6880 Z0.2440
G0 Z0.3485
G0 X38.1640 Y-22.6880 
G0 Z0.3485
G0 X38.1202 Y-22.9948 
G1 X38.1202 Y-22.9948 Z0.2485 F75.
G1 X38.1661 Y-22.9068 Z0.2310 F21.
G1 X38.2221 Y-22.7994 Z0.2310 F22.
G1 X38.2237 Y-22.7994 Z0.2310
G1 X38.2221 Y-22.7994 Z0.2310
G1 X38.1181 Y-22.6001 Z0.2310
G1 X38.1181 Y-22.5856 Z0.2310
G1 X38.1181 Y-22.6001 Z0.2310
G1 X38.0141 Y-22.7994 Z0.2310
G1 X38.0125 Y-22.7994 Z0.2310
G1 X38.0141 Y-22.7994 Z0.2310
G1 X38.1181 Y-22.9988 Z0.2310
G1 X38.1181 Y-23.0133 Z0.2310
G1 X38.1181 Y-22.9988 Z0.2310
G1 X38.1661 Y-22.9068 Z0.2310
G1 X38.2221 Y-22.7994 Z0.2310
G1 X38.2237 Y-22.7994 Z0.2310
G1 X38.2221 Y-22.7994 Z0.2310
G1 X38.1640 Y-22.6880 Z0.2310
G0 Z0.3355
G0 X38.1640 Y-22.6880 
G0 Z0.3355
G0 X38.1202 Y-22.9948 
G1 X38.1202 Y-22.9948 Z0.2355 F75.
G1 X38.1661 Y-22.9068 Z0.2180 F21.
G1 X38.2221 Y-22.7994 Z0.2180 F22.
G1 X38.2237 Y-22.7994 Z0.2180
G1 X38.2221 Y-22.7994 Z0.2180
G1 X38.1181 Y-22.6001 Z0.2180
G1 X38.1181 Y-22.5856 Z0.2180
G1 X38.1181 Y-22.6001 Z0.2180
G1 X38.0141 Y-22.7994 Z0.2180
G1 X38.0125 Y-22.7994 Z0.2180
G1 X38.0141 Y-22.7994 Z0.2180
G1 X38.1181 Y-22.9988 Z0.2180
G1 X38.1181 Y-23.0133 Z0.2180
G1 X38.1181 Y-22.9988 Z0.2180
G1 X38.1661 Y-22.9068 Z0.2180
G1 X38.2221 Y-22.7994 Z0.2180
G1 X38.2237 Y-22.7994 Z0.2180
G1 X38.2221 Y-22.7994 Z0.2180
G1 X38.1640 Y-22.6880 Z0.2180
G0 Z0.3225
G0 X38.1640 Y-22.6880 
G0 Z0.3225
G0 X38.1202 Y-22.9948 
G1 X38.1202 Y-22.9948 Z0.2225 F75.
G1 X38.1661 Y-22.9068 Z0.2050 F21.
G1 X38.2221 Y-22.7994 Z0.2050 F22.
G1 X38.2237 Y-22.7994 Z0.2050
G1 X38.2221 Y-22.7994 Z0.2050
G1 X38.1181 Y-22.6001 Z0.2050
G1 X38.1181 Y-22.5856 Z0.2050
G1 X38.1181 Y-22.6001 Z0.2050
G1 X38.0141 Y-22.7994 Z0.2050
G1 X38.0125 Y-22.7994 Z0.2050
G1 X38.0141 Y-22.7994 Z0.2050
G1 X38.1181 Y-22.9988 Z0.2050
G1 X38.1181 Y-23.0133 Z0.2050
G1 X38.1181 Y-22.9988 Z0.2050
G1 X38.1661 Y-22.9068 Z0.2050
G1 X38.2221 Y-22.7994 Z0.2050
G1 X38.2237 Y-22.7994 Z0.2050
G1 X38.2221 Y-22.7994 Z0.2050
G1 X38.1640 Y-22.6880 Z0.2050
G0 Z0.3745
G0 X38.1640 Y-22.6880 
G0 Z0.3745
G0 X39.6947 Y-22.9948 
G1 X39.6947 Y-22.9948 Z0.2745 F75.
G1 X39.7406 Y-22.9068 Z0.2570 F21.
G1 X39.7966 Y-22.7994 Z0.2570 F22.
G1 X39.7982 Y-22.7994 Z0.2570
G1 X39.7966 Y-22.7994 Z0.2570
G1 X39.6926 Y-22.6001 Z0.2570
G1 X39.6926 Y-22.5856 Z0.2570
G1 X39.6926 Y-22.6001 Z0.2570
G1 X39.5886 Y-22.7994 Z0.2570
G1 X39.5870 Y-22.7994 Z0.2570
G1 X39.5886 Y-22.7994 Z0.2570
G1 X39.6926 Y-22.9988 Z0.2570
G1 X39.6926 Y-23.0133 Z0.2570
G1 X39.6926 Y-22.9988 Z0.2570
G1 X39.7406 Y-22.9068 Z0.2570
G1 X39.7966 Y-22.7994 Z0.2570
G1 X39.7982 Y-22.7994 Z0.2570
G1 X39.7966 Y-22.7994 Z0.2570
G1 X39.7385 Y-22.6880 Z0.2570
G0 Z0.3615
G0 X39.7385 Y-22.6880 
G0 Z0.3615
G0 X39.6947 Y-22.9948 
G1 X39.6947 Y-22.9948 Z0.2615 F75.
G1 X39.7406 Y-22.9068 Z0.2440 F21.
G1 X39.7966 Y-22.7994 Z0.2440 F22.
G1 X39.7982 Y-22.7994 Z0.2440
G1 X39.7966 Y-22.7994 Z0.2440
G1 X39.6926 Y-22.6001 Z0.2440
G1 X39.6926 Y-22.5856 Z0.2440
G1 X39.6926 Y-22.6001 Z0.2440
G1 X39.5886 Y-22.7994 Z0.2440
G1 X39.5870 Y-22.7994 Z0.2440
G1 X39.5886 Y-22.7994 Z0.2440
G1 X39.6926 Y-22.9988 Z0.2440
G1 X39.6926 Y-23.0133 Z0.2440
G1 X39.6926 Y-22.9988 Z0.2440
G1 X39.7406 Y-22.9068 Z0.2440
G1 X39.7966 Y-22.7994 Z0.2440
G1 X39.7982 Y-22.7994 Z0.2440
G1 X39.7966 Y-22.7994 Z0.2440
G1 X39.7385 Y-22.6880 Z0.2440
G0 Z0.3485
G0 X39.7385 Y-22.6880 
G0 Z0.3485
G0 X39.6947 Y-22.9948 
G1 X39.6947 Y-22.9948 Z0.2485 F75.
G1 X39.7406 Y-22.9068 Z0.2310 F21.
G1 X39.7966 Y-22.7994 Z0.2310 F22.
G1 X39.7982 Y-22.7994 Z0.2310
G1 X39.7966 Y-22.7994 Z0.2310
G1 X39.6926 Y-22.6001 Z0.2310
G1 X39.6926 Y-22.5856 Z0.2310
G1 X39.6926 Y-22.6001 Z0.2310
G1 X39.5886 Y-22.7994 Z0.2310
G1 X39.5870 Y-22.7994 Z0.2310
G1 X39.5886 Y-22.7994 Z0.2310
G1 X39.6926 Y-22.9988 Z0.2310
G1 X39.6926 Y-23.0133 Z0.2310
G1 X39.6926 Y-22.9988 Z0.2310
G1 X39.7406 Y-22.9068 Z0.2310
G1 X39.7966 Y-22.7994 Z0.2310
G1 X39.7982 Y-22.7994 Z0.2310
G1 X39.7966 Y-22.7994 Z0.2310
G1 X39.7385 Y-22.6880 Z0.2310
G0 Z0.3355
G0 X39.7385 Y-22.6880 
G0 Z0.3355
G0 X39.6947 Y-22.9948 
G1 X39.6947 Y-22.9948 Z0.2355 F75.
G1 X39.7406 Y-22.9068 Z0.2180 F21.
G1 X39.7966 Y-22.7994 Z0.2180 F22.
G1 X39.7982 Y-22.7994 Z0.2180
G1 X39.7966 Y-22.7994 Z0.2180
G1 X39.6926 Y-22.6001 Z0.2180
G1 X39.6926 Y-22.5856 Z0.2180
G1 X39.6926 Y-22.6001 Z0.2180
G1 X39.5886 Y-22.7994 Z0.2180
G1 X39.5870 Y-22.7994 Z0.2180
G1 X39.5886 Y-22.7994 Z0.2180
G1 X39.6926 Y-22.9988 Z0.2180
G1 X39.6926 Y-23.0133 Z0.2180
G1 X39.6926 Y-22.9988 Z0.2180
G1 X39.7406 Y-22.9068 Z0.2180
G1 X39.7966 Y-22.7994 Z0.2180
G1 X39.7982 Y-22.7994 Z0.2180
G1 X39.7966 Y-22.7994 Z0.2180
G1 X39.7385 Y-22.6880 Z0.2180
G0 Z0.3225
G0 X39.7385 Y-22.6880 
G0 Z0.3225
G0 X39.6947 Y-22.9948 
G1 X39.6947 Y-22.9948 Z0.2225 F75.
G1 X39.7406 Y-22.9068 Z0.2050 F21.
G1 X39.7966 Y-22.7994 Z0.2050 F22.
G1 X39.7982 Y-22.7994 Z0.2050
G1 X39.7966 Y-22.7994 Z0.2050
G1 X39.6926 Y-22.6001 Z0.2050
G1 X39.6926 Y-22.5856 Z0.2050
G1 X39.6926 Y-22.6001 Z0.2050
G1 X39.5886 Y-22.7994 Z0.2050
G1 X39.5870 Y-22.7994 Z0.2050
G1 X39.5886 Y-22.7994 Z0.2050
G1 X39.6926 Y-22.9988 Z0.2050
G1 X39.6926 Y-23.0133 Z0.2050
G1 X39.6926 Y-22.9988 Z0.2050
G1 X39.7406 Y-22.9068 Z0.2050
G1 X39.7966 Y-22.7994 Z0.2050
G1 X39.7982 Y-22.7994 Z0.2050
G1 X39.7966 Y-22.7994 Z0.2050
G1 X39.7385 Y-22.6880 Z0.2050
G0 Z0.3745
G0 X39.7385 Y-22.6880 
G0 Z0.3745
G0 X41.4622 Y-22.9948 
G1 X41.4622 Y-22.9948 Z0.2745 F75.
G1 X41.5081 Y-22.9068 Z0.2570 F21.
G1 X41.5641 Y-22.7994 Z0.2570 F22.
G1 X41.5657 Y-22.7994 Z0.2570
G1 X41.5641 Y-22.7994 Z0.2570
G1 X41.4601 Y-22.6001 Z0.2570
G1 X41.4601 Y-22.5856 Z0.2570
G1 X41.4601 Y-22.6001 Z0.2570
G1 X41.3561 Y-22.7994 Z0.2570
G1 X41.3545 Y-22.7994 Z0.2570
G1 X41.3561 Y-22.7994 Z0.2570
G1 X41.4601 Y-22.9988 Z0.2570
G1 X41.4601 Y-23.0133 Z0.2570
G1 X41.4601 Y-22.9988 Z0.2570
G1 X41.5081 Y-22.9068 Z0.2570
G1 X41.5641 Y-22.7994 Z0.2570
G1 X41.5657 Y-22.7994 Z0.2570
G1 X41.5641 Y-22.7994 Z0.2570
G1 X41.5060 Y-22.6880 Z0.2570
G0 Z0.3615
G0 X41.5060 Y-22.6880 
G0 Z0.3615
G0 X41.4622 Y-22.9948 
G1 X41.4622 Y-22.9948 Z0.2615 F75.
G1 X41.5081 Y-22.9068 Z0.2440 F21.
G1 X41.5641 Y-22.7994 Z0.2440 F22.
G1 X41.5657 Y-22.7994 Z0.2440
G1 X41.5641 Y-22.7994 Z0.2440
G1 X41.4601 Y-22.6001 Z0.2440
G1 X41.4601 Y-22.5856 Z0.2440
G1 X41.4601 Y-22.6001 Z0.2440
G1 X41.3561 Y-22.7994 Z0.2440
G1 X41.3545 Y-22.7994 Z0.2440
G1 X41.3561 Y-22.7994 Z0.2440
G1 X41.4601 Y-22.9988 Z0.2440
G1 X41.4601 Y-23.0133 Z0.2440
G1 X41.4601 Y-22.9988 Z0.2440
G1 X41.5081 Y-22.9068 Z0.2440
G1 X41.5641 Y-22.7994 Z0.2440
G1 X41.5657 Y-22.7994 Z0.2440
G1 X41.5641 Y-22.7994 Z0.2440
G1 X41.5060 Y-22.6880 Z0.2440
G0 Z0.3485
G0 X41.5060 Y-22.6880 
G0 Z0.3485
G0 X41.4622 Y-22.9948 
G1 X41.4622 Y-22.9948 Z0.2485 F75.
G1 X41.5081 Y-22.9068 Z0.2310 F21.
G1 X41.5641 Y-22.7994 Z0.2310 F22.
G1 X41.5657 Y-22.7994 Z0.2310
G1 X41.5641 Y-22.7994 Z0.2310
G1 X41.4601 Y-22.6001 Z0.2310
G1 X41.4601 Y-22.5856 Z0.2310
G1 X41.4601 Y-22.6001 Z0.2310
G1 X41.3561 Y-22.7994 Z0.2310
G1 X41.3545 Y-22.7994 Z0.2310
G1 X41.3561 Y-22.7994 Z0.2310
G1 X41.4601 Y-22.9988 Z0.2310
G1 X41.4601 Y-23.0133 Z0.2310
G1 X41.4601 Y-22.9988 Z0.2310
G1 X41.5081 Y-22.9068 Z0.2310
G1 X41.5641 Y-22.7994 Z0.2310
G1 X41.5657 Y-22.7994 Z0.2310
G1 X41.5641 Y-22.7994 Z0.2310
G1 X41.5060 Y-22.6880 Z0.2310
G0 Z0.3355
G0 X41.5060 Y-22.6880 
G0 Z0.3355
G0 X41.4622 Y-22.9948 
G1 X41.4622 Y-22.9948 Z0.2355 F75.
G1 X41.5081 Y-22.9068 Z0.2180 F21.
G1 X41.5641 Y-22.7994 Z0.2180 F22.
G1 X41.5657 Y-22.7994 Z0.2180
G1 X41.5641 Y-22.7994 Z0.2180
G1 X41.4601 Y-22.6001 Z0.2180
G1 X41.4601 Y-22.5856 Z0.2180
G1 X41.4601 Y-22.6001 Z0.2180
G1 X41.3561 Y-22.7994 Z0.2180
G1 X41.3545 Y-22.7994 Z0.2180
G1 X41.3561 Y-22.7994 Z0.2180
G1 X41.4601 Y-22.9988 Z0.2180
G1 X41.4601 Y-23.0133 Z0.2180
G1 X41.4601 Y-22.9988 Z0.2180
G1 X41.5081 Y-22.9068 Z0.2180
G1 X41.5641 Y-22.7994 Z0.2180
G1 X41.5657 Y-22.7994 Z0.2180
G1 X41.5641 Y-22.7994 Z0.2180
G1 X41.5060 Y-22.6880 Z0.2180
G0 Z0.3225
G0 X41.5060 Y-22.6880 
G0 Z0.3225
G0 X41.4622 Y-22.9948 
G1 X41.4622 Y-22.9948 Z0.2225 F75.
G1 X41.5081 Y-22.9068 Z0.2050 F21.
G1 X41.5641 Y-22.7994 Z0.2050 F22.
G1 X41.5657 Y-22.7994 Z0.2050
G1 X41.5641 Y-22.7994 Z0.2050
G1 X41.4601 Y-22.6001 Z0.2050
G1 X41.4601 Y-22.5856 Z0.2050
G1 X41.4601 Y-22.6001 Z0.2050
G1 X41.3561 Y-22.7994 Z0.2050
G1 X41.3545 Y-22.7994 Z0.2050
G1 X41.3561 Y-22.7994 Z0.2050
G1 X41.4601 Y-22.9988 Z0.2050
G1 X41.4601 Y-23.0133 Z0.2050
G1 X41.4601 Y-22.9988 Z0.2050
G1 X41.5081 Y-22.9068 Z0.2050
G1 X41.5641 Y-22.7994 Z0.2050
G1 X41.5657 Y-22.7994 Z0.2050
G1 X41.5641 Y-22.7994 Z0.2050
G1 X41.5060 Y-22.6880 Z0.2050
G0 Z0.3745
G0 X41.5060 Y-22.6880 
G0 Z0.3745
G0 X43.4462 Y-22.9948 
G1 X43.4462 Y-22.9948 Z0.2745 F75.
G1 X43.4921 Y-22.9068 Z0.2570 F21.
G1 X43.5481 Y-22.7994 Z0.2570 F22.
G1 X43.5497 Y-22.7994 Z0.2570
G1 X43.5481 Y-22.7994 Z0.2570
G1 X43.4441 Y-22.6001 Z0.2570
G1 X43.4441 Y-22.5856 Z0.2570
G1 X43.4441 Y-22.6001 Z0.2570
G1 X43.3401 Y-22.7994 Z0.2570
G1 X43.3385 Y-22.7994 Z0.2570
G1 X43.3401 Y-22.7994 Z0.2570
G1 X43.4441 Y-22.9988 Z0.2570
G1 X43.4441 Y-23.0133 Z0.2570
G1 X43.4441 Y-22.9988 Z0.2570
G1 X43.4921 Y-22.9068 Z0.2570
G1 X43.5481 Y-22.7994 Z0.2570
G1 X43.5497 Y-22.7994 Z0.2570
G1 X43.5481 Y-22.7994 Z0.2570
G1 X43.4900 Y-22.6880 Z0.2570
G0 Z0.3615
G0 X43.4900 Y-22.6880 
G0 Z0.3615
G0 X43.4462 Y-22.9948 
G1 X43.4462 Y-22.9948 Z0.2615 F75.
G1 X43.4921 Y-22.9068 Z0.2440 F21.
G1 X43.5481 Y-22.7994 Z0.2440 F22.
G1 X43.5497 Y-22.7994 Z0.2440
G1 X43.5481 Y-22.7994 Z0.2440
G1 X43.4441 Y-22.6001 Z0.2440
G1 X43.4441 Y-22.5856 Z0.2440
G1 X43.4441 Y-22.6001 Z0.2440
G1 X43.3401 Y-22.7994 Z0.2440
G1 X43.3385 Y-22.7994 Z0.2440
G1 X43.3401 Y-22.7994 Z0.2440
G1 X43.4441 Y-22.9988 Z0.2440
G1 X43.4441 Y-23.0133 Z0.2440
G1 X43.4441 Y-22.9988 Z0.2440
G1 X43.4921 Y-22.9068 Z0.2440
G1 X43.5481 Y-22.7994 Z0.2440
G1 X43.5497 Y-22.7994 Z0.2440
G1 X43.5481 Y-22.7994 Z0.2440
G1 X43.4900 Y-22.6880 Z0.2440
G0 Z0.3485
G0 X43.4900 Y-22.6880 
G0 Z0.3485
G0 X43.4462 Y-22.9948 
G1 X43.4462 Y-22.9948 Z0.2485 F75.
G1 X43.4921 Y-22.9068 Z0.2310 F21.
G1 X43.5481 Y-22.7994 Z0.2310 F22.
G1 X43.5497 Y-22.7994 Z0.2310
G1 X43.5481 Y-22.7994 Z0.2310
G1 X43.4441 Y-22.6001 Z0.2310
G1 X43.4441 Y-22.5856 Z0.2310
G1 X43.4441 Y-22.6001 Z0.2310
G1 X43.3401 Y-22.7994 Z0.2310
G1 X43.3385 Y-22.7994 Z0.2310
G1 X43.3401 Y-22.7994 Z0.2310
G1 X43.4441 Y-22.9988 Z0.2310
G1 X43.4441 Y-23.0133 Z0.2310
G1 X43.4441 Y-22.9988 Z0.2310
G1 X43.4921 Y-22.9068 Z0.2310
G1 X43.5481 Y-22.7994 Z0.2310
G1 X43.5497 Y-22.7994 Z0.2310
G1 X43.5481 Y-22.7994 Z0.2310
G1 X43.4900 Y-22.6880 Z0.2310
G0 Z0.3355
G0 X43.4900 Y-22.6880 
G0 Z0.3355
G0 X43.4462 Y-22.9948 
G1 X43.4462 Y-22.9948 Z0.2355 F75.
G1 X43.4921 Y-22.9068 Z0.2180 F21.
G1 X43.5481 Y-22.7994 Z0.2180 F22.
G1 X43.5497 Y-22.7994 Z0.2180
G1 X43.5481 Y-22.7994 Z0.2180
G1 X43.4441 Y-22.6001 Z0.2180
G1 X43.4441 Y-22.5856 Z0.2180
G1 X43.4441 Y-22.6001 Z0.2180
G1 X43.3401 Y-22.7994 Z0.2180
G1 X43.3385 Y-22.7994 Z0.2180
G1 X43.3401 Y-22.7994 Z0.2180
G1 X43.4441 Y-22.9988 Z0.2180
G1 X43.4441 Y-23.0133 Z0.2180
G1 X43.4441 Y-22.9988 Z0.2180
G1 X43.4921 Y-22.9068 Z0.2180
G1 X43.5481 Y-22.7994 Z0.2180
G1 X43.5497 Y-22.7994 Z0.2180
G1 X43.5481 Y-22.7994 Z0.2180
G1 X43.4900 Y-22.6880 Z0.2180
G0 Z0.3225
G0 X43.4900 Y-22.6880 
G0 Z0.3225
G0 X43.4462 Y-22.9948 
G1 X43.4462 Y-22.9948 Z0.2225 F75.
G1 X43.4921 Y-22.9068 Z0.2050 F21.
G1 X43.5481 Y-22.7994 Z0.2050 F22.
G1 X43.5497 Y-22.7994 Z0.2050
G1 X43.5481 Y-22.7994 Z0.2050
G1 X43.4441 Y-22.6001 Z0.2050
G1 X43.4441 Y-22.5856 Z0.2050
G1 X43.4441 Y-22.6001 Z0.2050
G1 X43.3401 Y-22.7994 Z0.2050
G1 X43.3385 Y-22.7994 Z0.2050
G1 X43.3401 Y-22.7994 Z0.2050
G1 X43.4441 Y-22.9988 Z0.2050
G1 X43.4441 Y-23.0133 Z0.2050
G1 X43.4441 Y-22.9988 Z0.2050
G1 X43.4921 Y-22.9068 Z0.2050
G1 X43.5481 Y-22.7994 Z0.2050
G1 X43.5497 Y-22.7994 Z0.2050
G1 X43.5481 Y-22.7994 Z0.2050
G1 X43.4900 Y-22.6880 Z0.2050
G0 Z1.0000
G0 X43.4900 Y-22.6880 
M5
G53 Z
X2Y0
