( MOP:  02-inlay-Moser-idPT06-s24PT625-01 )
( FILE: G:\Shared drives\AlloyProjectFiles\Customer CAD files\Alloy-Standard-Builds-CAM\Fingerboards-in\02-inlay-Moser-idPT06-s24PT625-01.nc)
G90
(  BEGIN TOOL LIST )
(  TOOL 15 - Fretkerf PT025 - DESC: 0.0250 DIA, 2 FLUTE,  CARBIDE MAT )
(  ENDOF TOOL LIST )
( 02-inlay-Moser-idPT06-s24PT625-01)
T15
S14000
M3
G0 Z4.0000
G0 X29.1309 Y-22.6994 
G1 X29.1309 Y-22.6994 Z0.2400 F21.
G17
G3X29.0309Y-22.7994Z0.2400I0.0000J-0.1000
G1 X29.0309 Y-23.4528 Z0.2400 F22.
G3X29.1311Y-23.3154Z0.2400I-0.0481J0.1403
G1 X29.1321 Y-23.3101 Z0.2400
G1 X29.1359 Y-23.3036 Z0.2400
G1 X29.1375 Y-23.3020 Z0.2400
G3X29.2129Y-23.0528Z0.2400I-0.1538J0.1826
G2X29.2174Y-23.0351Z0.2400I0.0173J0.0050
G3X29.3186Y-22.7994Z0.2400I-0.2482J0.2461
G3X29.2174Y-22.5638Z0.2400I-0.3494J-0.0105
G2X29.2129Y-22.5461Z0.2400I0.0128J0.0127
G3X29.1375Y-22.2969Z0.2400I-0.2292J0.0666
G1 X29.1340 Y-22.2927 Z0.2400
G1 X29.1314 Y-22.2857 Z0.2400
G1 X29.1311 Y-22.2835 Z0.2400
G3X29.0309Y-22.1461Z0.2400I-0.1483J-0.0029
G1 X29.0309 Y-22.7994 Z0.2400
G1 X29.0309 Y-23.0494 Z0.2400
G0 Z0.3495
G0 X29.0309 Y-23.0494 
G0 Z0.3495
G0 X29.1309 Y-22.6994 
G1 X29.1309 Y-22.6994 Z0.2300 F21.
G3X29.0309Y-22.7994Z0.2300I0.0000J-0.1000
G1 X29.0309 Y-23.4528 Z0.2300 F22.
G3X29.1311Y-23.3154Z0.2300I-0.0481J0.1403
G1 X29.1321 Y-23.3101 Z0.2300
G1 X29.1359 Y-23.3036 Z0.2300
G1 X29.1375 Y-23.3020 Z0.2300
G3X29.2129Y-23.0528Z0.2300I-0.1538J0.1826
G2X29.2174Y-23.0351Z0.2300I0.0173J0.0050
G3X29.3186Y-22.7994Z0.2300I-0.2482J0.2461
G3X29.2174Y-22.5638Z0.2300I-0.3494J-0.0105
G2X29.2129Y-22.5461Z0.2300I0.0128J0.0127
G3X29.1375Y-22.2969Z0.2300I-0.2292J0.0666
G1 X29.1340 Y-22.2927 Z0.2300
G1 X29.1314 Y-22.2857 Z0.2300
G1 X29.1311 Y-22.2835 Z0.2300
G3X29.0309Y-22.1461Z0.2300I-0.1483J-0.0029
G1 X29.0309 Y-22.7994 Z0.2300
G1 X29.0309 Y-23.0494 Z0.2300
G0 Z0.3495
G0 X29.0309 Y-23.0494 
G0 Z0.3495
G0 X29.1309 Y-22.6994 
G1 X29.1309 Y-22.6994 Z0.2200 F21.
G3X29.0309Y-22.7994Z0.2200I0.0000J-0.1000
G1 X29.0309 Y-23.4528 Z0.2200 F22.
G3X29.1311Y-23.3154Z0.2200I-0.0481J0.1403
G1 X29.1321 Y-23.3101 Z0.2200
G1 X29.1359 Y-23.3036 Z0.2200
G1 X29.1375 Y-23.3020 Z0.2200
G3X29.2129Y-23.0528Z0.2200I-0.1538J0.1826
G2X29.2174Y-23.0351Z0.2200I0.0173J0.0050
G3X29.3186Y-22.7994Z0.2200I-0.2482J0.2461
G3X29.2174Y-22.5638Z0.2200I-0.3494J-0.0105
G2X29.2129Y-22.5461Z0.2200I0.0128J0.0127
G3X29.1375Y-22.2969Z0.2200I-0.2292J0.0666
G1 X29.1340 Y-22.2927 Z0.2200
G1 X29.1314 Y-22.2857 Z0.2200
G1 X29.1311 Y-22.2835 Z0.2200
G3X29.0309Y-22.1461Z0.2200I-0.1483J-0.0029
G1 X29.0309 Y-22.7994 Z0.2200
G1 X29.0309 Y-23.0494 Z0.2200
G0 Z0.3495
G0 X29.0309 Y-23.0494 
G0 Z0.3495
G0 X29.1309 Y-22.6994 
G1 X29.1309 Y-22.6994 Z0.2100 F21.
G3X29.0309Y-22.7994Z0.2100I0.0000J-0.1000
G1 X29.0309 Y-23.4528 Z0.2100 F22.
G3X29.1311Y-23.3154Z0.2100I-0.0481J0.1403
G1 X29.1321 Y-23.3101 Z0.2100
G1 X29.1359 Y-23.3036 Z0.2100
G1 X29.1375 Y-23.3020 Z0.2100
G3X29.2129Y-23.0528Z0.2100I-0.1538J0.1826
G2X29.2174Y-23.0351Z0.2100I0.0173J0.0050
G3X29.3186Y-22.7994Z0.2100I-0.2482J0.2461
G3X29.2174Y-22.5638Z0.2100I-0.3494J-0.0105
G2X29.2129Y-22.5461Z0.2100I0.0128J0.0127
G3X29.1375Y-22.2969Z0.2100I-0.2292J0.0666
G1 X29.1340 Y-22.2927 Z0.2100
G1 X29.1314 Y-22.2857 Z0.2100
G1 X29.1311 Y-22.2835 Z0.2100
G3X29.0309Y-22.1461Z0.2100I-0.1483J-0.0029
G1 X29.0309 Y-22.7994 Z0.2100
G1 X29.0309 Y-23.0494 Z0.2100
G0 Z0.3495
G0 X29.0309 Y-23.0494 
G0 Z0.3495
G0 X29.1309 Y-22.6994 
G1 X29.1309 Y-22.6994 Z0.2000 F21.
G3X29.0309Y-22.7994Z0.2000I0.0000J-0.1000
G1 X29.0309 Y-23.4528 Z0.2000 F22.
G3X29.1311Y-23.3154Z0.2000I-0.0481J0.1403
G1 X29.1321 Y-23.3101 Z0.2000
G1 X29.1359 Y-23.3036 Z0.2000
G1 X29.1375 Y-23.3020 Z0.2000
G3X29.2129Y-23.0528Z0.2000I-0.1538J0.1826
G2X29.2174Y-23.0351Z0.2000I0.0173J0.0050
G3X29.3186Y-22.7994Z0.2000I-0.2482J0.2461
G3X29.2174Y-22.5638Z0.2000I-0.3494J-0.0105
G2X29.2129Y-22.5461Z0.2000I0.0128J0.0127
G3X29.1375Y-22.2969Z0.2000I-0.2292J0.0666
G1 X29.1340 Y-22.2927 Z0.2000
G1 X29.1314 Y-22.2857 Z0.2000
G1 X29.1311 Y-22.2835 Z0.2000
G3X29.0309Y-22.1461Z0.2000I-0.1483J-0.0029
G1 X29.0309 Y-22.7994 Z0.2000
G1 X29.0309 Y-23.0494 Z0.2000
G0 Z0.3495
G0 X29.0309 Y-23.0494 
G0 Z0.3495
G0 X30.0322 Y-22.6994 
G1 X30.0322 Y-22.6994 Z0.2400 F21.
G3X29.9322Y-22.7994Z0.2400I0.0000J-0.1000
G1 X29.9322 Y-23.4325 Z0.2400 F22.
G3X30.0342Y-23.2581Z0.2400I-0.0590J0.1515
G2X30.0430Y-23.2400Z0.2400I0.0178J0.0025
G3X30.1301Y-23.0567Z0.2400I-0.0897J0.1549
G2X30.1377Y-23.0389Z0.2400I0.0178J0.0029
G3X30.2638Y-22.7995Z0.2400I-0.1623J0.2383
G1 X30.2638 Y-22.7994 Z0.2400
G3X30.1377Y-22.5599Z0.2400I-0.2884J0.0011
G2X30.1301Y-22.5422Z0.2400I0.0102J0.0148
G3X30.0430Y-22.3589Z0.2400I-0.1768J0.0284
G2X30.0342Y-22.3408Z0.2400I0.0090J0.0156
G3X29.9322Y-22.1664Z0.2400I-0.1610J0.0229
G1 X29.9322 Y-22.7994 Z0.2400
G1 X29.9322 Y-23.0494 Z0.2400
G0 Z0.3495
G0 X29.9322 Y-23.0494 
G0 Z0.3495
G0 X30.0322 Y-22.6994 
G1 X30.0322 Y-22.6994 Z0.2300 F21.
G3X29.9322Y-22.7994Z0.2300I0.0000J-0.1000
G1 X29.9322 Y-23.4325 Z0.2300 F22.
G3X30.0342Y-23.2581Z0.2300I-0.0590J0.1515
G2X30.0430Y-23.2400Z0.2300I0.0178J0.0025
G3X30.1301Y-23.0567Z0.2300I-0.0897J0.1549
G2X30.1377Y-23.0389Z0.2300I0.0178J0.0029
G3X30.2638Y-22.7995Z0.2300I-0.1623J0.2383
G1 X30.2638 Y-22.7994 Z0.2300
G3X30.1377Y-22.5599Z0.2300I-0.2884J0.0011
G2X30.1301Y-22.5422Z0.2300I0.0102J0.0148
G3X30.0430Y-22.3589Z0.2300I-0.1768J0.0284
G2X30.0342Y-22.3408Z0.2300I0.0090J0.0156
G3X29.9322Y-22.1664Z0.2300I-0.1610J0.0229
G1 X29.9322 Y-22.7994 Z0.2300
G1 X29.9322 Y-23.0494 Z0.2300
G0 Z0.3495
G0 X29.9322 Y-23.0494 
G0 Z0.3495
G0 X30.0322 Y-22.6994 
G1 X30.0322 Y-22.6994 Z0.2200 F21.
G3X29.9322Y-22.7994Z0.2200I0.0000J-0.1000
G1 X29.9322 Y-23.4325 Z0.2200 F22.
G3X30.0342Y-23.2581Z0.2200I-0.0590J0.1515
G2X30.0430Y-23.2400Z0.2200I0.0178J0.0025
G3X30.1301Y-23.0567Z0.2200I-0.0897J0.1549
G2X30.1377Y-23.0389Z0.2200I0.0178J0.0029
G3X30.2638Y-22.7995Z0.2200I-0.1623J0.2383
G1 X30.2638 Y-22.7994 Z0.2200
G3X30.1377Y-22.5599Z0.2200I-0.2884J0.0011
G2X30.1301Y-22.5422Z0.2200I0.0102J0.0148
G3X30.0430Y-22.3589Z0.2200I-0.1768J0.0284
G2X30.0342Y-22.3408Z0.2200I0.0090J0.0156
G3X29.9322Y-22.1664Z0.2200I-0.1610J0.0229
G1 X29.9322 Y-22.7994 Z0.2200
G1 X29.9322 Y-23.0494 Z0.2200
G0 Z0.3495
G0 X29.9322 Y-23.0494 
G0 Z0.3495
G0 X30.0322 Y-22.6994 
G1 X30.0322 Y-22.6994 Z0.2100 F21.
G3X29.9322Y-22.7994Z0.2100I0.0000J-0.1000
G1 X29.9322 Y-23.4325 Z0.2100 F22.
G3X30.0342Y-23.2581Z0.2100I-0.0590J0.1515
G2X30.0430Y-23.2400Z0.2100I0.0178J0.0025
G3X30.1301Y-23.0567Z0.2100I-0.0897J0.1549
G2X30.1377Y-23.0389Z0.2100I0.0178J0.0029
G3X30.2638Y-22.7995Z0.2100I-0.1623J0.2383
G1 X30.2638 Y-22.7994 Z0.2100
G3X30.1377Y-22.5599Z0.2100I-0.2884J0.0011
G2X30.1301Y-22.5422Z0.2100I0.0102J0.0148
G3X30.0430Y-22.3589Z0.2100I-0.1768J0.0284
G2X30.0342Y-22.3408Z0.2100I0.0090J0.0156
G3X29.9322Y-22.1664Z0.2100I-0.1610J0.0229
G1 X29.9322 Y-22.7994 Z0.2100
G1 X29.9322 Y-23.0494 Z0.2100
G0 Z0.3495
G0 X29.9322 Y-23.0494 
G0 Z0.3495
G0 X30.0322 Y-22.6994 
G1 X30.0322 Y-22.6994 Z0.2000 F21.
G3X29.9322Y-22.7994Z0.2000I0.0000J-0.1000
G1 X29.9322 Y-23.4325 Z0.2000 F22.
G3X30.0342Y-23.2581Z0.2000I-0.0590J0.1515
G2X30.0430Y-23.2400Z0.2000I0.0178J0.0025
G3X30.1301Y-23.0567Z0.2000I-0.0897J0.1549
G2X30.1377Y-23.0389Z0.2000I0.0178J0.0029
G3X30.2638Y-22.7995Z0.2000I-0.1623J0.2383
G1 X30.2638 Y-22.7994 Z0.2000
G3X30.1377Y-22.5599Z0.2000I-0.2884J0.0011
G2X30.1301Y-22.5422Z0.2000I0.0102J0.0148
G3X30.0430Y-22.3589Z0.2000I-0.1768J0.0284
G2X30.0342Y-22.3408Z0.2000I0.0090J0.0156
G3X29.9322Y-22.1664Z0.2000I-0.1610J0.0229
G1 X29.9322 Y-22.7994 Z0.2000
G1 X29.9322 Y-23.0494 Z0.2000
G0 Z0.3495
G0 X29.9322 Y-23.0494 
G0 Z0.3495
G0 X31.0423 Y-22.6994 
G1 X31.0423 Y-22.6994 Z0.2400 F21.
G3X30.9423Y-22.7994Z0.2400I0.0000J-0.1000
G1 X30.9423 Y-23.3995 Z0.2400 F22.
G3X31.0427Y-23.2784Z0.2400I-0.0168J0.1161
G2X31.0530Y-23.2611Z0.2400I0.0184J0.0007
G1 X31.0534 Y-23.2609 Z0.2400
G3X31.1446Y-23.0593Z0.2400I-0.0659J0.1512
G2X31.1561Y-23.0368Z0.2400I0.0172J0.0055
G3X31.3263Y-22.7995Z0.2400I-0.0786J0.2361
G1 X31.3263 Y-22.7994 Z0.2400
G3X31.1561Y-22.5621Z0.2400I-0.2488J0.0013
G2X31.1446Y-22.5395Z0.2400I0.0057J0.0171
G3X31.0534Y-22.3379Z0.2400I-0.1571J0.0503
G1 X31.0530 Y-22.3377 Z0.2400
G2X31.0427Y-22.3204Z0.2400I0.0081J0.0165
G3X30.9423Y-22.1994Z0.2400I-0.1172J0.0049
G1 X30.9423 Y-22.7994 Z0.2400
G1 X30.9423 Y-23.0494 Z0.2400
G0 Z0.3495
G0 X30.9423 Y-23.0494 
G0 Z0.3495
G0 X31.0423 Y-22.6994 
G1 X31.0423 Y-22.6994 Z0.2300 F21.
G3X30.9423Y-22.7994Z0.2300I0.0000J-0.1000
G1 X30.9423 Y-23.3995 Z0.2300 F22.
G3X31.0427Y-23.2784Z0.2300I-0.0168J0.1161
G2X31.0530Y-23.2611Z0.2300I0.0184J0.0007
G1 X31.0534 Y-23.2609 Z0.2300
G3X31.1446Y-23.0593Z0.2300I-0.0659J0.1512
G2X31.1561Y-23.0368Z0.2300I0.0172J0.0055
G3X31.3263Y-22.7995Z0.2300I-0.0786J0.2361
G1 X31.3263 Y-22.7994 Z0.2300
G3X31.1561Y-22.5621Z0.2300I-0.2488J0.0013
G2X31.1446Y-22.5395Z0.2300I0.0057J0.0171
G3X31.0534Y-22.3379Z0.2300I-0.1571J0.0503
G1 X31.0530 Y-22.3377 Z0.2300
G2X31.0427Y-22.3204Z0.2300I0.0081J0.0165
G3X30.9423Y-22.1994Z0.2300I-0.1172J0.0049
G1 X30.9423 Y-22.7994 Z0.2300
G1 X30.9423 Y-23.0494 Z0.2300
G0 Z0.3495
G0 X30.9423 Y-23.0494 
G0 Z0.3495
G0 X31.0423 Y-22.6994 
G1 X31.0423 Y-22.6994 Z0.2200 F21.
G3X30.9423Y-22.7994Z0.2200I0.0000J-0.1000
G1 X30.9423 Y-23.3995 Z0.2200 F22.
G3X31.0427Y-23.2784Z0.2200I-0.0168J0.1161
G2X31.0530Y-23.2611Z0.2200I0.0184J0.0007
G1 X31.0534 Y-23.2609 Z0.2200
G3X31.1446Y-23.0593Z0.2200I-0.0659J0.1512
G2X31.1561Y-23.0368Z0.2200I0.0172J0.0055
G3X31.3263Y-22.7995Z0.2200I-0.0786J0.2361
G1 X31.3263 Y-22.7994 Z0.2200
G3X31.1561Y-22.5621Z0.2200I-0.2488J0.0013
G2X31.1446Y-22.5395Z0.2200I0.0057J0.0171
G3X31.0534Y-22.3379Z0.2200I-0.1571J0.0503
G1 X31.0530 Y-22.3377 Z0.2200
G2X31.0427Y-22.3204Z0.2200I0.0081J0.0165
G3X30.9423Y-22.1994Z0.2200I-0.1172J0.0049
G1 X30.9423 Y-22.7994 Z0.2200
G1 X30.9423 Y-23.0494 Z0.2200
G0 Z0.3495
G0 X30.9423 Y-23.0494 
G0 Z0.3495
G0 X31.0423 Y-22.6994 
G1 X31.0423 Y-22.6994 Z0.2100 F21.
G3X30.9423Y-22.7994Z0.2100I0.0000J-0.1000
G1 X30.9423 Y-23.3995 Z0.2100 F22.
G3X31.0427Y-23.2784Z0.2100I-0.0168J0.1161
G2X31.0530Y-23.2611Z0.2100I0.0184J0.0007
G1 X31.0534 Y-23.2609 Z0.2100
G3X31.1446Y-23.0593Z0.2100I-0.0659J0.1512
G2X31.1561Y-23.0368Z0.2100I0.0172J0.0055
G3X31.3263Y-22.7995Z0.2100I-0.0786J0.2361
G1 X31.3263 Y-22.7994 Z0.2100
G3X31.1561Y-22.5621Z0.2100I-0.2488J0.0013
G2X31.1446Y-22.5395Z0.2100I0.0057J0.0171
G3X31.0534Y-22.3379Z0.2100I-0.1571J0.0503
G1 X31.0530 Y-22.3377 Z0.2100
G2X31.0427Y-22.3204Z0.2100I0.0081J0.0165
G3X30.9423Y-22.1994Z0.2100I-0.1172J0.0049
G1 X30.9423 Y-22.7994 Z0.2100
G1 X30.9423 Y-23.0494 Z0.2100
G0 Z0.3495
G0 X30.9423 Y-23.0494 
G0 Z0.3495
G0 X31.0423 Y-22.6994 
G1 X31.0423 Y-22.6994 Z0.2000 F21.
G3X30.9423Y-22.7994Z0.2000I0.0000J-0.1000
G1 X30.9423 Y-23.3995 Z0.2000 F22.
G3X31.0427Y-23.2784Z0.2000I-0.0168J0.1161
G2X31.0530Y-23.2611Z0.2000I0.0184J0.0007
G1 X31.0534 Y-23.2609 Z0.2000
G3X31.1446Y-23.0593Z0.2000I-0.0659J0.1512
G2X31.1561Y-23.0368Z0.2000I0.0172J0.0055
G3X31.3263Y-22.7995Z0.2000I-0.0786J0.2361
G1 X31.3263 Y-22.7994 Z0.2000
G3X31.1561Y-22.5621Z0.2000I-0.2488J0.0013
G2X31.1446Y-22.5395Z0.2000I0.0057J0.0171
G3X31.0534Y-22.3379Z0.2000I-0.1571J0.0503
G1 X31.0530 Y-22.3377 Z0.2000
G2X31.0427Y-22.3204Z0.2000I0.0081J0.0165
G3X30.9423Y-22.1994Z0.2000I-0.1172J0.0049
G1 X30.9423 Y-22.7994 Z0.2000
G1 X30.9423 Y-23.0494 Z0.2000
G0 Z0.3495
G0 X30.9423 Y-23.0494 
G0 Z0.3495
G0 X32.1807 Y-22.6992 
G1 X32.1807 Y-22.6992 Z0.2400 F21.
G3X32.0809Y-22.7994Z0.2400I0.0002J-0.1000
G1 X32.0824 Y-23.3982 Z0.2400 F22.
G3X32.2053Y-23.2368Z0.2400I-0.0523J0.1672
G2X32.2204Y-23.2197Z0.2400I0.0180J-0.0007
G1 X32.2343 Y-23.2186 Z0.2400
G3X32.3868Y-23.0321Z0.2400I-0.0256J0.1765
G2X32.3951Y-23.0160Z0.2400I0.0179J0.0009
G3X32.3941Y-22.5813Z0.2400I-0.1359J0.2170
G2X32.3856Y-22.5652Z0.2400I0.0094J0.0152
G3X32.2323Y-22.3795Z0.2400I-0.1794J0.0079
G1 X32.2184 Y-22.3785 Z0.2400
G2X32.2032Y-22.3628Z0.2400I0.0026J0.0177
G1 X32.2026 Y-22.3492 Z0.2400
G3X32.0795Y-22.2006Z0.2400I-0.1735J-0.0186
G1 X32.0809 Y-22.7994 Z0.2400
G1 X32.0815 Y-23.0494 Z0.2400
G0 Z0.3495
G0 X32.0815 Y-23.0494 
G0 Z0.3495
G0 X32.1807 Y-22.6992 
G1 X32.1807 Y-22.6992 Z0.2300 F21.
G3X32.0809Y-22.7994Z0.2300I0.0002J-0.1000
G1 X32.0824 Y-23.3982 Z0.2300 F22.
G3X32.2053Y-23.2368Z0.2300I-0.0523J0.1672
G2X32.2204Y-23.2197Z0.2300I0.0180J-0.0007
G1 X32.2343 Y-23.2186 Z0.2300
G3X32.3868Y-23.0321Z0.2300I-0.0256J0.1765
G2X32.3951Y-23.0160Z0.2300I0.0179J0.0009
G3X32.3941Y-22.5813Z0.2300I-0.1359J0.2170
G2X32.3856Y-22.5652Z0.2300I0.0094J0.0152
G3X32.2323Y-22.3795Z0.2300I-0.1794J0.0079
G1 X32.2184 Y-22.3785 Z0.2300
G2X32.2032Y-22.3628Z0.2300I0.0026J0.0177
G1 X32.2026 Y-22.3492 Z0.2300
G3X32.0795Y-22.2006Z0.2300I-0.1735J-0.0186
G1 X32.0809 Y-22.7994 Z0.2300
G1 X32.0815 Y-23.0494 Z0.2300
G0 Z0.3495
G0 X32.0815 Y-23.0494 
G0 Z0.3495
G0 X32.1807 Y-22.6992 
G1 X32.1807 Y-22.6992 Z0.2200 F21.
G3X32.0809Y-22.7994Z0.2200I0.0002J-0.1000
G1 X32.0824 Y-23.3982 Z0.2200 F22.
G3X32.2053Y-23.2368Z0.2200I-0.0523J0.1672
G2X32.2204Y-23.2197Z0.2200I0.0180J-0.0007
G1 X32.2343 Y-23.2186 Z0.2200
G3X32.3868Y-23.0321Z0.2200I-0.0256J0.1765
G2X32.3951Y-23.0160Z0.2200I0.0179J0.0009
G3X32.3941Y-22.5813Z0.2200I-0.1359J0.2170
G2X32.3856Y-22.5652Z0.2200I0.0094J0.0152
G3X32.2323Y-22.3795Z0.2200I-0.1794J0.0079
G1 X32.2184 Y-22.3785 Z0.2200
G2X32.2032Y-22.3628Z0.2200I0.0026J0.0177
G1 X32.2026 Y-22.3492 Z0.2200
G3X32.0795Y-22.2006Z0.2200I-0.1735J-0.0186
G1 X32.0809 Y-22.7994 Z0.2200
G1 X32.0815 Y-23.0494 Z0.2200
G0 Z0.3495
G0 X32.0815 Y-23.0494 
G0 Z0.3495
G0 X32.1807 Y-22.6992 
G1 X32.1807 Y-22.6992 Z0.2100 F21.
G3X32.0809Y-22.7994Z0.2100I0.0002J-0.1000
G1 X32.0824 Y-23.3982 Z0.2100 F22.
G3X32.2053Y-23.2368Z0.2100I-0.0523J0.1672
G2X32.2204Y-23.2197Z0.2100I0.0180J-0.0007
G1 X32.2343 Y-23.2186 Z0.2100
G3X32.3868Y-23.0321Z0.2100I-0.0256J0.1765
G2X32.3951Y-23.0160Z0.2100I0.0179J0.0009
G3X32.3941Y-22.5813Z0.2100I-0.1359J0.2170
G2X32.3856Y-22.5652Z0.2100I0.0094J0.0152
G3X32.2323Y-22.3795Z0.2100I-0.1794J0.0079
G1 X32.2184 Y-22.3785 Z0.2100
G2X32.2032Y-22.3628Z0.2100I0.0026J0.0177
G1 X32.2026 Y-22.3492 Z0.2100
G3X32.0795Y-22.2006Z0.2100I-0.1735J-0.0186
G1 X32.0809 Y-22.7994 Z0.2100
G1 X32.0815 Y-23.0494 Z0.2100
G0 Z0.3495
G0 X32.0815 Y-23.0494 
G0 Z0.3495
G0 X32.1807 Y-22.6992 
G1 X32.1807 Y-22.6992 Z0.2000 F21.
G3X32.0809Y-22.7994Z0.2000I0.0002J-0.1000
G1 X32.0824 Y-23.3982 Z0.2000 F22.
G3X32.2053Y-23.2368Z0.2000I-0.0523J0.1672
G2X32.2204Y-23.2197Z0.2000I0.0180J-0.0007
G1 X32.2343 Y-23.2186 Z0.2000
G3X32.3868Y-23.0321Z0.2000I-0.0256J0.1765
G2X32.3951Y-23.0160Z0.2000I0.0179J0.0009
G3X32.3941Y-22.5813Z0.2000I-0.1359J0.2170
G2X32.3856Y-22.5652Z0.2000I0.0094J0.0152
G3X32.2323Y-22.3795Z0.2000I-0.1794J0.0079
G1 X32.2184 Y-22.3785 Z0.2000
G2X32.2032Y-22.3628Z0.2000I0.0026J0.0177
G1 X32.2026 Y-22.3492 Z0.2000
G3X32.0795Y-22.2006Z0.2000I-0.1735J-0.0186
G1 X32.0809 Y-22.7994 Z0.2000
G1 X32.0815 Y-23.0494 Z0.2000
G0 Z0.3495
G0 X32.0815 Y-23.0494 
G0 Z0.3495
G0 X34.1962 Y-22.6994 
G1 X34.1962 Y-22.6994 Z0.2400 F21.
G3X34.0962Y-22.7994Z0.2400I0.0000J-0.1000
G1 X34.0962 Y-23.4046 Z0.2400 F22.
G3X34.2180Y-23.2418Z0.2400I-0.0564J0.1692
G2X34.2347Y-23.2245Z0.2400I0.0180J-0.0007
G3X34.4080Y-23.0379Z0.2400I-0.0137J0.1865
G1 X34.4092 Y-23.0318 Z0.2400
G1 X34.4116 Y-23.0273 Z0.2400
G1 X34.4159 Y-23.0230 Z0.2400
G3X34.5330Y-22.7995Z0.2400I-0.1503J0.2213
G1 X34.5330 Y-22.7993 Z0.2400
G3X34.4159Y-22.5759Z0.2400I-0.2674J0.0022
G1 X34.4116 Y-22.5715 Z0.2400
G1 X34.4092 Y-22.5670 Z0.2400
G1 X34.4080 Y-22.5610 Z0.2400
G3X34.2347Y-22.3743Z0.2400I-0.1870J0.0001
G2X34.2180Y-22.3570Z0.2400I0.0013J0.0179
G3X34.0962Y-22.1943Z0.2400I-0.1782J-0.0064
G1 X34.0962 Y-22.7994 Z0.2400
G1 X34.0962 Y-23.0494 Z0.2400
G0 Z0.3495
G0 X34.0962 Y-23.0494 
G0 Z0.3495
G0 X34.1962 Y-22.6994 
G1 X34.1962 Y-22.6994 Z0.2300 F21.
G3X34.0962Y-22.7994Z0.2300I0.0000J-0.1000
G1 X34.0962 Y-23.4046 Z0.2300 F22.
G3X34.2180Y-23.2418Z0.2300I-0.0564J0.1692
G2X34.2347Y-23.2245Z0.2300I0.0180J-0.0007
G3X34.4080Y-23.0379Z0.2300I-0.0137J0.1865
G1 X34.4092 Y-23.0318 Z0.2300
G1 X34.4116 Y-23.0273 Z0.2300
G1 X34.4159 Y-23.0230 Z0.2300
G3X34.5330Y-22.7995Z0.2300I-0.1503J0.2213
G1 X34.5330 Y-22.7993 Z0.2300
G3X34.4159Y-22.5759Z0.2300I-0.2674J0.0022
G1 X34.4116 Y-22.5715 Z0.2300
G1 X34.4092 Y-22.5670 Z0.2300
G1 X34.4080 Y-22.5610 Z0.2300
G3X34.2347Y-22.3743Z0.2300I-0.1870J0.0001
G2X34.2180Y-22.3570Z0.2300I0.0013J0.0179
G3X34.0962Y-22.1943Z0.2300I-0.1782J-0.0064
G1 X34.0962 Y-22.7994 Z0.2300
G1 X34.0962 Y-23.0494 Z0.2300
G0 Z0.3495
G0 X34.0962 Y-23.0494 
G0 Z0.3495
G0 X34.1962 Y-22.6994 
G1 X34.1962 Y-22.6994 Z0.2200 F21.
G3X34.0962Y-22.7994Z0.2200I0.0000J-0.1000
G1 X34.0962 Y-23.4046 Z0.2200 F22.
G3X34.2180Y-23.2418Z0.2200I-0.0564J0.1692
G2X34.2347Y-23.2245Z0.2200I0.0180J-0.0007
G3X34.4080Y-23.0379Z0.2200I-0.0137J0.1865
G1 X34.4092 Y-23.0318 Z0.2200
G1 X34.4116 Y-23.0273 Z0.2200
G1 X34.4159 Y-23.0230 Z0.2200
G3X34.5330Y-22.7995Z0.2200I-0.1503J0.2213
G1 X34.5330 Y-22.7993 Z0.2200
G3X34.4159Y-22.5759Z0.2200I-0.2674J0.0022
G1 X34.4116 Y-22.5715 Z0.2200
G1 X34.4092 Y-22.5670 Z0.2200
G1 X34.4080 Y-22.5610 Z0.2200
G3X34.2347Y-22.3743Z0.2200I-0.1870J0.0001
G2X34.2180Y-22.3570Z0.2200I0.0013J0.0179
G3X34.0962Y-22.1943Z0.2200I-0.1782J-0.0064
G1 X34.0962 Y-22.7994 Z0.2200
G1 X34.0962 Y-23.0494 Z0.2200
G0 Z0.3495
G0 X34.0962 Y-23.0494 
G0 Z0.3495
G0 X34.1962 Y-22.6994 
G1 X34.1962 Y-22.6994 Z0.2100 F21.
G3X34.0962Y-22.7994Z0.2100I0.0000J-0.1000
G1 X34.0962 Y-23.4046 Z0.2100 F22.
G3X34.2180Y-23.2418Z0.2100I-0.0564J0.1692
G2X34.2347Y-23.2245Z0.2100I0.0180J-0.0007
G3X34.4080Y-23.0379Z0.2100I-0.0137J0.1865
G1 X34.4092 Y-23.0318 Z0.2100
G1 X34.4116 Y-23.0273 Z0.2100
G1 X34.4159 Y-23.0230 Z0.2100
G3X34.5330Y-22.7995Z0.2100I-0.1503J0.2213
G1 X34.5330 Y-22.7993 Z0.2100
G3X34.4159Y-22.5759Z0.2100I-0.2674J0.0022
G1 X34.4116 Y-22.5715 Z0.2100
G1 X34.4092 Y-22.5670 Z0.2100
G1 X34.4080 Y-22.5610 Z0.2100
G3X34.2347Y-22.3743Z0.2100I-0.1870J0.0001
G2X34.2180Y-22.3570Z0.2100I0.0013J0.0179
G3X34.0962Y-22.1943Z0.2100I-0.1782J-0.0064
G1 X34.0962 Y-22.7994 Z0.2100
G1 X34.0962 Y-23.0494 Z0.2100
G0 Z0.3495
G0 X34.0962 Y-23.0494 
G0 Z0.3495
G0 X34.1962 Y-22.6994 
G1 X34.1962 Y-22.6994 Z0.2000 F21.
G3X34.0962Y-22.7994Z0.2000I0.0000J-0.1000
G1 X34.0962 Y-23.4046 Z0.2000 F22.
G3X34.2180Y-23.2418Z0.2000I-0.0564J0.1692
G2X34.2347Y-23.2245Z0.2000I0.0180J-0.0007
G3X34.4080Y-23.0379Z0.2000I-0.0137J0.1865
G1 X34.4092 Y-23.0318 Z0.2000
G1 X34.4116 Y-23.0273 Z0.2000
G1 X34.4159 Y-23.0230 Z0.2000
G3X34.5330Y-22.7995Z0.2000I-0.1503J0.2213
G1 X34.5330 Y-22.7993 Z0.2000
G3X34.4159Y-22.5759Z0.2000I-0.2674J0.0022
G1 X34.4116 Y-22.5715 Z0.2000
G1 X34.4092 Y-22.5670 Z0.2000
G1 X34.4080 Y-22.5610 Z0.2000
G3X34.2347Y-22.3743Z0.2000I-0.1870J0.0001
G2X34.2180Y-22.3570Z0.2000I0.0013J0.0179
G3X34.0962Y-22.1943Z0.2000I-0.1782J-0.0064
G1 X34.0962 Y-22.7994 Z0.2000
G1 X34.0962 Y-23.0494 Z0.2000
G0 Z0.3495
G0 X34.0962 Y-23.0494 
G0 Z0.3495
G0 X36.5189 Y-22.6994 
G1 X36.5189 Y-22.6994 Z0.2400 F21.
G3X36.4189Y-22.7994Z0.2400I0.0000J-0.1000
G1 X36.4189 Y-23.4241 Z0.2400 F22.
G3X36.6029Y-23.2615Z0.2400I0.0043J0.1806
G2X36.6221Y-23.2451Z0.2400I0.0181J-0.0018
G3X36.8093Y-23.0722Z0.2400I0.0113J0.1755
G2X36.8218Y-23.0552Z0.2400I0.0181J-0.0003
G3X37.0081Y-22.7994Z0.2400I-0.0840J0.2569
G3X36.8218Y-22.5437Z0.2400I-0.2703J-0.0011
G2X36.8093Y-22.5267Z0.2400I0.0056J0.0173
G3X36.6221Y-22.3537Z0.2400I-0.1759J-0.0025
G2X36.6029Y-22.3374Z0.2400I-0.0011J0.0181
G3X36.4189Y-22.1748Z0.2400I-0.1797J-0.0180
G1 X36.4189 Y-22.7994 Z0.2400
G1 X36.4189 Y-23.0494 Z0.2400
G0 Z0.3495
G0 X36.4189 Y-23.0494 
G0 Z0.3495
G0 X36.5189 Y-22.6994 
G1 X36.5189 Y-22.6994 Z0.2300 F21.
G3X36.4189Y-22.7994Z0.2300I0.0000J-0.1000
G1 X36.4189 Y-23.4241 Z0.2300 F22.
G3X36.6029Y-23.2615Z0.2300I0.0043J0.1806
G2X36.6221Y-23.2451Z0.2300I0.0181J-0.0018
G3X36.8093Y-23.0722Z0.2300I0.0113J0.1755
G2X36.8218Y-23.0552Z0.2300I0.0181J-0.0003
G3X37.0081Y-22.7994Z0.2300I-0.0840J0.2569
G3X36.8218Y-22.5437Z0.2300I-0.2703J-0.0011
G2X36.8093Y-22.5267Z0.2300I0.0056J0.0173
G3X36.6221Y-22.3537Z0.2300I-0.1759J-0.0025
G2X36.6029Y-22.3374Z0.2300I-0.0011J0.0181
G3X36.4189Y-22.1748Z0.2300I-0.1797J-0.0180
G1 X36.4189 Y-22.7994 Z0.2300
G1 X36.4189 Y-23.0494 Z0.2300
G0 Z0.3495
G0 X36.4189 Y-23.0494 
G0 Z0.3495
G0 X36.5189 Y-22.6994 
G1 X36.5189 Y-22.6994 Z0.2200 F21.
G3X36.4189Y-22.7994Z0.2200I0.0000J-0.1000
G1 X36.4189 Y-23.4241 Z0.2200 F22.
G3X36.6029Y-23.2615Z0.2200I0.0043J0.1806
G2X36.6221Y-23.2451Z0.2200I0.0181J-0.0018
G3X36.8093Y-23.0722Z0.2200I0.0113J0.1755
G2X36.8218Y-23.0552Z0.2200I0.0181J-0.0003
G3X37.0081Y-22.7994Z0.2200I-0.0840J0.2569
G3X36.8218Y-22.5437Z0.2200I-0.2703J-0.0011
G2X36.8093Y-22.5267Z0.2200I0.0056J0.0173
G3X36.6221Y-22.3537Z0.2200I-0.1759J-0.0025
G2X36.6029Y-22.3374Z0.2200I-0.0011J0.0181
G3X36.4189Y-22.1748Z0.2200I-0.1797J-0.0180
G1 X36.4189 Y-22.7994 Z0.2200
G1 X36.4189 Y-23.0494 Z0.2200
G0 Z0.3495
G0 X36.4189 Y-23.0494 
G0 Z0.3495
G0 X36.5189 Y-22.6994 
G1 X36.5189 Y-22.6994 Z0.2100 F21.
G3X36.4189Y-22.7994Z0.2100I0.0000J-0.1000
G1 X36.4189 Y-23.4241 Z0.2100 F22.
G3X36.6029Y-23.2615Z0.2100I0.0043J0.1806
G2X36.6221Y-23.2451Z0.2100I0.0181J-0.0018
G3X36.8093Y-23.0722Z0.2100I0.0113J0.1755
G2X36.8218Y-23.0552Z0.2100I0.0181J-0.0003
G3X37.0081Y-22.7994Z0.2100I-0.0840J0.2569
G3X36.8218Y-22.5437Z0.2100I-0.2703J-0.0011
G2X36.8093Y-22.5267Z0.2100I0.0056J0.0173
G3X36.6221Y-22.3537Z0.2100I-0.1759J-0.0025
G2X36.6029Y-22.3374Z0.2100I-0.0011J0.0181
G3X36.4189Y-22.1748Z0.2100I-0.1797J-0.0180
G1 X36.4189 Y-22.7994 Z0.2100
G1 X36.4189 Y-23.0494 Z0.2100
G0 Z0.3495
G0 X36.4189 Y-23.0494 
G0 Z0.3495
G0 X36.5189 Y-22.6994 
G1 X36.5189 Y-22.6994 Z0.2000 F21.
G3X36.4189Y-22.7994Z0.2000I0.0000J-0.1000
G1 X36.4189 Y-23.4241 Z0.2000 F22.
G3X36.6029Y-23.2615Z0.2000I0.0043J0.1806
G2X36.6221Y-23.2451Z0.2000I0.0181J-0.0018
G3X36.8093Y-23.0722Z0.2000I0.0113J0.1755
G2X36.8218Y-23.0552Z0.2000I0.0181J-0.0003
G3X37.0081Y-22.7994Z0.2000I-0.0840J0.2569
G3X36.8218Y-22.5437Z0.2000I-0.2703J-0.0011
G2X36.8093Y-22.5267Z0.2000I0.0056J0.0173
G3X36.6221Y-22.3537Z0.2000I-0.1759J-0.0025
G2X36.6029Y-22.3374Z0.2000I-0.0011J0.0181
G3X36.4189Y-22.1748Z0.2000I-0.1797J-0.0180
G1 X36.4189 Y-22.7994 Z0.2000
G1 X36.4189 Y-23.0494 Z0.2000
G0 Z0.3495
G0 X36.4189 Y-23.0494 
G0 Z0.3495
G0 X38.3319 Y-22.6994 
G1 X38.3319 Y-22.6994 Z0.2400 F21.
G3X38.2319Y-22.7994Z0.2400I0.0000J-0.1000
G1 X38.2319 Y-23.3788 Z0.2400 F22.
G3X38.4598Y-23.3079Z0.2400I0.0816J0.1392
G3X38.4853Y-23.2362Z0.2400I-0.3840J0.1773
G2X38.4918Y-23.2313Z0.2400I0.0091J-0.0053
G2X38.5184Y-23.2317Z0.2400I0.0128J-0.0387
G3X38.6772Y-23.0607Z0.2400I-0.0018J0.1609
G2X38.6781Y-23.0313Z0.2400I0.0535J0.0130
G2X38.6834Y-23.0248Z0.2400I0.0101J-0.0028
G1 X38.6887 Y-23.0220 Z0.2400
G1 X38.6923 Y-23.0209 Z0.2400
G3X38.8847Y-22.8395Z0.2400I-0.0119J0.2054
G3X38.7649Y-22.5945Z0.2400I-0.2219J0.0433
G3X38.6887Y-22.5768Z0.2400I-0.0840J-0.1898
G1 X38.6834 Y-22.5741 Z0.2400
G2X38.6781Y-22.5676Z0.2400I0.0048J0.0093
G2X38.6772Y-22.5382Z0.2400I0.0465J0.0162
G3X38.5184Y-22.3672Z0.2400I-0.1606J0.0101
G2X38.4918Y-22.3675Z0.2400I-0.0139J0.0444
G2X38.4853Y-22.3626Z0.2400I0.0026J0.0101
G2X38.4764Y-22.3325Z0.2400I0.0467J0.0303
G3X38.2674Y-22.2042Z0.2400I-0.1663J-0.0364
G1 X38.2484 Y-22.2113 Z0.2400
G1 X38.2319 Y-22.2200 Z0.2400
G1 X38.2319 Y-22.7994 Z0.2400
G1 X38.2319 Y-23.0494 Z0.2400
G0 Z0.3495
G0 X38.2319 Y-23.0494 
G0 Z0.3495
G0 X38.3319 Y-22.6994 
G1 X38.3319 Y-22.6994 Z0.2300 F21.
G3X38.2319Y-22.7994Z0.2300I0.0000J-0.1000
G1 X38.2319 Y-23.3788 Z0.2300 F22.
G3X38.4598Y-23.3079Z0.2300I0.0816J0.1392
G3X38.4853Y-23.2362Z0.2300I-0.3840J0.1773
G2X38.4918Y-23.2313Z0.2300I0.0091J-0.0053
G2X38.5184Y-23.2317Z0.2300I0.0128J-0.0387
G3X38.6772Y-23.0607Z0.2300I-0.0018J0.1609
G2X38.6781Y-23.0313Z0.2300I0.0535J0.0130
G2X38.6834Y-23.0248Z0.2300I0.0101J-0.0028
G1 X38.6887 Y-23.0220 Z0.2300
G1 X38.6923 Y-23.0209 Z0.2300
G3X38.8847Y-22.8395Z0.2300I-0.0119J0.2054
G3X38.7649Y-22.5945Z0.2300I-0.2219J0.0433
G3X38.6887Y-22.5768Z0.2300I-0.0840J-0.1898
G1 X38.6834 Y-22.5741 Z0.2300
G2X38.6781Y-22.5676Z0.2300I0.0048J0.0093
G2X38.6772Y-22.5382Z0.2300I0.0465J0.0162
G3X38.5184Y-22.3672Z0.2300I-0.1606J0.0101
G2X38.4918Y-22.3675Z0.2300I-0.0139J0.0444
G2X38.4853Y-22.3626Z0.2300I0.0026J0.0101
G2X38.4764Y-22.3325Z0.2300I0.0467J0.0303
G3X38.2674Y-22.2042Z0.2300I-0.1663J-0.0364
G1 X38.2484 Y-22.2113 Z0.2300
G1 X38.2319 Y-22.2200 Z0.2300
G1 X38.2319 Y-22.7994 Z0.2300
G1 X38.2319 Y-23.0494 Z0.2300
G0 Z0.3495
G0 X38.2319 Y-23.0494 
G0 Z0.3495
G0 X38.3319 Y-22.6994 
G1 X38.3319 Y-22.6994 Z0.2200 F21.
G3X38.2319Y-22.7994Z0.2200I0.0000J-0.1000
G1 X38.2319 Y-23.3788 Z0.2200 F22.
G3X38.4598Y-23.3079Z0.2200I0.0816J0.1392
G3X38.4853Y-23.2362Z0.2200I-0.3840J0.1773
G2X38.4918Y-23.2313Z0.2200I0.0091J-0.0053
G2X38.5184Y-23.2317Z0.2200I0.0128J-0.0387
G3X38.6772Y-23.0607Z0.2200I-0.0018J0.1609
G2X38.6781Y-23.0313Z0.2200I0.0535J0.0130
G2X38.6834Y-23.0248Z0.2200I0.0101J-0.0028
G1 X38.6887 Y-23.0220 Z0.2200
G1 X38.6923 Y-23.0209 Z0.2200
G3X38.8847Y-22.8395Z0.2200I-0.0119J0.2054
G3X38.7649Y-22.5945Z0.2200I-0.2219J0.0433
G3X38.6887Y-22.5768Z0.2200I-0.0840J-0.1898
G1 X38.6834 Y-22.5741 Z0.2200
G2X38.6781Y-22.5676Z0.2200I0.0048J0.0093
G2X38.6772Y-22.5382Z0.2200I0.0465J0.0162
G3X38.5184Y-22.3672Z0.2200I-0.1606J0.0101
G2X38.4918Y-22.3675Z0.2200I-0.0139J0.0444
G2X38.4853Y-22.3626Z0.2200I0.0026J0.0101
G2X38.4764Y-22.3325Z0.2200I0.0467J0.0303
G3X38.2674Y-22.2042Z0.2200I-0.1663J-0.0364
G1 X38.2484 Y-22.2113 Z0.2200
G1 X38.2319 Y-22.2200 Z0.2200
G1 X38.2319 Y-22.7994 Z0.2200
G1 X38.2319 Y-23.0494 Z0.2200
G0 Z0.3495
G0 X38.2319 Y-23.0494 
G0 Z0.3495
G0 X38.3319 Y-22.6994 
G1 X38.3319 Y-22.6994 Z0.2100 F21.
G3X38.2319Y-22.7994Z0.2100I0.0000J-0.1000
G1 X38.2319 Y-23.3788 Z0.2100 F22.
G3X38.4598Y-23.3079Z0.2100I0.0816J0.1392
G3X38.4853Y-23.2362Z0.2100I-0.3840J0.1773
G2X38.4918Y-23.2313Z0.2100I0.0091J-0.0053
G2X38.5184Y-23.2317Z0.2100I0.0128J-0.0387
G3X38.6772Y-23.0607Z0.2100I-0.0018J0.1609
G2X38.6781Y-23.0313Z0.2100I0.0535J0.0130
G2X38.6834Y-23.0248Z0.2100I0.0101J-0.0028
G1 X38.6887 Y-23.0220 Z0.2100
G1 X38.6923 Y-23.0209 Z0.2100
G3X38.8847Y-22.8395Z0.2100I-0.0119J0.2054
G3X38.7649Y-22.5945Z0.2100I-0.2219J0.0433
G3X38.6887Y-22.5768Z0.2100I-0.0840J-0.1898
G1 X38.6834 Y-22.5741 Z0.2100
G2X38.6781Y-22.5676Z0.2100I0.0048J0.0093
G2X38.6772Y-22.5382Z0.2100I0.0465J0.0162
G3X38.5184Y-22.3672Z0.2100I-0.1606J0.0101
G2X38.4918Y-22.3675Z0.2100I-0.0139J0.0444
G2X38.4853Y-22.3626Z0.2100I0.0026J0.0101
G2X38.4764Y-22.3325Z0.2100I0.0467J0.0303
G3X38.2674Y-22.2042Z0.2100I-0.1663J-0.0364
G1 X38.2484 Y-22.2113 Z0.2100
G1 X38.2319 Y-22.2200 Z0.2100
G1 X38.2319 Y-22.7994 Z0.2100
G1 X38.2319 Y-23.0494 Z0.2100
G0 Z0.3495
G0 X38.2319 Y-23.0494 
G0 Z0.3495
G0 X38.3319 Y-22.6994 
G1 X38.3319 Y-22.6994 Z0.2000 F21.
G3X38.2319Y-22.7994Z0.2000I0.0000J-0.1000
G1 X38.2319 Y-23.3788 Z0.2000 F22.
G3X38.4598Y-23.3079Z0.2000I0.0816J0.1392
G3X38.4853Y-23.2362Z0.2000I-0.3840J0.1773
G2X38.4918Y-23.2313Z0.2000I0.0091J-0.0053
G2X38.5184Y-23.2317Z0.2000I0.0128J-0.0387
G3X38.6772Y-23.0607Z0.2000I-0.0018J0.1609
G2X38.6781Y-23.0313Z0.2000I0.0535J0.0130
G2X38.6834Y-23.0248Z0.2000I0.0101J-0.0028
G1 X38.6887 Y-23.0220 Z0.2000
G1 X38.6923 Y-23.0209 Z0.2000
G3X38.8847Y-22.8395Z0.2000I-0.0119J0.2054
G3X38.7649Y-22.5945Z0.2000I-0.2219J0.0433
G3X38.6887Y-22.5768Z0.2000I-0.0840J-0.1898
G1 X38.6834 Y-22.5741 Z0.2000
G2X38.6781Y-22.5676Z0.2000I0.0048J0.0093
G2X38.6772Y-22.5382Z0.2000I0.0465J0.0162
G3X38.5184Y-22.3672Z0.2000I-0.1606J0.0101
G2X38.4918Y-22.3675Z0.2000I-0.0139J0.0444
G2X38.4853Y-22.3626Z0.2000I0.0026J0.0101
G2X38.4764Y-22.3325Z0.2000I0.0467J0.0303
G3X38.2674Y-22.2042Z0.2000I-0.1663J-0.0364
G1 X38.2484 Y-22.2113 Z0.2000
G1 X38.2319 Y-22.2200 Z0.2000
G1 X38.2319 Y-22.7994 Z0.2000
G1 X38.2319 Y-23.0494 Z0.2000
G0 Z0.3495
G0 X38.2319 Y-23.0494 
G0 Z0.3495
G0 X40.3886 Y-22.6994 
G1 X40.3886 Y-22.6994 Z0.2400 F21.
G3X40.2886Y-22.7994Z0.2400I0.0000J-0.1000
G1 X40.2886 Y-23.3440 Z0.2400 F22.
G3X40.5505Y-23.2181Z0.2400I0.0849J0.1589
G2X40.5710Y-23.2037Z0.2400I0.0177J-0.0033
G3X40.7545Y-23.0273Z0.2400I0.0252J0.1575
G2X40.7721Y-23.0071Z0.2400I0.0179J0.0022
G3X40.9763Y-22.7994Z0.2400I-0.0035J0.2077
G3X40.7721Y-22.5917Z0.2400I-0.2077J0.0000
G2X40.7545Y-22.5716Z0.2400I0.0003J0.0179
G3X40.5710Y-22.3952Z0.2400I-0.1583J0.0189
G2X40.5505Y-22.3807Z0.2400I-0.0028J0.0178
G3X40.2886Y-22.2549Z0.2400I-0.1770J-0.0331
G1 X40.2886 Y-22.7994 Z0.2400
G1 X40.2886 Y-23.0494 Z0.2400
G0 Z0.3495
G0 X40.2886 Y-23.0494 
G0 Z0.3495
G0 X40.3886 Y-22.6994 
G1 X40.3886 Y-22.6994 Z0.2300 F21.
G3X40.2886Y-22.7994Z0.2300I0.0000J-0.1000
G1 X40.2886 Y-23.3440 Z0.2300 F22.
G3X40.5505Y-23.2181Z0.2300I0.0849J0.1589
G2X40.5710Y-23.2037Z0.2300I0.0177J-0.0033
G3X40.7545Y-23.0273Z0.2300I0.0252J0.1575
G2X40.7721Y-23.0071Z0.2300I0.0179J0.0022
G3X40.9763Y-22.7994Z0.2300I-0.0035J0.2077
G3X40.7721Y-22.5917Z0.2300I-0.2077J0.0000
G2X40.7545Y-22.5716Z0.2300I0.0003J0.0179
G3X40.5710Y-22.3952Z0.2300I-0.1583J0.0189
G2X40.5505Y-22.3807Z0.2300I-0.0028J0.0178
G3X40.2886Y-22.2549Z0.2300I-0.1770J-0.0331
G1 X40.2886 Y-22.7994 Z0.2300
G1 X40.2886 Y-23.0494 Z0.2300
G0 Z0.3495
G0 X40.2886 Y-23.0494 
G0 Z0.3495
G0 X40.3886 Y-22.6994 
G1 X40.3886 Y-22.6994 Z0.2200 F21.
G3X40.2886Y-22.7994Z0.2200I0.0000J-0.1000
G1 X40.2886 Y-23.3440 Z0.2200 F22.
G3X40.5505Y-23.2181Z0.2200I0.0849J0.1589
G2X40.5710Y-23.2037Z0.2200I0.0177J-0.0033
G3X40.7545Y-23.0273Z0.2200I0.0252J0.1575
G2X40.7721Y-23.0071Z0.2200I0.0179J0.0022
G3X40.9763Y-22.7994Z0.2200I-0.0035J0.2077
G3X40.7721Y-22.5917Z0.2200I-0.2077J0.0000
G2X40.7545Y-22.5716Z0.2200I0.0003J0.0179
G3X40.5710Y-22.3952Z0.2200I-0.1583J0.0189
G2X40.5505Y-22.3807Z0.2200I-0.0028J0.0178
G3X40.2886Y-22.2549Z0.2200I-0.1770J-0.0331
G1 X40.2886 Y-22.7994 Z0.2200
G1 X40.2886 Y-23.0494 Z0.2200
G0 Z0.3495
G0 X40.2886 Y-23.0494 
G0 Z0.3495
G0 X40.3886 Y-22.6994 
G1 X40.3886 Y-22.6994 Z0.2100 F21.
G3X40.2886Y-22.7994Z0.2100I0.0000J-0.1000
G1 X40.2886 Y-23.3440 Z0.2100 F22.
G3X40.5505Y-23.2181Z0.2100I0.0849J0.1589
G2X40.5710Y-23.2037Z0.2100I0.0177J-0.0033
G3X40.7545Y-23.0273Z0.2100I0.0252J0.1575
G2X40.7721Y-23.0071Z0.2100I0.0179J0.0022
G3X40.9763Y-22.7994Z0.2100I-0.0035J0.2077
G3X40.7721Y-22.5917Z0.2100I-0.2077J0.0000
G2X40.7545Y-22.5716Z0.2100I0.0003J0.0179
G3X40.5710Y-22.3952Z0.2100I-0.1583J0.0189
G2X40.5505Y-22.3807Z0.2100I-0.0028J0.0178
G3X40.2886Y-22.2549Z0.2100I-0.1770J-0.0331
G1 X40.2886 Y-22.7994 Z0.2100
G1 X40.2886 Y-23.0494 Z0.2100
G0 Z0.3495
G0 X40.2886 Y-23.0494 
G0 Z0.3495
G0 X40.3886 Y-22.6994 
G1 X40.3886 Y-22.6994 Z0.2000 F21.
G3X40.2886Y-22.7994Z0.2000I0.0000J-0.1000
G1 X40.2886 Y-23.3440 Z0.2000 F22.
G3X40.5505Y-23.2181Z0.2000I0.0849J0.1589
G2X40.5710Y-23.2037Z0.2000I0.0177J-0.0033
G3X40.7545Y-23.0273Z0.2000I0.0252J0.1575
G2X40.7721Y-23.0071Z0.2000I0.0179J0.0022
G3X40.9763Y-22.7994Z0.2000I-0.0035J0.2077
G3X40.7721Y-22.5917Z0.2000I-0.2077J0.0000
G2X40.7545Y-22.5716Z0.2000I0.0003J0.0179
G3X40.5710Y-22.3952Z0.2000I-0.1583J0.0189
G2X40.5505Y-22.3807Z0.2000I-0.0028J0.0178
G3X40.2886Y-22.2549Z0.2000I-0.1770J-0.0331
G1 X40.2886 Y-22.7994 Z0.2000
G1 X40.2886 Y-23.0494 Z0.2000
G0 Z0.3495
G0 X40.2886 Y-23.0494 
G0 Z0.3495
G0 X42.7150 Y-22.6994 
G1 X42.7150 Y-22.6994 Z0.2400 F21.
G3X42.6150Y-22.7994Z0.2400I0.0000J-0.1000
G1 X42.6150 Y-23.3440 Z0.2400 F22.
G3X42.8768Y-23.2181Z0.2400I0.0848J0.1589
G2X42.8974Y-23.2037Z0.2400I0.0177J-0.0033
G3X43.0808Y-23.0273Z0.2400I0.0251J0.1575
G2X43.0984Y-23.0071Z0.2400I0.0179J0.0022
G3X43.3027Y-22.7994Z0.2400I-0.0035J0.2077
G3X43.0984Y-22.5917Z0.2400I-0.2078J0.0000
G2X43.0808Y-22.5716Z0.2400I0.0003J0.0179
G3X42.8974Y-22.3952Z0.2400I-0.1583J0.0189
G2X42.8768Y-22.3807Z0.2400I-0.0029J0.0178
G3X42.6150Y-22.2549Z0.2400I-0.1770J-0.0331
G1 X42.6150 Y-22.7994 Z0.2400
G1 X42.6150 Y-23.0494 Z0.2400
G0 Z0.3495
G0 X42.6150 Y-23.0494 
G0 Z0.3495
G0 X42.7150 Y-22.6994 
G1 X42.7150 Y-22.6994 Z0.2300 F21.
G3X42.6150Y-22.7994Z0.2300I0.0000J-0.1000
G1 X42.6150 Y-23.3440 Z0.2300 F22.
G3X42.8768Y-23.2181Z0.2300I0.0848J0.1589
G2X42.8974Y-23.2037Z0.2300I0.0177J-0.0033
G3X43.0808Y-23.0273Z0.2300I0.0251J0.1575
G2X43.0984Y-23.0071Z0.2300I0.0179J0.0022
G3X43.3027Y-22.7994Z0.2300I-0.0035J0.2077
G3X43.0984Y-22.5917Z0.2300I-0.2078J0.0000
G2X43.0808Y-22.5716Z0.2300I0.0003J0.0179
G3X42.8974Y-22.3952Z0.2300I-0.1583J0.0189
G2X42.8768Y-22.3807Z0.2300I-0.0029J0.0178
G3X42.6150Y-22.2549Z0.2300I-0.1770J-0.0331
G1 X42.6150 Y-22.7994 Z0.2300
G1 X42.6150 Y-23.0494 Z0.2300
G0 Z0.3495
G0 X42.6150 Y-23.0494 
G0 Z0.3495
G0 X42.7150 Y-22.6994 
G1 X42.7150 Y-22.6994 Z0.2200 F21.
G3X42.6150Y-22.7994Z0.2200I0.0000J-0.1000
G1 X42.6150 Y-23.3440 Z0.2200 F22.
G3X42.8768Y-23.2181Z0.2200I0.0848J0.1589
G2X42.8974Y-23.2037Z0.2200I0.0177J-0.0033
G3X43.0808Y-23.0273Z0.2200I0.0251J0.1575
G2X43.0984Y-23.0071Z0.2200I0.0179J0.0022
G3X43.3027Y-22.7994Z0.2200I-0.0035J0.2077
G3X43.0984Y-22.5917Z0.2200I-0.2078J0.0000
G2X43.0808Y-22.5716Z0.2200I0.0003J0.0179
G3X42.8974Y-22.3952Z0.2200I-0.1583J0.0189
G2X42.8768Y-22.3807Z0.2200I-0.0029J0.0178
G3X42.6150Y-22.2549Z0.2200I-0.1770J-0.0331
G1 X42.6150 Y-22.7994 Z0.2200
G1 X42.6150 Y-23.0494 Z0.2200
G0 Z0.3495
G0 X42.6150 Y-23.0494 
G0 Z0.3495
G0 X42.7150 Y-22.6994 
G1 X42.7150 Y-22.6994 Z0.2100 F21.
G3X42.6150Y-22.7994Z0.2100I0.0000J-0.1000
G1 X42.6150 Y-23.3440 Z0.2100 F22.
G3X42.8768Y-23.2181Z0.2100I0.0848J0.1589
G2X42.8974Y-23.2037Z0.2100I0.0177J-0.0033
G3X43.0808Y-23.0273Z0.2100I0.0251J0.1575
G2X43.0984Y-23.0071Z0.2100I0.0179J0.0022
G3X43.3027Y-22.7994Z0.2100I-0.0035J0.2077
G3X43.0984Y-22.5917Z0.2100I-0.2078J0.0000
G2X43.0808Y-22.5716Z0.2100I0.0003J0.0179
G3X42.8974Y-22.3952Z0.2100I-0.1583J0.0189
G2X42.8768Y-22.3807Z0.2100I-0.0029J0.0178
G3X42.6150Y-22.2549Z0.2100I-0.1770J-0.0331
G1 X42.6150 Y-22.7994 Z0.2100
G1 X42.6150 Y-23.0494 Z0.2100
G0 Z0.3495
G0 X42.6150 Y-23.0494 
G0 Z0.3495
G0 X42.7150 Y-22.6994 
G1 X42.7150 Y-22.6994 Z0.2000 F21.
G3X42.6150Y-22.7994Z0.2000I0.0000J-0.1000
G1 X42.6150 Y-23.3440 Z0.2000 F22.
G3X42.8768Y-23.2181Z0.2000I0.0848J0.1589
G2X42.8974Y-23.2037Z0.2000I0.0177J-0.0033
G3X43.0808Y-23.0273Z0.2000I0.0251J0.1575
G2X43.0984Y-23.0071Z0.2000I0.0179J0.0022
G3X43.3027Y-22.7994Z0.2000I-0.0035J0.2077
G3X43.0984Y-22.5917Z0.2000I-0.2078J0.0000
G2X43.0808Y-22.5716Z0.2000I0.0003J0.0179
G3X42.8974Y-22.3952Z0.2000I-0.1583J0.0189
G2X42.8768Y-22.3807Z0.2000I-0.0029J0.0178
G3X42.6150Y-22.2549Z0.2000I-0.1770J-0.0331
G1 X42.6150 Y-22.7994 Z0.2000
G1 X42.6150 Y-23.0494 Z0.2000
G0 Z1.0000
G0 X42.6150 Y-23.0494 
M5
G53 Z
X2Y0
