( MOP:  02-inlay-DoubleFingers-idPT09-s27-01a )
( FILE: G:\Shared drives\AlloyProjectFiles\Customer CAD files\Alloy-Standard-Builds-CAM\Fingerboards-in\02-inlay-DoubleFingers-idPT09-s27-01.nc)
G90
(  BEGIN TOOL LIST )
(  TOOL 7 - Downcut PT125 - DESC: 0.1250 DIA, 2 FLUTE,  CARBIDE MAT )
(  ENDOF TOOL LIST )
( 02-inlay-DoubleFingers-idPT09-s27-01a)
T07
S12000
M3
G0 Z2.0000
G0 X27.5485 Y-22.0899 
G1 X27.5485 Y-22.0899 Z0.2800 F75.
G1 X27.5485 Y-22.0899 Z0.2550 F25.
G1 X27.5485 Y-21.6429 Z0.1352
G1 X27.5485 Y-21.6418 Z0.1349
G1 X27.5484 Y-21.6407 Z0.1346
G1 X27.5483 Y-21.6396 Z0.1343
G1 X27.5481 Y-21.6386 Z0.1340
G1 X27.5478 Y-21.6375 Z0.1338
G1 X27.5475 Y-21.6364 Z0.1335
G1 X27.5472 Y-21.6354 Z0.1332
G1 X27.5468 Y-21.6344 Z0.1329
G1 X27.5464 Y-21.6334 Z0.1326
G1 X27.5459 Y-21.6324 Z0.1323
G1 X27.5453 Y-21.6314 Z0.1320
G1 X27.5448 Y-21.6305 Z0.1317
G1 X27.5441 Y-21.6296 Z0.1314
G1 X27.5434 Y-21.6288 Z0.1311
G1 X27.5427 Y-21.6279 Z0.1308
G1 X27.5426 Y-21.6278 Z0.1308
G1 X27.5425 Y-21.6276 Z0.1307
G1 X27.5423 Y-21.6275 Z0.1307
G1 X27.5422 Y-21.6273 Z0.1306
G1 X27.5420 Y-21.6272 Z0.1305
G1 X27.5419 Y-21.6271 Z0.1305
G1 X27.5417 Y-21.6269 Z0.1304
G1 X27.5416 Y-21.6268 Z0.1304
G1 X27.5414 Y-21.6266 Z0.1303
G1 X27.5413 Y-21.6265 Z0.1303
G1 X27.5411 Y-21.6264 Z0.1302
G1 X27.5410 Y-21.6262 Z0.1302
G1 X27.5408 Y-21.6261 Z0.1301
G1 X27.5407 Y-21.6260 Z0.1301
G1 X27.5405 Y-21.6258 Z0.1300
G17
G3X27.5381Y-21.6240Z0.1300I-0.0143J-0.0171
G3X27.5262Y-21.6206Z0.1300I-0.0119J-0.0189
G3X27.5039Y-21.6429Z0.1300I0.0000J-0.0223
G1 X27.5039 Y-22.1241 Z0.1300
G3X27.5262Y-22.1464Z0.1300I0.0223J0.0000
G3X27.5485Y-22.1241Z0.1300I0.0000J0.0223
G1 X27.5485 Y-21.6429 Z0.1300
G3X27.5427Y-21.6279Z0.1300I-0.0223J0.0000
G3X27.5405Y-21.6258Z0.1300I-0.0165J-0.0150
G1 X27.5606 Y-21.6019 Z0.1300
G3X27.5547Y-21.5975Z0.1300I-0.0344J-0.0410
G3X27.5262Y-21.5894Z0.1300I-0.0285J-0.0454
G3X27.4727Y-21.6429Z0.1300I0.0000J-0.0535
G1 X27.4727 Y-22.1241 Z0.1300
G3X27.5262Y-22.1777Z0.1300I0.0535J0.0000
G3X27.5798Y-22.1241Z0.1300I0.0000J0.0536
G1 X27.5798 Y-21.6429 Z0.1300
G3X27.5659Y-21.6069Z0.1300I-0.0536J0.0000
G3X27.5606Y-21.6019Z0.1300I-0.0397J-0.0360
G0 Z0.5000
G0 X27.5606 Y-21.6019 
G0 Z0.5000
G0 X28.5607 Y-21.8112 
G1 X28.5607 Y-21.8112 Z0.2800 F75.
G1 X28.5607 Y-21.8112 Z0.2550 F25.
G1 X28.5607 Y-21.6553 Z0.2132
G1 X28.5607 Y-21.6544 Z0.2130
G1 X28.5607 Y-21.6535 Z0.2128
G1 X28.5606 Y-21.6526 Z0.2125
G1 X28.5605 Y-21.6517 Z0.2123
G1 X28.5603 Y-21.6509 Z0.2120
G1 X28.5601 Y-21.6500 Z0.2118
G1 X28.5599 Y-21.6491 Z0.2116
G1 X28.5596 Y-21.6483 Z0.2113
G1 X28.5593 Y-21.6474 Z0.2111
G1 X28.5590 Y-21.6466 Z0.2108
G1 X28.5586 Y-21.6458 Z0.2106
G1 X28.5582 Y-21.6450 Z0.2103
G1 X28.5578 Y-21.6442 Z0.2101
G1 X28.5573 Y-21.6434 Z0.2099
G1 X28.5568 Y-21.6427 Z0.2096
G1 X28.5560 Y-21.6415 Z0.2092
G1 X28.5551 Y-21.6404 Z0.2089
G1 X28.5541 Y-21.6394 Z0.2085
G1 X28.5530 Y-21.6384 Z0.2081
G1 X28.5519 Y-21.6376 Z0.2077
G1 X28.5508 Y-21.6367 Z0.2074
G1 X28.5496 Y-21.6360 Z0.2070
G1 X28.5483 Y-21.6353 Z0.2066
G1 X28.5470 Y-21.6347 Z0.2062
G1 X28.5457 Y-21.6342 Z0.2058
G1 X28.5444 Y-21.6338 Z0.2055
G1 X28.5430 Y-21.6335 Z0.2051
G1 X28.5416 Y-21.6332 Z0.2047
G1 X28.5402 Y-21.6331 Z0.2043
G1 X28.5388 Y-21.6330 Z0.2039
G1 X28.5374 Y-21.6330 Z0.2036
G1 X28.5360 Y-21.6332 Z0.2032
G1 X28.5346 Y-21.6334 Z0.2028
G1 X28.5332 Y-21.6336 Z0.2024
G1 X28.5318 Y-21.6340 Z0.2020
G1 X28.5305 Y-21.6345 Z0.2017
G1 X28.5292 Y-21.6350 Z0.2013
G1 X28.5279 Y-21.6357 Z0.2009
G1 X28.5267 Y-21.6364 Z0.2005
G1 X28.5255 Y-21.6372 Z0.2002
G1 X28.5244 Y-21.6380 Z0.1998
G1 X28.5233 Y-21.6389 Z0.1994
G1 X28.5223 Y-21.6399 Z0.1990
G1 X28.5214 Y-21.6410 Z0.1986
G1 X28.5205 Y-21.6421 Z0.1983
G1 X28.5197 Y-21.6433 Z0.1979
G1 X28.5190 Y-21.6445 Z0.1975
G1 X28.5183 Y-21.6457 Z0.1971
G1 X28.5177 Y-21.6470 Z0.1967
G1 X28.5173 Y-21.6484 Z0.1964
G1 X28.5169 Y-21.6497 Z0.1960
G1 X28.5166 Y-21.6511 Z0.1956
G1 X28.5163 Y-21.6525 Z0.1952
G1 X28.5162 Y-21.6539 Z0.1948
G1 X28.5161 Y-21.6553 Z0.1945
G1 X28.5161 Y-21.8959 Z0.1300
G1 X28.5161 Y-22.1365 Z0.1300
G3X28.5384Y-22.1588Z0.1300I0.0223J0.0000
G3X28.5607Y-22.1365Z0.1300I0.0000J0.0223
G1 X28.5607 Y-21.6553 Z0.1300
G3X28.5568Y-21.6427Z0.1300I-0.0223J0.0000
G3X28.5161Y-21.6553Z0.1300I-0.0184J-0.0126
G1 X28.5161 Y-21.8959 Z0.1300
G1 X28.4849 Y-21.8959 Z0.1300
G1 X28.4849 Y-22.1365 Z0.1300
G3X28.5384Y-22.1900Z0.1300I0.0535J0.0000
G3X28.5920Y-22.1365Z0.1300I0.0000J0.0535
G1 X28.5920 Y-21.6553 Z0.1300
G3X28.5825Y-21.6249Z0.1300I-0.0536J0.0000
G3X28.4849Y-21.6553Z0.1300I-0.0441J-0.0304
G1 X28.4849 Y-21.8959 Z0.1300
G0 Z0.5000
G0 X28.4849 Y-21.8959 
G0 Z0.5000
G0 X29.6969 Y-22.1299 
G1 X29.6969 Y-22.1299 Z0.2800 F75.
G1 X29.6969 Y-22.1299 Z0.2550 F25.
G1 X29.6969 Y-21.6692 Z0.1316
G1 X29.6969 Y-21.6688 Z0.1315
G1 X29.6969 Y-21.6685 Z0.1314
G1 X29.6969 Y-21.6681 Z0.1313
G1 X29.6969 Y-21.6677 Z0.1311
G1 X29.6969 Y-21.6673 Z0.1310
G1 X29.6968 Y-21.6669 Z0.1309
G1 X29.6968 Y-21.6665 Z0.1308
G1 X29.6967 Y-21.6661 Z0.1307
G1 X29.6967 Y-21.6657 Z0.1306
G1 X29.6966 Y-21.6654 Z0.1305
G1 X29.6965 Y-21.6650 Z0.1304
G1 X29.6964 Y-21.6646 Z0.1303
G1 X29.6964 Y-21.6642 Z0.1302
G1 X29.6963 Y-21.6638 Z0.1301
G1 X29.6962 Y-21.6635 Z0.1300
G3X29.6939Y-21.6581Z0.1300I-0.0216J-0.0057
G3X29.6861Y-21.6501Z0.1300I-0.0193J-0.0111
G3X29.6523Y-21.6692Z0.1300I-0.0115J-0.0191
G1 X29.6523 Y-22.1504 Z0.1300
G3X29.6746Y-22.1727Z0.1300I0.0223J0.0000
G3X29.6969Y-22.1504Z0.1300I0.0000J0.0223
G1 X29.6969 Y-21.6692 Z0.1300
G3X29.6962Y-21.6635Z0.1300I-0.0223J0.0000
G1 X29.7264 Y-21.6553 Z0.1300
G3X29.7210Y-21.6424Z0.1300I-0.0518J-0.0139
G3X29.7021Y-21.6233Z0.1300I-0.0464J-0.0268
G3X29.6211Y-21.6692Z0.1300I-0.0275J-0.0459
G1 X29.6211 Y-22.1504 Z0.1300
G3X29.6746Y-22.2040Z0.1300I0.0535J0.0000
G3X29.7282Y-22.1504Z0.1300I0.0000J0.0536
G1 X29.7282 Y-21.6692 Z0.1300
G3X29.7264Y-21.6553Z0.1300I-0.0536J0.0000
G0 Z0.5000
G0 X29.7264 Y-21.6553 
G0 Z0.5000
G0 X30.9277 Y-21.7170 
G1 X30.9277 Y-21.7170 Z0.2800 F75.
G1 X30.9277 Y-21.7170 Z0.2550 F25.
G1 X30.9277 Y-22.1660 Z0.1347
G1 X30.9277 Y-22.1672 Z0.1344
G1 X30.9278 Y-22.1684 Z0.1341
G1 X30.9279 Y-22.1695 Z0.1338
G1 X30.9282 Y-22.1707 Z0.1334
G1 X30.9284 Y-22.1718 Z0.1331
G1 X30.9288 Y-22.1729 Z0.1328
G1 X30.9292 Y-22.1740 Z0.1325
G1 X30.9296 Y-22.1751 Z0.1322
G1 X30.9301 Y-22.1762 Z0.1319
G1 X30.9307 Y-22.1772 Z0.1316
G1 X30.9313 Y-22.1782 Z0.1313
G1 X30.9319 Y-22.1791 Z0.1309
G1 X30.9326 Y-22.1801 Z0.1306
G1 X30.9334 Y-22.1810 Z0.1303
G1 X30.9342 Y-22.1818 Z0.1300
G3X30.9500Y-22.1883Z0.1300I0.0158J0.0158
G3X30.9723Y-22.1660Z0.1300I0.0000J0.0223
G1 X30.9723 Y-21.6848 Z0.1300
G3X30.9683Y-21.6722Z0.1300I-0.0223J0.0000
G3X30.9277Y-21.6848Z0.1300I-0.0183J-0.0126
G1 X30.9277 Y-22.1660 Z0.1300
G3X30.9342Y-22.1818Z0.1300I0.0223J0.0000
G1 X30.9121 Y-22.2039 Z0.1300
G3X30.9500Y-22.2196Z0.1300I0.0379J0.0379
G3X31.0035Y-22.1660Z0.1300I0.0000J0.0536
G1 X31.0035 Y-21.6848 Z0.1300
G3X30.9940Y-21.6544Z0.1300I-0.0535J0.0000
G3X30.8964Y-21.6848Z0.1300I-0.0440J-0.0304
G1 X30.8964 Y-22.1660 Z0.1300
G3X30.9121Y-22.2039Z0.1300I0.0536J0.0000
G0 Z0.5000
G0 X30.9121 Y-22.2039 
G0 Z0.5000
G0 X32.9632 Y-21.7732 
G1 X32.9632 Y-21.7732 Z0.2800 F75.
G1 X32.9632 Y-21.7732 Z0.2550 F25.
G1 X32.9632 Y-22.1935 Z0.1424
G1 X32.9632 Y-22.1948 Z0.1420
G1 X32.9634 Y-22.1962 Z0.1417
G1 X32.9636 Y-22.1975 Z0.1413
G1 X32.9639 Y-22.1988 Z0.1409
G1 X32.9643 Y-22.2001 Z0.1406
G1 X32.9648 Y-22.2013 Z0.1402
G1 X32.9654 Y-22.2025 Z0.1399
G1 X32.9661 Y-22.2037 Z0.1395
G1 X32.9668 Y-22.2048 Z0.1392
G1 X32.9676 Y-22.2059 Z0.1388
G1 X32.9685 Y-22.2069 Z0.1384
G1 X32.9694 Y-22.2078 Z0.1381
G1 X32.9704 Y-22.2087 Z0.1377
G1 X32.9715 Y-22.2095 Z0.1374
G1 X32.9726 Y-22.2102 Z0.1370
G1 X32.9738 Y-22.2109 Z0.1366
G1 X32.9750 Y-22.2115 Z0.1363
G1 X32.9762 Y-22.2120 Z0.1359
G1 X32.9775 Y-22.2124 Z0.1356
G1 X32.9788 Y-22.2127 Z0.1352
G1 X32.9801 Y-22.2129 Z0.1348
G1 X32.9815 Y-22.2131 Z0.1345
G1 X32.9828 Y-22.2131 Z0.1341
G1 X32.9838 Y-22.2131 Z0.1339
G1 X32.9849 Y-22.2130 Z0.1336
G1 X32.9859 Y-22.2129 Z0.1333
G1 X32.9869 Y-22.2127 Z0.1330
G1 X32.9879 Y-22.2124 Z0.1328
G1 X32.9889 Y-22.2121 Z0.1325
G1 X32.9898 Y-22.2118 Z0.1322
G1 X32.9908 Y-22.2114 Z0.1319
G1 X32.9917 Y-22.2110 Z0.1317
G1 X32.9926 Y-22.2105 Z0.1314
G1 X32.9935 Y-22.2099 Z0.1311
G1 X32.9943 Y-22.2094 Z0.1308
G1 X32.9952 Y-22.2087 Z0.1306
G1 X32.9959 Y-22.2081 Z0.1303
G1 X32.9967 Y-22.2074 Z0.1300
G3X33.0024Y-22.1935Z0.1300I-0.0139J0.0139
G1 X33.0024 Y-21.7214 Z0.1300
G3X32.9988Y-21.7101Z0.1300I-0.0196J0.0000
G3X32.9632Y-21.7214Z0.1300I-0.0160J-0.0113
G1 X32.9632 Y-22.1935 Z0.1300
G3X32.9828Y-22.2131Z0.1300I0.0196J0.0000
G3X32.9967Y-22.2074Z0.1300I0.0000J0.0196
G1 X33.0188 Y-22.2295 Z0.1300
G3X33.0337Y-22.1935Z0.1300I-0.0360J0.0360
G1 X33.0337 Y-21.7214 Z0.1300
G3X33.0243Y-21.6920Z0.1300I-0.0509J0.0000
G3X32.9320Y-21.7214Z0.1300I-0.0415J-0.0294
G1 X32.9320 Y-22.1935 Z0.1300
G3X32.9828Y-22.2443Z0.1300I0.0508J0.0000
G3X33.0188Y-22.2295Z0.1300I0.0000J0.0508
G0 Z0.5000
G0 X33.0188 Y-22.2295 
G0 Z0.5000
G0 X33.3210 Y-21.7424 
G1 X33.3210 Y-21.7424 Z0.2800 F75.
G1 X33.3210 Y-21.7424 Z0.2550 F25.
G1 X33.3210 Y-22.1935 Z0.1341
G1 X33.3210 Y-22.1945 Z0.1339
G1 X33.3211 Y-22.1955 Z0.1336
G1 X33.3212 Y-22.1966 Z0.1333
G1 X33.3214 Y-22.1976 Z0.1330
G1 X33.3216 Y-22.1986 Z0.1328
G1 X33.3219 Y-22.1995 Z0.1325
G1 X33.3223 Y-22.2005 Z0.1322
G1 X33.3227 Y-22.2015 Z0.1319
G1 X33.3231 Y-22.2024 Z0.1317
G1 X33.3236 Y-22.2033 Z0.1314
G1 X33.3241 Y-22.2042 Z0.1311
G1 X33.3247 Y-22.2050 Z0.1308
G1 X33.3253 Y-22.2058 Z0.1306
G1 X33.3260 Y-22.2066 Z0.1303
G1 X33.3267 Y-22.2074 Z0.1300
G3X33.3406Y-22.2131Z0.1300I0.0139J0.0139
G3X33.3602Y-22.1935Z0.1300I0.0000J0.0196
G1 X33.3602 Y-21.7214 Z0.1300
G3X33.3538Y-21.7070Z0.1300I-0.0196J0.0000
G3X33.3210Y-21.7214Z0.1300I-0.0132J-0.0144
G1 X33.3210 Y-22.1935 Z0.1300
G3X33.3267Y-22.2074Z0.1300I0.0196J0.0000
G1 X33.3046 Y-22.2295 Z0.1300
G3X33.3406Y-22.2443Z0.1300I0.0360J0.0360
G3X33.3914Y-22.1935Z0.1300I0.0000J0.0508
G1 X33.3914 Y-21.7214 Z0.1300
G3X33.3750Y-21.6840Z0.1300I-0.0508J0.0000
G3X33.2897Y-21.7214Z0.1300I-0.0344J-0.0374
G1 X33.2897 Y-22.1935 Z0.1300
G3X33.3046Y-22.2295Z0.1300I0.0509J0.0000
G0 Z0.5000
G0 X33.3046 Y-22.2295 
G0 Z0.5000
G0 X35.7605 Y-22.0728 
G1 X35.7605 Y-22.0728 Z0.2800 F75.
G1 X35.7605 Y-22.0728 Z0.2550 F25.
G1 X35.7609 Y-22.1853 Z0.2248
G1 X35.7609 Y-22.1870 Z0.2244
G1 X35.7610 Y-22.1887 Z0.2239
G1 X35.7613 Y-22.1904 Z0.2235
G1 X35.7616 Y-22.1920 Z0.2230
G1 X35.7620 Y-22.1936 Z0.2226
G1 X35.7625 Y-22.1952 Z0.2221
G1 X35.7631 Y-22.1968 Z0.2217
G1 X35.7637 Y-22.1984 Z0.2212
G1 X35.7645 Y-22.1999 Z0.2208
G1 X35.7653 Y-22.2013 Z0.2203
G1 X35.7662 Y-22.2028 Z0.2199
G1 X35.7672 Y-22.2041 Z0.2194
G1 X35.7682 Y-22.2054 Z0.2190
G1 X35.7694 Y-22.2067 Z0.2185
G1 X35.7705 Y-22.2079 Z0.2181
G1 X35.7718 Y-22.2090 Z0.2176
G1 X35.7731 Y-22.2100 Z0.2172
G1 X35.7745 Y-22.2110 Z0.2167
G1 X35.7759 Y-22.2119 Z0.2163
G1 X35.7774 Y-22.2128 Z0.2158
G1 X35.7789 Y-22.2135 Z0.2154
G1 X35.7804 Y-22.2142 Z0.2149
G1 X35.7820 Y-22.2148 Z0.2145
G1 X35.7836 Y-22.2152 Z0.2140
G1 X35.7852 Y-22.2156 Z0.2136
G1 X35.7869 Y-22.2160 Z0.2131
G1 X35.7885 Y-22.2162 Z0.2127
G1 X35.7902 Y-22.2163 Z0.2122
G1 X35.7919 Y-22.2164 Z0.2118
G1 X35.7936 Y-22.2163 Z0.2113
G1 X35.7952 Y-22.2162 Z0.2109
G1 X35.7969 Y-22.2160 Z0.2104
G1 X35.7986 Y-22.2157 Z0.2100
G1 X35.8002 Y-22.2152 Z0.2095
G1 X35.8018 Y-22.2148 Z0.2091
G1 X35.8034 Y-22.2142 Z0.2086
G1 X35.8049 Y-22.2135 Z0.2082
G1 X35.8064 Y-22.2128 Z0.2077
G1 X35.8079 Y-22.2120 Z0.2073
G1 X35.8093 Y-22.2111 Z0.2068
G1 X35.8106 Y-22.2101 Z0.2064
G1 X35.8120 Y-22.2090 Z0.2059
G1 X35.8132 Y-22.2079 Z0.2055
G1 X35.8144 Y-22.2067 Z0.2050
G1 X35.8155 Y-22.2055 Z0.2046
G1 X35.8166 Y-22.2042 Z0.2041
G1 X35.8176 Y-22.2028 Z0.2037
G1 X35.8185 Y-22.2014 Z0.2032
G1 X35.8193 Y-22.1999 Z0.2028
G1 X35.8200 Y-22.1984 Z0.2023
G1 X35.8207 Y-22.1969 Z0.2019
G1 X35.8213 Y-22.1953 Z0.2014
G1 X35.8218 Y-22.1937 Z0.2010
G1 X35.8222 Y-22.1921 Z0.2005
G1 X35.8225 Y-22.1905 Z0.2001
G1 X35.8227 Y-22.1888 Z0.1996
G1 X35.8229 Y-22.1871 Z0.1992
G1 X35.8229 Y-22.1855 Z0.1987
G1 X35.8222 Y-21.9289 Z0.1300
G1 X35.8215 Y-21.6724 Z0.1300
G3X35.8166Y-21.6556Z0.1300I-0.0310J0.0000
G3X35.8131Y-21.6511Z0.1300I-0.0261J-0.0168
G3X35.7594Y-21.6723Z0.1300I-0.0226J-0.0213
G1 X35.7609 Y-22.1853 Z0.1300
G3X35.7919Y-22.2164Z0.1300I0.0310J0.0000
G3X35.8229Y-22.1855Z0.1300I0.0000J0.0311
G1 X35.8222 Y-21.9289 Z0.1300
G1 X35.8535 Y-21.9288 Z0.1300
G1 X35.8528 Y-21.6724 Z0.1300
G3X35.8429Y-21.6388Z0.1300I-0.0623J0.0000
G3X35.8358Y-21.6297Z0.1300I-0.0524J-0.0336
G3X35.7282Y-21.6723Z0.1300I-0.0453J-0.0427
G1 X35.7296 Y-22.1853 Z0.1300
G3X35.7919Y-22.2476Z0.1300I0.0623J0.0000
G3X35.8542Y-22.1855Z0.1300I0.0000J0.0623
G1 X35.8535 Y-21.9288 Z0.1300
G1 X35.8847 Y-21.9288 Z0.1300
G1 X35.8840 Y-21.6726 Z0.1300
G1 X35.8840 Y-21.6724 Z0.1300
G3X35.8692Y-21.6219Z0.1300I-0.0935J0.0000
G3X35.8585Y-21.6082Z0.1300I-0.0787J-0.0505
G3X35.6969Y-21.6723Z0.1300I-0.0680J-0.0642
G1 X35.6984 Y-22.1851 Z0.1300
G1 X35.6984 Y-22.1853 Z0.1300
G3X35.7919Y-22.2789Z0.1300I0.0935J0.0000
G3X35.8854Y-22.1854Z0.1300I0.0000J0.0936
G1 X35.8847 Y-21.9288 Z0.1300
G0 Z0.5000
G0 X35.8847 Y-21.9288 
G0 Z0.5000
G0 X37.7850 Y-22.0975 
G1 X37.7850 Y-22.0975 Z0.2800 F75.
G1 X37.7850 Y-22.0975 Z0.2550 F25.
G1 X37.7853 Y-22.2101 Z0.2248
G1 X37.7854 Y-22.2118 Z0.2244
G1 X37.7855 Y-22.2135 Z0.2239
G1 X37.7857 Y-22.2151 Z0.2235
G1 X37.7860 Y-22.2168 Z0.2230
G1 X37.7864 Y-22.2184 Z0.2226
G1 X37.7869 Y-22.2200 Z0.2221
G1 X37.7875 Y-22.2216 Z0.2217
G1 X37.7882 Y-22.2232 Z0.2212
G1 X37.7889 Y-22.2247 Z0.2208
G1 X37.7898 Y-22.2261 Z0.2203
G1 X37.7907 Y-22.2275 Z0.2199
G1 X37.7916 Y-22.2289 Z0.2194
G1 X37.7927 Y-22.2302 Z0.2190
G1 X37.7938 Y-22.2315 Z0.2185
G1 X37.7950 Y-22.2327 Z0.2181
G1 X37.7963 Y-22.2338 Z0.2176
G1 X37.7976 Y-22.2348 Z0.2172
G1 X37.7989 Y-22.2358 Z0.2167
G1 X37.8004 Y-22.2367 Z0.2163
G1 X37.8018 Y-22.2375 Z0.2158
G1 X37.8033 Y-22.2383 Z0.2154
G1 X37.8049 Y-22.2390 Z0.2149
G1 X37.8064 Y-22.2395 Z0.2145
G1 X37.8081 Y-22.2400 Z0.2140
G1 X37.8097 Y-22.2404 Z0.2136
G1 X37.8113 Y-22.2408 Z0.2131
G1 X37.8130 Y-22.2410 Z0.2127
G1 X37.8147 Y-22.2411 Z0.2122
G1 X37.8164 Y-22.2412 Z0.2118
G1 X37.8180 Y-22.2411 Z0.2113
G1 X37.8197 Y-22.2410 Z0.2109
G1 X37.8214 Y-22.2408 Z0.2104
G1 X37.8230 Y-22.2404 Z0.2100
G1 X37.8246 Y-22.2400 Z0.2095
G1 X37.8263 Y-22.2395 Z0.2091
G1 X37.8278 Y-22.2390 Z0.2086
G1 X37.8294 Y-22.2383 Z0.2082
G1 X37.8309 Y-22.2376 Z0.2077
G1 X37.8323 Y-22.2367 Z0.2073
G1 X37.8337 Y-22.2358 Z0.2068
G1 X37.8351 Y-22.2349 Z0.2064
G1 X37.8364 Y-22.2338 Z0.2059
G1 X37.8377 Y-22.2327 Z0.2055
G1 X37.8389 Y-22.2315 Z0.2050
G1 X37.8400 Y-22.2303 Z0.2046
G1 X37.8410 Y-22.2290 Z0.2041
G1 X37.8420 Y-22.2276 Z0.2037
G1 X37.8429 Y-22.2262 Z0.2032
G1 X37.8438 Y-22.2247 Z0.2028
G1 X37.8445 Y-22.2232 Z0.2023
G1 X37.8452 Y-22.2217 Z0.2019
G1 X37.8458 Y-22.2201 Z0.2014
G1 X37.8463 Y-22.2185 Z0.2010
G1 X37.8467 Y-22.2169 Z0.2005
G1 X37.8470 Y-22.2152 Z0.2001
G1 X37.8472 Y-22.2136 Z0.1996
G1 X37.8474 Y-22.2119 Z0.1992
G1 X37.8474 Y-22.2102 Z0.1987
G1 X37.8467 Y-21.9537 Z0.1300
G1 X37.8460 Y-21.6972 Z0.1300
G3X37.8379Y-21.6763Z0.1300I-0.0311J0.0000
G3X37.7839Y-21.6971Z0.1300I-0.0230J-0.0209
G1 X37.7853 Y-22.2101 Z0.1300
G3X37.8164Y-22.2412Z0.1300I0.0311J0.0000
G3X37.8474Y-22.2102Z0.1300I0.0000J0.0311
G1 X37.8467 Y-21.9537 Z0.1300
G1 X37.8779 Y-21.9536 Z0.1300
G1 X37.8772 Y-21.6972 Z0.1300
G3X37.8609Y-21.6552Z0.1300I-0.0623J0.0000
G3X37.7526Y-21.6971Z0.1300I-0.0460J-0.0420
G1 X37.7541 Y-22.2101 Z0.1300
G3X37.8164Y-22.2724Z0.1300I0.0623J0.0000
G3X37.8787Y-22.2102Z0.1300I0.0000J0.0623
G1 X37.8779 Y-21.9536 Z0.1300
G1 X37.9092 Y-21.9535 Z0.1300
G1 X37.9085 Y-21.6974 Z0.1300
G1 X37.9085 Y-21.6972 Z0.1300
G3X37.8840Y-21.6341Z0.1300I-0.0936J0.0000
G3X37.7214Y-21.6971Z0.1300I-0.0691J-0.0631
G1 X37.7228 Y-22.2099 Z0.1300
G1 X37.7228 Y-22.2101 Z0.1300
G3X37.8164Y-22.3037Z0.1300I0.0936J0.0000
G3X37.9099Y-22.2102Z0.1300I0.0000J0.0936
G1 X37.9092 Y-21.9535 Z0.1300
G0 Z0.5000
G0 X37.9092 Y-21.9535 
G0 Z0.5000
G0 X40.1198 Y-22.1324 
G1 X40.1198 Y-22.1324 Z0.2800 F75.
G1 X40.1198 Y-22.1324 Z0.2550 F25.
G1 X40.1198 Y-21.7251 Z0.1458
G1 X40.1198 Y-21.7237 Z0.1455
G1 X40.1197 Y-21.7223 Z0.1451
G1 X40.1195 Y-21.7209 Z0.1447
G1 X40.1193 Y-21.7195 Z0.1444
G1 X40.1190 Y-21.7182 Z0.1440
G1 X40.1187 Y-21.7168 Z0.1436
G1 X40.1183 Y-21.7155 Z0.1433
G1 X40.1178 Y-21.7142 Z0.1429
G1 X40.1173 Y-21.7129 Z0.1425
G1 X40.1168 Y-21.7117 Z0.1421
G1 X40.1161 Y-21.7104 Z0.1418
G1 X40.1155 Y-21.7092 Z0.1414
G1 X40.1147 Y-21.7080 Z0.1410
G1 X40.1139 Y-21.7069 Z0.1407
G1 X40.1131 Y-21.7058 Z0.1403
G1 X40.1120 Y-21.7045 Z0.1398
G1 X40.1109 Y-21.7033 Z0.1394
G1 X40.1097 Y-21.7021 Z0.1389
G1 X40.1084 Y-21.7010 Z0.1385
G1 X40.1071 Y-21.7000 Z0.1380
G1 X40.1057 Y-21.6991 Z0.1376
G1 X40.1043 Y-21.6982 Z0.1372
G1 X40.1029 Y-21.6974 Z0.1367
G1 X40.1013 Y-21.6967 Z0.1363
G1 X40.0998 Y-21.6960 Z0.1358
G1 X40.0982 Y-21.6955 Z0.1354
G1 X40.0966 Y-21.6950 Z0.1349
G1 X40.0950 Y-21.6946 Z0.1345
G1 X40.0934 Y-21.6944 Z0.1340
G1 X40.0917 Y-21.6941 Z0.1336
G1 X40.0900 Y-21.6940 Z0.1331
G1 X40.0884 Y-21.6940 Z0.1327
G1 X40.0867 Y-21.6941 Z0.1322
G1 X40.0850 Y-21.6942 Z0.1318
G1 X40.0834 Y-21.6945 Z0.1313
G1 X40.0818 Y-21.6948 Z0.1309
G1 X40.0801 Y-21.6952 Z0.1304
G1 X40.0786 Y-21.6957 Z0.1300
G3X40.0577Y-21.7251Z0.1300I0.0101J-0.0294
G1 X40.0577 Y-22.2380 Z0.1300
G3X40.0887Y-22.2690Z0.1300I0.0310J0.0000
G3X40.1198Y-22.2380Z0.1300I0.0000J0.0310
G1 X40.1198 Y-21.7251 Z0.1300
G3X40.1131Y-21.7058Z0.1300I-0.0311J0.0000
G3X40.0786Y-21.6957Z0.1300I-0.0244J-0.0193
G1 X40.0683 Y-21.6662 Z0.1300
G3X40.0265Y-21.7251Z0.1300I0.0204J-0.0589
G1 X40.0265 Y-22.2380 Z0.1300
G3X40.0887Y-22.3003Z0.1300I0.0622J0.0000
G3X40.1510Y-22.2380Z0.1300I0.0000J0.0623
G1 X40.1510 Y-21.7251 Z0.1300
G3X40.1376Y-21.6864Z0.1300I-0.0623J0.0000
G3X40.0683Y-21.6662Z0.1300I-0.0489J-0.0387
G1 X40.0580 Y-21.6367 Z0.1300
G3X39.9952Y-21.7251Z0.1300I0.0307J-0.0884
G1 X39.9952 Y-22.2380 Z0.1300
G3X40.0887Y-22.3315Z0.1300I0.0935J0.0000
G3X40.1823Y-22.2380Z0.1300I0.0000J0.0935
G1 X40.1823 Y-21.7251 Z0.1300
G3X40.1621Y-21.6670Z0.1300I-0.0936J0.0000
G3X40.0580Y-21.6367Z0.1300I-0.0734J-0.0581
G0 Z0.5000
G0 X40.0580 Y-21.6367 
G0 Z0.5000
G0 X42.6693 Y-21.8689 
G1 X42.6693 Y-21.8689 Z0.2800 F75.
G1 X42.6693 Y-21.8689 Z0.2550 F25.
G1 X42.6690 Y-21.7563 Z0.2248
G1 X42.6690 Y-21.7548 Z0.2244
G1 X42.6689 Y-21.7534 Z0.2241
G1 X42.6687 Y-21.7519 Z0.2237
G1 X42.6685 Y-21.7505 Z0.2233
G1 X42.6682 Y-21.7491 Z0.2229
G1 X42.6678 Y-21.7477 Z0.2225
G1 X42.6674 Y-21.7463 Z0.2221
G1 X42.6669 Y-21.7449 Z0.2217
G1 X42.6663 Y-21.7436 Z0.2213
G1 X42.6657 Y-21.7423 Z0.2209
G1 X42.6650 Y-21.7410 Z0.2206
G1 X42.6643 Y-21.7397 Z0.2202
G1 X42.6635 Y-21.7385 Z0.2198
G1 X42.6626 Y-21.7374 Z0.2194
G1 X42.6617 Y-21.7362 Z0.2190
G1 X42.6606 Y-21.7350 Z0.2185
G1 X42.6594 Y-21.7338 Z0.2181
G1 X42.6581 Y-21.7327 Z0.2176
G1 X42.6568 Y-21.7316 Z0.2172
G1 X42.6555 Y-21.7306 Z0.2167
G1 X42.6541 Y-21.7297 Z0.2163
G1 X42.6526 Y-21.7289 Z0.2158
G1 X42.6511 Y-21.7281 Z0.2154
G1 X42.6495 Y-21.7275 Z0.2149
G1 X42.6480 Y-21.7269 Z0.2145
G1 X42.6464 Y-21.7264 Z0.2140
G1 X42.6447 Y-21.7260 Z0.2136
G1 X42.6431 Y-21.7256 Z0.2131
G1 X42.6414 Y-21.7254 Z0.2127
G1 X42.6397 Y-21.7253 Z0.2122
G1 X42.6381 Y-21.7252 Z0.2118
G1 X42.6364 Y-21.7253 Z0.2113
G1 X42.6347 Y-21.7254 Z0.2109
G1 X42.6330 Y-21.7256 Z0.2104
G1 X42.6314 Y-21.7259 Z0.2100
G1 X42.6298 Y-21.7263 Z0.2095
G1 X42.6282 Y-21.7268 Z0.2091
G1 X42.6266 Y-21.7274 Z0.2086
G1 X42.6250 Y-21.7281 Z0.2082
G1 X42.6235 Y-21.7288 Z0.2077
G1 X42.6221 Y-21.7296 Z0.2073
G1 X42.6206 Y-21.7305 Z0.2068
G1 X42.6193 Y-21.7315 Z0.2064
G1 X42.6180 Y-21.7325 Z0.2059
G1 X42.6167 Y-21.7337 Z0.2055
G1 X42.6155 Y-21.7348 Z0.2050
G1 X42.6144 Y-21.7361 Z0.2046
G1 X42.6133 Y-21.7374 Z0.2041
G1 X42.6123 Y-21.7388 Z0.2037
G1 X42.6114 Y-21.7402 Z0.2032
G1 X42.6106 Y-21.7416 Z0.2028
G1 X42.6099 Y-21.7431 Z0.2023
G1 X42.6092 Y-21.7447 Z0.2019
G1 X42.6086 Y-21.7463 Z0.2014
G1 X42.6081 Y-21.7479 Z0.2010
G1 X42.6077 Y-21.7495 Z0.2005
G1 X42.6074 Y-21.7511 Z0.2001
G1 X42.6071 Y-21.7528 Z0.1996
G1 X42.6070 Y-21.7545 Z0.1992
G1 X42.6069 Y-21.7562 Z0.1987
G1 X42.6077 Y-22.0127 Z0.1300
G1 X42.6084 Y-22.2692 Z0.1300
G3X42.6394Y-22.3002Z0.1300I0.0310J0.0000
G3X42.6705Y-22.2693Z0.1300I0.0000J0.0310
G1 X42.6690 Y-21.7563 Z0.1300
G3X42.6617Y-21.7362Z0.1300I-0.0310J0.0000
G3X42.6069Y-21.7562Z0.1300I-0.0237J-0.0201
G1 X42.6077 Y-22.0127 Z0.1300
G1 X42.5764 Y-22.0128 Z0.1300
G1 X42.5771 Y-22.2692 Z0.1300
G3X42.6394Y-22.3315Z0.1300I0.0623J0.0000
G3X42.7017Y-22.2693Z0.1300I0.0000J0.0623
G1 X42.7003 Y-21.7563 Z0.1300
G3X42.6855Y-21.7160Z0.1300I-0.0623J0.0000
G3X42.5757Y-21.7562Z0.1300I-0.0475J-0.0403
G1 X42.5764 Y-22.0128 Z0.1300
G1 X42.5452 Y-22.0128 Z0.1300
G1 X42.5459 Y-22.2690 Z0.1300
G1 X42.5459 Y-22.2692 Z0.1300
G3X42.6394Y-22.3627Z0.1300I0.0935J0.0000
G3X42.7330Y-22.2693Z0.1300I0.0000J0.0935
G1 X42.7315 Y-21.7565 Z0.1300
G1 X42.7315 Y-21.7563 Z0.1300
G3X42.7094Y-21.6959Z0.1300I-0.0935J0.0000
G3X42.5444Y-21.7562Z0.1300I-0.0714J-0.0604
G1 X42.5452 Y-22.0128 Z0.1300
G0 Z2.0000
G0 X42.5452 Y-22.0128 
( 02-inlay-DoubleFingers-idPT09-s27-01b)
G0 Z2.0000
G0 X26.1301 Y-21.6296 
G1 X26.1301 Y-21.6296 Z0.1300 F20.
G3X26.1294Y-21.6299Z0.1300I-0.0003J-0.0003
G1 X26.1294 Y-22.1851 Z0.1300
G3X26.1298Y-22.1855Z0.1300I0.0004J0.0000
G3X26.1302Y-22.1851Z0.1300I0.0000J0.0004
G1 X26.1302 Y-21.6299 Z0.1300
G1 X26.1301 Y-21.6296 Z0.1300
G3X26.1294Y-21.6299Z0.1300I-0.0003J-0.0003
G1 X26.1294 Y-21.7539 Z0.1300
G0 Z0.4997
G0 X26.1294 Y-21.7539 
G0 Z0.4997
G0 X26.2927 Y-21.6296 
G1 X26.2927 Y-21.6296 Z0.1300 F20.
G3X26.2920Y-21.6299Z0.1300I-0.0003J-0.0003
G1 X26.2920 Y-22.1851 Z0.1300
G3X26.2924Y-22.1855Z0.1300I0.0004J0.0000
G3X26.2929Y-22.1851Z0.1300I0.0000J0.0004
G1 X26.2929 Y-21.6299 Z0.1300
G1 X26.2928 Y-21.6297 Z0.1300
G3X26.2927Y-21.6296Z0.1300I-0.0004J-0.0002
G3X26.2920Y-21.6299Z0.1300I-0.0003J-0.0003
G1 X26.2920 Y-21.7540 Z0.1300
G0 Z0.4997
G0 X26.2920 Y-21.7540 
G0 Z0.4997
G0 X27.5809 Y-21.6608 
G1 X27.5809 Y-21.6608 Z0.1300 F20.
G3X27.5844Y-21.5902Z0.1300I-0.0335J0.0371
G3X27.5679Y-21.5764Z0.1300I-0.0582J-0.0527
G3X27.5262Y-21.5644Z0.1300I-0.0417J-0.0665
G3X27.4477Y-21.6429Z0.1300I0.0000J-0.0785
G1 X27.4477 Y-22.1241 Z0.1300
G3X27.5262Y-22.2027Z0.1300I0.0785J0.0000
G3X27.6048Y-22.1241Z0.1300I0.0000J0.0786
G1 X27.6048 Y-21.6429 Z0.1300
G3X27.5844Y-21.5902Z0.1300I-0.0786J0.0000
G3X27.4723Y-21.5858Z0.1300I-0.0582J-0.0527
G3X27.4703Y-21.6565Z0.1300I0.0343J-0.0364
G0 Z0.4997
G0 X27.4703 Y-21.6565 
G0 Z0.4997
G0 X28.5903 Y-21.6803 
G1 X28.5903 Y-21.6803 Z0.1300 F20.
G3X28.6031Y-21.6107Z0.1300I-0.0284J0.0412
G3X28.4599Y-21.6553Z0.1300I-0.0647J-0.0446
G1 X28.4599 Y-22.1365 Z0.1300
G3X28.5384Y-22.2150Z0.1300I0.0785J0.0000
G3X28.6170Y-22.1365Z0.1300I0.0000J0.0785
G1 X28.6170 Y-21.6553 Z0.1300
G3X28.6031Y-21.6107Z0.1300I-0.0786J0.0000
G3X28.4925Y-21.5916Z0.1300I-0.0647J-0.0446
G3X28.4812Y-21.6614Z0.1300I0.0293J-0.0406
G0 Z0.4997
G0 X28.4812 Y-21.6614 
G0 Z0.4997
G0 X29.7322 Y-21.6704 
G1 X29.7322 Y-21.6704 Z0.1300 F20.
G3X29.7149Y-21.6018Z0.1300I-0.0429J0.0257
G3X29.5961Y-21.6692Z0.1300I-0.0403J-0.0674
G1 X29.5961 Y-22.1504 Z0.1300
G3X29.6746Y-22.2290Z0.1300I0.0785J0.0000
G3X29.7532Y-22.1504Z0.1300I0.0000J0.0786
G1 X29.7532 Y-21.6692 Z0.1300
G3X29.7426Y-21.6299Z0.1300I-0.0786J0.0000
G3X29.7149Y-21.6018Z0.1300I-0.0680J-0.0393
G3X29.6064Y-21.6303Z0.1300I-0.0403J-0.0674
G3X29.6251Y-21.6985Z0.1300I0.0434J-0.0248
G0 Z0.4997
G0 X29.6251 Y-21.6985 
G0 Z0.4997
G0 X31.0019 Y-21.7098 
G1 X31.0019 Y-21.7098 Z0.1300 F20.
G3X31.0146Y-21.6402Z0.1300I-0.0284J0.0412
G3X30.8714Y-21.6848Z0.1300I-0.0646J-0.0446
G1 X30.8714 Y-22.1660 Z0.1300
G3X30.9500Y-22.2446Z0.1300I0.0786J0.0000
G3X31.0285Y-22.1660Z0.1300I0.0000J0.0786
G1 X31.0285 Y-21.6848 Z0.1300
G3X31.0146Y-21.6402Z0.1300I-0.0785J0.0000
G3X30.9040Y-21.6211Z0.1300I-0.0646J-0.0446
G3X30.8927Y-21.6910Z0.1300I0.0293J-0.0406
G0 Z0.4997
G0 X30.8927 Y-21.6910 
G0 Z0.4997
G0 X33.0329 Y-21.7472 
G1 X33.0329 Y-21.7472 Z0.1300 F20.
G3X33.0446Y-21.6775Z0.1300I-0.0290J0.0407
G3X32.9070Y-21.7214Z0.1300I-0.0618J-0.0439
G1 X32.9070 Y-22.1935 Z0.1300
G3X32.9828Y-22.2693Z0.1300I0.0758J0.0000
G3X33.0587Y-22.1935Z0.1300I0.0000J0.0758
G1 X33.0587 Y-21.7214 Z0.1300
G3X33.0446Y-21.6775Z0.1300I-0.0759J0.0000
G3X32.9342Y-21.6632Z0.1300I-0.0618J-0.0439
G3X32.9279Y-21.7336Z0.1300I0.0321J-0.0384
G0 Z0.4997
G0 X32.9279 Y-21.7336 
G0 Z0.4997
G0 X33.3949 Y-21.7362 
G1 X33.3949 Y-21.7362 Z0.1300 F20.
G3X33.3919Y-21.6656Z0.1300I-0.0368J0.0338
G3X33.2647Y-21.7214Z0.1300I-0.0513J-0.0558
G1 X33.2647 Y-22.1935 Z0.1300
G3X33.3406Y-22.2693Z0.1300I0.0759J0.0000
G3X33.4164Y-22.1935Z0.1300I0.0000J0.0758
G1 X33.4164 Y-21.7214 Z0.1300
G3X33.3919Y-21.6656Z0.1300I-0.0758J0.0000
G3X33.2809Y-21.6746Z0.1300I-0.0513J-0.0558
G3X33.2894Y-21.7448Z0.1300I0.0394J-0.0309
G0 Z0.4997
G0 X33.2894 Y-21.7448 
G0 Z0.4997
G0 X35.8746 Y-21.6617 
G1 X35.8746 Y-21.6617 Z0.1300 F20.
G3X35.8767Y-21.5911Z0.1300I-0.0343J0.0363
G3X35.6719Y-21.6723Z0.1300I-0.0862J-0.0813
G1 X35.6734 Y-22.1853 Z0.1300
G3X35.7919Y-22.3039Z0.1300I0.1185J0.0000
G3X35.9104Y-22.1854Z0.1300I0.0000J0.1186
G1 X35.9090 Y-21.6724 Z0.1300
G3X35.8902Y-21.6084Z0.1300I-0.1185J0.0000
G3X35.8767Y-21.5911Z0.1300I-0.0997J-0.0640
G3X35.7623Y-21.5573Z0.1300I-0.0862J-0.0813
G3X35.7256Y-21.6177Z0.1300I0.0119J-0.0485
G0 Z0.4997
G0 X35.7256 Y-21.6177 
G0 Z0.4997
G0 X37.8993 Y-21.6879 
G1 X37.8993 Y-21.6879 Z0.1300 F20.
G3X37.9025Y-21.6173Z0.1300I-0.0337J0.0369
G3X37.6964Y-21.6971Z0.1300I-0.0876J-0.0799
G1 X37.6978 Y-22.2101 Z0.1300
G3X37.8164Y-22.3287Z0.1300I0.1186J0.0000
G3X37.9349Y-22.2102Z0.1300I0.0000J0.1186
G1 X37.9335 Y-21.6972 Z0.1300
G3X37.9025Y-21.6173Z0.1300I-0.1186J0.0000
G3X37.7887Y-21.5816Z0.1300I-0.0876J-0.0799
G3X37.7510Y-21.6415Z0.1300I0.0110J-0.0488
G0 Z0.4997
G0 X37.7510 Y-21.6415 
G0 Z0.4997
G0 X40.1735 Y-21.7218 
G1 X40.1735 Y-21.7218 Z0.1300 F20.
G3X40.1817Y-21.6515Z0.1300I-0.0310J0.0393
G3X39.9702Y-21.7251Z0.1300I-0.0930J-0.0736
G1 X39.9702 Y-22.2380 Z0.1300
G3X40.0887Y-22.3565Z0.1300I0.1185J0.0000
G3X40.2073Y-22.2380Z0.1300I0.0000J0.1185
G1 X40.2073 Y-21.7251 Z0.1300
G3X40.1817Y-21.6515Z0.1300I-0.1186J0.0000
G3X40.0707Y-21.6079Z0.1300I-0.0929J-0.0735
G3X40.0289Y-21.6649Z0.1300I0.0076J-0.0494
G0 Z0.4997
G0 X40.0289 Y-21.6649 
G0 Z0.4997
G0 X42.7226 Y-21.7502 
G1 X42.7226 Y-21.7502 Z0.1300 F20.
G3X42.7285Y-21.6797Z0.1300I-0.0323J0.0382
G3X42.5194Y-21.7562Z0.1300I-0.0905J-0.0766
G1 X42.5209 Y-22.2692 Z0.1300
G3X42.6394Y-22.3877Z0.1300I0.1185J0.0000
G3X42.7580Y-22.2693Z0.1300I0.0000J0.1185
G1 X42.7565 Y-21.7563 Z0.1300
G3X42.7285Y-21.6797Z0.1300I-0.1185J0.0000
G3X42.6161Y-21.6398Z0.1300I-0.0905J-0.0765
G3X42.5762Y-21.6982Z0.1300I0.0092J-0.0491
G0 Z2.0000
G0 X42.5762 Y-21.6982 
M5
G53 Z
X2Y0
