( MOP:  02-inlay-Dot6mm-idPT06-s34 )
( FILE: G:\Shared drives\AlloyProjectFiles\Customer CAD files\Alloy-Standard-Builds-CAM\Fingerboards-in\02-inlay-Dot6mm-idPT06-s34.nc)
G90
(  BEGIN TOOL LIST )
(  TOOL 7 - Downcut PT125 - DESC: 0.1250 DIA, 2 FLUTE,  CARBIDE MAT )
(  ENDOF TOOL LIST )
( 02-inlay-Dot6mm-idPT06-s34)
T07
S11000
M3
G0 Z4.0000
G0 X8.1879 Y-16.9801 
G1 X8.1879 Y-16.9801 Z0.2520 F75.
G1 X8.1859 Y-16.9854 Z0.2510 F25.
G1 X8.1844 Y-16.9924 Z0.2497
G1 X8.1837 Y-16.9995 Z0.2485
G1 X8.1839 Y-17.0066 Z0.2472
G1 X8.1850 Y-17.0136 Z0.2460
G1 X8.1871 Y-17.0205 Z0.2447
G1 X8.1900 Y-17.0270 Z0.2435
G1 X8.1937 Y-17.0331 Z0.2422
G1 X8.1981 Y-17.0386 Z0.2410
G1 X8.2032 Y-17.0436 Z0.2397
G1 X8.2089 Y-17.0479 Z0.2384
G1 X8.2151 Y-17.0514 Z0.2372
G1 X8.2217 Y-17.0540 Z0.2359
G1 X8.2286 Y-17.0558 Z0.2347
G1 X8.2357 Y-17.0568 Z0.2334
G1 X8.2428 Y-17.0568 Z0.2322
G1 X8.2499 Y-17.0558 Z0.2309
G1 X8.2568 Y-17.0540 Z0.2296
G1 X8.2634 Y-17.0514 Z0.2284
G1 X8.2696 Y-17.0479 Z0.2271
G1 X8.2753 Y-17.0436 Z0.2259
G1 X8.2804 Y-17.0386 Z0.2246
G1 X8.2849 Y-17.0331 Z0.2234
G1 X8.2886 Y-17.0270 Z0.2221
G1 X8.2914 Y-17.0205 Z0.2208
G1 X8.2935 Y-17.0136 Z0.2196
G1 X8.2946 Y-17.0066 Z0.2183
G1 X8.2948 Y-16.9995 Z0.2171
G1 X8.2942 Y-16.9924 Z0.2158
G1 X8.2926 Y-16.9854 Z0.2146
G1 X8.2901 Y-16.9787 Z0.2133
G1 X8.2868 Y-16.9724 Z0.2121
G1 X8.2827 Y-16.9666 Z0.2108
G1 X8.2779 Y-16.9613 Z0.2095
G1 X8.2725 Y-16.9567 Z0.2083
G1 X8.2665 Y-16.9528 Z0.2070
G1 X8.2601 Y-16.9497 Z0.2058
G1 X8.2534 Y-16.9475 Z0.2045
G1 X8.2464 Y-16.9461 Z0.2033
G1 X8.2393 Y-16.9456 Z0.2020
G17
G3X8.2393Y-17.0569Z0.2020I0.0000J-0.0557 F60.
G3X8.2393Y-16.9456Z0.2020I0.0000J0.0556
G0 Z0.5020
G0 X8.2393 Y-16.9456 
G0 Z0.5020
G0 X9.6187 Y-16.9801 
G1 X9.6187 Y-16.9801 Z0.2520 F75.
G1 X9.6167 Y-16.9854 Z0.2510 F25.
G1 X9.6152 Y-16.9924 Z0.2497
G1 X9.6145 Y-16.9995 Z0.2485
G1 X9.6147 Y-17.0066 Z0.2472
G1 X9.6158 Y-17.0136 Z0.2460
G1 X9.6179 Y-17.0205 Z0.2447
G1 X9.6208 Y-17.0270 Z0.2435
G1 X9.6245 Y-17.0331 Z0.2422
G1 X9.6289 Y-17.0386 Z0.2410
G1 X9.6340 Y-17.0436 Z0.2397
G1 X9.6397 Y-17.0479 Z0.2384
G1 X9.6459 Y-17.0514 Z0.2372
G1 X9.6525 Y-17.0540 Z0.2359
G1 X9.6594 Y-17.0558 Z0.2347
G1 X9.6665 Y-17.0568 Z0.2334
G1 X9.6736 Y-17.0568 Z0.2322
G1 X9.6807 Y-17.0558 Z0.2309
G1 X9.6876 Y-17.0540 Z0.2296
G1 X9.6942 Y-17.0514 Z0.2284
G1 X9.7004 Y-17.0479 Z0.2271
G1 X9.7061 Y-17.0436 Z0.2259
G1 X9.7112 Y-17.0386 Z0.2246
G1 X9.7157 Y-17.0331 Z0.2234
G1 X9.7194 Y-17.0270 Z0.2221
G1 X9.7222 Y-17.0205 Z0.2208
G1 X9.7243 Y-17.0136 Z0.2196
G1 X9.7254 Y-17.0066 Z0.2183
G1 X9.7256 Y-16.9995 Z0.2171
G1 X9.7250 Y-16.9924 Z0.2158
G1 X9.7234 Y-16.9854 Z0.2146
G1 X9.7209 Y-16.9787 Z0.2133
G1 X9.7176 Y-16.9724 Z0.2121
G1 X9.7135 Y-16.9666 Z0.2108
G1 X9.7087 Y-16.9613 Z0.2095
G1 X9.7033 Y-16.9567 Z0.2083
G1 X9.6973 Y-16.9528 Z0.2070
G1 X9.6909 Y-16.9497 Z0.2058
G1 X9.6842 Y-16.9475 Z0.2045
G1 X9.6772 Y-16.9461 Z0.2033
G1 X9.6701 Y-16.9456 Z0.2020
G3X9.6701Y-17.0569Z0.2020I0.0000J-0.0557 F60.
G3X9.6701Y-16.9456Z0.2020I0.0000J0.0556
G0 Z0.5020
G0 X9.6701 Y-16.9456 
G0 Z0.5020
G0 X11.2247 Y-16.9801 
G1 X11.2247 Y-16.9801 Z0.2520 F75.
G1 X11.2227 Y-16.9854 Z0.2510 F25.
G1 X11.2212 Y-16.9924 Z0.2497
G1 X11.2205 Y-16.9995 Z0.2485
G1 X11.2207 Y-17.0066 Z0.2472
G1 X11.2218 Y-17.0136 Z0.2460
G1 X11.2239 Y-17.0205 Z0.2447
G1 X11.2268 Y-17.0270 Z0.2435
G1 X11.2305 Y-17.0331 Z0.2422
G1 X11.2349 Y-17.0386 Z0.2410
G1 X11.2400 Y-17.0436 Z0.2397
G1 X11.2457 Y-17.0479 Z0.2384
G1 X11.2519 Y-17.0514 Z0.2372
G1 X11.2585 Y-17.0540 Z0.2359
G1 X11.2654 Y-17.0558 Z0.2347
G1 X11.2725 Y-17.0568 Z0.2334
G1 X11.2796 Y-17.0568 Z0.2322
G1 X11.2867 Y-17.0558 Z0.2309
G1 X11.2936 Y-17.0540 Z0.2296
G1 X11.3002 Y-17.0514 Z0.2284
G1 X11.3064 Y-17.0479 Z0.2271
G1 X11.3121 Y-17.0436 Z0.2259
G1 X11.3172 Y-17.0386 Z0.2246
G1 X11.3217 Y-17.0331 Z0.2234
G1 X11.3254 Y-17.0270 Z0.2221
G1 X11.3282 Y-17.0205 Z0.2208
G1 X11.3303 Y-17.0136 Z0.2196
G1 X11.3314 Y-17.0066 Z0.2183
G1 X11.3316 Y-16.9995 Z0.2171
G1 X11.3310 Y-16.9924 Z0.2158
G1 X11.3294 Y-16.9854 Z0.2146
G1 X11.3269 Y-16.9787 Z0.2133
G1 X11.3236 Y-16.9724 Z0.2121
G1 X11.3195 Y-16.9666 Z0.2108
G1 X11.3147 Y-16.9613 Z0.2095
G1 X11.3093 Y-16.9567 Z0.2083
G1 X11.3033 Y-16.9528 Z0.2070
G1 X11.2969 Y-16.9497 Z0.2058
G1 X11.2902 Y-16.9475 Z0.2045
G1 X11.2832 Y-16.9461 Z0.2033
G1 X11.2761 Y-16.9456 Z0.2020
G3X11.2761Y-17.0569Z0.2020I0.0000J-0.0557 F60.
G3X11.2761Y-16.9456Z0.2020I0.0000J0.0556
G0 Z0.5020
G0 X11.2761 Y-16.9456 
G0 Z0.5020
G0 X14.0099 Y-17.6051 
G1 X14.0099 Y-17.6051 Z0.2520 F75.
G1 X14.0079 Y-17.6104 Z0.2510 F25.
G1 X14.0064 Y-17.6174 Z0.2497
G1 X14.0057 Y-17.6245 Z0.2485
G1 X14.0059 Y-17.6316 Z0.2472
G1 X14.0070 Y-17.6386 Z0.2460
G1 X14.0091 Y-17.6455 Z0.2447
G1 X14.0120 Y-17.6520 Z0.2435
G1 X14.0157 Y-17.6581 Z0.2422
G1 X14.0201 Y-17.6636 Z0.2410
G1 X14.0252 Y-17.6686 Z0.2397
G1 X14.0309 Y-17.6729 Z0.2384
G1 X14.0371 Y-17.6764 Z0.2372
G1 X14.0437 Y-17.6790 Z0.2359
G1 X14.0506 Y-17.6808 Z0.2347
G1 X14.0577 Y-17.6818 Z0.2334
G1 X14.0648 Y-17.6818 Z0.2322
G1 X14.0719 Y-17.6808 Z0.2309
G1 X14.0788 Y-17.6790 Z0.2296
G1 X14.0854 Y-17.6764 Z0.2284
G1 X14.0916 Y-17.6729 Z0.2271
G1 X14.0973 Y-17.6686 Z0.2259
G1 X14.1024 Y-17.6636 Z0.2246
G1 X14.1069 Y-17.6581 Z0.2234
G1 X14.1106 Y-17.6520 Z0.2221
G1 X14.1134 Y-17.6455 Z0.2208
G1 X14.1155 Y-17.6386 Z0.2196
G1 X14.1166 Y-17.6316 Z0.2183
G1 X14.1168 Y-17.6245 Z0.2171
G1 X14.1162 Y-17.6174 Z0.2158
G1 X14.1146 Y-17.6104 Z0.2146
G1 X14.1121 Y-17.6037 Z0.2133
G1 X14.1088 Y-17.5974 Z0.2121
G1 X14.1047 Y-17.5916 Z0.2108
G1 X14.0999 Y-17.5863 Z0.2095
G1 X14.0945 Y-17.5817 Z0.2083
G1 X14.0885 Y-17.5778 Z0.2070
G1 X14.0821 Y-17.5747 Z0.2058
G1 X14.0754 Y-17.5725 Z0.2045
G1 X14.0684 Y-17.5711 Z0.2033
G1 X14.0613 Y-17.5706 Z0.2020
G3X14.0613Y-17.6819Z0.2020I0.0000J-0.0557 F60.
G3X14.0613Y-17.5706Z0.2020I0.0000J0.0556
G0 Z0.5020
G0 X14.0613 Y-17.5706 
G0 Z0.5020
G0 X14.0099 Y-16.3551 
G1 X14.0099 Y-16.3551 Z0.2520 F75.
G1 X14.0079 Y-16.3604 Z0.2510 F25.
G1 X14.0064 Y-16.3674 Z0.2497
G1 X14.0057 Y-16.3745 Z0.2485
G1 X14.0059 Y-16.3816 Z0.2472
G1 X14.0070 Y-16.3886 Z0.2460
G1 X14.0091 Y-16.3955 Z0.2447
G1 X14.0120 Y-16.4020 Z0.2435
G1 X14.0157 Y-16.4081 Z0.2422
G1 X14.0201 Y-16.4136 Z0.2410
G1 X14.0252 Y-16.4186 Z0.2397
G1 X14.0309 Y-16.4229 Z0.2384
G1 X14.0371 Y-16.4264 Z0.2372
G1 X14.0437 Y-16.4290 Z0.2359
G1 X14.0506 Y-16.4308 Z0.2347
G1 X14.0577 Y-16.4318 Z0.2334
G1 X14.0648 Y-16.4318 Z0.2322
G1 X14.0719 Y-16.4308 Z0.2309
G1 X14.0788 Y-16.4290 Z0.2296
G1 X14.0854 Y-16.4264 Z0.2284
G1 X14.0916 Y-16.4229 Z0.2271
G1 X14.0973 Y-16.4186 Z0.2259
G1 X14.1024 Y-16.4136 Z0.2246
G1 X14.1069 Y-16.4081 Z0.2234
G1 X14.1106 Y-16.4020 Z0.2221
G1 X14.1134 Y-16.3955 Z0.2208
G1 X14.1155 Y-16.3886 Z0.2196
G1 X14.1166 Y-16.3816 Z0.2183
G1 X14.1168 Y-16.3745 Z0.2171
G1 X14.1162 Y-16.3674 Z0.2158
G1 X14.1146 Y-16.3604 Z0.2146
G1 X14.1121 Y-16.3537 Z0.2133
G1 X14.1088 Y-16.3474 Z0.2121
G1 X14.1047 Y-16.3416 Z0.2108
G1 X14.0999 Y-16.3363 Z0.2095
G1 X14.0945 Y-16.3317 Z0.2083
G1 X14.0885 Y-16.3278 Z0.2070
G1 X14.0821 Y-16.3247 Z0.2058
G1 X14.0754 Y-16.3225 Z0.2045
G1 X14.0684 Y-16.3211 Z0.2033
G1 X14.0613 Y-16.3206 Z0.2020
G3X14.0613Y-16.4319Z0.2020I0.0000J-0.0557 F60.
G3X14.0613Y-16.3206Z0.2020I0.0000J0.0556
G0 Z0.5020
G0 X14.0613 Y-16.3206 
G0 Z0.5020
G0 X17.3221 Y-16.9801 
G1 X17.3221 Y-16.9801 Z0.2520 F75.
G1 X17.3201 Y-16.9854 Z0.2510 F25.
G1 X17.3185 Y-16.9924 Z0.2497
G1 X17.3178 Y-16.9995 Z0.2485
G1 X17.3181 Y-17.0066 Z0.2472
G1 X17.3192 Y-17.0136 Z0.2460
G1 X17.3212 Y-17.0205 Z0.2447
G1 X17.3241 Y-17.0270 Z0.2435
G1 X17.3278 Y-17.0331 Z0.2422
G1 X17.3322 Y-17.0386 Z0.2410
G1 X17.3374 Y-17.0436 Z0.2397
G1 X17.3431 Y-17.0479 Z0.2384
G1 X17.3493 Y-17.0514 Z0.2372
G1 X17.3559 Y-17.0540 Z0.2359
G1 X17.3628 Y-17.0558 Z0.2347
G1 X17.3698 Y-17.0568 Z0.2334
G1 X17.3770 Y-17.0568 Z0.2322
G1 X17.3840 Y-17.0558 Z0.2309
G1 X17.3909 Y-17.0540 Z0.2296
G1 X17.3975 Y-17.0514 Z0.2284
G1 X17.4037 Y-17.0479 Z0.2271
G1 X17.4095 Y-17.0436 Z0.2259
G1 X17.4146 Y-17.0386 Z0.2246
G1 X17.4190 Y-17.0331 Z0.2234
G1 X17.4227 Y-17.0270 Z0.2221
G1 X17.4256 Y-17.0205 Z0.2208
G1 X17.4276 Y-17.0136 Z0.2196
G1 X17.4288 Y-17.0066 Z0.2183
G1 X17.4290 Y-16.9995 Z0.2171
G1 X17.4283 Y-16.9924 Z0.2158
G1 X17.4267 Y-16.9854 Z0.2146
G1 X17.4243 Y-16.9787 Z0.2133
G1 X17.4210 Y-16.9724 Z0.2121
G1 X17.4169 Y-16.9666 Z0.2108
G1 X17.4121 Y-16.9613 Z0.2095
G1 X17.4067 Y-16.9567 Z0.2083
G1 X17.4007 Y-16.9528 Z0.2070
G1 X17.3943 Y-16.9497 Z0.2058
G1 X17.3875 Y-16.9475 Z0.2045
G1 X17.3805 Y-16.9461 Z0.2033
G1 X17.3734 Y-16.9456 Z0.2020
G3X17.3734Y-17.0569Z0.2020I0.0000J-0.0557 F60.
G3X17.3734Y-16.9456Z0.2020I0.0000J0.0556
G0 Z0.5020
G0 X17.3734 Y-16.9456 
G0 Z0.5020
G0 X19.8715 Y-16.9801 
G1 X19.8715 Y-16.9801 Z0.2520 F75.
G1 X19.8695 Y-16.9854 Z0.2510 F25.
G1 X19.8679 Y-16.9924 Z0.2497
G1 X19.8672 Y-16.9995 Z0.2485
G1 X19.8675 Y-17.0066 Z0.2472
G1 X19.8686 Y-17.0136 Z0.2460
G1 X19.8706 Y-17.0205 Z0.2447
G1 X19.8735 Y-17.0270 Z0.2435
G1 X19.8772 Y-17.0331 Z0.2422
G1 X19.8816 Y-17.0386 Z0.2410
G1 X19.8868 Y-17.0436 Z0.2397
G1 X19.8925 Y-17.0479 Z0.2384
G1 X19.8987 Y-17.0514 Z0.2372
G1 X19.9053 Y-17.0540 Z0.2359
G1 X19.9122 Y-17.0558 Z0.2347
G1 X19.9192 Y-17.0568 Z0.2334
G1 X19.9264 Y-17.0568 Z0.2322
G1 X19.9334 Y-17.0558 Z0.2309
G1 X19.9403 Y-17.0540 Z0.2296
G1 X19.9469 Y-17.0514 Z0.2284
G1 X19.9531 Y-17.0479 Z0.2271
G1 X19.9589 Y-17.0436 Z0.2259
G1 X19.9640 Y-17.0386 Z0.2246
G1 X19.9684 Y-17.0331 Z0.2234
G1 X19.9721 Y-17.0270 Z0.2221
G1 X19.9750 Y-17.0205 Z0.2208
G1 X19.9770 Y-17.0136 Z0.2196
G1 X19.9782 Y-17.0066 Z0.2183
G1 X19.9784 Y-16.9995 Z0.2171
G1 X19.9777 Y-16.9924 Z0.2158
G1 X19.9761 Y-16.9854 Z0.2146
G1 X19.9737 Y-16.9787 Z0.2133
G1 X19.9704 Y-16.9724 Z0.2121
G1 X19.9663 Y-16.9666 Z0.2108
G1 X19.9615 Y-16.9613 Z0.2095
G1 X19.9561 Y-16.9567 Z0.2083
G1 X19.9501 Y-16.9528 Z0.2070
G1 X19.9437 Y-16.9497 Z0.2058
G1 X19.9369 Y-16.9475 Z0.2045
G1 X19.9299 Y-16.9461 Z0.2033
G1 X19.9228 Y-16.9456 Z0.2020
G3X19.9228Y-17.0569Z0.2020I0.0000J-0.0557 F60.
G3X19.9228Y-16.9456Z0.2020I0.0000J0.0556
G0 Z0.5020
G0 X19.9228 Y-16.9456 
G0 Z0.5020
G0 X22.7331 Y-16.9801 
G1 X22.7331 Y-16.9801 Z0.2520 F75.
G1 X22.7311 Y-16.9854 Z0.2510 F25.
G1 X22.7295 Y-16.9924 Z0.2497
G1 X22.7288 Y-16.9995 Z0.2485
G1 X22.7291 Y-17.0066 Z0.2472
G1 X22.7302 Y-17.0136 Z0.2460
G1 X22.7322 Y-17.0205 Z0.2447
G1 X22.7351 Y-17.0270 Z0.2435
G1 X22.7388 Y-17.0331 Z0.2422
G1 X22.7432 Y-17.0386 Z0.2410
G1 X22.7484 Y-17.0436 Z0.2397
G1 X22.7541 Y-17.0479 Z0.2384
G1 X22.7603 Y-17.0514 Z0.2372
G1 X22.7669 Y-17.0540 Z0.2359
G1 X22.7738 Y-17.0558 Z0.2347
G1 X22.7808 Y-17.0568 Z0.2334
G1 X22.7880 Y-17.0568 Z0.2322
G1 X22.7950 Y-17.0558 Z0.2309
G1 X22.8019 Y-17.0540 Z0.2296
G1 X22.8085 Y-17.0514 Z0.2284
G1 X22.8147 Y-17.0479 Z0.2271
G1 X22.8205 Y-17.0436 Z0.2259
G1 X22.8256 Y-17.0386 Z0.2246
G1 X22.8300 Y-17.0331 Z0.2234
G1 X22.8337 Y-17.0270 Z0.2221
G1 X22.8366 Y-17.0205 Z0.2208
G1 X22.8386 Y-17.0136 Z0.2196
G1 X22.8398 Y-17.0066 Z0.2183
G1 X22.8400 Y-16.9995 Z0.2171
G1 X22.8393 Y-16.9924 Z0.2158
G1 X22.8377 Y-16.9854 Z0.2146
G1 X22.8353 Y-16.9787 Z0.2133
G1 X22.8320 Y-16.9724 Z0.2121
G1 X22.8279 Y-16.9666 Z0.2108
G1 X22.8231 Y-16.9613 Z0.2095
G1 X22.8177 Y-16.9567 Z0.2083
G1 X22.8117 Y-16.9528 Z0.2070
G1 X22.8053 Y-16.9497 Z0.2058
G1 X22.7985 Y-16.9475 Z0.2045
G1 X22.7915 Y-16.9461 Z0.2033
G1 X22.7844 Y-16.9456 Z0.2020
G3X22.7844Y-17.0569Z0.2020I0.0000J-0.0557 F60.
G3X22.7844Y-16.9456Z0.2020I0.0000J0.0556
G0 Z0.5020
G0 X22.7844 Y-16.9456 
G0 Z0.5020
G0 X25.9450 Y-16.9801 
G1 X25.9450 Y-16.9801 Z0.2520 F75.
G1 X25.9430 Y-16.9854 Z0.2510 F25.
G1 X25.9415 Y-16.9924 Z0.2497
G1 X25.9408 Y-16.9995 Z0.2485
G1 X25.9410 Y-17.0066 Z0.2472
G1 X25.9421 Y-17.0136 Z0.2460
G1 X25.9442 Y-17.0205 Z0.2447
G1 X25.9471 Y-17.0270 Z0.2435
G1 X25.9508 Y-17.0331 Z0.2422
G1 X25.9552 Y-17.0386 Z0.2410
G1 X25.9603 Y-17.0436 Z0.2397
G1 X25.9660 Y-17.0479 Z0.2384
G1 X25.9722 Y-17.0514 Z0.2372
G1 X25.9788 Y-17.0540 Z0.2359
G1 X25.9857 Y-17.0558 Z0.2347
G1 X25.9928 Y-17.0568 Z0.2334
G1 X25.9999 Y-17.0568 Z0.2322
G1 X26.0070 Y-17.0558 Z0.2309
G1 X26.0139 Y-17.0540 Z0.2296
G1 X26.0205 Y-17.0514 Z0.2284
G1 X26.0267 Y-17.0479 Z0.2271
G1 X26.0324 Y-17.0436 Z0.2259
G1 X26.0375 Y-17.0386 Z0.2246
G1 X26.0420 Y-17.0331 Z0.2234
G1 X26.0457 Y-17.0270 Z0.2221
G1 X26.0485 Y-17.0205 Z0.2208
G1 X26.0506 Y-17.0136 Z0.2196
G1 X26.0517 Y-17.0066 Z0.2183
G1 X26.0519 Y-16.9995 Z0.2171
G1 X26.0513 Y-16.9924 Z0.2158
G1 X26.0497 Y-16.9854 Z0.2146
G1 X26.0472 Y-16.9788 Z0.2133
G1 X26.0439 Y-16.9724 Z0.2121
G1 X26.0398 Y-16.9666 Z0.2108
G1 X26.0350 Y-16.9613 Z0.2095
G1 X26.0296 Y-16.9567 Z0.2083
G1 X26.0236 Y-16.9528 Z0.2070
G1 X26.0172 Y-16.9497 Z0.2058
G1 X26.0105 Y-16.9475 Z0.2045
G1 X26.0035 Y-16.9461 Z0.2033
G1 X25.9964 Y-16.9457 Z0.2020
G3X25.9964Y-17.0569Z0.2020I0.0000J-0.0556 F60.
G3X25.9964Y-16.9457Z0.2020I0.0000J0.0556
G0 Z4.0000
G0 X25.9964 Y-16.9457 
M5
G53 Z
X2Y0
