( MOP:  02-inlay-BAFurgeson-idPT06-s24PT625 )
( FILE: G:\Shared drives\AlloyProjectFiles\Customer CAD files\Alloy-Standard-Builds-CAM\Fingerboards-in\02-inlay-BAFurgeson-idPT06-s24PT625.nc)
G90
(  BEGIN TOOL LIST )
(  TOOL 7 - Downcut PT125 - DESC: 0.1250 DIA, 2 FLUTE,  CARBIDE MAT )
(  ENDOF TOOL LIST )
( 02-inlay-BAFurgeson-idPT06-s24PT625)
T07
S12000
M3
G0 Z4.0000
G0 X30.0937 Y-22.7951 
G1 X30.0937 Y-22.7951 Z0.2750 F75.
G1 X30.0947 Y-22.7943 Z0.2748 F25.
G1 X30.0970 Y-22.7938 Z0.2744
G1 X30.0993 Y-22.7943 Z0.2740
G1 X30.1011 Y-22.7957 Z0.2735
G1 X30.1023 Y-22.7977 Z0.2731
G1 X30.1026 Y-22.8000 Z0.2727
G1 X30.1018 Y-22.8022 Z0.2723
G1 X30.1003 Y-22.8040 Z0.2719
G1 X30.0981 Y-22.8049 Z0.2715
G1 X30.0958 Y-22.8049 Z0.2711
G1 X30.0937 Y-22.8040 Z0.2707
G1 X30.0921 Y-22.8022 Z0.2702
G1 X30.0914 Y-22.8000 Z0.2698
G1 X30.0916 Y-22.7977 Z0.2694
G1 X30.0928 Y-22.7957 Z0.2690
G1 X30.0947 Y-22.7943 Z0.2686
G1 X30.0970 Y-22.7938 Z0.2682
G1 X30.0993 Y-22.7943 Z0.2678
G1 X30.1011 Y-22.7957 Z0.2674
G1 X30.1023 Y-22.7977 Z0.2670
G1 X30.1026 Y-22.8000 Z0.2665
G1 X30.1018 Y-22.8022 Z0.2661
G1 X30.1003 Y-22.8040 Z0.2657
G1 X30.0981 Y-22.8049 Z0.2653
G1 X30.0958 Y-22.8049 Z0.2649
G1 X30.0937 Y-22.8040 Z0.2645
G1 X30.0921 Y-22.8022 Z0.2641
G1 X30.0914 Y-22.8000 Z0.2637
G1 X30.0916 Y-22.7977 Z0.2633
G1 X30.0928 Y-22.7957 Z0.2628
G1 X30.0947 Y-22.7943 Z0.2624
G1 X30.0970 Y-22.7938 Z0.2620
G1 X30.0993 Y-22.7943 Z0.2616
G1 X30.1011 Y-22.7957 Z0.2612
G1 X30.1023 Y-22.7977 Z0.2608
G1 X30.1026 Y-22.8000 Z0.2604
G1 X30.1018 Y-22.8022 Z0.2600
G1 X30.1003 Y-22.8040 Z0.2596
G1 X30.0981 Y-22.8049 Z0.2591
G1 X30.0958 Y-22.8049 Z0.2587
G1 X30.0937 Y-22.8040 Z0.2583
G1 X30.0921 Y-22.8022 Z0.2579
G1 X30.0914 Y-22.8000 Z0.2575
G1 X30.0916 Y-22.7977 Z0.2571
G1 X30.0928 Y-22.7957 Z0.2567
G1 X30.0947 Y-22.7943 Z0.2563
G1 X30.0970 Y-22.7938 Z0.2559
G1 X30.0993 Y-22.7943 Z0.2554
G1 X30.1011 Y-22.7957 Z0.2550
G1 X30.1023 Y-22.7977 Z0.2546
G1 X30.1026 Y-22.8000 Z0.2542
G1 X30.1018 Y-22.8022 Z0.2538
G1 X30.1003 Y-22.8040 Z0.2534
G1 X30.0981 Y-22.8049 Z0.2530
G1 X30.0958 Y-22.8049 Z0.2526
G1 X30.0937 Y-22.8040 Z0.2521
G1 X30.0921 Y-22.8022 Z0.2517
G1 X30.0914 Y-22.8000 Z0.2513
G1 X30.0916 Y-22.7977 Z0.2509
G1 X30.0928 Y-22.7957 Z0.2505
G1 X30.0947 Y-22.7943 Z0.2501
G1 X30.0970 Y-22.7938 Z0.2497
G1 X30.0993 Y-22.7943 Z0.2493
G1 X30.1011 Y-22.7957 Z0.2489
G1 X30.1023 Y-22.7977 Z0.2484
G1 X30.1026 Y-22.8000 Z0.2480
G1 X30.1018 Y-22.8022 Z0.2476
G1 X30.1003 Y-22.8040 Z0.2472
G1 X30.0981 Y-22.8049 Z0.2468
G1 X30.0958 Y-22.8049 Z0.2464
G1 X30.0937 Y-22.8040 Z0.2460
G1 X30.0921 Y-22.8022 Z0.2456
G1 X30.0914 Y-22.8000 Z0.2452
G1 X30.0916 Y-22.7977 Z0.2447
G1 X30.0928 Y-22.7957 Z0.2443
G1 X30.0947 Y-22.7943 Z0.2439
G1 X30.0970 Y-22.7938 Z0.2435
G1 X30.0993 Y-22.7943 Z0.2431
G1 X30.1011 Y-22.7957 Z0.2427
G1 X30.1023 Y-22.7977 Z0.2423
G1 X30.1026 Y-22.8000 Z0.2419
G1 X30.1018 Y-22.8022 Z0.2415
G1 X30.1003 Y-22.8040 Z0.2410
G1 X30.0981 Y-22.8049 Z0.2406
G1 X30.0958 Y-22.8049 Z0.2402
G1 X30.0937 Y-22.8040 Z0.2398
G1 X30.0921 Y-22.8022 Z0.2394
G1 X30.0914 Y-22.8000 Z0.2390
G1 X30.0916 Y-22.7977 Z0.2386
G1 X30.0928 Y-22.7957 Z0.2382
G1 X30.0947 Y-22.7943 Z0.2378
G1 X30.0970 Y-22.7938 Z0.2373
G1 X30.0993 Y-22.7943 Z0.2369
G1 X30.1011 Y-22.7957 Z0.2365
G1 X30.1023 Y-22.7977 Z0.2361
G1 X30.1026 Y-22.8000 Z0.2357
G1 X30.1018 Y-22.8022 Z0.2353
G1 X30.1003 Y-22.8040 Z0.2349
G1 X30.0981 Y-22.8049 Z0.2345
G1 X30.0958 Y-22.8049 Z0.2340
G1 X30.0937 Y-22.8040 Z0.2336
G1 X30.0921 Y-22.8022 Z0.2332
G1 X30.0914 Y-22.8000 Z0.2328
G1 X30.0916 Y-22.7977 Z0.2324
G1 X30.0928 Y-22.7957 Z0.2320
G1 X30.0947 Y-22.7943 Z0.2316
G1 X30.0970 Y-22.7938 Z0.2312
G1 X30.0993 Y-22.7943 Z0.2308
G1 X30.1011 Y-22.7957 Z0.2303
G1 X30.1023 Y-22.7977 Z0.2299
G1 X30.1026 Y-22.8000 Z0.2295
G1 X30.1018 Y-22.8022 Z0.2291
G1 X30.1003 Y-22.8040 Z0.2287
G1 X30.0981 Y-22.8049 Z0.2283
G1 X30.0958 Y-22.8049 Z0.2279
G1 X30.0937 Y-22.8040 Z0.2275
G1 X30.0921 Y-22.8022 Z0.2271
G1 X30.0914 Y-22.8000 Z0.2266
G1 X30.0916 Y-22.7977 Z0.2262
G1 X30.0928 Y-22.7957 Z0.2258
G1 X30.0947 Y-22.7943 Z0.2254
G1 X30.0970 Y-22.7938 Z0.2250
G17
G2X30.0970Y-22.8050Z0.2250I0.0000J-0.0056 F50.
G2X30.0970Y-22.7938Z0.2250I0.0000J0.0056
G1 X30.0970 Y-22.7438 Z0.2250
G3X30.0970Y-22.8550Z0.2250I0.0000J-0.0556
G3X30.0970Y-22.7438Z0.2250I0.0000J0.0556
G0 Z0.2500
G0 X30.0970 Y-22.7438 
G0 Z0.2500
G0 X30.1003 Y-22.7951 
G1 X30.0993 Y-22.7943 Z0.2498 F25.
G1 X30.0970 Y-22.7938 Z0.2494
G1 X30.0947 Y-22.7943 Z0.2490
G1 X30.0928 Y-22.7957 Z0.2485
G1 X30.0916 Y-22.7977 Z0.2481
G1 X30.0914 Y-22.8000 Z0.2477
G1 X30.0921 Y-22.8022 Z0.2473
G1 X30.0937 Y-22.8040 Z0.2469
G1 X30.0958 Y-22.8049 Z0.2465
G1 X30.0981 Y-22.8049 Z0.2461
G1 X30.1003 Y-22.8040 Z0.2457
G1 X30.1018 Y-22.8022 Z0.2452
G1 X30.1026 Y-22.8000 Z0.2448
G1 X30.1023 Y-22.7977 Z0.2444
G1 X30.1011 Y-22.7957 Z0.2440
G1 X30.0993 Y-22.7943 Z0.2436
G1 X30.0970 Y-22.7938 Z0.2432
G1 X30.0947 Y-22.7943 Z0.2428
G1 X30.0928 Y-22.7957 Z0.2424
G1 X30.0916 Y-22.7977 Z0.2420
G1 X30.0914 Y-22.8000 Z0.2415
G1 X30.0921 Y-22.8022 Z0.2411
G1 X30.0937 Y-22.8040 Z0.2407
G1 X30.0958 Y-22.8049 Z0.2403
G1 X30.0981 Y-22.8049 Z0.2399
G1 X30.1003 Y-22.8040 Z0.2395
G1 X30.1018 Y-22.8022 Z0.2391
G1 X30.1026 Y-22.8000 Z0.2387
G1 X30.1023 Y-22.7977 Z0.2383
G1 X30.1011 Y-22.7957 Z0.2378
G1 X30.0993 Y-22.7943 Z0.2374
G1 X30.0970 Y-22.7938 Z0.2370
G1 X30.0947 Y-22.7943 Z0.2366
G1 X30.0928 Y-22.7957 Z0.2362
G1 X30.0916 Y-22.7977 Z0.2358
G1 X30.0914 Y-22.8000 Z0.2354
G1 X30.0921 Y-22.8022 Z0.2350
G1 X30.0937 Y-22.8040 Z0.2346
G1 X30.0958 Y-22.8049 Z0.2341
G1 X30.0981 Y-22.8049 Z0.2337
G1 X30.1003 Y-22.8040 Z0.2333
G1 X30.1018 Y-22.8022 Z0.2329
G1 X30.1026 Y-22.8000 Z0.2325
G1 X30.1023 Y-22.7977 Z0.2321
G1 X30.1011 Y-22.7957 Z0.2317
G1 X30.0993 Y-22.7943 Z0.2313
G1 X30.0970 Y-22.7938 Z0.2309
G1 X30.0947 Y-22.7943 Z0.2304
G1 X30.0928 Y-22.7957 Z0.2300
G1 X30.0916 Y-22.7977 Z0.2296
G1 X30.0914 Y-22.8000 Z0.2292
G1 X30.0921 Y-22.8022 Z0.2288
G1 X30.0937 Y-22.8040 Z0.2284
G1 X30.0958 Y-22.8049 Z0.2280
G1 X30.0981 Y-22.8049 Z0.2276
G1 X30.1003 Y-22.8040 Z0.2271
G1 X30.1018 Y-22.8022 Z0.2267
G1 X30.1026 Y-22.8000 Z0.2263
G1 X30.1023 Y-22.7977 Z0.2259
G1 X30.1011 Y-22.7957 Z0.2255
G1 X30.0993 Y-22.7943 Z0.2251
G1 X30.0970 Y-22.7938 Z0.2247
G1 X30.0947 Y-22.7943 Z0.2243
G1 X30.0928 Y-22.7957 Z0.2239
G1 X30.0916 Y-22.7977 Z0.2234
G1 X30.0914 Y-22.8000 Z0.2230
G1 X30.0921 Y-22.8022 Z0.2226
G1 X30.0937 Y-22.8040 Z0.2222
G1 X30.0958 Y-22.8049 Z0.2218
G1 X30.0981 Y-22.8049 Z0.2214
G1 X30.1003 Y-22.8040 Z0.2210
G1 X30.1018 Y-22.8022 Z0.2206
G1 X30.1026 Y-22.8000 Z0.2202
G1 X30.1023 Y-22.7977 Z0.2197
G1 X30.1011 Y-22.7957 Z0.2193
G1 X30.0993 Y-22.7943 Z0.2189
G1 X30.0970 Y-22.7938 Z0.2185
G1 X30.0947 Y-22.7943 Z0.2181
G1 X30.0928 Y-22.7957 Z0.2177
G1 X30.0916 Y-22.7977 Z0.2173
G1 X30.0914 Y-22.8000 Z0.2169
G1 X30.0921 Y-22.8022 Z0.2165
G1 X30.0937 Y-22.8040 Z0.2160
G1 X30.0958 Y-22.8049 Z0.2156
G1 X30.0981 Y-22.8049 Z0.2152
G1 X30.1003 Y-22.8040 Z0.2148
G1 X30.1018 Y-22.8022 Z0.2144
G1 X30.1026 Y-22.8000 Z0.2140
G1 X30.1023 Y-22.7977 Z0.2136
G1 X30.1011 Y-22.7957 Z0.2132
G1 X30.0993 Y-22.7943 Z0.2128
G1 X30.0970 Y-22.7938 Z0.2123
G1 X30.0947 Y-22.7943 Z0.2119
G1 X30.0928 Y-22.7957 Z0.2115
G1 X30.0916 Y-22.7977 Z0.2111
G1 X30.0914 Y-22.8000 Z0.2107
G1 X30.0921 Y-22.8022 Z0.2103
G1 X30.0937 Y-22.8040 Z0.2099
G1 X30.0958 Y-22.8049 Z0.2095
G1 X30.0981 Y-22.8049 Z0.2090
G1 X30.1003 Y-22.8040 Z0.2086
G1 X30.1018 Y-22.8022 Z0.2082
G1 X30.1026 Y-22.8000 Z0.2078
G1 X30.1023 Y-22.7977 Z0.2074
G1 X30.1011 Y-22.7957 Z0.2070
G1 X30.0993 Y-22.7943 Z0.2066
G1 X30.0970 Y-22.7938 Z0.2062
G1 X30.0947 Y-22.7943 Z0.2058
G1 X30.0928 Y-22.7957 Z0.2053
G1 X30.0916 Y-22.7977 Z0.2049
G1 X30.0914 Y-22.8000 Z0.2045
G1 X30.0921 Y-22.8022 Z0.2041
G1 X30.0937 Y-22.8040 Z0.2037
G1 X30.0958 Y-22.8049 Z0.2033
G1 X30.0981 Y-22.8049 Z0.2029
G1 X30.1003 Y-22.8040 Z0.2025
G1 X30.1018 Y-22.8022 Z0.2021
G1 X30.1026 Y-22.8000 Z0.2016
G1 X30.1023 Y-22.7977 Z0.2012
G1 X30.1011 Y-22.7957 Z0.2008
G1 X30.0993 Y-22.7943 Z0.2004
G1 X30.0970 Y-22.7938 Z0.2000
G3X30.0970Y-22.8050Z0.2000I0.0000J-0.0056 F50.
G3X30.0970Y-22.7938Z0.2000I0.0000J0.0056
G1 X30.0970 Y-22.7438 Z0.2000
G2X30.0970Y-22.8550Z0.2000I0.0000J-0.0556
G2X30.0970Y-22.7438Z0.2000I0.0000J0.0556
G0 Z0.5250
G0 X30.0970 Y-22.7438 
G0 Z0.5250
G0 X31.1300 Y-22.7951 
G1 X31.1300 Y-22.7951 Z0.2750 F75.
G1 X31.1310 Y-22.7943 Z0.2748 F25.
G1 X31.1333 Y-22.7938 Z0.2744
G1 X31.1356 Y-22.7943 Z0.2740
G1 X31.1374 Y-22.7957 Z0.2735
G1 X31.1386 Y-22.7977 Z0.2731
G1 X31.1389 Y-22.8000 Z0.2727
G1 X31.1381 Y-22.8022 Z0.2723
G1 X31.1366 Y-22.8040 Z0.2719
G1 X31.1344 Y-22.8049 Z0.2715
G1 X31.1321 Y-22.8049 Z0.2711
G1 X31.1300 Y-22.8040 Z0.2707
G1 X31.1284 Y-22.8022 Z0.2702
G1 X31.1277 Y-22.8000 Z0.2698
G1 X31.1279 Y-22.7977 Z0.2694
G1 X31.1291 Y-22.7957 Z0.2690
G1 X31.1310 Y-22.7943 Z0.2686
G1 X31.1333 Y-22.7938 Z0.2682
G1 X31.1356 Y-22.7943 Z0.2678
G1 X31.1374 Y-22.7957 Z0.2674
G1 X31.1386 Y-22.7977 Z0.2670
G1 X31.1389 Y-22.8000 Z0.2665
G1 X31.1381 Y-22.8022 Z0.2661
G1 X31.1366 Y-22.8040 Z0.2657
G1 X31.1344 Y-22.8049 Z0.2653
G1 X31.1321 Y-22.8049 Z0.2649
G1 X31.1300 Y-22.8040 Z0.2645
G1 X31.1284 Y-22.8022 Z0.2641
G1 X31.1277 Y-22.8000 Z0.2637
G1 X31.1279 Y-22.7977 Z0.2633
G1 X31.1291 Y-22.7957 Z0.2628
G1 X31.1310 Y-22.7943 Z0.2624
G1 X31.1333 Y-22.7938 Z0.2620
G1 X31.1356 Y-22.7943 Z0.2616
G1 X31.1374 Y-22.7957 Z0.2612
G1 X31.1386 Y-22.7977 Z0.2608
G1 X31.1389 Y-22.8000 Z0.2604
G1 X31.1381 Y-22.8022 Z0.2600
G1 X31.1366 Y-22.8040 Z0.2596
G1 X31.1344 Y-22.8049 Z0.2591
G1 X31.1321 Y-22.8049 Z0.2587
G1 X31.1300 Y-22.8040 Z0.2583
G1 X31.1284 Y-22.8022 Z0.2579
G1 X31.1277 Y-22.8000 Z0.2575
G1 X31.1279 Y-22.7977 Z0.2571
G1 X31.1291 Y-22.7957 Z0.2567
G1 X31.1310 Y-22.7943 Z0.2563
G1 X31.1333 Y-22.7938 Z0.2559
G1 X31.1356 Y-22.7943 Z0.2554
G1 X31.1374 Y-22.7957 Z0.2550
G1 X31.1386 Y-22.7977 Z0.2546
G1 X31.1389 Y-22.8000 Z0.2542
G1 X31.1381 Y-22.8022 Z0.2538
G1 X31.1366 Y-22.8040 Z0.2534
G1 X31.1344 Y-22.8049 Z0.2530
G1 X31.1321 Y-22.8049 Z0.2526
G1 X31.1300 Y-22.8040 Z0.2521
G1 X31.1284 Y-22.8022 Z0.2517
G1 X31.1277 Y-22.8000 Z0.2513
G1 X31.1279 Y-22.7977 Z0.2509
G1 X31.1291 Y-22.7957 Z0.2505
G1 X31.1310 Y-22.7943 Z0.2501
G1 X31.1333 Y-22.7938 Z0.2497
G1 X31.1356 Y-22.7943 Z0.2493
G1 X31.1374 Y-22.7957 Z0.2489
G1 X31.1386 Y-22.7977 Z0.2484
G1 X31.1389 Y-22.8000 Z0.2480
G1 X31.1381 Y-22.8022 Z0.2476
G1 X31.1366 Y-22.8040 Z0.2472
G1 X31.1344 Y-22.8049 Z0.2468
G1 X31.1321 Y-22.8049 Z0.2464
G1 X31.1300 Y-22.8040 Z0.2460
G1 X31.1284 Y-22.8022 Z0.2456
G1 X31.1277 Y-22.8000 Z0.2452
G1 X31.1279 Y-22.7977 Z0.2447
G1 X31.1291 Y-22.7957 Z0.2443
G1 X31.1310 Y-22.7943 Z0.2439
G1 X31.1333 Y-22.7938 Z0.2435
G1 X31.1356 Y-22.7943 Z0.2431
G1 X31.1374 Y-22.7957 Z0.2427
G1 X31.1386 Y-22.7977 Z0.2423
G1 X31.1389 Y-22.8000 Z0.2419
G1 X31.1381 Y-22.8022 Z0.2415
G1 X31.1366 Y-22.8040 Z0.2410
G1 X31.1344 Y-22.8049 Z0.2406
G1 X31.1321 Y-22.8049 Z0.2402
G1 X31.1300 Y-22.8040 Z0.2398
G1 X31.1284 Y-22.8022 Z0.2394
G1 X31.1277 Y-22.8000 Z0.2390
G1 X31.1279 Y-22.7977 Z0.2386
G1 X31.1291 Y-22.7957 Z0.2382
G1 X31.1310 Y-22.7943 Z0.2378
G1 X31.1333 Y-22.7938 Z0.2373
G1 X31.1356 Y-22.7943 Z0.2369
G1 X31.1374 Y-22.7957 Z0.2365
G1 X31.1386 Y-22.7977 Z0.2361
G1 X31.1389 Y-22.8000 Z0.2357
G1 X31.1381 Y-22.8022 Z0.2353
G1 X31.1366 Y-22.8040 Z0.2349
G1 X31.1344 Y-22.8049 Z0.2345
G1 X31.1321 Y-22.8049 Z0.2340
G1 X31.1300 Y-22.8040 Z0.2336
G1 X31.1284 Y-22.8022 Z0.2332
G1 X31.1277 Y-22.8000 Z0.2328
G1 X31.1279 Y-22.7977 Z0.2324
G1 X31.1291 Y-22.7957 Z0.2320
G1 X31.1310 Y-22.7943 Z0.2316
G1 X31.1333 Y-22.7938 Z0.2312
G1 X31.1356 Y-22.7943 Z0.2308
G1 X31.1374 Y-22.7957 Z0.2303
G1 X31.1386 Y-22.7977 Z0.2299
G1 X31.1389 Y-22.8000 Z0.2295
G1 X31.1381 Y-22.8022 Z0.2291
G1 X31.1366 Y-22.8040 Z0.2287
G1 X31.1344 Y-22.8049 Z0.2283
G1 X31.1321 Y-22.8049 Z0.2279
G1 X31.1300 Y-22.8040 Z0.2275
G1 X31.1284 Y-22.8022 Z0.2271
G1 X31.1277 Y-22.8000 Z0.2266
G1 X31.1279 Y-22.7977 Z0.2262
G1 X31.1291 Y-22.7957 Z0.2258
G1 X31.1310 Y-22.7943 Z0.2254
G1 X31.1333 Y-22.7938 Z0.2250
G2X31.1333Y-22.8050Z0.2250I0.0000J-0.0056 F50.
G2X31.1333Y-22.7938Z0.2250I0.0000J0.0056
G1 X31.1333 Y-22.7438 Z0.2250
G3X31.1333Y-22.8550Z0.2250I0.0000J-0.0556
G3X31.1333Y-22.7438Z0.2250I0.0000J0.0556
G0 Z0.2500
G0 X31.1333 Y-22.7438 
G0 Z0.2500
G0 X31.1366 Y-22.7951 
G1 X31.1356 Y-22.7943 Z0.2498 F25.
G1 X31.1333 Y-22.7938 Z0.2494
G1 X31.1310 Y-22.7943 Z0.2490
G1 X31.1291 Y-22.7957 Z0.2485
G1 X31.1279 Y-22.7977 Z0.2481
G1 X31.1277 Y-22.8000 Z0.2477
G1 X31.1284 Y-22.8022 Z0.2473
G1 X31.1300 Y-22.8040 Z0.2469
G1 X31.1321 Y-22.8049 Z0.2465
G1 X31.1344 Y-22.8049 Z0.2461
G1 X31.1366 Y-22.8040 Z0.2457
G1 X31.1381 Y-22.8022 Z0.2452
G1 X31.1389 Y-22.8000 Z0.2448
G1 X31.1386 Y-22.7977 Z0.2444
G1 X31.1374 Y-22.7957 Z0.2440
G1 X31.1356 Y-22.7943 Z0.2436
G1 X31.1333 Y-22.7938 Z0.2432
G1 X31.1310 Y-22.7943 Z0.2428
G1 X31.1291 Y-22.7957 Z0.2424
G1 X31.1279 Y-22.7977 Z0.2420
G1 X31.1277 Y-22.8000 Z0.2415
G1 X31.1284 Y-22.8022 Z0.2411
G1 X31.1300 Y-22.8040 Z0.2407
G1 X31.1321 Y-22.8049 Z0.2403
G1 X31.1344 Y-22.8049 Z0.2399
G1 X31.1366 Y-22.8040 Z0.2395
G1 X31.1381 Y-22.8022 Z0.2391
G1 X31.1389 Y-22.8000 Z0.2387
G1 X31.1386 Y-22.7977 Z0.2383
G1 X31.1374 Y-22.7957 Z0.2378
G1 X31.1356 Y-22.7943 Z0.2374
G1 X31.1333 Y-22.7938 Z0.2370
G1 X31.1310 Y-22.7943 Z0.2366
G1 X31.1291 Y-22.7957 Z0.2362
G1 X31.1279 Y-22.7977 Z0.2358
G1 X31.1277 Y-22.8000 Z0.2354
G1 X31.1284 Y-22.8022 Z0.2350
G1 X31.1300 Y-22.8040 Z0.2346
G1 X31.1321 Y-22.8049 Z0.2341
G1 X31.1344 Y-22.8049 Z0.2337
G1 X31.1366 Y-22.8040 Z0.2333
G1 X31.1381 Y-22.8022 Z0.2329
G1 X31.1389 Y-22.8000 Z0.2325
G1 X31.1386 Y-22.7977 Z0.2321
G1 X31.1374 Y-22.7957 Z0.2317
G1 X31.1356 Y-22.7943 Z0.2313
G1 X31.1333 Y-22.7938 Z0.2309
G1 X31.1310 Y-22.7943 Z0.2304
G1 X31.1291 Y-22.7957 Z0.2300
G1 X31.1279 Y-22.7977 Z0.2296
G1 X31.1277 Y-22.8000 Z0.2292
G1 X31.1284 Y-22.8022 Z0.2288
G1 X31.1300 Y-22.8040 Z0.2284
G1 X31.1321 Y-22.8049 Z0.2280
G1 X31.1344 Y-22.8049 Z0.2276
G1 X31.1366 Y-22.8040 Z0.2271
G1 X31.1381 Y-22.8022 Z0.2267
G1 X31.1389 Y-22.8000 Z0.2263
G1 X31.1386 Y-22.7977 Z0.2259
G1 X31.1374 Y-22.7957 Z0.2255
G1 X31.1356 Y-22.7943 Z0.2251
G1 X31.1333 Y-22.7938 Z0.2247
G1 X31.1310 Y-22.7943 Z0.2243
G1 X31.1291 Y-22.7957 Z0.2239
G1 X31.1279 Y-22.7977 Z0.2234
G1 X31.1277 Y-22.8000 Z0.2230
G1 X31.1284 Y-22.8022 Z0.2226
G1 X31.1300 Y-22.8040 Z0.2222
G1 X31.1321 Y-22.8049 Z0.2218
G1 X31.1344 Y-22.8049 Z0.2214
G1 X31.1366 Y-22.8040 Z0.2210
G1 X31.1381 Y-22.8022 Z0.2206
G1 X31.1389 Y-22.8000 Z0.2202
G1 X31.1386 Y-22.7977 Z0.2197
G1 X31.1374 Y-22.7957 Z0.2193
G1 X31.1356 Y-22.7943 Z0.2189
G1 X31.1333 Y-22.7938 Z0.2185
G1 X31.1310 Y-22.7943 Z0.2181
G1 X31.1291 Y-22.7957 Z0.2177
G1 X31.1279 Y-22.7977 Z0.2173
G1 X31.1277 Y-22.8000 Z0.2169
G1 X31.1284 Y-22.8022 Z0.2165
G1 X31.1300 Y-22.8040 Z0.2160
G1 X31.1321 Y-22.8049 Z0.2156
G1 X31.1344 Y-22.8049 Z0.2152
G1 X31.1366 Y-22.8040 Z0.2148
G1 X31.1381 Y-22.8022 Z0.2144
G1 X31.1389 Y-22.8000 Z0.2140
G1 X31.1386 Y-22.7977 Z0.2136
G1 X31.1374 Y-22.7957 Z0.2132
G1 X31.1356 Y-22.7943 Z0.2128
G1 X31.1333 Y-22.7938 Z0.2123
G1 X31.1310 Y-22.7943 Z0.2119
G1 X31.1291 Y-22.7957 Z0.2115
G1 X31.1279 Y-22.7977 Z0.2111
G1 X31.1277 Y-22.8000 Z0.2107
G1 X31.1284 Y-22.8022 Z0.2103
G1 X31.1300 Y-22.8040 Z0.2099
G1 X31.1321 Y-22.8049 Z0.2095
G1 X31.1344 Y-22.8049 Z0.2090
G1 X31.1366 Y-22.8040 Z0.2086
G1 X31.1381 Y-22.8022 Z0.2082
G1 X31.1389 Y-22.8000 Z0.2078
G1 X31.1386 Y-22.7977 Z0.2074
G1 X31.1374 Y-22.7957 Z0.2070
G1 X31.1356 Y-22.7943 Z0.2066
G1 X31.1333 Y-22.7938 Z0.2062
G1 X31.1310 Y-22.7943 Z0.2058
G1 X31.1291 Y-22.7957 Z0.2053
G1 X31.1279 Y-22.7977 Z0.2049
G1 X31.1277 Y-22.8000 Z0.2045
G1 X31.1284 Y-22.8022 Z0.2041
G1 X31.1300 Y-22.8040 Z0.2037
G1 X31.1321 Y-22.8049 Z0.2033
G1 X31.1344 Y-22.8049 Z0.2029
G1 X31.1366 Y-22.8040 Z0.2025
G1 X31.1381 Y-22.8022 Z0.2021
G1 X31.1389 Y-22.8000 Z0.2016
G1 X31.1386 Y-22.7977 Z0.2012
G1 X31.1374 Y-22.7957 Z0.2008
G1 X31.1356 Y-22.7943 Z0.2004
G1 X31.1333 Y-22.7938 Z0.2000
G3X31.1333Y-22.8050Z0.2000I0.0000J-0.0056 F50.
G3X31.1333Y-22.7938Z0.2000I0.0000J0.0056
G1 X31.1333 Y-22.7438 Z0.2000
G2X31.1333Y-22.8550Z0.2000I0.0000J-0.0556
G2X31.1333Y-22.7438Z0.2000I0.0000J0.0556
G0 Z0.5250
G0 X31.1333 Y-22.7438 
G0 Z0.5250
G0 X32.2931 Y-22.7947 
G1 X32.2931 Y-22.7947 Z0.2750 F75.
G1 X32.2941 Y-22.7939 Z0.2748 F25.
G1 X32.2964 Y-22.7934 Z0.2744
G1 X32.2987 Y-22.7939 Z0.2740
G1 X32.3006 Y-22.7953 Z0.2735
G1 X32.3018 Y-22.7973 Z0.2731
G1 X32.3020 Y-22.7996 Z0.2727
G1 X32.3013 Y-22.8019 Z0.2723
G1 X32.2997 Y-22.8036 Z0.2719
G1 X32.2976 Y-22.8045 Z0.2715
G1 X32.2953 Y-22.8045 Z0.2711
G1 X32.2931 Y-22.8036 Z0.2707
G1 X32.2916 Y-22.8019 Z0.2702
G1 X32.2908 Y-22.7996 Z0.2698
G1 X32.2911 Y-22.7973 Z0.2694
G1 X32.2923 Y-22.7953 Z0.2690
G1 X32.2941 Y-22.7939 Z0.2686
G1 X32.2964 Y-22.7934 Z0.2682
G1 X32.2987 Y-22.7939 Z0.2678
G1 X32.3006 Y-22.7953 Z0.2674
G1 X32.3018 Y-22.7973 Z0.2670
G1 X32.3020 Y-22.7996 Z0.2665
G1 X32.3013 Y-22.8019 Z0.2661
G1 X32.2997 Y-22.8036 Z0.2657
G1 X32.2976 Y-22.8045 Z0.2653
G1 X32.2953 Y-22.8045 Z0.2649
G1 X32.2931 Y-22.8036 Z0.2645
G1 X32.2916 Y-22.8019 Z0.2641
G1 X32.2908 Y-22.7996 Z0.2637
G1 X32.2911 Y-22.7973 Z0.2633
G1 X32.2923 Y-22.7953 Z0.2628
G1 X32.2941 Y-22.7939 Z0.2624
G1 X32.2964 Y-22.7934 Z0.2620
G1 X32.2987 Y-22.7939 Z0.2616
G1 X32.3006 Y-22.7953 Z0.2612
G1 X32.3018 Y-22.7973 Z0.2608
G1 X32.3020 Y-22.7996 Z0.2604
G1 X32.3013 Y-22.8019 Z0.2600
G1 X32.2997 Y-22.8036 Z0.2596
G1 X32.2976 Y-22.8045 Z0.2591
G1 X32.2953 Y-22.8045 Z0.2587
G1 X32.2931 Y-22.8036 Z0.2583
G1 X32.2916 Y-22.8019 Z0.2579
G1 X32.2908 Y-22.7996 Z0.2575
G1 X32.2911 Y-22.7973 Z0.2571
G1 X32.2923 Y-22.7953 Z0.2567
G1 X32.2941 Y-22.7939 Z0.2563
G1 X32.2964 Y-22.7934 Z0.2559
G1 X32.2987 Y-22.7939 Z0.2554
G1 X32.3006 Y-22.7953 Z0.2550
G1 X32.3018 Y-22.7973 Z0.2546
G1 X32.3020 Y-22.7996 Z0.2542
G1 X32.3013 Y-22.8019 Z0.2538
G1 X32.2997 Y-22.8036 Z0.2534
G1 X32.2976 Y-22.8045 Z0.2530
G1 X32.2953 Y-22.8045 Z0.2526
G1 X32.2931 Y-22.8036 Z0.2521
G1 X32.2916 Y-22.8019 Z0.2517
G1 X32.2908 Y-22.7996 Z0.2513
G1 X32.2911 Y-22.7973 Z0.2509
G1 X32.2923 Y-22.7953 Z0.2505
G1 X32.2941 Y-22.7939 Z0.2501
G1 X32.2964 Y-22.7934 Z0.2497
G1 X32.2987 Y-22.7939 Z0.2493
G1 X32.3006 Y-22.7953 Z0.2489
G1 X32.3018 Y-22.7973 Z0.2484
G1 X32.3020 Y-22.7996 Z0.2480
G1 X32.3013 Y-22.8019 Z0.2476
G1 X32.2997 Y-22.8036 Z0.2472
G1 X32.2976 Y-22.8045 Z0.2468
G1 X32.2953 Y-22.8045 Z0.2464
G1 X32.2931 Y-22.8036 Z0.2460
G1 X32.2916 Y-22.8019 Z0.2456
G1 X32.2908 Y-22.7996 Z0.2452
G1 X32.2911 Y-22.7973 Z0.2447
G1 X32.2923 Y-22.7953 Z0.2443
G1 X32.2941 Y-22.7939 Z0.2439
G1 X32.2964 Y-22.7934 Z0.2435
G1 X32.2987 Y-22.7939 Z0.2431
G1 X32.3006 Y-22.7953 Z0.2427
G1 X32.3018 Y-22.7973 Z0.2423
G1 X32.3020 Y-22.7996 Z0.2419
G1 X32.3013 Y-22.8019 Z0.2415
G1 X32.2997 Y-22.8036 Z0.2410
G1 X32.2976 Y-22.8045 Z0.2406
G1 X32.2953 Y-22.8045 Z0.2402
G1 X32.2931 Y-22.8036 Z0.2398
G1 X32.2916 Y-22.8019 Z0.2394
G1 X32.2908 Y-22.7996 Z0.2390
G1 X32.2911 Y-22.7973 Z0.2386
G1 X32.2923 Y-22.7953 Z0.2382
G1 X32.2941 Y-22.7939 Z0.2378
G1 X32.2964 Y-22.7934 Z0.2373
G1 X32.2987 Y-22.7939 Z0.2369
G1 X32.3006 Y-22.7953 Z0.2365
G1 X32.3018 Y-22.7973 Z0.2361
G1 X32.3020 Y-22.7996 Z0.2357
G1 X32.3013 Y-22.8019 Z0.2353
G1 X32.2997 Y-22.8036 Z0.2349
G1 X32.2976 Y-22.8045 Z0.2345
G1 X32.2953 Y-22.8045 Z0.2340
G1 X32.2931 Y-22.8036 Z0.2336
G1 X32.2916 Y-22.8019 Z0.2332
G1 X32.2908 Y-22.7996 Z0.2328
G1 X32.2911 Y-22.7973 Z0.2324
G1 X32.2923 Y-22.7953 Z0.2320
G1 X32.2941 Y-22.7939 Z0.2316
G1 X32.2964 Y-22.7934 Z0.2312
G1 X32.2987 Y-22.7939 Z0.2308
G1 X32.3006 Y-22.7953 Z0.2303
G1 X32.3018 Y-22.7973 Z0.2299
G1 X32.3020 Y-22.7996 Z0.2295
G1 X32.3013 Y-22.8019 Z0.2291
G1 X32.2997 Y-22.8036 Z0.2287
G1 X32.2976 Y-22.8045 Z0.2283
G1 X32.2953 Y-22.8045 Z0.2279
G1 X32.2931 Y-22.8036 Z0.2275
G1 X32.2916 Y-22.8019 Z0.2271
G1 X32.2908 Y-22.7996 Z0.2266
G1 X32.2911 Y-22.7973 Z0.2262
G1 X32.2923 Y-22.7953 Z0.2258
G1 X32.2941 Y-22.7939 Z0.2254
G1 X32.2964 Y-22.7934 Z0.2250
G2X32.2964Y-22.8047Z0.2250I0.0000J-0.0056 F50.
G2X32.2964Y-22.7934Z0.2250I0.0000J0.0057
G1 X32.2964 Y-22.7434 Z0.2250
G3X32.2964Y-22.8547Z0.2250I0.0000J-0.0556
G3X32.2964Y-22.7434Z0.2250I0.0000J0.0557
G0 Z0.2500
G0 X32.2964 Y-22.7434 
G0 Z0.2500
G0 X32.2997 Y-22.7947 
G1 X32.2987 Y-22.7939 Z0.2498 F25.
G1 X32.2964 Y-22.7934 Z0.2494
G1 X32.2941 Y-22.7939 Z0.2490
G1 X32.2923 Y-22.7953 Z0.2485
G1 X32.2911 Y-22.7973 Z0.2481
G1 X32.2908 Y-22.7996 Z0.2477
G1 X32.2916 Y-22.8019 Z0.2473
G1 X32.2931 Y-22.8036 Z0.2469
G1 X32.2953 Y-22.8045 Z0.2465
G1 X32.2976 Y-22.8045 Z0.2461
G1 X32.2997 Y-22.8036 Z0.2457
G1 X32.3013 Y-22.8019 Z0.2452
G1 X32.3020 Y-22.7996 Z0.2448
G1 X32.3018 Y-22.7973 Z0.2444
G1 X32.3006 Y-22.7953 Z0.2440
G1 X32.2987 Y-22.7939 Z0.2436
G1 X32.2964 Y-22.7934 Z0.2432
G1 X32.2941 Y-22.7939 Z0.2428
G1 X32.2923 Y-22.7953 Z0.2424
G1 X32.2911 Y-22.7973 Z0.2420
G1 X32.2908 Y-22.7996 Z0.2415
G1 X32.2916 Y-22.8019 Z0.2411
G1 X32.2931 Y-22.8036 Z0.2407
G1 X32.2953 Y-22.8045 Z0.2403
G1 X32.2976 Y-22.8045 Z0.2399
G1 X32.2997 Y-22.8036 Z0.2395
G1 X32.3013 Y-22.8019 Z0.2391
G1 X32.3020 Y-22.7996 Z0.2387
G1 X32.3018 Y-22.7973 Z0.2383
G1 X32.3006 Y-22.7953 Z0.2378
G1 X32.2987 Y-22.7939 Z0.2374
G1 X32.2964 Y-22.7934 Z0.2370
G1 X32.2941 Y-22.7939 Z0.2366
G1 X32.2923 Y-22.7953 Z0.2362
G1 X32.2911 Y-22.7973 Z0.2358
G1 X32.2908 Y-22.7996 Z0.2354
G1 X32.2916 Y-22.8019 Z0.2350
G1 X32.2931 Y-22.8036 Z0.2346
G1 X32.2953 Y-22.8045 Z0.2341
G1 X32.2976 Y-22.8045 Z0.2337
G1 X32.2997 Y-22.8036 Z0.2333
G1 X32.3013 Y-22.8019 Z0.2329
G1 X32.3020 Y-22.7996 Z0.2325
G1 X32.3018 Y-22.7973 Z0.2321
G1 X32.3006 Y-22.7953 Z0.2317
G1 X32.2987 Y-22.7939 Z0.2313
G1 X32.2964 Y-22.7934 Z0.2309
G1 X32.2941 Y-22.7939 Z0.2304
G1 X32.2923 Y-22.7953 Z0.2300
G1 X32.2911 Y-22.7973 Z0.2296
G1 X32.2908 Y-22.7996 Z0.2292
G1 X32.2916 Y-22.8019 Z0.2288
G1 X32.2931 Y-22.8036 Z0.2284
G1 X32.2953 Y-22.8045 Z0.2280
G1 X32.2976 Y-22.8045 Z0.2276
G1 X32.2997 Y-22.8036 Z0.2271
G1 X32.3013 Y-22.8019 Z0.2267
G1 X32.3020 Y-22.7996 Z0.2263
G1 X32.3018 Y-22.7973 Z0.2259
G1 X32.3006 Y-22.7953 Z0.2255
G1 X32.2987 Y-22.7939 Z0.2251
G1 X32.2964 Y-22.7934 Z0.2247
G1 X32.2941 Y-22.7939 Z0.2243
G1 X32.2923 Y-22.7953 Z0.2239
G1 X32.2911 Y-22.7973 Z0.2234
G1 X32.2908 Y-22.7996 Z0.2230
G1 X32.2916 Y-22.8019 Z0.2226
G1 X32.2931 Y-22.8036 Z0.2222
G1 X32.2953 Y-22.8045 Z0.2218
G1 X32.2976 Y-22.8045 Z0.2214
G1 X32.2997 Y-22.8036 Z0.2210
G1 X32.3013 Y-22.8019 Z0.2206
G1 X32.3020 Y-22.7996 Z0.2202
G1 X32.3018 Y-22.7973 Z0.2197
G1 X32.3006 Y-22.7953 Z0.2193
G1 X32.2987 Y-22.7939 Z0.2189
G1 X32.2964 Y-22.7934 Z0.2185
G1 X32.2941 Y-22.7939 Z0.2181
G1 X32.2923 Y-22.7953 Z0.2177
G1 X32.2911 Y-22.7973 Z0.2173
G1 X32.2908 Y-22.7996 Z0.2169
G1 X32.2916 Y-22.8019 Z0.2165
G1 X32.2931 Y-22.8036 Z0.2160
G1 X32.2953 Y-22.8045 Z0.2156
G1 X32.2976 Y-22.8045 Z0.2152
G1 X32.2997 Y-22.8036 Z0.2148
G1 X32.3013 Y-22.8019 Z0.2144
G1 X32.3020 Y-22.7996 Z0.2140
G1 X32.3018 Y-22.7973 Z0.2136
G1 X32.3006 Y-22.7953 Z0.2132
G1 X32.2987 Y-22.7939 Z0.2128
G1 X32.2964 Y-22.7934 Z0.2123
G1 X32.2941 Y-22.7939 Z0.2119
G1 X32.2923 Y-22.7953 Z0.2115
G1 X32.2911 Y-22.7973 Z0.2111
G1 X32.2908 Y-22.7996 Z0.2107
G1 X32.2916 Y-22.8019 Z0.2103
G1 X32.2931 Y-22.8036 Z0.2099
G1 X32.2953 Y-22.8045 Z0.2095
G1 X32.2976 Y-22.8045 Z0.2090
G1 X32.2997 Y-22.8036 Z0.2086
G1 X32.3013 Y-22.8019 Z0.2082
G1 X32.3020 Y-22.7996 Z0.2078
G1 X32.3018 Y-22.7973 Z0.2074
G1 X32.3006 Y-22.7953 Z0.2070
G1 X32.2987 Y-22.7939 Z0.2066
G1 X32.2964 Y-22.7934 Z0.2062
G1 X32.2941 Y-22.7939 Z0.2058
G1 X32.2923 Y-22.7953 Z0.2053
G1 X32.2911 Y-22.7973 Z0.2049
G1 X32.2908 Y-22.7996 Z0.2045
G1 X32.2916 Y-22.8019 Z0.2041
G1 X32.2931 Y-22.8036 Z0.2037
G1 X32.2953 Y-22.8045 Z0.2033
G1 X32.2976 Y-22.8045 Z0.2029
G1 X32.2997 Y-22.8036 Z0.2025
G1 X32.3013 Y-22.8019 Z0.2021
G1 X32.3020 Y-22.7996 Z0.2016
G1 X32.3018 Y-22.7973 Z0.2012
G1 X32.3006 Y-22.7953 Z0.2008
G1 X32.2987 Y-22.7939 Z0.2004
G1 X32.2964 Y-22.7934 Z0.2000
G3X32.2964Y-22.8047Z0.2000I0.0000J-0.0056 F50.
G3X32.2964Y-22.7934Z0.2000I0.0000J0.0057
G1 X32.2964 Y-22.7434 Z0.2000
G2X32.2964Y-22.8547Z0.2000I0.0000J-0.0556
G2X32.2964Y-22.7434Z0.2000I0.0000J0.0557
G0 Z0.5250
G0 X32.2964 Y-22.7434 
G0 Z0.5250
G0 X34.3750 Y-23.3753 
G1 X34.3750 Y-23.3753 Z0.2750 F75.
G1 X34.3749 Y-23.3754 Z0.2750 F25.
G1 X34.3721 Y-23.3825 Z0.2736
G1 X34.3684 Y-23.3892 Z0.2723
G1 X34.3639 Y-23.3954 Z0.2709
G1 X34.3587 Y-23.4011 Z0.2696
G1 X34.3529 Y-23.4061 Z0.2682
G1 X34.3466 Y-23.4103 Z0.2669
G1 X34.3397 Y-23.4138 Z0.2655
G1 X34.3326 Y-23.4165 Z0.2642
G1 X34.3251 Y-23.4183 Z0.2628
G1 X34.3175 Y-23.4192 Z0.2615
G1 X34.3098 Y-23.4192 Z0.2601
G1 X34.3022 Y-23.4183 Z0.2588
G1 X34.2948 Y-23.4165 Z0.2574
G1 X34.2876 Y-23.4138 Z0.2561
G1 X34.2808 Y-23.4103 Z0.2547
G1 X34.2744 Y-23.4061 Z0.2534
G1 X34.2686 Y-23.4011 Z0.2520
G1 X34.2635 Y-23.3954 Z0.2507
G1 X34.2590 Y-23.3892 Z0.2493
G1 X34.2553 Y-23.3825 Z0.2480
G1 X34.2524 Y-23.3754 Z0.2466
G1 X34.2504 Y-23.3680 Z0.2453
G1 X34.2493 Y-23.3604 Z0.2439
G1 X34.2490 Y-23.3527 Z0.2426
G1 X34.2497 Y-23.3451 Z0.2412
G1 X34.2513 Y-23.3376 Z0.2399
G1 X34.2538 Y-23.3304 Z0.2385
G1 X34.2570 Y-23.3234 Z0.2372
G1 X34.2611 Y-23.3170 Z0.2358
G1 X34.2660 Y-23.3110 Z0.2345
G1 X34.2715 Y-23.3057 Z0.2331
G1 X34.2776 Y-23.3010 Z0.2318
G1 X34.2841 Y-23.2971 Z0.2304
G1 X34.2912 Y-23.2940 Z0.2291
G1 X34.2985 Y-23.2918 Z0.2277
G1 X34.3060 Y-23.2904 Z0.2264
G1 X34.3137 Y-23.2900 Z0.2250
G2X34.3137Y-23.4193Z0.2250I0.0000J-0.0647 F50.
G2X34.3137Y-23.2900Z0.2250I0.0000J0.0646
G1 X34.3137 Y-23.2400 Z0.2250
G3X34.3137Y-23.4693Z0.2250I0.0000J-0.1147
G3X34.3137Y-23.2400Z0.2250I0.0000J0.1146
G0 Z0.5000
G0 X34.3137 Y-23.2400 
G0 Z0.5000
G0 X34.2524 Y-23.3753 
G1 X34.2524 Y-23.3753 Z0.2500 F75.
G1 X34.2524 Y-23.3754 Z0.2500 F25.
G1 X34.2553 Y-23.3825 Z0.2486
G1 X34.2590 Y-23.3892 Z0.2473
G1 X34.2635 Y-23.3954 Z0.2459
G1 X34.2686 Y-23.4011 Z0.2446
G1 X34.2744 Y-23.4061 Z0.2432
G1 X34.2808 Y-23.4103 Z0.2419
G1 X34.2876 Y-23.4138 Z0.2405
G1 X34.2948 Y-23.4165 Z0.2392
G1 X34.3022 Y-23.4183 Z0.2378
G1 X34.3098 Y-23.4192 Z0.2365
G1 X34.3175 Y-23.4192 Z0.2351
G1 X34.3251 Y-23.4183 Z0.2338
G1 X34.3326 Y-23.4165 Z0.2324
G1 X34.3397 Y-23.4138 Z0.2311
G1 X34.3466 Y-23.4103 Z0.2297
G1 X34.3529 Y-23.4061 Z0.2284
G1 X34.3587 Y-23.4011 Z0.2270
G1 X34.3639 Y-23.3954 Z0.2257
G1 X34.3684 Y-23.3892 Z0.2243
G1 X34.3721 Y-23.3825 Z0.2230
G1 X34.3749 Y-23.3754 Z0.2216
G1 X34.3770 Y-23.3680 Z0.2203
G1 X34.3781 Y-23.3604 Z0.2189
G1 X34.3783 Y-23.3527 Z0.2176
G1 X34.3776 Y-23.3451 Z0.2162
G1 X34.3761 Y-23.3376 Z0.2149
G1 X34.3736 Y-23.3304 Z0.2135
G1 X34.3703 Y-23.3234 Z0.2122
G1 X34.3662 Y-23.3170 Z0.2108
G1 X34.3614 Y-23.3110 Z0.2095
G1 X34.3559 Y-23.3057 Z0.2081
G1 X34.3498 Y-23.3010 Z0.2068
G1 X34.3432 Y-23.2971 Z0.2054
G1 X34.3362 Y-23.2940 Z0.2041
G1 X34.3289 Y-23.2918 Z0.2027
G1 X34.3213 Y-23.2904 Z0.2014
G1 X34.3137 Y-23.2900 Z0.2000
G3X34.3137Y-23.4193Z0.2000I0.0000J-0.0647 F50.
G3X34.3137Y-23.2900Z0.2000I0.0000J0.0646
G1 X34.3137 Y-23.2400 Z0.2000
G2X34.3137Y-23.4693Z0.2000I0.0000J-0.1147
G2X34.3137Y-23.2400Z0.2000I0.0000J0.1146
G0 Z0.5250
G0 X34.3137 Y-23.2400 
G0 Z0.5250
G0 X34.3750 Y-22.2641 
G1 X34.3750 Y-22.2641 Z0.2750 F75.
G1 X34.3749 Y-22.2641 Z0.2750 F25.
G1 X34.3721 Y-22.2712 Z0.2736
G1 X34.3684 Y-22.2780 Z0.2723
G1 X34.3639 Y-22.2842 Z0.2709
G1 X34.3587 Y-22.2898 Z0.2696
G1 X34.3529 Y-22.2948 Z0.2682
G1 X34.3466 Y-22.2991 Z0.2669
G1 X34.3397 Y-22.3026 Z0.2655
G1 X34.3326 Y-22.3053 Z0.2642
G1 X34.3251 Y-22.3071 Z0.2628
G1 X34.3175 Y-22.3080 Z0.2615
G1 X34.3098 Y-22.3080 Z0.2601
G1 X34.3022 Y-22.3071 Z0.2588
G1 X34.2948 Y-22.3053 Z0.2574
G1 X34.2876 Y-22.3026 Z0.2561
G1 X34.2808 Y-22.2991 Z0.2547
G1 X34.2744 Y-22.2948 Z0.2534
G1 X34.2686 Y-22.2898 Z0.2520
G1 X34.2635 Y-22.2842 Z0.2507
G1 X34.2590 Y-22.2780 Z0.2493
G1 X34.2553 Y-22.2712 Z0.2480
G1 X34.2524 Y-22.2641 Z0.2466
G1 X34.2504 Y-22.2568 Z0.2453
G1 X34.2493 Y-22.2492 Z0.2439
G1 X34.2490 Y-22.2415 Z0.2426
G1 X34.2497 Y-22.2339 Z0.2412
G1 X34.2513 Y-22.2264 Z0.2399
G1 X34.2538 Y-22.2191 Z0.2385
G1 X34.2570 Y-22.2122 Z0.2372
G1 X34.2611 Y-22.2057 Z0.2358
G1 X34.2660 Y-22.1998 Z0.2345
G1 X34.2715 Y-22.1944 Z0.2331
G1 X34.2776 Y-22.1898 Z0.2318
G1 X34.2841 Y-22.1859 Z0.2304
G1 X34.2912 Y-22.1828 Z0.2291
G1 X34.2985 Y-22.1806 Z0.2277
G1 X34.3060 Y-22.1792 Z0.2264
G1 X34.3137 Y-22.1788 Z0.2250
G2X34.3137Y-22.3081Z0.2250I0.0000J-0.0646 F50.
G2X34.3137Y-22.1788Z0.2250I0.0000J0.0647
G1 X34.3137 Y-22.1288 Z0.2250
G3X34.3137Y-22.3581Z0.2250I0.0000J-0.1146
G3X34.3137Y-22.1288Z0.2250I0.0000J0.1147
G0 Z0.5000
G0 X34.3137 Y-22.1288 
G0 Z0.5000
G0 X34.2524 Y-22.2641 
G1 X34.2524 Y-22.2641 Z0.2500 F75.
G1 X34.2524 Y-22.2641 Z0.2500 F25.
G1 X34.2553 Y-22.2712 Z0.2486
G1 X34.2590 Y-22.2780 Z0.2473
G1 X34.2635 Y-22.2842 Z0.2459
G1 X34.2686 Y-22.2898 Z0.2446
G1 X34.2744 Y-22.2948 Z0.2432
G1 X34.2808 Y-22.2991 Z0.2419
G1 X34.2876 Y-22.3026 Z0.2405
G1 X34.2948 Y-22.3053 Z0.2392
G1 X34.3022 Y-22.3071 Z0.2378
G1 X34.3098 Y-22.3080 Z0.2365
G1 X34.3175 Y-22.3080 Z0.2351
G1 X34.3251 Y-22.3071 Z0.2338
G1 X34.3326 Y-22.3053 Z0.2324
G1 X34.3397 Y-22.3026 Z0.2311
G1 X34.3466 Y-22.2991 Z0.2297
G1 X34.3529 Y-22.2948 Z0.2284
G1 X34.3587 Y-22.2898 Z0.2270
G1 X34.3639 Y-22.2842 Z0.2257
G1 X34.3684 Y-22.2780 Z0.2243
G1 X34.3721 Y-22.2712 Z0.2230
G1 X34.3749 Y-22.2641 Z0.2216
G1 X34.3770 Y-22.2568 Z0.2203
G1 X34.3781 Y-22.2492 Z0.2189
G1 X34.3783 Y-22.2415 Z0.2176
G1 X34.3776 Y-22.2339 Z0.2162
G1 X34.3761 Y-22.2264 Z0.2149
G1 X34.3736 Y-22.2191 Z0.2135
G1 X34.3703 Y-22.2122 Z0.2122
G1 X34.3662 Y-22.2057 Z0.2108
G1 X34.3614 Y-22.1998 Z0.2095
G1 X34.3559 Y-22.1944 Z0.2081
G1 X34.3498 Y-22.1898 Z0.2068
G1 X34.3432 Y-22.1859 Z0.2054
G1 X34.3362 Y-22.1828 Z0.2041
G1 X34.3289 Y-22.1806 Z0.2027
G1 X34.3213 Y-22.1792 Z0.2014
G1 X34.3137 Y-22.1788 Z0.2000
G3X34.3137Y-22.3081Z0.2000I0.0000J-0.0646 F50.
G3X34.3137Y-22.1788Z0.2000I0.0000J0.0647
G1 X34.3137 Y-22.1288 Z0.2000
G2X34.3137Y-22.3581Z0.2000I0.0000J-0.1146
G2X34.3137Y-22.1288Z0.2000I0.0000J0.1147
G0 Z0.5250
G0 X34.3137 Y-22.1288 
G0 Z0.5250
G0 X36.7738 Y-22.8197 
G1 X36.7738 Y-22.8197 Z0.2750 F75.
G1 X36.7737 Y-22.8198 Z0.2750 F25.
G1 X36.7709 Y-22.8269 Z0.2736
G1 X36.7672 Y-22.8336 Z0.2723
G1 X36.7627 Y-22.8398 Z0.2709
G1 X36.7575 Y-22.8454 Z0.2696
G1 X36.7517 Y-22.8504 Z0.2682
G1 X36.7454 Y-22.8547 Z0.2669
G1 X36.7385 Y-22.8582 Z0.2655
G1 X36.7314 Y-22.8609 Z0.2642
G1 X36.7239 Y-22.8627 Z0.2628
G1 X36.7163 Y-22.8636 Z0.2615
G1 X36.7086 Y-22.8636 Z0.2601
G1 X36.7010 Y-22.8627 Z0.2588
G1 X36.6936 Y-22.8609 Z0.2574
G1 X36.6864 Y-22.8582 Z0.2561
G1 X36.6796 Y-22.8547 Z0.2547
G1 X36.6732 Y-22.8504 Z0.2534
G1 X36.6674 Y-22.8454 Z0.2520
G1 X36.6623 Y-22.8398 Z0.2507
G1 X36.6578 Y-22.8336 Z0.2493
G1 X36.6541 Y-22.8269 Z0.2480
G1 X36.6512 Y-22.8198 Z0.2466
G1 X36.6492 Y-22.8124 Z0.2453
G1 X36.6481 Y-22.8048 Z0.2439
G1 X36.6478 Y-22.7971 Z0.2426
G1 X36.6485 Y-22.7895 Z0.2412
G1 X36.6501 Y-22.7820 Z0.2399
G1 X36.6526 Y-22.7747 Z0.2385
G1 X36.6558 Y-22.7678 Z0.2372
G1 X36.6599 Y-22.7613 Z0.2358
G1 X36.6648 Y-22.7554 Z0.2345
G1 X36.6703 Y-22.7501 Z0.2331
G1 X36.6764 Y-22.7454 Z0.2318
G1 X36.6829 Y-22.7415 Z0.2304
G1 X36.6900 Y-22.7384 Z0.2291
G1 X36.6973 Y-22.7362 Z0.2277
G1 X36.7048 Y-22.7348 Z0.2264
G1 X36.7125 Y-22.7344 Z0.2250
G2X36.7125Y-22.8637Z0.2250I0.0000J-0.0646 F50.
G2X36.7125Y-22.7344Z0.2250I0.0000J0.0647
G1 X36.7125 Y-22.6844 Z0.2250
G3X36.7125Y-22.9137Z0.2250I0.0000J-0.1146
G3X36.7125Y-22.6844Z0.2250I0.0000J0.1147
G0 Z0.5000
G0 X36.7125 Y-22.6844 
G0 Z0.5000
G0 X36.6512 Y-22.8197 
G1 X36.6512 Y-22.8197 Z0.2500 F75.
G1 X36.6512 Y-22.8198 Z0.2500 F25.
G1 X36.6541 Y-22.8269 Z0.2486
G1 X36.6578 Y-22.8336 Z0.2473
G1 X36.6623 Y-22.8398 Z0.2459
G1 X36.6674 Y-22.8454 Z0.2446
G1 X36.6732 Y-22.8504 Z0.2432
G1 X36.6796 Y-22.8547 Z0.2419
G1 X36.6864 Y-22.8582 Z0.2405
G1 X36.6936 Y-22.8609 Z0.2392
G1 X36.7010 Y-22.8627 Z0.2378
G1 X36.7086 Y-22.8636 Z0.2365
G1 X36.7163 Y-22.8636 Z0.2351
G1 X36.7239 Y-22.8627 Z0.2338
G1 X36.7314 Y-22.8609 Z0.2324
G1 X36.7385 Y-22.8582 Z0.2311
G1 X36.7454 Y-22.8547 Z0.2297
G1 X36.7517 Y-22.8504 Z0.2284
G1 X36.7575 Y-22.8454 Z0.2270
G1 X36.7627 Y-22.8398 Z0.2257
G1 X36.7672 Y-22.8336 Z0.2243
G1 X36.7709 Y-22.8269 Z0.2230
G1 X36.7737 Y-22.8198 Z0.2216
G1 X36.7758 Y-22.8124 Z0.2203
G1 X36.7769 Y-22.8048 Z0.2189
G1 X36.7771 Y-22.7971 Z0.2176
G1 X36.7764 Y-22.7895 Z0.2162
G1 X36.7749 Y-22.7820 Z0.2149
G1 X36.7724 Y-22.7747 Z0.2135
G1 X36.7691 Y-22.7678 Z0.2122
G1 X36.7650 Y-22.7613 Z0.2108
G1 X36.7602 Y-22.7554 Z0.2095
G1 X36.7547 Y-22.7501 Z0.2081
G1 X36.7486 Y-22.7454 Z0.2068
G1 X36.7420 Y-22.7415 Z0.2054
G1 X36.7350 Y-22.7384 Z0.2041
G1 X36.7277 Y-22.7362 Z0.2027
G1 X36.7201 Y-22.7348 Z0.2014
G1 X36.7125 Y-22.7344 Z0.2000
G3X36.7125Y-22.8637Z0.2000I0.0000J-0.0646 F50.
G3X36.7125Y-22.7344Z0.2000I0.0000J0.0647
G1 X36.7125 Y-22.6844 Z0.2000
G2X36.7125Y-22.9137Z0.2000I0.0000J-0.1146
G2X36.7125Y-22.6844Z0.2000I0.0000J0.1147
G0 Z0.5250
G0 X36.7125 Y-22.6844 
G0 Z0.5250
G0 X38.6203 Y-22.8197 
G1 X38.6203 Y-22.8197 Z0.2750 F75.
G1 X38.6202 Y-22.8198 Z0.2750 F25.
G1 X38.6174 Y-22.8269 Z0.2736
G1 X38.6137 Y-22.8336 Z0.2723
G1 X38.6092 Y-22.8398 Z0.2709
G1 X38.6040 Y-22.8454 Z0.2696
G1 X38.5982 Y-22.8504 Z0.2682
G1 X38.5919 Y-22.8547 Z0.2669
G1 X38.5850 Y-22.8582 Z0.2655
G1 X38.5779 Y-22.8609 Z0.2642
G1 X38.5704 Y-22.8627 Z0.2628
G1 X38.5628 Y-22.8636 Z0.2615
G1 X38.5551 Y-22.8636 Z0.2601
G1 X38.5475 Y-22.8627 Z0.2588
G1 X38.5401 Y-22.8609 Z0.2574
G1 X38.5329 Y-22.8582 Z0.2561
G1 X38.5261 Y-22.8547 Z0.2547
G1 X38.5197 Y-22.8504 Z0.2534
G1 X38.5139 Y-22.8454 Z0.2520
G1 X38.5088 Y-22.8398 Z0.2507
G1 X38.5043 Y-22.8336 Z0.2493
G1 X38.5006 Y-22.8269 Z0.2480
G1 X38.4977 Y-22.8198 Z0.2466
G1 X38.4957 Y-22.8124 Z0.2453
G1 X38.4946 Y-22.8048 Z0.2439
G1 X38.4943 Y-22.7971 Z0.2426
G1 X38.4950 Y-22.7895 Z0.2412
G1 X38.4966 Y-22.7820 Z0.2399
G1 X38.4991 Y-22.7747 Z0.2385
G1 X38.5023 Y-22.7678 Z0.2372
G1 X38.5064 Y-22.7613 Z0.2358
G1 X38.5113 Y-22.7554 Z0.2345
G1 X38.5168 Y-22.7501 Z0.2331
G1 X38.5229 Y-22.7454 Z0.2318
G1 X38.5294 Y-22.7415 Z0.2304
G1 X38.5365 Y-22.7384 Z0.2291
G1 X38.5438 Y-22.7362 Z0.2277
G1 X38.5513 Y-22.7348 Z0.2264
G1 X38.5590 Y-22.7344 Z0.2250
G2X38.5590Y-22.8637Z0.2250I0.0000J-0.0646 F50.
G2X38.5590Y-22.7344Z0.2250I0.0000J0.0647
G1 X38.5590 Y-22.6844 Z0.2250
G3X38.5590Y-22.9137Z0.2250I0.0000J-0.1146
G3X38.5590Y-22.6844Z0.2250I0.0000J0.1147
G0 Z0.5000
G0 X38.5590 Y-22.6844 
G0 Z0.5000
G0 X38.4977 Y-22.8197 
G1 X38.4977 Y-22.8197 Z0.2500 F75.
G1 X38.4977 Y-22.8198 Z0.2500 F25.
G1 X38.5006 Y-22.8269 Z0.2486
G1 X38.5043 Y-22.8336 Z0.2473
G1 X38.5088 Y-22.8398 Z0.2459
G1 X38.5139 Y-22.8454 Z0.2446
G1 X38.5197 Y-22.8504 Z0.2432
G1 X38.5261 Y-22.8547 Z0.2419
G1 X38.5329 Y-22.8582 Z0.2405
G1 X38.5401 Y-22.8609 Z0.2392
G1 X38.5475 Y-22.8627 Z0.2378
G1 X38.5551 Y-22.8636 Z0.2365
G1 X38.5628 Y-22.8636 Z0.2351
G1 X38.5704 Y-22.8627 Z0.2338
G1 X38.5779 Y-22.8609 Z0.2324
G1 X38.5850 Y-22.8582 Z0.2311
G1 X38.5919 Y-22.8547 Z0.2297
G1 X38.5982 Y-22.8504 Z0.2284
G1 X38.6040 Y-22.8454 Z0.2270
G1 X38.6092 Y-22.8398 Z0.2257
G1 X38.6137 Y-22.8336 Z0.2243
G1 X38.6174 Y-22.8269 Z0.2230
G1 X38.6202 Y-22.8198 Z0.2216
G1 X38.6223 Y-22.8124 Z0.2203
G1 X38.6234 Y-22.8048 Z0.2189
G1 X38.6236 Y-22.7971 Z0.2176
G1 X38.6229 Y-22.7895 Z0.2162
G1 X38.6214 Y-22.7820 Z0.2149
G1 X38.6189 Y-22.7747 Z0.2135
G1 X38.6156 Y-22.7678 Z0.2122
G1 X38.6115 Y-22.7613 Z0.2108
G1 X38.6067 Y-22.7554 Z0.2095
G1 X38.6012 Y-22.7501 Z0.2081
G1 X38.5951 Y-22.7454 Z0.2068
G1 X38.5885 Y-22.7415 Z0.2054
G1 X38.5815 Y-22.7384 Z0.2041
G1 X38.5742 Y-22.7362 Z0.2027
G1 X38.5666 Y-22.7348 Z0.2014
G1 X38.5590 Y-22.7344 Z0.2000
G3X38.5590Y-22.8637Z0.2000I0.0000J-0.0646 F50.
G3X38.5590Y-22.7344Z0.2000I0.0000J0.0647
G1 X38.5590 Y-22.6844 Z0.2000
G2X38.5590Y-22.9137Z0.2000I0.0000J-0.1146
G2X38.5590Y-22.6844Z0.2000I0.0000J0.1147
G0 Z0.5250
G0 X38.5590 Y-22.6844 
G0 Z0.5250
G0 X40.6928 Y-22.8197 
G1 X40.6928 Y-22.8197 Z0.2750 F75.
G1 X40.6927 Y-22.8198 Z0.2750 F25.
G1 X40.6899 Y-22.8269 Z0.2736
G1 X40.6862 Y-22.8336 Z0.2723
G1 X40.6817 Y-22.8398 Z0.2709
G1 X40.6765 Y-22.8454 Z0.2696
G1 X40.6707 Y-22.8504 Z0.2682
G1 X40.6644 Y-22.8547 Z0.2669
G1 X40.6575 Y-22.8582 Z0.2655
G1 X40.6504 Y-22.8609 Z0.2642
G1 X40.6429 Y-22.8627 Z0.2628
G1 X40.6353 Y-22.8636 Z0.2615
G1 X40.6276 Y-22.8636 Z0.2601
G1 X40.6200 Y-22.8627 Z0.2588
G1 X40.6126 Y-22.8609 Z0.2574
G1 X40.6054 Y-22.8582 Z0.2561
G1 X40.5986 Y-22.8547 Z0.2547
G1 X40.5922 Y-22.8504 Z0.2534
G1 X40.5864 Y-22.8454 Z0.2520
G1 X40.5813 Y-22.8398 Z0.2507
G1 X40.5768 Y-22.8336 Z0.2493
G1 X40.5731 Y-22.8269 Z0.2480
G1 X40.5702 Y-22.8198 Z0.2466
G1 X40.5682 Y-22.8124 Z0.2453
G1 X40.5671 Y-22.8048 Z0.2439
G1 X40.5668 Y-22.7971 Z0.2426
G1 X40.5675 Y-22.7895 Z0.2412
G1 X40.5691 Y-22.7820 Z0.2399
G1 X40.5716 Y-22.7747 Z0.2385
G1 X40.5748 Y-22.7678 Z0.2372
G1 X40.5789 Y-22.7613 Z0.2358
G1 X40.5838 Y-22.7554 Z0.2345
G1 X40.5893 Y-22.7501 Z0.2331
G1 X40.5954 Y-22.7454 Z0.2318
G1 X40.6019 Y-22.7415 Z0.2304
G1 X40.6090 Y-22.7384 Z0.2291
G1 X40.6163 Y-22.7362 Z0.2277
G1 X40.6238 Y-22.7348 Z0.2264
G1 X40.6315 Y-22.7344 Z0.2250
G2X40.6315Y-22.8637Z0.2250I0.0000J-0.0646 F50.
G2X40.6315Y-22.7344Z0.2250I0.0000J0.0647
G1 X40.6315 Y-22.6844 Z0.2250
G3X40.6315Y-22.9137Z0.2250I0.0000J-0.1146
G3X40.6315Y-22.6844Z0.2250I0.0000J0.1147
G0 Z0.5000
G0 X40.6315 Y-22.6844 
G0 Z0.5000
G0 X40.5702 Y-22.8197 
G1 X40.5702 Y-22.8197 Z0.2500 F75.
G1 X40.5702 Y-22.8198 Z0.2500 F25.
G1 X40.5731 Y-22.8269 Z0.2486
G1 X40.5768 Y-22.8336 Z0.2473
G1 X40.5813 Y-22.8398 Z0.2459
G1 X40.5864 Y-22.8454 Z0.2446
G1 X40.5922 Y-22.8504 Z0.2432
G1 X40.5986 Y-22.8547 Z0.2419
G1 X40.6054 Y-22.8582 Z0.2405
G1 X40.6126 Y-22.8609 Z0.2392
G1 X40.6200 Y-22.8627 Z0.2378
G1 X40.6276 Y-22.8636 Z0.2365
G1 X40.6353 Y-22.8636 Z0.2351
G1 X40.6429 Y-22.8627 Z0.2338
G1 X40.6504 Y-22.8609 Z0.2324
G1 X40.6575 Y-22.8582 Z0.2311
G1 X40.6644 Y-22.8547 Z0.2297
G1 X40.6707 Y-22.8504 Z0.2284
G1 X40.6765 Y-22.8454 Z0.2270
G1 X40.6817 Y-22.8398 Z0.2257
G1 X40.6862 Y-22.8336 Z0.2243
G1 X40.6899 Y-22.8269 Z0.2230
G1 X40.6927 Y-22.8198 Z0.2216
G1 X40.6948 Y-22.8124 Z0.2203
G1 X40.6959 Y-22.8048 Z0.2189
G1 X40.6961 Y-22.7971 Z0.2176
G1 X40.6954 Y-22.7895 Z0.2162
G1 X40.6939 Y-22.7820 Z0.2149
G1 X40.6914 Y-22.7747 Z0.2135
G1 X40.6881 Y-22.7678 Z0.2122
G1 X40.6840 Y-22.7613 Z0.2108
G1 X40.6792 Y-22.7554 Z0.2095
G1 X40.6737 Y-22.7501 Z0.2081
G1 X40.6676 Y-22.7454 Z0.2068
G1 X40.6610 Y-22.7415 Z0.2054
G1 X40.6540 Y-22.7384 Z0.2041
G1 X40.6467 Y-22.7362 Z0.2027
G1 X40.6391 Y-22.7348 Z0.2014
G1 X40.6315 Y-22.7344 Z0.2000
G3X40.6315Y-22.8637Z0.2000I0.0000J-0.0646 F50.
G3X40.6315Y-22.7344Z0.2000I0.0000J0.0647
G1 X40.6315 Y-22.6844 Z0.2000
G2X40.6315Y-22.9137Z0.2000I0.0000J-0.1146
G2X40.6315Y-22.6844Z0.2000I0.0000J0.1147
G0 Z0.5250
G0 X40.6315 Y-22.6844 
G0 Z0.5250
G0 X43.0191 Y-22.8197 
G1 X43.0191 Y-22.8197 Z0.2750 F75.
G1 X43.0191 Y-22.8198 Z0.2750 F25.
G1 X43.0162 Y-22.8269 Z0.2736
G1 X43.0125 Y-22.8336 Z0.2723
G1 X43.0080 Y-22.8398 Z0.2709
G1 X43.0029 Y-22.8454 Z0.2696
G1 X42.9971 Y-22.8504 Z0.2682
G1 X42.9907 Y-22.8547 Z0.2669
G1 X42.9839 Y-22.8582 Z0.2655
G1 X42.9767 Y-22.8609 Z0.2642
G1 X42.9693 Y-22.8627 Z0.2628
G1 X42.9617 Y-22.8636 Z0.2615
G1 X42.9540 Y-22.8636 Z0.2601
G1 X42.9464 Y-22.8627 Z0.2588
G1 X42.9389 Y-22.8609 Z0.2574
G1 X42.9318 Y-22.8582 Z0.2561
G1 X42.9249 Y-22.8547 Z0.2547
G1 X42.9186 Y-22.8504 Z0.2534
G1 X42.9128 Y-22.8454 Z0.2520
G1 X42.9076 Y-22.8398 Z0.2507
G1 X42.9031 Y-22.8336 Z0.2493
G1 X42.8994 Y-22.8269 Z0.2480
G1 X42.8966 Y-22.8198 Z0.2466
G1 X42.8945 Y-22.8124 Z0.2453
G1 X42.8934 Y-22.8048 Z0.2439
G1 X42.8932 Y-22.7971 Z0.2426
G1 X42.8939 Y-22.7895 Z0.2412
G1 X42.8954 Y-22.7820 Z0.2399
G1 X42.8979 Y-22.7747 Z0.2385
G1 X42.9012 Y-22.7678 Z0.2372
G1 X42.9053 Y-22.7613 Z0.2358
G1 X42.9101 Y-22.7554 Z0.2345
G1 X42.9156 Y-22.7501 Z0.2331
G1 X42.9217 Y-22.7454 Z0.2318
G1 X42.9283 Y-22.7415 Z0.2304
G1 X42.9353 Y-22.7384 Z0.2291
G1 X42.9426 Y-22.7362 Z0.2277
G1 X42.9502 Y-22.7348 Z0.2264
G1 X42.9578 Y-22.7344 Z0.2250
G2X42.9578Y-22.8637Z0.2250I0.0000J-0.0646 F50.
G2X42.9578Y-22.7344Z0.2250I0.0000J0.0647
G1 X42.9578 Y-22.6844 Z0.2250
G3X42.9578Y-22.9137Z0.2250I0.0000J-0.1146
G3X42.9578Y-22.6844Z0.2250I0.0000J0.1147
G0 Z0.5000
G0 X42.9578 Y-22.6844 
G0 Z0.5000
G0 X42.8965 Y-22.8197 
G1 X42.8965 Y-22.8197 Z0.2500 F75.
G1 X42.8966 Y-22.8198 Z0.2500 F25.
G1 X42.8994 Y-22.8269 Z0.2486
G1 X42.9031 Y-22.8336 Z0.2473
G1 X42.9076 Y-22.8398 Z0.2459
G1 X42.9128 Y-22.8454 Z0.2446
G1 X42.9186 Y-22.8504 Z0.2432
G1 X42.9249 Y-22.8547 Z0.2419
G1 X42.9318 Y-22.8582 Z0.2405
G1 X42.9389 Y-22.8609 Z0.2392
G1 X42.9464 Y-22.8627 Z0.2378
G1 X42.9540 Y-22.8636 Z0.2365
G1 X42.9617 Y-22.8636 Z0.2351
G1 X42.9693 Y-22.8627 Z0.2338
G1 X42.9767 Y-22.8609 Z0.2324
G1 X42.9839 Y-22.8582 Z0.2311
G1 X42.9907 Y-22.8547 Z0.2297
G1 X42.9971 Y-22.8504 Z0.2284
G1 X43.0029 Y-22.8454 Z0.2270
G1 X43.0080 Y-22.8398 Z0.2257
G1 X43.0125 Y-22.8336 Z0.2243
G1 X43.0162 Y-22.8269 Z0.2230
G1 X43.0191 Y-22.8198 Z0.2216
G1 X43.0211 Y-22.8124 Z0.2203
G1 X43.0222 Y-22.8048 Z0.2189
G1 X43.0225 Y-22.7971 Z0.2176
G1 X43.0218 Y-22.7895 Z0.2162
G1 X43.0202 Y-22.7820 Z0.2149
G1 X43.0178 Y-22.7747 Z0.2135
G1 X43.0145 Y-22.7678 Z0.2122
G1 X43.0104 Y-22.7613 Z0.2108
G1 X43.0055 Y-22.7554 Z0.2095
G1 X43.0000 Y-22.7501 Z0.2081
G1 X42.9940 Y-22.7454 Z0.2068
G1 X42.9874 Y-22.7415 Z0.2054
G1 X42.9803 Y-22.7384 Z0.2041
G1 X42.9730 Y-22.7362 Z0.2027
G1 X42.9655 Y-22.7348 Z0.2014
G1 X42.9578 Y-22.7344 Z0.2000
G3X42.9578Y-22.8637Z0.2000I0.0000J-0.0646 F50.
G3X42.9578Y-22.7344Z0.2000I0.0000J0.0647
G1 X42.9578 Y-22.6844 Z0.2000
G2X42.9578Y-22.9137Z0.2000I0.0000J-0.1146
G2X42.9578Y-22.6844Z0.2000I0.0000J0.1147
G0 Z4.0000
G0 X42.9578 Y-22.6844 
M5
G53 Z
X2Y0
