( MOP:  02-inlay-McSwainStars-idPT081-s24PT625-01 )
( FILE: G:\Shared drives\AlloyProjectFiles\Customer CAD files\Alloy-Standard-Builds-CAM\Fingerboards-in\02-inlay-McSwainStars-idPT081-s24PT625-01.nc)
G90
(  BEGIN TOOL LIST )
(  TOOL 15 - Fretkerf PT025 - DESC: 0.0250 DIA, 2 FLUTE,  CARBIDE MAT )
(  ENDOF TOOL LIST )
( 02-inlay-McSwainStars-idPT081-s24PT625-01)
T15
S14000
M3
G0 Z3.0000
G0 X29.1578 Y-22.8409 
G1 X29.1578 Y-22.8409 Z0.2534 F21.
G1 X29.1584 Y-22.8415 Z0.2533
G1 X29.1973 Y-22.8946 Z0.2417
G1 X29.1973 Y-22.8762 Z0.2384
G1 X29.1973 Y-22.8288 Z0.2384 F22.
G1 X29.1981 Y-22.8249 Z0.2384
G1 X29.2004 Y-22.8218 Z0.2384
G1 X29.2037 Y-22.8198 Z0.2384
G1 X29.2602 Y-22.8004 Z0.2384
G1 X29.2037 Y-22.7810 Z0.2384
G1 X29.2004 Y-22.7790 Z0.2384
G1 X29.1981 Y-22.7758 Z0.2384
G1 X29.1973 Y-22.7720 Z0.2384
G1 X29.1973 Y-22.7062 Z0.2384
G1 X29.1584 Y-22.7593 Z0.2384
G1 X29.1555 Y-22.7619 Z0.2384
G1 X29.1519 Y-22.7631 Z0.2384
G1 X29.1480 Y-22.7628 Z0.2384
G1 X29.0859 Y-22.7439 Z0.2384
G1 X29.1212 Y-22.7950 Z0.2384
G1 X29.1227 Y-22.7985 Z0.2384
G1 X29.1227 Y-22.8023 Z0.2384
G1 X29.1212 Y-22.8058 Z0.2384
G1 X29.0859 Y-22.8568 Z0.2384
G1 X29.1480 Y-22.8380 Z0.2384
G1 X29.1519 Y-22.8377 Z0.2384
G1 X29.1555 Y-22.8389 Z0.2384
G1 X29.1584 Y-22.8415 Z0.2384
G1 X29.1973 Y-22.8946 Z0.2384
G17
G2X29.1981Y-22.8249Z0.2384I2.2322J0.0092
G1 X29.2004 Y-22.8218 Z0.2384
G1 X29.2037 Y-22.8198 Z0.2384
G1 X29.2602 Y-22.8004 Z0.2384
G1 X29.2037 Y-22.7810 Z0.2384
G2X29.1973Y-22.7623Z0.2384I0.0065J0.0127
G0 Z0.3669
G0 X29.1973 Y-22.7623 
G0 Z0.3669
G0 X29.1578 Y-22.8409 
G1 X29.1578 Y-22.8409 Z0.2419 F21.
G1 X29.1584 Y-22.8415 Z0.2417
G1 X29.1973 Y-22.8946 Z0.2301
G1 X29.1973 Y-22.8762 Z0.2269
G1 X29.1973 Y-22.8288 Z0.2269 F22.
G1 X29.1981 Y-22.8249 Z0.2269
G1 X29.2004 Y-22.8218 Z0.2269
G1 X29.2037 Y-22.8198 Z0.2269
G1 X29.2602 Y-22.8004 Z0.2269
G1 X29.2037 Y-22.7810 Z0.2269
G1 X29.2004 Y-22.7790 Z0.2269
G1 X29.1981 Y-22.7758 Z0.2269
G1 X29.1973 Y-22.7720 Z0.2269
G1 X29.1973 Y-22.7062 Z0.2269
G1 X29.1584 Y-22.7593 Z0.2269
G1 X29.1555 Y-22.7619 Z0.2269
G1 X29.1519 Y-22.7631 Z0.2269
G1 X29.1480 Y-22.7628 Z0.2269
G1 X29.0859 Y-22.7439 Z0.2269
G1 X29.1212 Y-22.7950 Z0.2269
G1 X29.1227 Y-22.7985 Z0.2269
G1 X29.1227 Y-22.8023 Z0.2269
G1 X29.1212 Y-22.8058 Z0.2269
G1 X29.0859 Y-22.8568 Z0.2269
G1 X29.1480 Y-22.8380 Z0.2269
G1 X29.1519 Y-22.8377 Z0.2269
G1 X29.1555 Y-22.8389 Z0.2269
G1 X29.1584 Y-22.8415 Z0.2269
G1 X29.1973 Y-22.8946 Z0.2269
G2X29.1981Y-22.8249Z0.2269I2.2322J0.0092
G1 X29.2004 Y-22.8218 Z0.2269
G1 X29.2037 Y-22.8198 Z0.2269
G1 X29.2602 Y-22.8004 Z0.2269
G1 X29.2037 Y-22.7810 Z0.2269
G2X29.1973Y-22.7623Z0.2269I0.0065J0.0127
G0 Z0.3553
G0 X29.1973 Y-22.7623 
G0 Z0.3553
G0 X29.1578 Y-22.8409 
G1 X29.1578 Y-22.8409 Z0.2303 F21.
G1 X29.1584 Y-22.8415 Z0.2301
G1 X29.1973 Y-22.8946 Z0.2185
G1 X29.1973 Y-22.8762 Z0.2153
G1 X29.1973 Y-22.8288 Z0.2153 F22.
G1 X29.1981 Y-22.8249 Z0.2153
G1 X29.2004 Y-22.8218 Z0.2153
G1 X29.2037 Y-22.8198 Z0.2153
G1 X29.2602 Y-22.8004 Z0.2153
G1 X29.2037 Y-22.7810 Z0.2153
G1 X29.2004 Y-22.7790 Z0.2153
G1 X29.1981 Y-22.7758 Z0.2153
G1 X29.1973 Y-22.7720 Z0.2153
G1 X29.1973 Y-22.7062 Z0.2153
G1 X29.1584 Y-22.7593 Z0.2153
G1 X29.1555 Y-22.7619 Z0.2153
G1 X29.1519 Y-22.7631 Z0.2153
G1 X29.1480 Y-22.7628 Z0.2153
G1 X29.0859 Y-22.7439 Z0.2153
G1 X29.1212 Y-22.7950 Z0.2153
G1 X29.1227 Y-22.7985 Z0.2153
G1 X29.1227 Y-22.8023 Z0.2153
G1 X29.1212 Y-22.8058 Z0.2153
G1 X29.0859 Y-22.8568 Z0.2153
G1 X29.1480 Y-22.8380 Z0.2153
G1 X29.1519 Y-22.8377 Z0.2153
G1 X29.1555 Y-22.8389 Z0.2153
G1 X29.1584 Y-22.8415 Z0.2153
G1 X29.1973 Y-22.8946 Z0.2153
G2X29.1981Y-22.8249Z0.2153I2.2322J0.0092
G1 X29.2004 Y-22.8218 Z0.2153
G1 X29.2037 Y-22.8198 Z0.2153
G1 X29.2602 Y-22.8004 Z0.2153
G1 X29.2037 Y-22.7810 Z0.2153
G2X29.1973Y-22.7623Z0.2153I0.0065J0.0127
G0 Z0.3437
G0 X29.1973 Y-22.7623 
G0 Z0.3437
G0 X29.1578 Y-22.8409 
G1 X29.1578 Y-22.8409 Z0.2187 F21.
G1 X29.1584 Y-22.8415 Z0.2186
G1 X29.1973 Y-22.8946 Z0.2070
G1 X29.1973 Y-22.8762 Z0.2037
G1 X29.1973 Y-22.8288 Z0.2037 F22.
G1 X29.1981 Y-22.8249 Z0.2037
G1 X29.2004 Y-22.8218 Z0.2037
G1 X29.2037 Y-22.8198 Z0.2037
G1 X29.2602 Y-22.8004 Z0.2037
G1 X29.2037 Y-22.7810 Z0.2037
G1 X29.2004 Y-22.7790 Z0.2037
G1 X29.1981 Y-22.7758 Z0.2037
G1 X29.1973 Y-22.7720 Z0.2037
G1 X29.1973 Y-22.7062 Z0.2037
G1 X29.1584 Y-22.7593 Z0.2037
G1 X29.1555 Y-22.7619 Z0.2037
G1 X29.1519 Y-22.7631 Z0.2037
G1 X29.1480 Y-22.7628 Z0.2037
G1 X29.0859 Y-22.7439 Z0.2037
G1 X29.1212 Y-22.7950 Z0.2037
G1 X29.1227 Y-22.7985 Z0.2037
G1 X29.1227 Y-22.8023 Z0.2037
G1 X29.1212 Y-22.8058 Z0.2037
G1 X29.0859 Y-22.8568 Z0.2037
G1 X29.1480 Y-22.8380 Z0.2037
G1 X29.1519 Y-22.8377 Z0.2037
G1 X29.1555 Y-22.8389 Z0.2037
G1 X29.1584 Y-22.8415 Z0.2037
G1 X29.1973 Y-22.8946 Z0.2037
G2X29.1981Y-22.8249Z0.2037I2.2322J0.0092
G1 X29.2004 Y-22.8218 Z0.2037
G1 X29.2037 Y-22.8198 Z0.2037
G1 X29.2602 Y-22.8004 Z0.2037
G1 X29.2037 Y-22.7810 Z0.2037
G2X29.1973Y-22.7623Z0.2037I0.0065J0.0127
G0 Z0.3321
G0 X29.1973 Y-22.7623 
G0 Z0.3321
G0 X29.1578 Y-22.8409 
G1 X29.1578 Y-22.8409 Z0.2071 F21.
G1 X29.1584 Y-22.8415 Z0.2070
G1 X29.1973 Y-22.8946 Z0.1954
G1 X29.1973 Y-22.8762 Z0.1921
G1 X29.1973 Y-22.8288 Z0.1921 F22.
G1 X29.1981 Y-22.8249 Z0.1921
G1 X29.2004 Y-22.8218 Z0.1921
G1 X29.2037 Y-22.8198 Z0.1921
G1 X29.2602 Y-22.8004 Z0.1921
G1 X29.2037 Y-22.7810 Z0.1921
G1 X29.2004 Y-22.7790 Z0.1921
G1 X29.1981 Y-22.7758 Z0.1921
G1 X29.1973 Y-22.7720 Z0.1921
G1 X29.1973 Y-22.7062 Z0.1921
G1 X29.1584 Y-22.7593 Z0.1921
G1 X29.1555 Y-22.7619 Z0.1921
G1 X29.1519 Y-22.7631 Z0.1921
G1 X29.1480 Y-22.7628 Z0.1921
G1 X29.0859 Y-22.7439 Z0.1921
G1 X29.1212 Y-22.7950 Z0.1921
G1 X29.1227 Y-22.7985 Z0.1921
G1 X29.1227 Y-22.8023 Z0.1921
G1 X29.1212 Y-22.8058 Z0.1921
G1 X29.0859 Y-22.8568 Z0.1921
G1 X29.1480 Y-22.8380 Z0.1921
G1 X29.1519 Y-22.8377 Z0.1921
G1 X29.1555 Y-22.8389 Z0.1921
G1 X29.1584 Y-22.8415 Z0.1921
G1 X29.1973 Y-22.8946 Z0.1921
G2X29.1981Y-22.8249Z0.1921I2.2322J0.0092
G1 X29.2004 Y-22.8218 Z0.1921
G1 X29.2037 Y-22.8198 Z0.1921
G1 X29.2602 Y-22.8004 Z0.1921
G1 X29.2037 Y-22.7810 Z0.1921
G2X29.1973Y-22.7623Z0.1921I0.0065J0.0127
G0 Z0.3206
G0 X29.1973 Y-22.7623 
G0 Z0.3206
G0 X29.1578 Y-22.8409 
G1 X29.1578 Y-22.8409 Z0.1956 F21.
G1 X29.1584 Y-22.8415 Z0.1954
G1 X29.1973 Y-22.8946 Z0.1838
G1 X29.1973 Y-22.8762 Z0.1806
G1 X29.1973 Y-22.8288 Z0.1806 F22.
G1 X29.1981 Y-22.8249 Z0.1806
G1 X29.2004 Y-22.8218 Z0.1806
G1 X29.2037 Y-22.8198 Z0.1806
G1 X29.2602 Y-22.8004 Z0.1806
G1 X29.2037 Y-22.7810 Z0.1806
G1 X29.2004 Y-22.7790 Z0.1806
G1 X29.1981 Y-22.7758 Z0.1806
G1 X29.1973 Y-22.7720 Z0.1806
G1 X29.1973 Y-22.7062 Z0.1806
G1 X29.1584 Y-22.7593 Z0.1806
G1 X29.1555 Y-22.7619 Z0.1806
G1 X29.1519 Y-22.7631 Z0.1806
G1 X29.1480 Y-22.7628 Z0.1806
G1 X29.0859 Y-22.7439 Z0.1806
G1 X29.1212 Y-22.7950 Z0.1806
G1 X29.1227 Y-22.7985 Z0.1806
G1 X29.1227 Y-22.8023 Z0.1806
G1 X29.1212 Y-22.8058 Z0.1806
G1 X29.0859 Y-22.8568 Z0.1806
G1 X29.1480 Y-22.8380 Z0.1806
G1 X29.1519 Y-22.8377 Z0.1806
G1 X29.1555 Y-22.8389 Z0.1806
G1 X29.1584 Y-22.8415 Z0.1806
G1 X29.1973 Y-22.8946 Z0.1806
G2X29.1981Y-22.8249Z0.1806I2.2322J0.0092
G1 X29.2004 Y-22.8218 Z0.1806
G1 X29.2037 Y-22.8198 Z0.1806
G1 X29.2602 Y-22.8004 Z0.1806
G1 X29.2037 Y-22.7810 Z0.1806
G2X29.1973Y-22.7623Z0.1806I0.0065J0.0127
G0 Z0.3090
G0 X29.1973 Y-22.7623 
G0 Z0.3090
G0 X29.1578 Y-22.8409 
G1 X29.1578 Y-22.8409 Z0.1840 F21.
G1 X29.1584 Y-22.8415 Z0.1839
G1 X29.1973 Y-22.8946 Z0.1722
G1 X29.1973 Y-22.8762 Z0.1690
G1 X29.1973 Y-22.8288 Z0.1690 F22.
G1 X29.1981 Y-22.8249 Z0.1690
G1 X29.2004 Y-22.8218 Z0.1690
G1 X29.2037 Y-22.8198 Z0.1690
G1 X29.2602 Y-22.8004 Z0.1690
G1 X29.2037 Y-22.7810 Z0.1690
G1 X29.2004 Y-22.7790 Z0.1690
G1 X29.1981 Y-22.7758 Z0.1690
G1 X29.1973 Y-22.7720 Z0.1690
G1 X29.1973 Y-22.7062 Z0.1690
G1 X29.1584 Y-22.7593 Z0.1690
G1 X29.1555 Y-22.7619 Z0.1690
G1 X29.1519 Y-22.7631 Z0.1690
G1 X29.1480 Y-22.7628 Z0.1690
G1 X29.0859 Y-22.7439 Z0.1690
G1 X29.1212 Y-22.7950 Z0.1690
G1 X29.1227 Y-22.7985 Z0.1690
G1 X29.1227 Y-22.8023 Z0.1690
G1 X29.1212 Y-22.8058 Z0.1690
G1 X29.0859 Y-22.8568 Z0.1690
G1 X29.1480 Y-22.8380 Z0.1690
G1 X29.1519 Y-22.8377 Z0.1690
G1 X29.1555 Y-22.8389 Z0.1690
G1 X29.1584 Y-22.8415 Z0.1690
G1 X29.1973 Y-22.8946 Z0.1690
G2X29.1981Y-22.8249Z0.1690I2.2322J0.0092
G1 X29.2004 Y-22.8218 Z0.1690
G1 X29.2037 Y-22.8198 Z0.1690
G1 X29.2602 Y-22.8004 Z0.1690
G1 X29.2037 Y-22.7810 Z0.1690
G2X29.1973Y-22.7623Z0.1690I0.0065J0.0127
G0 Z0.3784
G0 X29.1973 Y-22.7623 
G0 Z0.3784
G0 X30.1000 Y-22.8935 
G1 X30.1000 Y-22.8935 Z0.2534 F21.
G1 X30.1302 Y-22.9348 Z0.2444
G1 X30.1302 Y-22.9009 Z0.2384
G1 X30.1302 Y-22.8380 Z0.2384 F22.
G1 X30.1310 Y-22.8341 Z0.2384
G1 X30.1333 Y-22.8310 Z0.2384
G1 X30.1366 Y-22.8290 Z0.2384
G1 X30.2201 Y-22.8003 Z0.2384
G1 X30.1366 Y-22.7716 Z0.2384
G1 X30.1333 Y-22.7696 Z0.2384
G1 X30.1310 Y-22.7665 Z0.2384
G1 X30.1302 Y-22.7626 Z0.2384
G1 X30.1302 Y-22.6658 Z0.2384
G1 X30.0730 Y-22.7439 Z0.2384
G1 X30.0702 Y-22.7465 Z0.2384
G1 X30.0665 Y-22.7478 Z0.2384
G1 X30.0626 Y-22.7474 Z0.2384
G1 X29.9717 Y-22.7199 Z0.2384
G1 X30.0237 Y-22.7949 Z0.2384
G1 X30.0251 Y-22.7984 Z0.2384
G1 X30.0251 Y-22.8022 Z0.2384
G1 X30.0237 Y-22.8057 Z0.2384
G1 X29.9717 Y-22.8807 Z0.2384
G1 X30.0626 Y-22.8532 Z0.2384
G1 X30.0665 Y-22.8528 Z0.2384
G1 X30.0702 Y-22.8541 Z0.2384
G1 X30.0730 Y-22.8567 Z0.2384
G1 X30.1302 Y-22.9348 Z0.2384
G2X30.1310Y-22.8341Z0.2384I4.1996J0.0171
G1 X30.1333 Y-22.8310 Z0.2384
G1 X30.1366 Y-22.8290 Z0.2384
G1 X30.2201 Y-22.8003 Z0.2384
G1 X30.1850 Y-22.7882 Z0.2384
G0 Z0.3669
G0 X30.1850 Y-22.7882 
G0 Z0.3669
G0 X30.1000 Y-22.8935 
G1 X30.1000 Y-22.8935 Z0.2419 F21.
G1 X30.1302 Y-22.9348 Z0.2328
G1 X30.1302 Y-22.9009 Z0.2269
G1 X30.1302 Y-22.8380 Z0.2269 F22.
G1 X30.1310 Y-22.8341 Z0.2269
G1 X30.1333 Y-22.8310 Z0.2269
G1 X30.1366 Y-22.8290 Z0.2269
G1 X30.2201 Y-22.8003 Z0.2269
G1 X30.1366 Y-22.7716 Z0.2269
G1 X30.1333 Y-22.7696 Z0.2269
G1 X30.1310 Y-22.7665 Z0.2269
G1 X30.1302 Y-22.7626 Z0.2269
G1 X30.1302 Y-22.6658 Z0.2269
G1 X30.0730 Y-22.7439 Z0.2269
G1 X30.0702 Y-22.7465 Z0.2269
G1 X30.0665 Y-22.7478 Z0.2269
G1 X30.0626 Y-22.7474 Z0.2269
G1 X29.9717 Y-22.7199 Z0.2269
G1 X30.0237 Y-22.7949 Z0.2269
G1 X30.0251 Y-22.7984 Z0.2269
G1 X30.0251 Y-22.8022 Z0.2269
G1 X30.0237 Y-22.8057 Z0.2269
G1 X29.9717 Y-22.8807 Z0.2269
G1 X30.0626 Y-22.8532 Z0.2269
G1 X30.0665 Y-22.8528 Z0.2269
G1 X30.0702 Y-22.8541 Z0.2269
G1 X30.0730 Y-22.8567 Z0.2269
G1 X30.1302 Y-22.9348 Z0.2269
G2X30.1310Y-22.8341Z0.2269I4.1996J0.0171
G1 X30.1333 Y-22.8310 Z0.2269
G1 X30.1366 Y-22.8290 Z0.2269
G1 X30.2201 Y-22.8003 Z0.2269
G1 X30.1850 Y-22.7882 Z0.2269
G0 Z0.3553
G0 X30.1850 Y-22.7882 
G0 Z0.3553
G0 X30.1000 Y-22.8935 
G1 X30.1000 Y-22.8935 Z0.2303 F21.
G1 X30.1302 Y-22.9348 Z0.2213
G1 X30.1302 Y-22.9009 Z0.2153
G1 X30.1302 Y-22.8380 Z0.2153 F22.
G1 X30.1310 Y-22.8341 Z0.2153
G1 X30.1333 Y-22.8310 Z0.2153
G1 X30.1366 Y-22.8290 Z0.2153
G1 X30.2201 Y-22.8003 Z0.2153
G1 X30.1366 Y-22.7716 Z0.2153
G1 X30.1333 Y-22.7696 Z0.2153
G1 X30.1310 Y-22.7665 Z0.2153
G1 X30.1302 Y-22.7626 Z0.2153
G1 X30.1302 Y-22.6658 Z0.2153
G1 X30.0730 Y-22.7439 Z0.2153
G1 X30.0702 Y-22.7465 Z0.2153
G1 X30.0665 Y-22.7478 Z0.2153
G1 X30.0626 Y-22.7474 Z0.2153
G1 X29.9717 Y-22.7199 Z0.2153
G1 X30.0237 Y-22.7949 Z0.2153
G1 X30.0251 Y-22.7984 Z0.2153
G1 X30.0251 Y-22.8022 Z0.2153
G1 X30.0237 Y-22.8057 Z0.2153
G1 X29.9717 Y-22.8807 Z0.2153
G1 X30.0626 Y-22.8532 Z0.2153
G1 X30.0665 Y-22.8528 Z0.2153
G1 X30.0702 Y-22.8541 Z0.2153
G1 X30.0730 Y-22.8567 Z0.2153
G1 X30.1302 Y-22.9348 Z0.2153
G2X30.1310Y-22.8341Z0.2153I4.1996J0.0171
G1 X30.1333 Y-22.8310 Z0.2153
G1 X30.1366 Y-22.8290 Z0.2153
G1 X30.2201 Y-22.8003 Z0.2153
G1 X30.1850 Y-22.7882 Z0.2153
G0 Z0.3437
G0 X30.1850 Y-22.7882 
G0 Z0.3437
G0 X30.1000 Y-22.8935 
G1 X30.1000 Y-22.8935 Z0.2187 F21.
G1 X30.1302 Y-22.9348 Z0.2097
G1 X30.1302 Y-22.9009 Z0.2037
G1 X30.1302 Y-22.8380 Z0.2037 F22.
G1 X30.1310 Y-22.8341 Z0.2037
G1 X30.1333 Y-22.8310 Z0.2037
G1 X30.1366 Y-22.8290 Z0.2037
G1 X30.2201 Y-22.8003 Z0.2037
G1 X30.1366 Y-22.7716 Z0.2037
G1 X30.1333 Y-22.7696 Z0.2037
G1 X30.1310 Y-22.7665 Z0.2037
G1 X30.1302 Y-22.7626 Z0.2037
G1 X30.1302 Y-22.6658 Z0.2037
G1 X30.0730 Y-22.7439 Z0.2037
G1 X30.0702 Y-22.7465 Z0.2037
G1 X30.0665 Y-22.7478 Z0.2037
G1 X30.0626 Y-22.7474 Z0.2037
G1 X29.9717 Y-22.7199 Z0.2037
G1 X30.0237 Y-22.7949 Z0.2037
G1 X30.0251 Y-22.7984 Z0.2037
G1 X30.0251 Y-22.8022 Z0.2037
G1 X30.0237 Y-22.8057 Z0.2037
G1 X29.9717 Y-22.8807 Z0.2037
G1 X30.0626 Y-22.8532 Z0.2037
G1 X30.0665 Y-22.8528 Z0.2037
G1 X30.0702 Y-22.8541 Z0.2037
G1 X30.0730 Y-22.8567 Z0.2037
G1 X30.1302 Y-22.9348 Z0.2037
G2X30.1310Y-22.8341Z0.2037I4.1996J0.0171
G1 X30.1333 Y-22.8310 Z0.2037
G1 X30.1366 Y-22.8290 Z0.2037
G1 X30.2201 Y-22.8003 Z0.2037
G1 X30.1850 Y-22.7882 Z0.2037
G0 Z0.3321
G0 X30.1850 Y-22.7882 
G0 Z0.3321
G0 X30.1000 Y-22.8935 
G1 X30.1000 Y-22.8935 Z0.2071 F21.
G1 X30.1302 Y-22.9348 Z0.1981
G1 X30.1302 Y-22.9009 Z0.1921
G1 X30.1302 Y-22.8380 Z0.1921 F22.
G1 X30.1310 Y-22.8341 Z0.1921
G1 X30.1333 Y-22.8310 Z0.1921
G1 X30.1366 Y-22.8290 Z0.1921
G1 X30.2201 Y-22.8003 Z0.1921
G1 X30.1366 Y-22.7716 Z0.1921
G1 X30.1333 Y-22.7696 Z0.1921
G1 X30.1310 Y-22.7665 Z0.1921
G1 X30.1302 Y-22.7626 Z0.1921
G1 X30.1302 Y-22.6658 Z0.1921
G1 X30.0730 Y-22.7439 Z0.1921
G1 X30.0702 Y-22.7465 Z0.1921
G1 X30.0665 Y-22.7478 Z0.1921
G1 X30.0626 Y-22.7474 Z0.1921
G1 X29.9717 Y-22.7199 Z0.1921
G1 X30.0237 Y-22.7949 Z0.1921
G1 X30.0251 Y-22.7984 Z0.1921
G1 X30.0251 Y-22.8022 Z0.1921
G1 X30.0237 Y-22.8057 Z0.1921
G1 X29.9717 Y-22.8807 Z0.1921
G1 X30.0626 Y-22.8532 Z0.1921
G1 X30.0665 Y-22.8528 Z0.1921
G1 X30.0702 Y-22.8541 Z0.1921
G1 X30.0730 Y-22.8567 Z0.1921
G1 X30.1302 Y-22.9348 Z0.1921
G2X30.1310Y-22.8341Z0.1921I4.1996J0.0171
G1 X30.1333 Y-22.8310 Z0.1921
G1 X30.1366 Y-22.8290 Z0.1921
G1 X30.2201 Y-22.8003 Z0.1921
G1 X30.1850 Y-22.7882 Z0.1921
G0 Z0.3206
G0 X30.1850 Y-22.7882 
G0 Z0.3206
G0 X30.1000 Y-22.8935 
G1 X30.1000 Y-22.8935 Z0.1956 F21.
G1 X30.1302 Y-22.9348 Z0.1865
G1 X30.1302 Y-22.9009 Z0.1806
G1 X30.1302 Y-22.8380 Z0.1806 F22.
G1 X30.1310 Y-22.8341 Z0.1806
G1 X30.1333 Y-22.8310 Z0.1806
G1 X30.1366 Y-22.8290 Z0.1806
G1 X30.2201 Y-22.8003 Z0.1806
G1 X30.1366 Y-22.7716 Z0.1806
G1 X30.1333 Y-22.7696 Z0.1806
G1 X30.1310 Y-22.7665 Z0.1806
G1 X30.1302 Y-22.7626 Z0.1806
G1 X30.1302 Y-22.6658 Z0.1806
G1 X30.0730 Y-22.7439 Z0.1806
G1 X30.0702 Y-22.7465 Z0.1806
G1 X30.0665 Y-22.7478 Z0.1806
G1 X30.0626 Y-22.7474 Z0.1806
G1 X29.9717 Y-22.7199 Z0.1806
G1 X30.0237 Y-22.7949 Z0.1806
G1 X30.0251 Y-22.7984 Z0.1806
G1 X30.0251 Y-22.8022 Z0.1806
G1 X30.0237 Y-22.8057 Z0.1806
G1 X29.9717 Y-22.8807 Z0.1806
G1 X30.0626 Y-22.8532 Z0.1806
G1 X30.0665 Y-22.8528 Z0.1806
G1 X30.0702 Y-22.8541 Z0.1806
G1 X30.0730 Y-22.8567 Z0.1806
G1 X30.1302 Y-22.9348 Z0.1806
G2X30.1310Y-22.8341Z0.1806I4.1996J0.0171
G1 X30.1333 Y-22.8310 Z0.1806
G1 X30.1366 Y-22.8290 Z0.1806
G1 X30.2201 Y-22.8003 Z0.1806
G1 X30.1850 Y-22.7882 Z0.1806
G0 Z0.3090
G0 X30.1850 Y-22.7882 
G0 Z0.3090
G0 X30.1000 Y-22.8935 
G1 X30.1000 Y-22.8935 Z0.1840 F21.
G1 X30.1302 Y-22.9348 Z0.1750
G1 X30.1302 Y-22.9009 Z0.1690
G1 X30.1302 Y-22.8380 Z0.1690 F22.
G1 X30.1310 Y-22.8341 Z0.1690
G1 X30.1333 Y-22.8310 Z0.1690
G1 X30.1366 Y-22.8290 Z0.1690
G1 X30.2201 Y-22.8003 Z0.1690
G1 X30.1366 Y-22.7716 Z0.1690
G1 X30.1333 Y-22.7696 Z0.1690
G1 X30.1310 Y-22.7665 Z0.1690
G1 X30.1302 Y-22.7626 Z0.1690
G1 X30.1302 Y-22.6658 Z0.1690
G1 X30.0730 Y-22.7439 Z0.1690
G1 X30.0702 Y-22.7465 Z0.1690
G1 X30.0665 Y-22.7478 Z0.1690
G1 X30.0626 Y-22.7474 Z0.1690
G1 X29.9717 Y-22.7199 Z0.1690
G1 X30.0237 Y-22.7949 Z0.1690
G1 X30.0251 Y-22.7984 Z0.1690
G1 X30.0251 Y-22.8022 Z0.1690
G1 X30.0237 Y-22.8057 Z0.1690
G1 X29.9717 Y-22.8807 Z0.1690
G1 X30.0626 Y-22.8532 Z0.1690
G1 X30.0665 Y-22.8528 Z0.1690
G1 X30.0702 Y-22.8541 Z0.1690
G1 X30.0730 Y-22.8567 Z0.1690
G1 X30.1302 Y-22.9348 Z0.1690
G2X30.1310Y-22.8341Z0.1690I4.1996J0.0171
G1 X30.1333 Y-22.8310 Z0.1690
G1 X30.1366 Y-22.8290 Z0.1690
G1 X30.2201 Y-22.8003 Z0.1690
G1 X30.1850 Y-22.7882 Z0.1690
G0 Z0.3784
G0 X30.1850 Y-22.7882 
G0 Z0.3784
G0 X31.1557 Y-22.9477 
G1 X31.1557 Y-22.9477 Z0.2534 F21.
G1 X31.1765 Y-22.9761 Z0.2472
G1 X31.1765 Y-22.9264 Z0.2384
G1 X31.1765 Y-22.8475 Z0.2384 F22.
G1 X31.1773 Y-22.8437 Z0.2384
G1 X31.1796 Y-22.8406 Z0.2384
G1 X31.1829 Y-22.8386 Z0.2384
G1 X31.2941 Y-22.8004 Z0.2384
G1 X31.1829 Y-22.7622 Z0.2384
G1 X31.1796 Y-22.7602 Z0.2384
G1 X31.1773 Y-22.7570 Z0.2384
G1 X31.1765 Y-22.7532 Z0.2384
G1 X31.1765 Y-22.6246 Z0.2384
G1 X31.1006 Y-22.7284 Z0.2384
G1 X31.0977 Y-22.7310 Z0.2384
G1 X31.0940 Y-22.7322 Z0.2384
G1 X31.0902 Y-22.7319 Z0.2384
G1 X30.9698 Y-22.6954 Z0.2384
G1 X31.0387 Y-22.7950 Z0.2384
G1 X31.0402 Y-22.7985 Z0.2384
G1 X31.0402 Y-22.8023 Z0.2384
G1 X31.0387 Y-22.8058 Z0.2384
G1 X30.9698 Y-22.9054 Z0.2384
G1 X31.0902 Y-22.8689 Z0.2384
G1 X31.0940 Y-22.8686 Z0.2384
G1 X31.0977 Y-22.8698 Z0.2384
G1 X31.1006 Y-22.8724 Z0.2384
G1 X31.1765 Y-22.9761 Z0.2384
G2X31.1773Y-22.8437Z0.2384I6.8401J0.0249
G1 X31.1796 Y-22.8406 Z0.2384
G1 X31.1829 Y-22.8386 Z0.2384
G1 X31.2865 Y-22.8030 Z0.2384
G0 Z0.3669
G0 X31.2865 Y-22.8030 
G0 Z0.3669
G0 X31.1557 Y-22.9477 
G1 X31.1557 Y-22.9477 Z0.2419 F21.
G1 X31.1765 Y-22.9761 Z0.2356
G1 X31.1765 Y-22.9264 Z0.2269
G1 X31.1765 Y-22.8475 Z0.2269 F22.
G1 X31.1773 Y-22.8437 Z0.2269
G1 X31.1796 Y-22.8406 Z0.2269
G1 X31.1829 Y-22.8386 Z0.2269
G1 X31.2941 Y-22.8004 Z0.2269
G1 X31.1829 Y-22.7622 Z0.2269
G1 X31.1796 Y-22.7602 Z0.2269
G1 X31.1773 Y-22.7570 Z0.2269
G1 X31.1765 Y-22.7532 Z0.2269
G1 X31.1765 Y-22.6246 Z0.2269
G1 X31.1006 Y-22.7284 Z0.2269
G1 X31.0977 Y-22.7310 Z0.2269
G1 X31.0940 Y-22.7322 Z0.2269
G1 X31.0902 Y-22.7319 Z0.2269
G1 X30.9698 Y-22.6954 Z0.2269
G1 X31.0387 Y-22.7950 Z0.2269
G1 X31.0402 Y-22.7985 Z0.2269
G1 X31.0402 Y-22.8023 Z0.2269
G1 X31.0387 Y-22.8058 Z0.2269
G1 X30.9698 Y-22.9054 Z0.2269
G1 X31.0902 Y-22.8689 Z0.2269
G1 X31.0940 Y-22.8686 Z0.2269
G1 X31.0977 Y-22.8698 Z0.2269
G1 X31.1006 Y-22.8724 Z0.2269
G1 X31.1765 Y-22.9761 Z0.2269
G2X31.1773Y-22.8437Z0.2269I6.8401J0.0249
G1 X31.1796 Y-22.8406 Z0.2269
G1 X31.1829 Y-22.8386 Z0.2269
G1 X31.2865 Y-22.8030 Z0.2269
G0 Z0.3553
G0 X31.2865 Y-22.8030 
G0 Z0.3553
G0 X31.1557 Y-22.9477 
G1 X31.1557 Y-22.9477 Z0.2303 F21.
G1 X31.1765 Y-22.9761 Z0.2241
G1 X31.1765 Y-22.9264 Z0.2153
G1 X31.1765 Y-22.8475 Z0.2153 F22.
G1 X31.1773 Y-22.8437 Z0.2153
G1 X31.1796 Y-22.8406 Z0.2153
G1 X31.1829 Y-22.8386 Z0.2153
G1 X31.2941 Y-22.8004 Z0.2153
G1 X31.1829 Y-22.7622 Z0.2153
G1 X31.1796 Y-22.7602 Z0.2153
G1 X31.1773 Y-22.7570 Z0.2153
G1 X31.1765 Y-22.7532 Z0.2153
G1 X31.1765 Y-22.6246 Z0.2153
G1 X31.1006 Y-22.7284 Z0.2153
G1 X31.0977 Y-22.7310 Z0.2153
G1 X31.0940 Y-22.7322 Z0.2153
G1 X31.0902 Y-22.7319 Z0.2153
G1 X30.9698 Y-22.6954 Z0.2153
G1 X31.0387 Y-22.7950 Z0.2153
G1 X31.0402 Y-22.7985 Z0.2153
G1 X31.0402 Y-22.8023 Z0.2153
G1 X31.0387 Y-22.8058 Z0.2153
G1 X30.9698 Y-22.9054 Z0.2153
G1 X31.0902 Y-22.8689 Z0.2153
G1 X31.0940 Y-22.8686 Z0.2153
G1 X31.0977 Y-22.8698 Z0.2153
G1 X31.1006 Y-22.8724 Z0.2153
G1 X31.1765 Y-22.9761 Z0.2153
G2X31.1773Y-22.8437Z0.2153I6.8401J0.0249
G1 X31.1796 Y-22.8406 Z0.2153
G1 X31.1829 Y-22.8386 Z0.2153
G1 X31.2865 Y-22.8030 Z0.2153
G0 Z0.3437
G0 X31.2865 Y-22.8030 
G0 Z0.3437
G0 X31.1557 Y-22.9477 
G1 X31.1557 Y-22.9477 Z0.2187 F21.
G1 X31.1765 Y-22.9761 Z0.2125
G1 X31.1765 Y-22.9264 Z0.2037
G1 X31.1765 Y-22.8475 Z0.2037 F22.
G1 X31.1773 Y-22.8437 Z0.2037
G1 X31.1796 Y-22.8406 Z0.2037
G1 X31.1829 Y-22.8386 Z0.2037
G1 X31.2941 Y-22.8004 Z0.2037
G1 X31.1829 Y-22.7622 Z0.2037
G1 X31.1796 Y-22.7602 Z0.2037
G1 X31.1773 Y-22.7570 Z0.2037
G1 X31.1765 Y-22.7532 Z0.2037
G1 X31.1765 Y-22.6246 Z0.2037
G1 X31.1006 Y-22.7284 Z0.2037
G1 X31.0977 Y-22.7310 Z0.2037
G1 X31.0940 Y-22.7322 Z0.2037
G1 X31.0902 Y-22.7319 Z0.2037
G1 X30.9698 Y-22.6954 Z0.2037
G1 X31.0387 Y-22.7950 Z0.2037
G1 X31.0402 Y-22.7985 Z0.2037
G1 X31.0402 Y-22.8023 Z0.2037
G1 X31.0387 Y-22.8058 Z0.2037
G1 X30.9698 Y-22.9054 Z0.2037
G1 X31.0902 Y-22.8689 Z0.2037
G1 X31.0940 Y-22.8686 Z0.2037
G1 X31.0977 Y-22.8698 Z0.2037
G1 X31.1006 Y-22.8724 Z0.2037
G1 X31.1765 Y-22.9761 Z0.2037
G2X31.1773Y-22.8437Z0.2037I6.8401J0.0249
G1 X31.1796 Y-22.8406 Z0.2037
G1 X31.1829 Y-22.8386 Z0.2037
G1 X31.2865 Y-22.8030 Z0.2037
G0 Z0.3321
G0 X31.2865 Y-22.8030 
G0 Z0.3321
G0 X31.1557 Y-22.9477 
G1 X31.1557 Y-22.9477 Z0.2071 F21.
G1 X31.1765 Y-22.9761 Z0.2009
G1 X31.1765 Y-22.9264 Z0.1921
G1 X31.1765 Y-22.8475 Z0.1921 F22.
G1 X31.1773 Y-22.8437 Z0.1921
G1 X31.1796 Y-22.8406 Z0.1921
G1 X31.1829 Y-22.8386 Z0.1921
G1 X31.2941 Y-22.8004 Z0.1921
G1 X31.1829 Y-22.7622 Z0.1921
G1 X31.1796 Y-22.7602 Z0.1921
G1 X31.1773 Y-22.7570 Z0.1921
G1 X31.1765 Y-22.7532 Z0.1921
G1 X31.1765 Y-22.6246 Z0.1921
G1 X31.1006 Y-22.7284 Z0.1921
G1 X31.0977 Y-22.7310 Z0.1921
G1 X31.0940 Y-22.7322 Z0.1921
G1 X31.0902 Y-22.7319 Z0.1921
G1 X30.9698 Y-22.6954 Z0.1921
G1 X31.0387 Y-22.7950 Z0.1921
G1 X31.0402 Y-22.7985 Z0.1921
G1 X31.0402 Y-22.8023 Z0.1921
G1 X31.0387 Y-22.8058 Z0.1921
G1 X30.9698 Y-22.9054 Z0.1921
G1 X31.0902 Y-22.8689 Z0.1921
G1 X31.0940 Y-22.8686 Z0.1921
G1 X31.0977 Y-22.8698 Z0.1921
G1 X31.1006 Y-22.8724 Z0.1921
G1 X31.1765 Y-22.9761 Z0.1921
G2X31.1773Y-22.8437Z0.1921I6.8401J0.0249
G1 X31.1796 Y-22.8406 Z0.1921
G1 X31.1829 Y-22.8386 Z0.1921
G1 X31.2865 Y-22.8030 Z0.1921
G0 Z0.3206
G0 X31.2865 Y-22.8030 
G0 Z0.3206
G0 X31.1557 Y-22.9477 
G1 X31.1557 Y-22.9477 Z0.1956 F21.
G1 X31.1765 Y-22.9761 Z0.1893
G1 X31.1765 Y-22.9264 Z0.1806
G1 X31.1765 Y-22.8475 Z0.1806 F22.
G1 X31.1773 Y-22.8437 Z0.1806
G1 X31.1796 Y-22.8406 Z0.1806
G1 X31.1829 Y-22.8386 Z0.1806
G1 X31.2941 Y-22.8004 Z0.1806
G1 X31.1829 Y-22.7622 Z0.1806
G1 X31.1796 Y-22.7602 Z0.1806
G1 X31.1773 Y-22.7570 Z0.1806
G1 X31.1765 Y-22.7532 Z0.1806
G1 X31.1765 Y-22.6246 Z0.1806
G1 X31.1006 Y-22.7284 Z0.1806
G1 X31.0977 Y-22.7310 Z0.1806
G1 X31.0940 Y-22.7322 Z0.1806
G1 X31.0902 Y-22.7319 Z0.1806
G1 X30.9698 Y-22.6954 Z0.1806
G1 X31.0387 Y-22.7950 Z0.1806
G1 X31.0402 Y-22.7985 Z0.1806
G1 X31.0402 Y-22.8023 Z0.1806
G1 X31.0387 Y-22.8058 Z0.1806
G1 X30.9698 Y-22.9054 Z0.1806
G1 X31.0902 Y-22.8689 Z0.1806
G1 X31.0940 Y-22.8686 Z0.1806
G1 X31.0977 Y-22.8698 Z0.1806
G1 X31.1006 Y-22.8724 Z0.1806
G1 X31.1765 Y-22.9761 Z0.1806
G2X31.1773Y-22.8437Z0.1806I6.8401J0.0249
G1 X31.1796 Y-22.8406 Z0.1806
G1 X31.1829 Y-22.8386 Z0.1806
G1 X31.2865 Y-22.8030 Z0.1806
G0 Z0.3090
G0 X31.2865 Y-22.8030 
G0 Z0.3090
G0 X31.1557 Y-22.9477 
G1 X31.1557 Y-22.9477 Z0.1840 F21.
G1 X31.1765 Y-22.9761 Z0.1778
G1 X31.1765 Y-22.9264 Z0.1690
G1 X31.1765 Y-22.8475 Z0.1690 F22.
G1 X31.1773 Y-22.8437 Z0.1690
G1 X31.1796 Y-22.8406 Z0.1690
G1 X31.1829 Y-22.8386 Z0.1690
G1 X31.2941 Y-22.8004 Z0.1690
G1 X31.1829 Y-22.7622 Z0.1690
G1 X31.1796 Y-22.7602 Z0.1690
G1 X31.1773 Y-22.7570 Z0.1690
G1 X31.1765 Y-22.7532 Z0.1690
G1 X31.1765 Y-22.6246 Z0.1690
G1 X31.1006 Y-22.7284 Z0.1690
G1 X31.0977 Y-22.7310 Z0.1690
G1 X31.0940 Y-22.7322 Z0.1690
G1 X31.0902 Y-22.7319 Z0.1690
G1 X30.9698 Y-22.6954 Z0.1690
G1 X31.0387 Y-22.7950 Z0.1690
G1 X31.0402 Y-22.7985 Z0.1690
G1 X31.0402 Y-22.8023 Z0.1690
G1 X31.0387 Y-22.8058 Z0.1690
G1 X30.9698 Y-22.9054 Z0.1690
G1 X31.0902 Y-22.8689 Z0.1690
G1 X31.0940 Y-22.8686 Z0.1690
G1 X31.0977 Y-22.8698 Z0.1690
G1 X31.1006 Y-22.8724 Z0.1690
G1 X31.1765 Y-22.9761 Z0.1690
G2X31.1773Y-22.8437Z0.1690I6.8401J0.0249
G1 X31.1796 Y-22.8406 Z0.1690
G1 X31.1829 Y-22.8386 Z0.1690
G1 X31.2865 Y-22.8030 Z0.1690
G0 Z0.3784
G0 X31.2865 Y-22.8030 
G0 Z0.3784
G0 X32.3195 Y-22.9485 
G1 X32.3195 Y-22.9485 Z0.2534 F21.
G1 X32.3404 Y-22.9769 Z0.2472
G1 X32.3404 Y-22.9272 Z0.2384
G1 X32.3404 Y-22.8483 Z0.2384 F22.
G1 X32.3412 Y-22.8445 Z0.2384
G1 X32.3434 Y-22.8413 Z0.2384
G1 X32.3468 Y-22.8394 Z0.2384
G1 X32.4579 Y-22.8012 Z0.2384
G1 X32.3468 Y-22.7630 Z0.2384
G1 X32.3434 Y-22.7610 Z0.2384
G1 X32.3412 Y-22.7578 Z0.2384
G1 X32.3404 Y-22.7540 Z0.2384
G1 X32.3404 Y-22.6254 Z0.2384
G1 X32.2644 Y-22.7292 Z0.2384
G1 X32.2616 Y-22.7318 Z0.2384
G1 X32.2579 Y-22.7330 Z0.2384
G1 X32.2540 Y-22.7327 Z0.2384
G1 X32.1336 Y-22.6962 Z0.2384
G1 X32.2025 Y-22.7958 Z0.2384
G1 X32.2040 Y-22.7993 Z0.2384
G1 X32.2040 Y-22.8031 Z0.2384
G1 X32.2025 Y-22.8066 Z0.2384
G1 X32.1336 Y-22.9062 Z0.2384
G1 X32.2540 Y-22.8697 Z0.2384
G1 X32.2579 Y-22.8694 Z0.2384
G1 X32.2616 Y-22.8706 Z0.2384
G1 X32.2644 Y-22.8732 Z0.2384
G1 X32.3404 Y-22.9769 Z0.2384
G2X32.3412Y-22.8445Z0.2384I6.8401J0.0249
G1 X32.3434 Y-22.8413 Z0.2384
G1 X32.3468 Y-22.8394 Z0.2384
G1 X32.4503 Y-22.8038 Z0.2384
G0 Z0.3669
G0 X32.4503 Y-22.8038 
G0 Z0.3669
G0 X32.3195 Y-22.9485 
G1 X32.3195 Y-22.9485 Z0.2419 F21.
G1 X32.3404 Y-22.9769 Z0.2356
G1 X32.3404 Y-22.9272 Z0.2269
G1 X32.3404 Y-22.8483 Z0.2269 F22.
G1 X32.3412 Y-22.8445 Z0.2269
G1 X32.3434 Y-22.8413 Z0.2269
G1 X32.3468 Y-22.8394 Z0.2269
G1 X32.4579 Y-22.8012 Z0.2269
G1 X32.3468 Y-22.7630 Z0.2269
G1 X32.3434 Y-22.7610 Z0.2269
G1 X32.3412 Y-22.7578 Z0.2269
G1 X32.3404 Y-22.7540 Z0.2269
G1 X32.3404 Y-22.6254 Z0.2269
G1 X32.2644 Y-22.7292 Z0.2269
G1 X32.2616 Y-22.7318 Z0.2269
G1 X32.2579 Y-22.7330 Z0.2269
G1 X32.2540 Y-22.7327 Z0.2269
G1 X32.1336 Y-22.6962 Z0.2269
G1 X32.2025 Y-22.7958 Z0.2269
G1 X32.2040 Y-22.7993 Z0.2269
G1 X32.2040 Y-22.8031 Z0.2269
G1 X32.2025 Y-22.8066 Z0.2269
G1 X32.1336 Y-22.9062 Z0.2269
G1 X32.2540 Y-22.8697 Z0.2269
G1 X32.2579 Y-22.8694 Z0.2269
G1 X32.2616 Y-22.8706 Z0.2269
G1 X32.2644 Y-22.8732 Z0.2269
G1 X32.3404 Y-22.9769 Z0.2269
G2X32.3412Y-22.8445Z0.2269I6.8401J0.0249
G1 X32.3434 Y-22.8413 Z0.2269
G1 X32.3468 Y-22.8394 Z0.2269
G1 X32.4503 Y-22.8038 Z0.2269
G0 Z0.3553
G0 X32.4503 Y-22.8038 
G0 Z0.3553
G0 X32.3195 Y-22.9485 
G1 X32.3195 Y-22.9485 Z0.2303 F21.
G1 X32.3404 Y-22.9769 Z0.2241
G1 X32.3404 Y-22.9272 Z0.2153
G1 X32.3404 Y-22.8483 Z0.2153 F22.
G1 X32.3412 Y-22.8445 Z0.2153
G1 X32.3434 Y-22.8413 Z0.2153
G1 X32.3468 Y-22.8394 Z0.2153
G1 X32.4579 Y-22.8012 Z0.2153
G1 X32.3468 Y-22.7630 Z0.2153
G1 X32.3434 Y-22.7610 Z0.2153
G1 X32.3412 Y-22.7578 Z0.2153
G1 X32.3404 Y-22.7540 Z0.2153
G1 X32.3404 Y-22.6254 Z0.2153
G1 X32.2644 Y-22.7292 Z0.2153
G1 X32.2616 Y-22.7318 Z0.2153
G1 X32.2579 Y-22.7330 Z0.2153
G1 X32.2540 Y-22.7327 Z0.2153
G1 X32.1336 Y-22.6962 Z0.2153
G1 X32.2025 Y-22.7958 Z0.2153
G1 X32.2040 Y-22.7993 Z0.2153
G1 X32.2040 Y-22.8031 Z0.2153
G1 X32.2025 Y-22.8066 Z0.2153
G1 X32.1336 Y-22.9062 Z0.2153
G1 X32.2540 Y-22.8697 Z0.2153
G1 X32.2579 Y-22.8694 Z0.2153
G1 X32.2616 Y-22.8706 Z0.2153
G1 X32.2644 Y-22.8732 Z0.2153
G1 X32.3404 Y-22.9769 Z0.2153
G2X32.3412Y-22.8445Z0.2153I6.8401J0.0249
G1 X32.3434 Y-22.8413 Z0.2153
G1 X32.3468 Y-22.8394 Z0.2153
G1 X32.4503 Y-22.8038 Z0.2153
G0 Z0.3437
G0 X32.4503 Y-22.8038 
G0 Z0.3437
G0 X32.3195 Y-22.9485 
G1 X32.3195 Y-22.9485 Z0.2187 F21.
G1 X32.3404 Y-22.9769 Z0.2125
G1 X32.3404 Y-22.9272 Z0.2037
G1 X32.3404 Y-22.8483 Z0.2037 F22.
G1 X32.3412 Y-22.8445 Z0.2037
G1 X32.3434 Y-22.8413 Z0.2037
G1 X32.3468 Y-22.8394 Z0.2037
G1 X32.4579 Y-22.8012 Z0.2037
G1 X32.3468 Y-22.7630 Z0.2037
G1 X32.3434 Y-22.7610 Z0.2037
G1 X32.3412 Y-22.7578 Z0.2037
G1 X32.3404 Y-22.7540 Z0.2037
G1 X32.3404 Y-22.6254 Z0.2037
G1 X32.2644 Y-22.7292 Z0.2037
G1 X32.2616 Y-22.7318 Z0.2037
G1 X32.2579 Y-22.7330 Z0.2037
G1 X32.2540 Y-22.7327 Z0.2037
G1 X32.1336 Y-22.6962 Z0.2037
G1 X32.2025 Y-22.7958 Z0.2037
G1 X32.2040 Y-22.7993 Z0.2037
G1 X32.2040 Y-22.8031 Z0.2037
G1 X32.2025 Y-22.8066 Z0.2037
G1 X32.1336 Y-22.9062 Z0.2037
G1 X32.2540 Y-22.8697 Z0.2037
G1 X32.2579 Y-22.8694 Z0.2037
G1 X32.2616 Y-22.8706 Z0.2037
G1 X32.2644 Y-22.8732 Z0.2037
G1 X32.3404 Y-22.9769 Z0.2037
G2X32.3412Y-22.8445Z0.2037I6.8401J0.0249
G1 X32.3434 Y-22.8413 Z0.2037
G1 X32.3468 Y-22.8394 Z0.2037
G1 X32.4503 Y-22.8038 Z0.2037
G0 Z0.3321
G0 X32.4503 Y-22.8038 
G0 Z0.3321
G0 X32.3195 Y-22.9485 
G1 X32.3195 Y-22.9485 Z0.2071 F21.
G1 X32.3404 Y-22.9769 Z0.2009
G1 X32.3404 Y-22.9272 Z0.1921
G1 X32.3404 Y-22.8483 Z0.1921 F22.
G1 X32.3412 Y-22.8445 Z0.1921
G1 X32.3434 Y-22.8413 Z0.1921
G1 X32.3468 Y-22.8394 Z0.1921
G1 X32.4579 Y-22.8012 Z0.1921
G1 X32.3468 Y-22.7630 Z0.1921
G1 X32.3434 Y-22.7610 Z0.1921
G1 X32.3412 Y-22.7578 Z0.1921
G1 X32.3404 Y-22.7540 Z0.1921
G1 X32.3404 Y-22.6254 Z0.1921
G1 X32.2644 Y-22.7292 Z0.1921
G1 X32.2616 Y-22.7318 Z0.1921
G1 X32.2579 Y-22.7330 Z0.1921
G1 X32.2540 Y-22.7327 Z0.1921
G1 X32.1336 Y-22.6962 Z0.1921
G1 X32.2025 Y-22.7958 Z0.1921
G1 X32.2040 Y-22.7993 Z0.1921
G1 X32.2040 Y-22.8031 Z0.1921
G1 X32.2025 Y-22.8066 Z0.1921
G1 X32.1336 Y-22.9062 Z0.1921
G1 X32.2540 Y-22.8697 Z0.1921
G1 X32.2579 Y-22.8694 Z0.1921
G1 X32.2616 Y-22.8706 Z0.1921
G1 X32.2644 Y-22.8732 Z0.1921
G1 X32.3404 Y-22.9769 Z0.1921
G2X32.3412Y-22.8445Z0.1921I6.8401J0.0249
G1 X32.3434 Y-22.8413 Z0.1921
G1 X32.3468 Y-22.8394 Z0.1921
G1 X32.4503 Y-22.8038 Z0.1921
G0 Z0.3206
G0 X32.4503 Y-22.8038 
G0 Z0.3206
G0 X32.3195 Y-22.9485 
G1 X32.3195 Y-22.9485 Z0.1956 F21.
G1 X32.3404 Y-22.9769 Z0.1893
G1 X32.3404 Y-22.9272 Z0.1806
G1 X32.3404 Y-22.8483 Z0.1806 F22.
G1 X32.3412 Y-22.8445 Z0.1806
G1 X32.3434 Y-22.8413 Z0.1806
G1 X32.3468 Y-22.8394 Z0.1806
G1 X32.4579 Y-22.8012 Z0.1806
G1 X32.3468 Y-22.7630 Z0.1806
G1 X32.3434 Y-22.7610 Z0.1806
G1 X32.3412 Y-22.7578 Z0.1806
G1 X32.3404 Y-22.7540 Z0.1806
G1 X32.3404 Y-22.6254 Z0.1806
G1 X32.2644 Y-22.7292 Z0.1806
G1 X32.2616 Y-22.7318 Z0.1806
G1 X32.2579 Y-22.7330 Z0.1806
G1 X32.2540 Y-22.7327 Z0.1806
G1 X32.1336 Y-22.6962 Z0.1806
G1 X32.2025 Y-22.7958 Z0.1806
G1 X32.2040 Y-22.7993 Z0.1806
G1 X32.2040 Y-22.8031 Z0.1806
G1 X32.2025 Y-22.8066 Z0.1806
G1 X32.1336 Y-22.9062 Z0.1806
G1 X32.2540 Y-22.8697 Z0.1806
G1 X32.2579 Y-22.8694 Z0.1806
G1 X32.2616 Y-22.8706 Z0.1806
G1 X32.2644 Y-22.8732 Z0.1806
G1 X32.3404 Y-22.9769 Z0.1806
G2X32.3412Y-22.8445Z0.1806I6.8401J0.0249
G1 X32.3434 Y-22.8413 Z0.1806
G1 X32.3468 Y-22.8394 Z0.1806
G1 X32.4503 Y-22.8038 Z0.1806
G0 Z0.3090
G0 X32.4503 Y-22.8038 
G0 Z0.3090
G0 X32.3195 Y-22.9485 
G1 X32.3195 Y-22.9485 Z0.1840 F21.
G1 X32.3404 Y-22.9769 Z0.1778
G1 X32.3404 Y-22.9272 Z0.1690
G1 X32.3404 Y-22.8483 Z0.1690 F22.
G1 X32.3412 Y-22.8445 Z0.1690
G1 X32.3434 Y-22.8413 Z0.1690
G1 X32.3468 Y-22.8394 Z0.1690
G1 X32.4579 Y-22.8012 Z0.1690
G1 X32.3468 Y-22.7630 Z0.1690
G1 X32.3434 Y-22.7610 Z0.1690
G1 X32.3412 Y-22.7578 Z0.1690
G1 X32.3404 Y-22.7540 Z0.1690
G1 X32.3404 Y-22.6254 Z0.1690
G1 X32.2644 Y-22.7292 Z0.1690
G1 X32.2616 Y-22.7318 Z0.1690
G1 X32.2579 Y-22.7330 Z0.1690
G1 X32.2540 Y-22.7327 Z0.1690
G1 X32.1336 Y-22.6962 Z0.1690
G1 X32.2025 Y-22.7958 Z0.1690
G1 X32.2040 Y-22.7993 Z0.1690
G1 X32.2040 Y-22.8031 Z0.1690
G1 X32.2025 Y-22.8066 Z0.1690
G1 X32.1336 Y-22.9062 Z0.1690
G1 X32.2540 Y-22.8697 Z0.1690
G1 X32.2579 Y-22.8694 Z0.1690
G1 X32.2616 Y-22.8706 Z0.1690
G1 X32.2644 Y-22.8732 Z0.1690
G1 X32.3404 Y-22.9769 Z0.1690
G2X32.3412Y-22.8445Z0.1690I6.8401J0.0249
G1 X32.3434 Y-22.8413 Z0.1690
G1 X32.3468 Y-22.8394 Z0.1690
G1 X32.4503 Y-22.8038 Z0.1690
G0 Z0.3784
G0 X32.4503 Y-22.8038 
G0 Z0.3784
G0 X34.3746 Y-22.7189 
G1 X34.3746 Y-22.7189 Z0.2534 F21.
G1 X34.3746 Y-22.6339 Z0.2384
G1 X34.3746 Y-22.5582 Z0.2384 F22.
G1 X34.2680 Y-22.7038 Z0.2384
G1 X34.2652 Y-22.7064 Z0.2384
G1 X34.2615 Y-22.7076 Z0.2384
G1 X34.2576 Y-22.7072 Z0.2384
G1 X34.0891 Y-22.6562 Z0.2384
G1 X34.1858 Y-22.7959 Z0.2384
G1 X34.1872 Y-22.7994 Z0.2384
G1 X34.1872 Y-22.8032 Z0.2384
G1 X34.1858 Y-22.8067 Z0.2384
G1 X34.0891 Y-22.9464 Z0.2384
G1 X34.2576 Y-22.8953 Z0.2384
G1 X34.2615 Y-22.8950 Z0.2384
G1 X34.2652 Y-22.8962 Z0.2384
G1 X34.2680 Y-22.8988 Z0.2384
G1 X34.3746 Y-23.0444 Z0.2384
G1 X34.3746 Y-22.8639 Z0.2384
G1 X34.3754 Y-22.8601 Z0.2384
G1 X34.3777 Y-22.8569 Z0.2384
G1 X34.3810 Y-22.8550 Z0.2384
G1 X34.5373 Y-22.8013 Z0.2384
G1 X34.3810 Y-22.7476 Z0.2384
G1 X34.3777 Y-22.7456 Z0.2384
G1 X34.3754 Y-22.7424 Z0.2384
G1 X34.3746 Y-22.7386 Z0.2384
G1 X34.3746 Y-22.6339 Z0.2384
G1 X34.3746 Y-22.5582 Z0.2384
G1 X34.3012 Y-22.6585 Z0.2384
G0 Z0.3669
G0 X34.3012 Y-22.6585 
G0 Z0.3669
G0 X34.3746 Y-22.7189 
G1 X34.3746 Y-22.7189 Z0.2419 F21.
G1 X34.3746 Y-22.6339 Z0.2269
G1 X34.3746 Y-22.5582 Z0.2269 F22.
G1 X34.2680 Y-22.7038 Z0.2269
G1 X34.2652 Y-22.7064 Z0.2269
G1 X34.2615 Y-22.7076 Z0.2269
G1 X34.2576 Y-22.7072 Z0.2269
G1 X34.0891 Y-22.6562 Z0.2269
G1 X34.1858 Y-22.7959 Z0.2269
G1 X34.1872 Y-22.7994 Z0.2269
G1 X34.1872 Y-22.8032 Z0.2269
G1 X34.1858 Y-22.8067 Z0.2269
G1 X34.0891 Y-22.9464 Z0.2269
G1 X34.2576 Y-22.8953 Z0.2269
G1 X34.2615 Y-22.8950 Z0.2269
G1 X34.2652 Y-22.8962 Z0.2269
G1 X34.2680 Y-22.8988 Z0.2269
G1 X34.3746 Y-23.0444 Z0.2269
G1 X34.3746 Y-22.8639 Z0.2269
G1 X34.3754 Y-22.8601 Z0.2269
G1 X34.3777 Y-22.8569 Z0.2269
G1 X34.3810 Y-22.8550 Z0.2269
G1 X34.5373 Y-22.8013 Z0.2269
G1 X34.3810 Y-22.7476 Z0.2269
G1 X34.3777 Y-22.7456 Z0.2269
G1 X34.3754 Y-22.7424 Z0.2269
G1 X34.3746 Y-22.7386 Z0.2269
G1 X34.3746 Y-22.6339 Z0.2269
G1 X34.3746 Y-22.5582 Z0.2269
G1 X34.3012 Y-22.6585 Z0.2269
G0 Z0.3553
G0 X34.3012 Y-22.6585 
G0 Z0.3553
G0 X34.3746 Y-22.7189 
G1 X34.3746 Y-22.7189 Z0.2303 F21.
G1 X34.3746 Y-22.6339 Z0.2153
G1 X34.3746 Y-22.5582 Z0.2153 F22.
G1 X34.2680 Y-22.7038 Z0.2153
G1 X34.2652 Y-22.7064 Z0.2153
G1 X34.2615 Y-22.7076 Z0.2153
G1 X34.2576 Y-22.7072 Z0.2153
G1 X34.0891 Y-22.6562 Z0.2153
G1 X34.1858 Y-22.7959 Z0.2153
G1 X34.1872 Y-22.7994 Z0.2153
G1 X34.1872 Y-22.8032 Z0.2153
G1 X34.1858 Y-22.8067 Z0.2153
G1 X34.0891 Y-22.9464 Z0.2153
G1 X34.2576 Y-22.8953 Z0.2153
G1 X34.2615 Y-22.8950 Z0.2153
G1 X34.2652 Y-22.8962 Z0.2153
G1 X34.2680 Y-22.8988 Z0.2153
G1 X34.3746 Y-23.0444 Z0.2153
G1 X34.3746 Y-22.8639 Z0.2153
G1 X34.3754 Y-22.8601 Z0.2153
G1 X34.3777 Y-22.8569 Z0.2153
G1 X34.3810 Y-22.8550 Z0.2153
G1 X34.5373 Y-22.8013 Z0.2153
G1 X34.3810 Y-22.7476 Z0.2153
G1 X34.3777 Y-22.7456 Z0.2153
G1 X34.3754 Y-22.7424 Z0.2153
G1 X34.3746 Y-22.7386 Z0.2153
G1 X34.3746 Y-22.6339 Z0.2153
G1 X34.3746 Y-22.5582 Z0.2153
G1 X34.3012 Y-22.6585 Z0.2153
G0 Z0.3437
G0 X34.3012 Y-22.6585 
G0 Z0.3437
G0 X34.3746 Y-22.7189 
G1 X34.3746 Y-22.7189 Z0.2187 F21.
G1 X34.3746 Y-22.6339 Z0.2037
G1 X34.3746 Y-22.5582 Z0.2037 F22.
G1 X34.2680 Y-22.7038 Z0.2037
G1 X34.2652 Y-22.7064 Z0.2037
G1 X34.2615 Y-22.7076 Z0.2037
G1 X34.2576 Y-22.7072 Z0.2037
G1 X34.0891 Y-22.6562 Z0.2037
G1 X34.1858 Y-22.7959 Z0.2037
G1 X34.1872 Y-22.7994 Z0.2037
G1 X34.1872 Y-22.8032 Z0.2037
G1 X34.1858 Y-22.8067 Z0.2037
G1 X34.0891 Y-22.9464 Z0.2037
G1 X34.2576 Y-22.8953 Z0.2037
G1 X34.2615 Y-22.8950 Z0.2037
G1 X34.2652 Y-22.8962 Z0.2037
G1 X34.2680 Y-22.8988 Z0.2037
G1 X34.3746 Y-23.0444 Z0.2037
G1 X34.3746 Y-22.8639 Z0.2037
G1 X34.3754 Y-22.8601 Z0.2037
G1 X34.3777 Y-22.8569 Z0.2037
G1 X34.3810 Y-22.8550 Z0.2037
G1 X34.5373 Y-22.8013 Z0.2037
G1 X34.3810 Y-22.7476 Z0.2037
G1 X34.3777 Y-22.7456 Z0.2037
G1 X34.3754 Y-22.7424 Z0.2037
G1 X34.3746 Y-22.7386 Z0.2037
G1 X34.3746 Y-22.6339 Z0.2037
G1 X34.3746 Y-22.5582 Z0.2037
G1 X34.3012 Y-22.6585 Z0.2037
G0 Z0.3321
G0 X34.3012 Y-22.6585 
G0 Z0.3321
G0 X34.3746 Y-22.7189 
G1 X34.3746 Y-22.7189 Z0.2071 F21.
G1 X34.3746 Y-22.6339 Z0.1921
G1 X34.3746 Y-22.5582 Z0.1921 F22.
G1 X34.2680 Y-22.7038 Z0.1921
G1 X34.2652 Y-22.7064 Z0.1921
G1 X34.2615 Y-22.7076 Z0.1921
G1 X34.2576 Y-22.7072 Z0.1921
G1 X34.0891 Y-22.6562 Z0.1921
G1 X34.1858 Y-22.7959 Z0.1921
G1 X34.1872 Y-22.7994 Z0.1921
G1 X34.1872 Y-22.8032 Z0.1921
G1 X34.1858 Y-22.8067 Z0.1921
G1 X34.0891 Y-22.9464 Z0.1921
G1 X34.2576 Y-22.8953 Z0.1921
G1 X34.2615 Y-22.8950 Z0.1921
G1 X34.2652 Y-22.8962 Z0.1921
G1 X34.2680 Y-22.8988 Z0.1921
G1 X34.3746 Y-23.0444 Z0.1921
G1 X34.3746 Y-22.8639 Z0.1921
G1 X34.3754 Y-22.8601 Z0.1921
G1 X34.3777 Y-22.8569 Z0.1921
G1 X34.3810 Y-22.8550 Z0.1921
G1 X34.5373 Y-22.8013 Z0.1921
G1 X34.3810 Y-22.7476 Z0.1921
G1 X34.3777 Y-22.7456 Z0.1921
G1 X34.3754 Y-22.7424 Z0.1921
G1 X34.3746 Y-22.7386 Z0.1921
G1 X34.3746 Y-22.6339 Z0.1921
G1 X34.3746 Y-22.5582 Z0.1921
G1 X34.3012 Y-22.6585 Z0.1921
G0 Z0.3206
G0 X34.3012 Y-22.6585 
G0 Z0.3206
G0 X34.3746 Y-22.7189 
G1 X34.3746 Y-22.7189 Z0.1956 F21.
G1 X34.3746 Y-22.6339 Z0.1806
G1 X34.3746 Y-22.5582 Z0.1806 F22.
G1 X34.2680 Y-22.7038 Z0.1806
G1 X34.2652 Y-22.7064 Z0.1806
G1 X34.2615 Y-22.7076 Z0.1806
G1 X34.2576 Y-22.7072 Z0.1806
G1 X34.0891 Y-22.6562 Z0.1806
G1 X34.1858 Y-22.7959 Z0.1806
G1 X34.1872 Y-22.7994 Z0.1806
G1 X34.1872 Y-22.8032 Z0.1806
G1 X34.1858 Y-22.8067 Z0.1806
G1 X34.0891 Y-22.9464 Z0.1806
G1 X34.2576 Y-22.8953 Z0.1806
G1 X34.2615 Y-22.8950 Z0.1806
G1 X34.2652 Y-22.8962 Z0.1806
G1 X34.2680 Y-22.8988 Z0.1806
G1 X34.3746 Y-23.0444 Z0.1806
G1 X34.3746 Y-22.8639 Z0.1806
G1 X34.3754 Y-22.8601 Z0.1806
G1 X34.3777 Y-22.8569 Z0.1806
G1 X34.3810 Y-22.8550 Z0.1806
G1 X34.5373 Y-22.8013 Z0.1806
G1 X34.3810 Y-22.7476 Z0.1806
G1 X34.3777 Y-22.7456 Z0.1806
G1 X34.3754 Y-22.7424 Z0.1806
G1 X34.3746 Y-22.7386 Z0.1806
G1 X34.3746 Y-22.6339 Z0.1806
G1 X34.3746 Y-22.5582 Z0.1806
G1 X34.3012 Y-22.6585 Z0.1806
G0 Z0.3090
G0 X34.3012 Y-22.6585 
G0 Z0.3090
G0 X34.3746 Y-22.7189 
G1 X34.3746 Y-22.7189 Z0.1840 F21.
G1 X34.3746 Y-22.6339 Z0.1690
G1 X34.3746 Y-22.5582 Z0.1690 F22.
G1 X34.2680 Y-22.7038 Z0.1690
G1 X34.2652 Y-22.7064 Z0.1690
G1 X34.2615 Y-22.7076 Z0.1690
G1 X34.2576 Y-22.7072 Z0.1690
G1 X34.0891 Y-22.6562 Z0.1690
G1 X34.1858 Y-22.7959 Z0.1690
G1 X34.1872 Y-22.7994 Z0.1690
G1 X34.1872 Y-22.8032 Z0.1690
G1 X34.1858 Y-22.8067 Z0.1690
G1 X34.0891 Y-22.9464 Z0.1690
G1 X34.2576 Y-22.8953 Z0.1690
G1 X34.2615 Y-22.8950 Z0.1690
G1 X34.2652 Y-22.8962 Z0.1690
G1 X34.2680 Y-22.8988 Z0.1690
G1 X34.3746 Y-23.0444 Z0.1690
G1 X34.3746 Y-22.8639 Z0.1690
G1 X34.3754 Y-22.8601 Z0.1690
G1 X34.3777 Y-22.8569 Z0.1690
G1 X34.3810 Y-22.8550 Z0.1690
G1 X34.5373 Y-22.8013 Z0.1690
G1 X34.3810 Y-22.7476 Z0.1690
G1 X34.3777 Y-22.7456 Z0.1690
G1 X34.3754 Y-22.7424 Z0.1690
G1 X34.3746 Y-22.7386 Z0.1690
G1 X34.3746 Y-22.6339 Z0.1690
G1 X34.3746 Y-22.5582 Z0.1690
G1 X34.3012 Y-22.6585 Z0.1690
G0 Z0.3784
G0 X34.3012 Y-22.6585 
G0 Z0.3784
G0 X36.7813 Y-23.0745 
G1 X36.7813 Y-23.0745 Z0.2534 F21.
G1 X36.7813 Y-22.9895 Z0.2384
G1 X36.7813 Y-22.8712 Z0.2384 F22.
G1 X36.7821 Y-22.8674 Z0.2384
G1 X36.7844 Y-22.8643 Z0.2384
G1 X36.7877 Y-22.8623 Z0.2384
G1 X36.9675 Y-22.8005 Z0.2384
G1 X36.7877 Y-22.7388 Z0.2384
G1 X36.7844 Y-22.7368 Z0.2384
G1 X36.7821 Y-22.7336 Z0.2384
G1 X36.7813 Y-22.7298 Z0.2384
G1 X36.7813 Y-22.5224 Z0.2384
G1 X36.6589 Y-22.6897 Z0.2384
G1 X36.6560 Y-22.6923 Z0.2384
G1 X36.6523 Y-22.6936 Z0.2384
G1 X36.6484 Y-22.6932 Z0.2384
G1 X36.4549 Y-22.6346 Z0.2384
G1 X36.5660 Y-22.7951 Z0.2384
G1 X36.5675 Y-22.7986 Z0.2384
G1 X36.5675 Y-22.8024 Z0.2384
G1 X36.5660 Y-22.8059 Z0.2384
G1 X36.4549 Y-22.9665 Z0.2384
G1 X36.6484 Y-22.9078 Z0.2384
G1 X36.6523 Y-22.9075 Z0.2384
G1 X36.6560 Y-22.9087 Z0.2384
G1 X36.6589 Y-22.9113 Z0.2384
G1 X36.7813 Y-23.0786 Z0.2384
G2X36.7821Y-22.8674Z0.2384I16.1092J0.0445
G1 X36.7844 Y-22.8643 Z0.2384
G1 X36.7877 Y-22.8623 Z0.2384
G1 X36.8540 Y-22.8395 Z0.2384
G0 Z0.3669
G0 X36.8540 Y-22.8395 
G0 Z0.3669
G0 X36.7813 Y-23.0745 
G1 X36.7813 Y-23.0745 Z0.2419 F21.
G1 X36.7813 Y-22.9895 Z0.2269
G1 X36.7813 Y-22.8712 Z0.2269 F22.
G1 X36.7821 Y-22.8674 Z0.2269
G1 X36.7844 Y-22.8643 Z0.2269
G1 X36.7877 Y-22.8623 Z0.2269
G1 X36.9675 Y-22.8005 Z0.2269
G1 X36.7877 Y-22.7388 Z0.2269
G1 X36.7844 Y-22.7368 Z0.2269
G1 X36.7821 Y-22.7336 Z0.2269
G1 X36.7813 Y-22.7298 Z0.2269
G1 X36.7813 Y-22.5224 Z0.2269
G1 X36.6589 Y-22.6897 Z0.2269
G1 X36.6560 Y-22.6923 Z0.2269
G1 X36.6523 Y-22.6936 Z0.2269
G1 X36.6484 Y-22.6932 Z0.2269
G1 X36.4549 Y-22.6346 Z0.2269
G1 X36.5660 Y-22.7951 Z0.2269
G1 X36.5675 Y-22.7986 Z0.2269
G1 X36.5675 Y-22.8024 Z0.2269
G1 X36.5660 Y-22.8059 Z0.2269
G1 X36.4549 Y-22.9665 Z0.2269
G1 X36.6484 Y-22.9078 Z0.2269
G1 X36.6523 Y-22.9075 Z0.2269
G1 X36.6560 Y-22.9087 Z0.2269
G1 X36.6589 Y-22.9113 Z0.2269
G1 X36.7813 Y-23.0786 Z0.2269
G2X36.7821Y-22.8674Z0.2269I16.1092J0.0445
G1 X36.7844 Y-22.8643 Z0.2269
G1 X36.7877 Y-22.8623 Z0.2269
G1 X36.8540 Y-22.8395 Z0.2269
G0 Z0.3553
G0 X36.8540 Y-22.8395 
G0 Z0.3553
G0 X36.7813 Y-23.0745 
G1 X36.7813 Y-23.0745 Z0.2303 F21.
G1 X36.7813 Y-22.9895 Z0.2153
G1 X36.7813 Y-22.8712 Z0.2153 F22.
G1 X36.7821 Y-22.8674 Z0.2153
G1 X36.7844 Y-22.8643 Z0.2153
G1 X36.7877 Y-22.8623 Z0.2153
G1 X36.9675 Y-22.8005 Z0.2153
G1 X36.7877 Y-22.7388 Z0.2153
G1 X36.7844 Y-22.7368 Z0.2153
G1 X36.7821 Y-22.7336 Z0.2153
G1 X36.7813 Y-22.7298 Z0.2153
G1 X36.7813 Y-22.5224 Z0.2153
G1 X36.6589 Y-22.6897 Z0.2153
G1 X36.6560 Y-22.6923 Z0.2153
G1 X36.6523 Y-22.6936 Z0.2153
G1 X36.6484 Y-22.6932 Z0.2153
G1 X36.4549 Y-22.6346 Z0.2153
G1 X36.5660 Y-22.7951 Z0.2153
G1 X36.5675 Y-22.7986 Z0.2153
G1 X36.5675 Y-22.8024 Z0.2153
G1 X36.5660 Y-22.8059 Z0.2153
G1 X36.4549 Y-22.9665 Z0.2153
G1 X36.6484 Y-22.9078 Z0.2153
G1 X36.6523 Y-22.9075 Z0.2153
G1 X36.6560 Y-22.9087 Z0.2153
G1 X36.6589 Y-22.9113 Z0.2153
G1 X36.7813 Y-23.0786 Z0.2153
G2X36.7821Y-22.8674Z0.2153I16.1092J0.0445
G1 X36.7844 Y-22.8643 Z0.2153
G1 X36.7877 Y-22.8623 Z0.2153
G1 X36.8540 Y-22.8395 Z0.2153
G0 Z0.3437
G0 X36.8540 Y-22.8395 
G0 Z0.3437
G0 X36.7813 Y-23.0745 
G1 X36.7813 Y-23.0745 Z0.2187 F21.
G1 X36.7813 Y-22.9895 Z0.2037
G1 X36.7813 Y-22.8712 Z0.2037 F22.
G1 X36.7821 Y-22.8674 Z0.2037
G1 X36.7844 Y-22.8643 Z0.2037
G1 X36.7877 Y-22.8623 Z0.2037
G1 X36.9675 Y-22.8005 Z0.2037
G1 X36.7877 Y-22.7388 Z0.2037
G1 X36.7844 Y-22.7368 Z0.2037
G1 X36.7821 Y-22.7336 Z0.2037
G1 X36.7813 Y-22.7298 Z0.2037
G1 X36.7813 Y-22.5224 Z0.2037
G1 X36.6589 Y-22.6897 Z0.2037
G1 X36.6560 Y-22.6923 Z0.2037
G1 X36.6523 Y-22.6936 Z0.2037
G1 X36.6484 Y-22.6932 Z0.2037
G1 X36.4549 Y-22.6346 Z0.2037
G1 X36.5660 Y-22.7951 Z0.2037
G1 X36.5675 Y-22.7986 Z0.2037
G1 X36.5675 Y-22.8024 Z0.2037
G1 X36.5660 Y-22.8059 Z0.2037
G1 X36.4549 Y-22.9665 Z0.2037
G1 X36.6484 Y-22.9078 Z0.2037
G1 X36.6523 Y-22.9075 Z0.2037
G1 X36.6560 Y-22.9087 Z0.2037
G1 X36.6589 Y-22.9113 Z0.2037
G1 X36.7813 Y-23.0786 Z0.2037
G2X36.7821Y-22.8674Z0.2037I16.1092J0.0445
G1 X36.7844 Y-22.8643 Z0.2037
G1 X36.7877 Y-22.8623 Z0.2037
G1 X36.8540 Y-22.8395 Z0.2037
G0 Z0.3321
G0 X36.8540 Y-22.8395 
G0 Z0.3321
G0 X36.7813 Y-23.0745 
G1 X36.7813 Y-23.0745 Z0.2071 F21.
G1 X36.7813 Y-22.9895 Z0.1921
G1 X36.7813 Y-22.8712 Z0.1921 F22.
G1 X36.7821 Y-22.8674 Z0.1921
G1 X36.7844 Y-22.8643 Z0.1921
G1 X36.7877 Y-22.8623 Z0.1921
G1 X36.9675 Y-22.8005 Z0.1921
G1 X36.7877 Y-22.7388 Z0.1921
G1 X36.7844 Y-22.7368 Z0.1921
G1 X36.7821 Y-22.7336 Z0.1921
G1 X36.7813 Y-22.7298 Z0.1921
G1 X36.7813 Y-22.5224 Z0.1921
G1 X36.6589 Y-22.6897 Z0.1921
G1 X36.6560 Y-22.6923 Z0.1921
G1 X36.6523 Y-22.6936 Z0.1921
G1 X36.6484 Y-22.6932 Z0.1921
G1 X36.4549 Y-22.6346 Z0.1921
G1 X36.5660 Y-22.7951 Z0.1921
G1 X36.5675 Y-22.7986 Z0.1921
G1 X36.5675 Y-22.8024 Z0.1921
G1 X36.5660 Y-22.8059 Z0.1921
G1 X36.4549 Y-22.9665 Z0.1921
G1 X36.6484 Y-22.9078 Z0.1921
G1 X36.6523 Y-22.9075 Z0.1921
G1 X36.6560 Y-22.9087 Z0.1921
G1 X36.6589 Y-22.9113 Z0.1921
G1 X36.7813 Y-23.0786 Z0.1921
G2X36.7821Y-22.8674Z0.1921I16.1092J0.0445
G1 X36.7844 Y-22.8643 Z0.1921
G1 X36.7877 Y-22.8623 Z0.1921
G1 X36.8540 Y-22.8395 Z0.1921
G0 Z0.3206
G0 X36.8540 Y-22.8395 
G0 Z0.3206
G0 X36.7813 Y-23.0745 
G1 X36.7813 Y-23.0745 Z0.1956 F21.
G1 X36.7813 Y-22.9895 Z0.1806
G1 X36.7813 Y-22.8712 Z0.1806 F22.
G1 X36.7821 Y-22.8674 Z0.1806
G1 X36.7844 Y-22.8643 Z0.1806
G1 X36.7877 Y-22.8623 Z0.1806
G1 X36.9675 Y-22.8005 Z0.1806
G1 X36.7877 Y-22.7388 Z0.1806
G1 X36.7844 Y-22.7368 Z0.1806
G1 X36.7821 Y-22.7336 Z0.1806
G1 X36.7813 Y-22.7298 Z0.1806
G1 X36.7813 Y-22.5224 Z0.1806
G1 X36.6589 Y-22.6897 Z0.1806
G1 X36.6560 Y-22.6923 Z0.1806
G1 X36.6523 Y-22.6936 Z0.1806
G1 X36.6484 Y-22.6932 Z0.1806
G1 X36.4549 Y-22.6346 Z0.1806
G1 X36.5660 Y-22.7951 Z0.1806
G1 X36.5675 Y-22.7986 Z0.1806
G1 X36.5675 Y-22.8024 Z0.1806
G1 X36.5660 Y-22.8059 Z0.1806
G1 X36.4549 Y-22.9665 Z0.1806
G1 X36.6484 Y-22.9078 Z0.1806
G1 X36.6523 Y-22.9075 Z0.1806
G1 X36.6560 Y-22.9087 Z0.1806
G1 X36.6589 Y-22.9113 Z0.1806
G1 X36.7813 Y-23.0786 Z0.1806
G2X36.7821Y-22.8674Z0.1806I16.1092J0.0445
G1 X36.7844 Y-22.8643 Z0.1806
G1 X36.7877 Y-22.8623 Z0.1806
G1 X36.8540 Y-22.8395 Z0.1806
G0 Z0.3090
G0 X36.8540 Y-22.8395 
G0 Z0.3090
G0 X36.7813 Y-23.0745 
G1 X36.7813 Y-23.0745 Z0.1840 F21.
G1 X36.7813 Y-22.9895 Z0.1690
G1 X36.7813 Y-22.8712 Z0.1690 F22.
G1 X36.7821 Y-22.8674 Z0.1690
G1 X36.7844 Y-22.8643 Z0.1690
G1 X36.7877 Y-22.8623 Z0.1690
G1 X36.9675 Y-22.8005 Z0.1690
G1 X36.7877 Y-22.7388 Z0.1690
G1 X36.7844 Y-22.7368 Z0.1690
G1 X36.7821 Y-22.7336 Z0.1690
G1 X36.7813 Y-22.7298 Z0.1690
G1 X36.7813 Y-22.5224 Z0.1690
G1 X36.6589 Y-22.6897 Z0.1690
G1 X36.6560 Y-22.6923 Z0.1690
G1 X36.6523 Y-22.6936 Z0.1690
G1 X36.6484 Y-22.6932 Z0.1690
G1 X36.4549 Y-22.6346 Z0.1690
G1 X36.5660 Y-22.7951 Z0.1690
G1 X36.5675 Y-22.7986 Z0.1690
G1 X36.5675 Y-22.8024 Z0.1690
G1 X36.5660 Y-22.8059 Z0.1690
G1 X36.4549 Y-22.9665 Z0.1690
G1 X36.6484 Y-22.9078 Z0.1690
G1 X36.6523 Y-22.9075 Z0.1690
G1 X36.6560 Y-22.9087 Z0.1690
G1 X36.6589 Y-22.9113 Z0.1690
G1 X36.7813 Y-23.0786 Z0.1690
G2X36.7821Y-22.8674Z0.1690I16.1092J0.0445
G1 X36.7844 Y-22.8643 Z0.1690
G1 X36.7877 Y-22.8623 Z0.1690
G1 X36.8540 Y-22.8395 Z0.1690
G0 Z0.3784
G0 X36.8540 Y-22.8395 
G0 Z0.3784
G0 X38.6506 Y-22.6421 
G1 X38.6506 Y-22.6421 Z0.2534 F21.
G1 X38.6506 Y-22.5571 Z0.2384
G1 X38.6506 Y-22.4339 Z0.2384 F22.
G1 X38.4880 Y-22.6561 Z0.2384
G1 X38.4852 Y-22.6587 Z0.2384
G1 X38.4815 Y-22.6599 Z0.2384
G1 X38.4776 Y-22.6595 Z0.2384
G1 X38.2209 Y-22.5818 Z0.2384
G1 X38.3684 Y-22.7949 Z0.2384
G1 X38.3699 Y-22.7984 Z0.2384
G1 X38.3699 Y-22.8022 Z0.2384
G1 X38.3684 Y-22.8057 Z0.2384
G1 X38.2209 Y-23.0188 Z0.2384
G1 X38.4776 Y-22.9410 Z0.2384
G1 X38.4815 Y-22.9407 Z0.2384
G1 X38.4852 Y-22.9419 Z0.2384
G1 X38.4880 Y-22.9445 Z0.2384
G1 X38.6506 Y-23.1666 Z0.2384
G1 X38.6506 Y-22.8913 Z0.2384
G1 X38.6514 Y-22.8875 Z0.2384
G1 X38.6537 Y-22.8843 Z0.2384
G1 X38.6570 Y-22.8823 Z0.2384
G1 X38.8959 Y-22.8003 Z0.2384
G1 X38.6570 Y-22.7182 Z0.2384
G1 X38.6537 Y-22.7162 Z0.2384
G1 X38.6514 Y-22.7131 Z0.2384
G1 X38.6506 Y-22.7093 Z0.2384
G1 X38.6506 Y-22.5571 Z0.2384
G1 X38.6506 Y-22.4339 Z0.2384
G1 X38.6052 Y-22.4960 Z0.2384
G0 Z0.3669
G0 X38.6052 Y-22.4960 
G0 Z0.3669
G0 X38.6506 Y-22.6421 
G1 X38.6506 Y-22.6421 Z0.2419 F21.
G1 X38.6506 Y-22.5571 Z0.2269
G1 X38.6506 Y-22.4339 Z0.2269 F22.
G1 X38.4880 Y-22.6561 Z0.2269
G1 X38.4852 Y-22.6587 Z0.2269
G1 X38.4815 Y-22.6599 Z0.2269
G1 X38.4776 Y-22.6595 Z0.2269
G1 X38.2209 Y-22.5818 Z0.2269
G1 X38.3684 Y-22.7949 Z0.2269
G1 X38.3699 Y-22.7984 Z0.2269
G1 X38.3699 Y-22.8022 Z0.2269
G1 X38.3684 Y-22.8057 Z0.2269
G1 X38.2209 Y-23.0188 Z0.2269
G1 X38.4776 Y-22.9410 Z0.2269
G1 X38.4815 Y-22.9407 Z0.2269
G1 X38.4852 Y-22.9419 Z0.2269
G1 X38.4880 Y-22.9445 Z0.2269
G1 X38.6506 Y-23.1666 Z0.2269
G1 X38.6506 Y-22.8913 Z0.2269
G1 X38.6514 Y-22.8875 Z0.2269
G1 X38.6537 Y-22.8843 Z0.2269
G1 X38.6570 Y-22.8823 Z0.2269
G1 X38.8959 Y-22.8003 Z0.2269
G1 X38.6570 Y-22.7182 Z0.2269
G1 X38.6537 Y-22.7162 Z0.2269
G1 X38.6514 Y-22.7131 Z0.2269
G1 X38.6506 Y-22.7093 Z0.2269
G1 X38.6506 Y-22.5571 Z0.2269
G1 X38.6506 Y-22.4339 Z0.2269
G1 X38.6052 Y-22.4960 Z0.2269
G0 Z0.3553
G0 X38.6052 Y-22.4960 
G0 Z0.3553
G0 X38.6506 Y-22.6421 
G1 X38.6506 Y-22.6421 Z0.2303 F21.
G1 X38.6506 Y-22.5571 Z0.2153
G1 X38.6506 Y-22.4339 Z0.2153 F22.
G1 X38.4880 Y-22.6561 Z0.2153
G1 X38.4852 Y-22.6587 Z0.2153
G1 X38.4815 Y-22.6599 Z0.2153
G1 X38.4776 Y-22.6595 Z0.2153
G1 X38.2209 Y-22.5818 Z0.2153
G1 X38.3684 Y-22.7949 Z0.2153
G1 X38.3699 Y-22.7984 Z0.2153
G1 X38.3699 Y-22.8022 Z0.2153
G1 X38.3684 Y-22.8057 Z0.2153
G1 X38.2209 Y-23.0188 Z0.2153
G1 X38.4776 Y-22.9410 Z0.2153
G1 X38.4815 Y-22.9407 Z0.2153
G1 X38.4852 Y-22.9419 Z0.2153
G1 X38.4880 Y-22.9445 Z0.2153
G1 X38.6506 Y-23.1666 Z0.2153
G1 X38.6506 Y-22.8913 Z0.2153
G1 X38.6514 Y-22.8875 Z0.2153
G1 X38.6537 Y-22.8843 Z0.2153
G1 X38.6570 Y-22.8823 Z0.2153
G1 X38.8959 Y-22.8003 Z0.2153
G1 X38.6570 Y-22.7182 Z0.2153
G1 X38.6537 Y-22.7162 Z0.2153
G1 X38.6514 Y-22.7131 Z0.2153
G1 X38.6506 Y-22.7093 Z0.2153
G1 X38.6506 Y-22.5571 Z0.2153
G1 X38.6506 Y-22.4339 Z0.2153
G1 X38.6052 Y-22.4960 Z0.2153
G0 Z0.3437
G0 X38.6052 Y-22.4960 
G0 Z0.3437
G0 X38.6506 Y-22.6421 
G1 X38.6506 Y-22.6421 Z0.2187 F21.
G1 X38.6506 Y-22.5571 Z0.2037
G1 X38.6506 Y-22.4339 Z0.2037 F22.
G1 X38.4880 Y-22.6561 Z0.2037
G1 X38.4852 Y-22.6587 Z0.2037
G1 X38.4815 Y-22.6599 Z0.2037
G1 X38.4776 Y-22.6595 Z0.2037
G1 X38.2209 Y-22.5818 Z0.2037
G1 X38.3684 Y-22.7949 Z0.2037
G1 X38.3699 Y-22.7984 Z0.2037
G1 X38.3699 Y-22.8022 Z0.2037
G1 X38.3684 Y-22.8057 Z0.2037
G1 X38.2209 Y-23.0188 Z0.2037
G1 X38.4776 Y-22.9410 Z0.2037
G1 X38.4815 Y-22.9407 Z0.2037
G1 X38.4852 Y-22.9419 Z0.2037
G1 X38.4880 Y-22.9445 Z0.2037
G1 X38.6506 Y-23.1666 Z0.2037
G1 X38.6506 Y-22.8913 Z0.2037
G1 X38.6514 Y-22.8875 Z0.2037
G1 X38.6537 Y-22.8843 Z0.2037
G1 X38.6570 Y-22.8823 Z0.2037
G1 X38.8959 Y-22.8003 Z0.2037
G1 X38.6570 Y-22.7182 Z0.2037
G1 X38.6537 Y-22.7162 Z0.2037
G1 X38.6514 Y-22.7131 Z0.2037
G1 X38.6506 Y-22.7093 Z0.2037
G1 X38.6506 Y-22.5571 Z0.2037
G1 X38.6506 Y-22.4339 Z0.2037
G1 X38.6052 Y-22.4960 Z0.2037
G0 Z0.3321
G0 X38.6052 Y-22.4960 
G0 Z0.3321
G0 X38.6506 Y-22.6421 
G1 X38.6506 Y-22.6421 Z0.2071 F21.
G1 X38.6506 Y-22.5571 Z0.1921
G1 X38.6506 Y-22.4339 Z0.1921 F22.
G1 X38.4880 Y-22.6561 Z0.1921
G1 X38.4852 Y-22.6587 Z0.1921
G1 X38.4815 Y-22.6599 Z0.1921
G1 X38.4776 Y-22.6595 Z0.1921
G1 X38.2209 Y-22.5818 Z0.1921
G1 X38.3684 Y-22.7949 Z0.1921
G1 X38.3699 Y-22.7984 Z0.1921
G1 X38.3699 Y-22.8022 Z0.1921
G1 X38.3684 Y-22.8057 Z0.1921
G1 X38.2209 Y-23.0188 Z0.1921
G1 X38.4776 Y-22.9410 Z0.1921
G1 X38.4815 Y-22.9407 Z0.1921
G1 X38.4852 Y-22.9419 Z0.1921
G1 X38.4880 Y-22.9445 Z0.1921
G1 X38.6506 Y-23.1666 Z0.1921
G1 X38.6506 Y-22.8913 Z0.1921
G1 X38.6514 Y-22.8875 Z0.1921
G1 X38.6537 Y-22.8843 Z0.1921
G1 X38.6570 Y-22.8823 Z0.1921
G1 X38.8959 Y-22.8003 Z0.1921
G1 X38.6570 Y-22.7182 Z0.1921
G1 X38.6537 Y-22.7162 Z0.1921
G1 X38.6514 Y-22.7131 Z0.1921
G1 X38.6506 Y-22.7093 Z0.1921
G1 X38.6506 Y-22.5571 Z0.1921
G1 X38.6506 Y-22.4339 Z0.1921
G1 X38.6052 Y-22.4960 Z0.1921
G0 Z0.3206
G0 X38.6052 Y-22.4960 
G0 Z0.3206
G0 X38.6506 Y-22.6421 
G1 X38.6506 Y-22.6421 Z0.1956 F21.
G1 X38.6506 Y-22.5571 Z0.1806
G1 X38.6506 Y-22.4339 Z0.1806 F22.
G1 X38.4880 Y-22.6561 Z0.1806
G1 X38.4852 Y-22.6587 Z0.1806
G1 X38.4815 Y-22.6599 Z0.1806
G1 X38.4776 Y-22.6595 Z0.1806
G1 X38.2209 Y-22.5818 Z0.1806
G1 X38.3684 Y-22.7949 Z0.1806
G1 X38.3699 Y-22.7984 Z0.1806
G1 X38.3699 Y-22.8022 Z0.1806
G1 X38.3684 Y-22.8057 Z0.1806
G1 X38.2209 Y-23.0188 Z0.1806
G1 X38.4776 Y-22.9410 Z0.1806
G1 X38.4815 Y-22.9407 Z0.1806
G1 X38.4852 Y-22.9419 Z0.1806
G1 X38.4880 Y-22.9445 Z0.1806
G1 X38.6506 Y-23.1666 Z0.1806
G1 X38.6506 Y-22.8913 Z0.1806
G1 X38.6514 Y-22.8875 Z0.1806
G1 X38.6537 Y-22.8843 Z0.1806
G1 X38.6570 Y-22.8823 Z0.1806
G1 X38.8959 Y-22.8003 Z0.1806
G1 X38.6570 Y-22.7182 Z0.1806
G1 X38.6537 Y-22.7162 Z0.1806
G1 X38.6514 Y-22.7131 Z0.1806
G1 X38.6506 Y-22.7093 Z0.1806
G1 X38.6506 Y-22.5571 Z0.1806
G1 X38.6506 Y-22.4339 Z0.1806
G1 X38.6052 Y-22.4960 Z0.1806
G0 Z0.3090
G0 X38.6052 Y-22.4960 
G0 Z0.3090
G0 X38.6506 Y-22.6421 
G1 X38.6506 Y-22.6421 Z0.1840 F21.
G1 X38.6506 Y-22.5571 Z0.1690
G1 X38.6506 Y-22.4339 Z0.1690 F22.
G1 X38.4880 Y-22.6561 Z0.1690
G1 X38.4852 Y-22.6587 Z0.1690
G1 X38.4815 Y-22.6599 Z0.1690
G1 X38.4776 Y-22.6595 Z0.1690
G1 X38.2209 Y-22.5818 Z0.1690
G1 X38.3684 Y-22.7949 Z0.1690
G1 X38.3699 Y-22.7984 Z0.1690
G1 X38.3699 Y-22.8022 Z0.1690
G1 X38.3684 Y-22.8057 Z0.1690
G1 X38.2209 Y-23.0188 Z0.1690
G1 X38.4776 Y-22.9410 Z0.1690
G1 X38.4815 Y-22.9407 Z0.1690
G1 X38.4852 Y-22.9419 Z0.1690
G1 X38.4880 Y-22.9445 Z0.1690
G1 X38.6506 Y-23.1666 Z0.1690
G1 X38.6506 Y-22.8913 Z0.1690
G1 X38.6514 Y-22.8875 Z0.1690
G1 X38.6537 Y-22.8843 Z0.1690
G1 X38.6570 Y-22.8823 Z0.1690
G1 X38.8959 Y-22.8003 Z0.1690
G1 X38.6570 Y-22.7182 Z0.1690
G1 X38.6537 Y-22.7162 Z0.1690
G1 X38.6514 Y-22.7131 Z0.1690
G1 X38.6506 Y-22.7093 Z0.1690
G1 X38.6506 Y-22.5571 Z0.1690
G1 X38.6506 Y-22.4339 Z0.1690
G1 X38.6052 Y-22.4960 Z0.1690
G0 Z0.3784
G0 X38.6052 Y-22.4960 
G0 Z0.3784
G0 X40.7225 Y-23.1285 
G1 X40.7225 Y-23.1285 Z0.2534 F21.
G1 X40.7225 Y-23.0434 Z0.2384
G1 X40.7225 Y-22.8912 Z0.2384 F22.
G1 X40.7233 Y-22.8874 Z0.2384
G1 X40.7256 Y-22.8842 Z0.2384
G1 X40.7289 Y-22.8822 Z0.2384
G1 X40.9678 Y-22.8002 Z0.2384
G1 X40.7289 Y-22.7181 Z0.2384
G1 X40.7256 Y-22.7161 Z0.2384
G1 X40.7233 Y-22.7130 Z0.2384
G1 X40.7225 Y-22.7092 Z0.2384
G1 X40.7225 Y-22.4338 Z0.2384
G1 X40.5599 Y-22.6560 Z0.2384
G1 X40.5571 Y-22.6586 Z0.2384
G1 X40.5534 Y-22.6598 Z0.2384
G1 X40.5495 Y-22.6594 Z0.2384
G1 X40.2928 Y-22.5817 Z0.2384
G1 X40.4403 Y-22.7948 Z0.2384
G1 X40.4418 Y-22.7983 Z0.2384
G1 X40.4418 Y-22.8021 Z0.2384
G1 X40.4403 Y-22.8056 Z0.2384
G1 X40.2928 Y-23.0187 Z0.2384
G1 X40.5495 Y-22.9409 Z0.2384
G1 X40.5534 Y-22.9406 Z0.2384
G1 X40.5571 Y-22.9418 Z0.2384
G1 X40.5599 Y-22.9444 Z0.2384
G1 X40.7225 Y-23.1665 Z0.2384
G2X40.7233Y-22.8874Z0.2384I27.2150J0.0615
G1 X40.7256 Y-22.8842 Z0.2384
G1 X40.7289 Y-22.8822 Z0.2384
G1 X40.7631 Y-22.8705 Z0.2384
G0 Z0.3669
G0 X40.7631 Y-22.8705 
G0 Z0.3669
G0 X40.7225 Y-23.1285 
G1 X40.7225 Y-23.1285 Z0.2419 F21.
G1 X40.7225 Y-23.0434 Z0.2269
G1 X40.7225 Y-22.8912 Z0.2269 F22.
G1 X40.7233 Y-22.8874 Z0.2269
G1 X40.7256 Y-22.8842 Z0.2269
G1 X40.7289 Y-22.8822 Z0.2269
G1 X40.9678 Y-22.8002 Z0.2269
G1 X40.7289 Y-22.7181 Z0.2269
G1 X40.7256 Y-22.7161 Z0.2269
G1 X40.7233 Y-22.7130 Z0.2269
G1 X40.7225 Y-22.7092 Z0.2269
G1 X40.7225 Y-22.4338 Z0.2269
G1 X40.5599 Y-22.6560 Z0.2269
G1 X40.5571 Y-22.6586 Z0.2269
G1 X40.5534 Y-22.6598 Z0.2269
G1 X40.5495 Y-22.6594 Z0.2269
G1 X40.2928 Y-22.5817 Z0.2269
G1 X40.4403 Y-22.7948 Z0.2269
G1 X40.4418 Y-22.7983 Z0.2269
G1 X40.4418 Y-22.8021 Z0.2269
G1 X40.4403 Y-22.8056 Z0.2269
G1 X40.2928 Y-23.0187 Z0.2269
G1 X40.5495 Y-22.9409 Z0.2269
G1 X40.5534 Y-22.9406 Z0.2269
G1 X40.5571 Y-22.9418 Z0.2269
G1 X40.5599 Y-22.9444 Z0.2269
G1 X40.7225 Y-23.1665 Z0.2269
G2X40.7233Y-22.8874Z0.2269I27.2150J0.0615
G1 X40.7256 Y-22.8842 Z0.2269
G1 X40.7289 Y-22.8822 Z0.2269
G1 X40.7631 Y-22.8705 Z0.2269
G0 Z0.3553
G0 X40.7631 Y-22.8705 
G0 Z0.3553
G0 X40.7225 Y-23.1285 
G1 X40.7225 Y-23.1285 Z0.2303 F21.
G1 X40.7225 Y-23.0434 Z0.2153
G1 X40.7225 Y-22.8912 Z0.2153 F22.
G1 X40.7233 Y-22.8874 Z0.2153
G1 X40.7256 Y-22.8842 Z0.2153
G1 X40.7289 Y-22.8822 Z0.2153
G1 X40.9678 Y-22.8002 Z0.2153
G1 X40.7289 Y-22.7181 Z0.2153
G1 X40.7256 Y-22.7161 Z0.2153
G1 X40.7233 Y-22.7130 Z0.2153
G1 X40.7225 Y-22.7092 Z0.2153
G1 X40.7225 Y-22.4338 Z0.2153
G1 X40.5599 Y-22.6560 Z0.2153
G1 X40.5571 Y-22.6586 Z0.2153
G1 X40.5534 Y-22.6598 Z0.2153
G1 X40.5495 Y-22.6594 Z0.2153
G1 X40.2928 Y-22.5817 Z0.2153
G1 X40.4403 Y-22.7948 Z0.2153
G1 X40.4418 Y-22.7983 Z0.2153
G1 X40.4418 Y-22.8021 Z0.2153
G1 X40.4403 Y-22.8056 Z0.2153
G1 X40.2928 Y-23.0187 Z0.2153
G1 X40.5495 Y-22.9409 Z0.2153
G1 X40.5534 Y-22.9406 Z0.2153
G1 X40.5571 Y-22.9418 Z0.2153
G1 X40.5599 Y-22.9444 Z0.2153
G1 X40.7225 Y-23.1665 Z0.2153
G2X40.7233Y-22.8874Z0.2153I27.2150J0.0615
G1 X40.7256 Y-22.8842 Z0.2153
G1 X40.7289 Y-22.8822 Z0.2153
G1 X40.7631 Y-22.8705 Z0.2153
G0 Z0.3437
G0 X40.7631 Y-22.8705 
G0 Z0.3437
G0 X40.7225 Y-23.1285 
G1 X40.7225 Y-23.1285 Z0.2187 F21.
G1 X40.7225 Y-23.0434 Z0.2037
G1 X40.7225 Y-22.8912 Z0.2037 F22.
G1 X40.7233 Y-22.8874 Z0.2037
G1 X40.7256 Y-22.8842 Z0.2037
G1 X40.7289 Y-22.8822 Z0.2037
G1 X40.9678 Y-22.8002 Z0.2037
G1 X40.7289 Y-22.7181 Z0.2037
G1 X40.7256 Y-22.7161 Z0.2037
G1 X40.7233 Y-22.7130 Z0.2037
G1 X40.7225 Y-22.7092 Z0.2037
G1 X40.7225 Y-22.4338 Z0.2037
G1 X40.5599 Y-22.6560 Z0.2037
G1 X40.5571 Y-22.6586 Z0.2037
G1 X40.5534 Y-22.6598 Z0.2037
G1 X40.5495 Y-22.6594 Z0.2037
G1 X40.2928 Y-22.5817 Z0.2037
G1 X40.4403 Y-22.7948 Z0.2037
G1 X40.4418 Y-22.7983 Z0.2037
G1 X40.4418 Y-22.8021 Z0.2037
G1 X40.4403 Y-22.8056 Z0.2037
G1 X40.2928 Y-23.0187 Z0.2037
G1 X40.5495 Y-22.9409 Z0.2037
G1 X40.5534 Y-22.9406 Z0.2037
G1 X40.5571 Y-22.9418 Z0.2037
G1 X40.5599 Y-22.9444 Z0.2037
G1 X40.7225 Y-23.1665 Z0.2037
G2X40.7233Y-22.8874Z0.2037I27.2150J0.0615
G1 X40.7256 Y-22.8842 Z0.2037
G1 X40.7289 Y-22.8822 Z0.2037
G1 X40.7631 Y-22.8705 Z0.2037
G0 Z0.3321
G0 X40.7631 Y-22.8705 
G0 Z0.3321
G0 X40.7225 Y-23.1285 
G1 X40.7225 Y-23.1285 Z0.2071 F21.
G1 X40.7225 Y-23.0434 Z0.1921
G1 X40.7225 Y-22.8912 Z0.1921 F22.
G1 X40.7233 Y-22.8874 Z0.1921
G1 X40.7256 Y-22.8842 Z0.1921
G1 X40.7289 Y-22.8822 Z0.1921
G1 X40.9678 Y-22.8002 Z0.1921
G1 X40.7289 Y-22.7181 Z0.1921
G1 X40.7256 Y-22.7161 Z0.1921
G1 X40.7233 Y-22.7130 Z0.1921
G1 X40.7225 Y-22.7092 Z0.1921
G1 X40.7225 Y-22.4338 Z0.1921
G1 X40.5599 Y-22.6560 Z0.1921
G1 X40.5571 Y-22.6586 Z0.1921
G1 X40.5534 Y-22.6598 Z0.1921
G1 X40.5495 Y-22.6594 Z0.1921
G1 X40.2928 Y-22.5817 Z0.1921
G1 X40.4403 Y-22.7948 Z0.1921
G1 X40.4418 Y-22.7983 Z0.1921
G1 X40.4418 Y-22.8021 Z0.1921
G1 X40.4403 Y-22.8056 Z0.1921
G1 X40.2928 Y-23.0187 Z0.1921
G1 X40.5495 Y-22.9409 Z0.1921
G1 X40.5534 Y-22.9406 Z0.1921
G1 X40.5571 Y-22.9418 Z0.1921
G1 X40.5599 Y-22.9444 Z0.1921
G1 X40.7225 Y-23.1665 Z0.1921
G2X40.7233Y-22.8874Z0.1921I27.2150J0.0615
G1 X40.7256 Y-22.8842 Z0.1921
G1 X40.7289 Y-22.8822 Z0.1921
G1 X40.7631 Y-22.8705 Z0.1921
G0 Z0.3206
G0 X40.7631 Y-22.8705 
G0 Z0.3206
G0 X40.7225 Y-23.1285 
G1 X40.7225 Y-23.1285 Z0.1956 F21.
G1 X40.7225 Y-23.0434 Z0.1806
G1 X40.7225 Y-22.8912 Z0.1806 F22.
G1 X40.7233 Y-22.8874 Z0.1806
G1 X40.7256 Y-22.8842 Z0.1806
G1 X40.7289 Y-22.8822 Z0.1806
G1 X40.9678 Y-22.8002 Z0.1806
G1 X40.7289 Y-22.7181 Z0.1806
G1 X40.7256 Y-22.7161 Z0.1806
G1 X40.7233 Y-22.7130 Z0.1806
G1 X40.7225 Y-22.7092 Z0.1806
G1 X40.7225 Y-22.4338 Z0.1806
G1 X40.5599 Y-22.6560 Z0.1806
G1 X40.5571 Y-22.6586 Z0.1806
G1 X40.5534 Y-22.6598 Z0.1806
G1 X40.5495 Y-22.6594 Z0.1806
G1 X40.2928 Y-22.5817 Z0.1806
G1 X40.4403 Y-22.7948 Z0.1806
G1 X40.4418 Y-22.7983 Z0.1806
G1 X40.4418 Y-22.8021 Z0.1806
G1 X40.4403 Y-22.8056 Z0.1806
G1 X40.2928 Y-23.0187 Z0.1806
G1 X40.5495 Y-22.9409 Z0.1806
G1 X40.5534 Y-22.9406 Z0.1806
G1 X40.5571 Y-22.9418 Z0.1806
G1 X40.5599 Y-22.9444 Z0.1806
G1 X40.7225 Y-23.1665 Z0.1806
G2X40.7233Y-22.8874Z0.1806I27.2150J0.0615
G1 X40.7256 Y-22.8842 Z0.1806
G1 X40.7289 Y-22.8822 Z0.1806
G1 X40.7631 Y-22.8705 Z0.1806
G0 Z0.3090
G0 X40.7631 Y-22.8705 
G0 Z0.3090
G0 X40.7225 Y-23.1285 
G1 X40.7225 Y-23.1285 Z0.1840 F21.
G1 X40.7225 Y-23.0434 Z0.1690
G1 X40.7225 Y-22.8912 Z0.1690 F22.
G1 X40.7233 Y-22.8874 Z0.1690
G1 X40.7256 Y-22.8842 Z0.1690
G1 X40.7289 Y-22.8822 Z0.1690
G1 X40.9678 Y-22.8002 Z0.1690
G1 X40.7289 Y-22.7181 Z0.1690
G1 X40.7256 Y-22.7161 Z0.1690
G1 X40.7233 Y-22.7130 Z0.1690
G1 X40.7225 Y-22.7092 Z0.1690
G1 X40.7225 Y-22.4338 Z0.1690
G1 X40.5599 Y-22.6560 Z0.1690
G1 X40.5571 Y-22.6586 Z0.1690
G1 X40.5534 Y-22.6598 Z0.1690
G1 X40.5495 Y-22.6594 Z0.1690
G1 X40.2928 Y-22.5817 Z0.1690
G1 X40.4403 Y-22.7948 Z0.1690
G1 X40.4418 Y-22.7983 Z0.1690
G1 X40.4418 Y-22.8021 Z0.1690
G1 X40.4403 Y-22.8056 Z0.1690
G1 X40.2928 Y-23.0187 Z0.1690
G1 X40.5495 Y-22.9409 Z0.1690
G1 X40.5534 Y-22.9406 Z0.1690
G1 X40.5571 Y-22.9418 Z0.1690
G1 X40.5599 Y-22.9444 Z0.1690
G1 X40.7225 Y-23.1665 Z0.1690
G2X40.7233Y-22.8874Z0.1690I27.2150J0.0615
G1 X40.7256 Y-22.8842 Z0.1690
G1 X40.7289 Y-22.8822 Z0.1690
G1 X40.7631 Y-22.8705 Z0.1690
G0 Z0.3784
G0 X40.7631 Y-22.8705 
G0 Z0.3784
G0 X43.0493 Y-22.6418 
G1 X43.0493 Y-22.6418 Z0.2534 F21.
G1 X43.0493 Y-22.5568 Z0.2384
G1 X43.0493 Y-22.4336 Z0.2384 F22.
G1 X42.8867 Y-22.6558 Z0.2384
G1 X42.8838 Y-22.6583 Z0.2384
G1 X42.8801 Y-22.6596 Z0.2384
G1 X42.8763 Y-22.6592 Z0.2384
G1 X42.6196 Y-22.5815 Z0.2384
G1 X42.7671 Y-22.7946 Z0.2384
G1 X42.7686 Y-22.7981 Z0.2384
G1 X42.7686 Y-22.8019 Z0.2384
G1 X42.7671 Y-22.8054 Z0.2384
G1 X42.6196 Y-23.0185 Z0.2384
G1 X42.8763 Y-22.9407 Z0.2384
G1 X42.8801 Y-22.9404 Z0.2384
G1 X42.8838 Y-22.9416 Z0.2384
G1 X42.8867 Y-22.9442 Z0.2384
G1 X43.0493 Y-23.1663 Z0.2384
G1 X43.0493 Y-22.8910 Z0.2384
G1 X43.0501 Y-22.8872 Z0.2384
G1 X43.0523 Y-22.8840 Z0.2384
G1 X43.0557 Y-22.8820 Z0.2384
G1 X43.2946 Y-22.8000 Z0.2384
G1 X43.0557 Y-22.7179 Z0.2384
G1 X43.0523 Y-22.7159 Z0.2384
G1 X43.0501 Y-22.7128 Z0.2384
G1 X43.0493 Y-22.7089 Z0.2384
G1 X43.0493 Y-22.5568 Z0.2384
G1 X43.0493 Y-22.4336 Z0.2384
G1 X43.0039 Y-22.4957 Z0.2384
G0 Z0.3669
G0 X43.0039 Y-22.4957 
G0 Z0.3669
G0 X43.0493 Y-22.6418 
G1 X43.0493 Y-22.6418 Z0.2419 F21.
G1 X43.0493 Y-22.5568 Z0.2269
G1 X43.0493 Y-22.4336 Z0.2269 F22.
G1 X42.8867 Y-22.6558 Z0.2269
G1 X42.8838 Y-22.6583 Z0.2269
G1 X42.8801 Y-22.6596 Z0.2269
G1 X42.8763 Y-22.6592 Z0.2269
G1 X42.6196 Y-22.5815 Z0.2269
G1 X42.7671 Y-22.7946 Z0.2269
G1 X42.7686 Y-22.7981 Z0.2269
G1 X42.7686 Y-22.8019 Z0.2269
G1 X42.7671 Y-22.8054 Z0.2269
G1 X42.6196 Y-23.0185 Z0.2269
G1 X42.8763 Y-22.9407 Z0.2269
G1 X42.8801 Y-22.9404 Z0.2269
G1 X42.8838 Y-22.9416 Z0.2269
G1 X42.8867 Y-22.9442 Z0.2269
G1 X43.0493 Y-23.1663 Z0.2269
G1 X43.0493 Y-22.8910 Z0.2269
G1 X43.0501 Y-22.8872 Z0.2269
G1 X43.0523 Y-22.8840 Z0.2269
G1 X43.0557 Y-22.8820 Z0.2269
G1 X43.2946 Y-22.8000 Z0.2269
G1 X43.0557 Y-22.7179 Z0.2269
G1 X43.0523 Y-22.7159 Z0.2269
G1 X43.0501 Y-22.7128 Z0.2269
G1 X43.0493 Y-22.7089 Z0.2269
G1 X43.0493 Y-22.5568 Z0.2269
G1 X43.0493 Y-22.4336 Z0.2269
G1 X43.0039 Y-22.4957 Z0.2269
G0 Z0.3553
G0 X43.0039 Y-22.4957 
G0 Z0.3553
G0 X43.0493 Y-22.6418 
G1 X43.0493 Y-22.6418 Z0.2303 F21.
G1 X43.0493 Y-22.5568 Z0.2153
G1 X43.0493 Y-22.4336 Z0.2153 F22.
G1 X42.8867 Y-22.6558 Z0.2153
G1 X42.8838 Y-22.6583 Z0.2153
G1 X42.8801 Y-22.6596 Z0.2153
G1 X42.8763 Y-22.6592 Z0.2153
G1 X42.6196 Y-22.5815 Z0.2153
G1 X42.7671 Y-22.7946 Z0.2153
G1 X42.7686 Y-22.7981 Z0.2153
G1 X42.7686 Y-22.8019 Z0.2153
G1 X42.7671 Y-22.8054 Z0.2153
G1 X42.6196 Y-23.0185 Z0.2153
G1 X42.8763 Y-22.9407 Z0.2153
G1 X42.8801 Y-22.9404 Z0.2153
G1 X42.8838 Y-22.9416 Z0.2153
G1 X42.8867 Y-22.9442 Z0.2153
G1 X43.0493 Y-23.1663 Z0.2153
G1 X43.0493 Y-22.8910 Z0.2153
G1 X43.0501 Y-22.8872 Z0.2153
G1 X43.0523 Y-22.8840 Z0.2153
G1 X43.0557 Y-22.8820 Z0.2153
G1 X43.2946 Y-22.8000 Z0.2153
G1 X43.0557 Y-22.7179 Z0.2153
G1 X43.0523 Y-22.7159 Z0.2153
G1 X43.0501 Y-22.7128 Z0.2153
G1 X43.0493 Y-22.7089 Z0.2153
G1 X43.0493 Y-22.5568 Z0.2153
G1 X43.0493 Y-22.4336 Z0.2153
G1 X43.0039 Y-22.4957 Z0.2153
G0 Z0.3437
G0 X43.0039 Y-22.4957 
G0 Z0.3437
G0 X43.0493 Y-22.6418 
G1 X43.0493 Y-22.6418 Z0.2187 F21.
G1 X43.0493 Y-22.5568 Z0.2037
G1 X43.0493 Y-22.4336 Z0.2037 F22.
G1 X42.8867 Y-22.6558 Z0.2037
G1 X42.8838 Y-22.6583 Z0.2037
G1 X42.8801 Y-22.6596 Z0.2037
G1 X42.8763 Y-22.6592 Z0.2037
G1 X42.6196 Y-22.5815 Z0.2037
G1 X42.7671 Y-22.7946 Z0.2037
G1 X42.7686 Y-22.7981 Z0.2037
G1 X42.7686 Y-22.8019 Z0.2037
G1 X42.7671 Y-22.8054 Z0.2037
G1 X42.6196 Y-23.0185 Z0.2037
G1 X42.8763 Y-22.9407 Z0.2037
G1 X42.8801 Y-22.9404 Z0.2037
G1 X42.8838 Y-22.9416 Z0.2037
G1 X42.8867 Y-22.9442 Z0.2037
G1 X43.0493 Y-23.1663 Z0.2037
G1 X43.0493 Y-22.8910 Z0.2037
G1 X43.0501 Y-22.8872 Z0.2037
G1 X43.0523 Y-22.8840 Z0.2037
G1 X43.0557 Y-22.8820 Z0.2037
G1 X43.2946 Y-22.8000 Z0.2037
G1 X43.0557 Y-22.7179 Z0.2037
G1 X43.0523 Y-22.7159 Z0.2037
G1 X43.0501 Y-22.7128 Z0.2037
G1 X43.0493 Y-22.7089 Z0.2037
G1 X43.0493 Y-22.5568 Z0.2037
G1 X43.0493 Y-22.4336 Z0.2037
G1 X43.0039 Y-22.4957 Z0.2037
G0 Z0.3321
G0 X43.0039 Y-22.4957 
G0 Z0.3321
G0 X43.0493 Y-22.6418 
G1 X43.0493 Y-22.6418 Z0.2071 F21.
G1 X43.0493 Y-22.5568 Z0.1921
G1 X43.0493 Y-22.4336 Z0.1921 F22.
G1 X42.8867 Y-22.6558 Z0.1921
G1 X42.8838 Y-22.6583 Z0.1921
G1 X42.8801 Y-22.6596 Z0.1921
G1 X42.8763 Y-22.6592 Z0.1921
G1 X42.6196 Y-22.5815 Z0.1921
G1 X42.7671 Y-22.7946 Z0.1921
G1 X42.7686 Y-22.7981 Z0.1921
G1 X42.7686 Y-22.8019 Z0.1921
G1 X42.7671 Y-22.8054 Z0.1921
G1 X42.6196 Y-23.0185 Z0.1921
G1 X42.8763 Y-22.9407 Z0.1921
G1 X42.8801 Y-22.9404 Z0.1921
G1 X42.8838 Y-22.9416 Z0.1921
G1 X42.8867 Y-22.9442 Z0.1921
G1 X43.0493 Y-23.1663 Z0.1921
G1 X43.0493 Y-22.8910 Z0.1921
G1 X43.0501 Y-22.8872 Z0.1921
G1 X43.0523 Y-22.8840 Z0.1921
G1 X43.0557 Y-22.8820 Z0.1921
G1 X43.2946 Y-22.8000 Z0.1921
G1 X43.0557 Y-22.7179 Z0.1921
G1 X43.0523 Y-22.7159 Z0.1921
G1 X43.0501 Y-22.7128 Z0.1921
G1 X43.0493 Y-22.7089 Z0.1921
G1 X43.0493 Y-22.5568 Z0.1921
G1 X43.0493 Y-22.4336 Z0.1921
G1 X43.0039 Y-22.4957 Z0.1921
G0 Z0.3206
G0 X43.0039 Y-22.4957 
G0 Z0.3206
G0 X43.0493 Y-22.6418 
G1 X43.0493 Y-22.6418 Z0.1956 F21.
G1 X43.0493 Y-22.5568 Z0.1806
G1 X43.0493 Y-22.4336 Z0.1806 F22.
G1 X42.8867 Y-22.6558 Z0.1806
G1 X42.8838 Y-22.6583 Z0.1806
G1 X42.8801 Y-22.6596 Z0.1806
G1 X42.8763 Y-22.6592 Z0.1806
G1 X42.6196 Y-22.5815 Z0.1806
G1 X42.7671 Y-22.7946 Z0.1806
G1 X42.7686 Y-22.7981 Z0.1806
G1 X42.7686 Y-22.8019 Z0.1806
G1 X42.7671 Y-22.8054 Z0.1806
G1 X42.6196 Y-23.0185 Z0.1806
G1 X42.8763 Y-22.9407 Z0.1806
G1 X42.8801 Y-22.9404 Z0.1806
G1 X42.8838 Y-22.9416 Z0.1806
G1 X42.8867 Y-22.9442 Z0.1806
G1 X43.0493 Y-23.1663 Z0.1806
G1 X43.0493 Y-22.8910 Z0.1806
G1 X43.0501 Y-22.8872 Z0.1806
G1 X43.0523 Y-22.8840 Z0.1806
G1 X43.0557 Y-22.8820 Z0.1806
G1 X43.2946 Y-22.8000 Z0.1806
G1 X43.0557 Y-22.7179 Z0.1806
G1 X43.0523 Y-22.7159 Z0.1806
G1 X43.0501 Y-22.7128 Z0.1806
G1 X43.0493 Y-22.7089 Z0.1806
G1 X43.0493 Y-22.5568 Z0.1806
G1 X43.0493 Y-22.4336 Z0.1806
G1 X43.0039 Y-22.4957 Z0.1806
G0 Z0.3090
G0 X43.0039 Y-22.4957 
G0 Z0.3090
G0 X43.0493 Y-22.6418 
G1 X43.0493 Y-22.6418 Z0.1840 F21.
G1 X43.0493 Y-22.5568 Z0.1690
G1 X43.0493 Y-22.4336 Z0.1690 F22.
G1 X42.8867 Y-22.6558 Z0.1690
G1 X42.8838 Y-22.6583 Z0.1690
G1 X42.8801 Y-22.6596 Z0.1690
G1 X42.8763 Y-22.6592 Z0.1690
G1 X42.6196 Y-22.5815 Z0.1690
G1 X42.7671 Y-22.7946 Z0.1690
G1 X42.7686 Y-22.7981 Z0.1690
G1 X42.7686 Y-22.8019 Z0.1690
G1 X42.7671 Y-22.8054 Z0.1690
G1 X42.6196 Y-23.0185 Z0.1690
G1 X42.8763 Y-22.9407 Z0.1690
G1 X42.8801 Y-22.9404 Z0.1690
G1 X42.8838 Y-22.9416 Z0.1690
G1 X42.8867 Y-22.9442 Z0.1690
G1 X43.0493 Y-23.1663 Z0.1690
G1 X43.0493 Y-22.8910 Z0.1690
G1 X43.0501 Y-22.8872 Z0.1690
G1 X43.0523 Y-22.8840 Z0.1690
G1 X43.0557 Y-22.8820 Z0.1690
G1 X43.2946 Y-22.8000 Z0.1690
G1 X43.0557 Y-22.7179 Z0.1690
G1 X43.0523 Y-22.7159 Z0.1690
G1 X43.0501 Y-22.7128 Z0.1690
G1 X43.0493 Y-22.7089 Z0.1690
G1 X43.0493 Y-22.5568 Z0.1690
G1 X43.0493 Y-22.4336 Z0.1690
G1 X43.0039 Y-22.4957 Z0.1690
G0 Z3.0000
G0 X43.0039 Y-22.4957 
M5
G53 Z
X2Y0
