( MOP:  02-inlay-Rectangles-idPT06-s24PT75-01 )
( FILE: G:\Shared drives\AlloyProjectFiles\Customer CAD files\Alloy-Standard-Builds-CAM\Fingerboards-in\02-inlay-Rectangles-idPT06-s24PT75-01.nc)
G90
(  BEGIN TOOL LIST )
(  TOOL 15 - Fretkerf PT025 - DESC: 0.0250 DIA, 2 FLUTE,  CARBIDE MAT )
(  ENDOF TOOL LIST )
( 02-inlay-Rectangles-idPT06-s24PT75-01)
T15
S14000
M3
G0 Z1.0000
G0 X27.7716 Y-22.7245 
G1 X27.7716 Y-22.7245 Z0.2514 F21.
G1 X27.7716 Y-22.7982 Z0.2384
G1 X27.7716 Y-23.4530 Z0.2384 F22.
G17
G3X27.7747Y-23.4562Z0.2384I0.0031J0.0000
G1 X27.9904 Y-23.4562 Z0.2384
G3X27.9936Y-23.4530Z0.2384I0.0000J0.0032
G1 X27.9936 Y-22.1433 Z0.2384
G3X27.9904Y-22.1402Z0.2384I-0.0032J0.0000
G1 X27.7747 Y-22.1402 Z0.2384
G3X27.7716Y-22.1433Z0.2384I0.0000J-0.0031
G1 X27.7716 Y-22.7982 Z0.2384
G1 X27.7716 Y-23.0482 Z0.2384
G0 Z0.2898
G0 X27.7716 Y-23.0482 
G0 Z0.2898
G0 X27.7716 Y-22.8719 
G1 X27.7716 Y-22.8719 Z0.2398 F21.
G1 X27.7716 Y-22.7982 Z0.2268
G1 X27.7716 Y-22.1433 Z0.2268 F22.
G2X27.7747Y-22.1402Z0.2268I0.0031J0.0000
G1 X27.9904 Y-22.1402 Z0.2268
G2X27.9936Y-22.1433Z0.2268I0.0000J-0.0031
G1 X27.9936 Y-23.4530 Z0.2268
G2X27.9904Y-23.4562Z0.2268I-0.0032J0.0000
G1 X27.7747 Y-23.4562 Z0.2268
G2X27.7716Y-23.4530Z0.2268I0.0000J0.0032
G1 X27.7716 Y-22.7982 Z0.2268
G1 X27.7716 Y-22.5482 Z0.2268
G0 Z0.2782
G0 X27.7716 Y-22.5482 
G0 Z0.2782
G0 X27.7716 Y-22.7245 
G1 X27.7716 Y-22.7245 Z0.2282 F21.
G1 X27.7716 Y-22.7982 Z0.2152
G1 X27.7716 Y-23.4530 Z0.2152 F22.
G3X27.7747Y-23.4562Z0.2152I0.0031J0.0000
G1 X27.9904 Y-23.4562 Z0.2152
G3X27.9936Y-23.4530Z0.2152I0.0000J0.0032
G1 X27.9936 Y-22.1433 Z0.2152
G3X27.9904Y-22.1402Z0.2152I-0.0032J0.0000
G1 X27.7747 Y-22.1402 Z0.2152
G3X27.7716Y-22.1433Z0.2152I0.0000J-0.0031
G1 X27.7716 Y-22.7982 Z0.2152
G1 X27.7716 Y-23.0482 Z0.2152
G0 Z0.2666
G0 X27.7716 Y-23.0482 
G0 Z0.2666
G0 X27.7716 Y-22.8719 
G1 X27.7716 Y-22.8719 Z0.2166 F21.
G1 X27.7716 Y-22.7982 Z0.2036
G1 X27.7716 Y-22.1433 Z0.2036 F22.
G2X27.7747Y-22.1402Z0.2036I0.0031J0.0000
G1 X27.9904 Y-22.1402 Z0.2036
G2X27.9936Y-22.1433Z0.2036I0.0000J-0.0031
G1 X27.9936 Y-23.4530 Z0.2036
G2X27.9904Y-23.4562Z0.2036I-0.0032J0.0000
G1 X27.7747 Y-23.4562 Z0.2036
G2X27.7716Y-23.4530Z0.2036I0.0000J0.0032
G1 X27.7716 Y-22.7982 Z0.2036
G1 X27.7716 Y-22.5482 Z0.2036
G0 Z0.2550
G0 X27.7716 Y-22.5482 
G0 Z0.2550
G0 X27.7716 Y-22.7245 
G1 X27.7716 Y-22.7245 Z0.2050 F21.
G1 X27.7716 Y-22.7982 Z0.1920
G1 X27.7716 Y-23.4530 Z0.1920 F22.
G3X27.7747Y-23.4562Z0.1920I0.0031J0.0000
G1 X27.9904 Y-23.4562 Z0.1920
G3X27.9936Y-23.4530Z0.1920I0.0000J0.0032
G1 X27.9936 Y-22.1433 Z0.1920
G3X27.9904Y-22.1402Z0.1920I-0.0032J0.0000
G1 X27.7747 Y-22.1402 Z0.1920
G3X27.7716Y-22.1433Z0.1920I0.0000J-0.0031
G1 X27.7716 Y-22.7982 Z0.1920
G1 X27.7716 Y-23.0482 Z0.1920
G0 Z0.3014
G0 X27.7716 Y-23.0482 
G0 Z0.3014
G0 X28.9771 Y-22.7245 
G1 X28.9771 Y-22.7245 Z0.2514 F21.
G1 X28.9771 Y-22.7982 Z0.2384
G1 X28.9771 Y-23.4530 Z0.2384 F22.
G3X28.9803Y-23.4562Z0.2384I0.0032J0.0000
G1 X29.1960 Y-23.4562 Z0.2384
G3X29.1991Y-23.4530Z0.2384I0.0000J0.0032
G1 X29.1991 Y-22.1433 Z0.2384
G3X29.1960Y-22.1402Z0.2384I-0.0031J0.0000
G1 X28.9803 Y-22.1402 Z0.2384
G3X28.9771Y-22.1433Z0.2384I0.0000J-0.0031
G1 X28.9771 Y-22.7982 Z0.2384
G1 X28.9771 Y-23.0482 Z0.2384
G0 Z0.2898
G0 X28.9771 Y-23.0482 
G0 Z0.2898
G0 X28.9771 Y-22.8719 
G1 X28.9771 Y-22.8719 Z0.2398 F21.
G1 X28.9771 Y-22.7982 Z0.2268
G1 X28.9771 Y-22.1433 Z0.2268 F22.
G2X28.9803Y-22.1402Z0.2268I0.0032J0.0000
G1 X29.1960 Y-22.1402 Z0.2268
G2X29.1991Y-22.1433Z0.2268I0.0000J-0.0031
G1 X29.1991 Y-23.4530 Z0.2268
G2X29.1960Y-23.4562Z0.2268I-0.0031J0.0000
G1 X28.9803 Y-23.4562 Z0.2268
G2X28.9771Y-23.4530Z0.2268I0.0000J0.0032
G1 X28.9771 Y-22.7982 Z0.2268
G1 X28.9771 Y-22.5482 Z0.2268
G0 Z0.2782
G0 X28.9771 Y-22.5482 
G0 Z0.2782
G0 X28.9771 Y-22.7245 
G1 X28.9771 Y-22.7245 Z0.2282 F21.
G1 X28.9771 Y-22.7982 Z0.2152
G1 X28.9771 Y-23.4530 Z0.2152 F22.
G3X28.9803Y-23.4562Z0.2152I0.0032J0.0000
G1 X29.1960 Y-23.4562 Z0.2152
G3X29.1991Y-23.4530Z0.2152I0.0000J0.0032
G1 X29.1991 Y-22.1433 Z0.2152
G3X29.1960Y-22.1402Z0.2152I-0.0031J0.0000
G1 X28.9803 Y-22.1402 Z0.2152
G3X28.9771Y-22.1433Z0.2152I0.0000J-0.0031
G1 X28.9771 Y-22.7982 Z0.2152
G1 X28.9771 Y-23.0482 Z0.2152
G0 Z0.2666
G0 X28.9771 Y-23.0482 
G0 Z0.2666
G0 X28.9771 Y-22.8719 
G1 X28.9771 Y-22.8719 Z0.2166 F21.
G1 X28.9771 Y-22.7982 Z0.2036
G1 X28.9771 Y-22.1433 Z0.2036 F22.
G2X28.9803Y-22.1402Z0.2036I0.0032J0.0000
G1 X29.1960 Y-22.1402 Z0.2036
G2X29.1991Y-22.1433Z0.2036I0.0000J-0.0031
G1 X29.1991 Y-23.4530 Z0.2036
G2X29.1960Y-23.4562Z0.2036I-0.0031J0.0000
G1 X28.9803 Y-23.4562 Z0.2036
G2X28.9771Y-23.4530Z0.2036I0.0000J0.0032
G1 X28.9771 Y-22.7982 Z0.2036
G1 X28.9771 Y-22.5482 Z0.2036
G0 Z0.2550
G0 X28.9771 Y-22.5482 
G0 Z0.2550
G0 X28.9771 Y-22.7245 
G1 X28.9771 Y-22.7245 Z0.2050 F21.
G1 X28.9771 Y-22.7982 Z0.1920
G1 X28.9771 Y-23.4530 Z0.1920 F22.
G3X28.9803Y-23.4562Z0.1920I0.0032J0.0000
G1 X29.1960 Y-23.4562 Z0.1920
G3X29.1991Y-23.4530Z0.1920I0.0000J0.0032
G1 X29.1991 Y-22.1433 Z0.1920
G3X29.1960Y-22.1402Z0.1920I-0.0031J0.0000
G1 X28.9803 Y-22.1402 Z0.1920
G3X28.9771Y-22.1433Z0.1920I0.0000J-0.0031
G1 X28.9771 Y-22.7982 Z0.1920
G1 X28.9771 Y-23.0482 Z0.1920
G0 Z0.3014
G0 X28.9771 Y-23.0482 
G0 Z0.3014
G0 X29.9010 Y-22.7257 
G1 X29.9010 Y-22.7257 Z0.2514 F21.
G1 X29.9010 Y-22.7994 Z0.2384
G1 X29.9010 Y-23.4193 Z0.2384 F22.
G3X29.9042Y-23.4224Z0.2384I0.0032J0.0000
G1 X30.1279 Y-23.4224 Z0.2384
G3X30.1310Y-23.4193Z0.2384I0.0000J0.0031
G1 X30.1310 Y-22.1796 Z0.2384
G3X30.1279Y-22.1764Z0.2384I-0.0031J0.0000
G1 X29.9042 Y-22.1764 Z0.2384
G3X29.9010Y-22.1796Z0.2384I0.0000J-0.0032
G1 X29.9010 Y-22.7994 Z0.2384
G1 X29.9010 Y-23.0494 Z0.2384
G0 Z0.2898
G0 X29.9010 Y-23.0494 
G0 Z0.2898
G0 X29.9010 Y-22.8732 
G1 X29.9010 Y-22.8732 Z0.2398 F21.
G1 X29.9010 Y-22.7994 Z0.2268
G1 X29.9010 Y-22.1796 Z0.2268 F22.
G2X29.9042Y-22.1764Z0.2268I0.0032J0.0000
G1 X30.1279 Y-22.1764 Z0.2268
G2X30.1310Y-22.1796Z0.2268I0.0000J-0.0032
G1 X30.1310 Y-23.4193 Z0.2268
G2X30.1279Y-23.4224Z0.2268I-0.0031J0.0000
G1 X29.9042 Y-23.4224 Z0.2268
G2X29.9010Y-23.4193Z0.2268I0.0000J0.0031
G1 X29.9010 Y-22.7994 Z0.2268
G1 X29.9010 Y-22.5494 Z0.2268
G0 Z0.2782
G0 X29.9010 Y-22.5494 
G0 Z0.2782
G0 X29.9010 Y-22.7257 
G1 X29.9010 Y-22.7257 Z0.2282 F21.
G1 X29.9010 Y-22.7994 Z0.2152
G1 X29.9010 Y-23.4193 Z0.2152 F22.
G3X29.9042Y-23.4224Z0.2152I0.0032J0.0000
G1 X30.1279 Y-23.4224 Z0.2152
G3X30.1310Y-23.4193Z0.2152I0.0000J0.0031
G1 X30.1310 Y-22.1796 Z0.2152
G3X30.1279Y-22.1764Z0.2152I-0.0031J0.0000
G1 X29.9042 Y-22.1764 Z0.2152
G3X29.9010Y-22.1796Z0.2152I0.0000J-0.0032
G1 X29.9010 Y-22.7994 Z0.2152
G1 X29.9010 Y-23.0494 Z0.2152
G0 Z0.2666
G0 X29.9010 Y-23.0494 
G0 Z0.2666
G0 X29.9010 Y-22.8732 
G1 X29.9010 Y-22.8732 Z0.2166 F21.
G1 X29.9010 Y-22.7994 Z0.2036
G1 X29.9010 Y-22.1796 Z0.2036 F22.
G2X29.9042Y-22.1764Z0.2036I0.0032J0.0000
G1 X30.1279 Y-22.1764 Z0.2036
G2X30.1310Y-22.1796Z0.2036I0.0000J-0.0032
G1 X30.1310 Y-23.4193 Z0.2036
G2X30.1279Y-23.4224Z0.2036I-0.0031J0.0000
G1 X29.9042 Y-23.4224 Z0.2036
G2X29.9010Y-23.4193Z0.2036I0.0000J0.0031
G1 X29.9010 Y-22.7994 Z0.2036
G1 X29.9010 Y-22.5494 Z0.2036
G0 Z0.2550
G0 X29.9010 Y-22.5494 
G0 Z0.2550
G0 X29.9010 Y-22.7257 
G1 X29.9010 Y-22.7257 Z0.2050 F21.
G1 X29.9010 Y-22.7994 Z0.1920
G1 X29.9010 Y-23.4193 Z0.1920 F22.
G3X29.9042Y-23.4224Z0.1920I0.0032J0.0000
G1 X30.1279 Y-23.4224 Z0.1920
G3X30.1310Y-23.4193Z0.1920I0.0000J0.0031
G1 X30.1310 Y-22.1796 Z0.1920
G3X30.1279Y-22.1764Z0.1920I-0.0031J0.0000
G1 X29.9042 Y-22.1764 Z0.1920
G3X29.9010Y-22.1796Z0.1920I0.0000J-0.0032
G1 X29.9010 Y-22.7994 Z0.1920
G1 X29.9010 Y-23.0494 Z0.1920
G0 Z0.3014
G0 X29.9010 Y-23.0494 
G0 Z0.3014
G0 X30.9355 Y-22.7258 
G1 X30.9355 Y-22.7258 Z0.2514 F21.
G1 X30.9355 Y-22.7995 Z0.2384
G1 X30.9355 Y-23.4158 Z0.2384 F22.
G3X30.9387Y-23.4190Z0.2384I0.0032J0.0000
G1 X31.1764 Y-23.4190 Z0.2384
G3X31.1795Y-23.4158Z0.2384I0.0000J0.0032
G1 X31.1795 Y-22.1831 Z0.2384
G3X31.1764Y-22.1800Z0.2384I-0.0031J0.0000
G1 X30.9387 Y-22.1800 Z0.2384
G3X30.9355Y-22.1831Z0.2384I0.0000J-0.0031
G1 X30.9355 Y-22.7995 Z0.2384
G1 X30.9355 Y-23.0495 Z0.2384
G0 Z0.2898
G0 X30.9355 Y-23.0495 
G0 Z0.2898
G0 X30.9355 Y-22.8732 
G1 X30.9355 Y-22.8732 Z0.2398 F21.
G1 X30.9355 Y-22.7995 Z0.2268
G1 X30.9355 Y-22.1831 Z0.2268 F22.
G2X30.9387Y-22.1800Z0.2268I0.0032J0.0000
G1 X31.1764 Y-22.1800 Z0.2268
G2X31.1795Y-22.1831Z0.2268I0.0000J-0.0031
G1 X31.1795 Y-23.4158 Z0.2268
G2X31.1764Y-23.4190Z0.2268I-0.0031J0.0000
G1 X30.9387 Y-23.4190 Z0.2268
G2X30.9355Y-23.4158Z0.2268I0.0000J0.0032
G1 X30.9355 Y-22.7995 Z0.2268
G1 X30.9355 Y-22.5495 Z0.2268
G0 Z0.2782
G0 X30.9355 Y-22.5495 
G0 Z0.2782
G0 X30.9355 Y-22.7258 
G1 X30.9355 Y-22.7258 Z0.2282 F21.
G1 X30.9355 Y-22.7995 Z0.2152
G1 X30.9355 Y-23.4158 Z0.2152 F22.
G3X30.9387Y-23.4190Z0.2152I0.0032J0.0000
G1 X31.1764 Y-23.4190 Z0.2152
G3X31.1795Y-23.4158Z0.2152I0.0000J0.0032
G1 X31.1795 Y-22.1831 Z0.2152
G3X31.1764Y-22.1800Z0.2152I-0.0031J0.0000
G1 X30.9387 Y-22.1800 Z0.2152
G3X30.9355Y-22.1831Z0.2152I0.0000J-0.0031
G1 X30.9355 Y-22.7995 Z0.2152
G1 X30.9355 Y-23.0495 Z0.2152
G0 Z0.2666
G0 X30.9355 Y-23.0495 
G0 Z0.2666
G0 X30.9355 Y-22.8732 
G1 X30.9355 Y-22.8732 Z0.2166 F21.
G1 X30.9355 Y-22.7995 Z0.2036
G1 X30.9355 Y-22.1831 Z0.2036 F22.
G2X30.9387Y-22.1800Z0.2036I0.0032J0.0000
G1 X31.1764 Y-22.1800 Z0.2036
G2X31.1795Y-22.1831Z0.2036I0.0000J-0.0031
G1 X31.1795 Y-23.4158 Z0.2036
G2X31.1764Y-23.4190Z0.2036I-0.0031J0.0000
G1 X30.9387 Y-23.4190 Z0.2036
G2X30.9355Y-23.4158Z0.2036I0.0000J0.0032
G1 X30.9355 Y-22.7995 Z0.2036
G1 X30.9355 Y-22.5495 Z0.2036
G0 Z0.2550
G0 X30.9355 Y-22.5495 
G0 Z0.2550
G0 X30.9355 Y-22.7258 
G1 X30.9355 Y-22.7258 Z0.2050 F21.
G1 X30.9355 Y-22.7995 Z0.1920
G1 X30.9355 Y-23.4158 Z0.1920 F22.
G3X30.9387Y-23.4190Z0.1920I0.0032J0.0000
G1 X31.1764 Y-23.4190 Z0.1920
G3X31.1795Y-23.4158Z0.1920I0.0000J0.0032
G1 X31.1795 Y-22.1831 Z0.1920
G3X31.1764Y-22.1800Z0.1920I-0.0031J0.0000
G1 X30.9387 Y-22.1800 Z0.1920
G3X30.9355Y-22.1831Z0.1920I0.0000J-0.0031
G1 X30.9355 Y-22.7995 Z0.1920
G1 X30.9355 Y-23.0495 Z0.1920
G0 Z0.3014
G0 X30.9355 Y-23.0495 
G0 Z0.3014
G0 X32.0646 Y-22.7257 
G1 X32.0646 Y-22.7257 Z0.2514 F21.
G1 X32.0646 Y-22.7994 Z0.2384
G1 X32.0646 Y-23.3992 Z0.2384 F22.
G3X32.0678Y-23.4024Z0.2384I0.0032J0.0000
G1 X32.3855 Y-23.4024 Z0.2384
G3X32.3886Y-23.3992Z0.2384I0.0000J0.0032
G1 X32.3886 Y-22.1995 Z0.2384
G3X32.3855Y-22.1964Z0.2384I-0.0031J0.0000
G1 X32.0678 Y-22.1964 Z0.2384
G3X32.0646Y-22.1995Z0.2384I0.0000J-0.0031
G1 X32.0646 Y-22.7994 Z0.2384
G1 X32.0646 Y-23.0494 Z0.2384
G0 Z0.2898
G0 X32.0646 Y-23.0494 
G0 Z0.2898
G0 X32.0646 Y-22.8731 
G1 X32.0646 Y-22.8731 Z0.2398 F21.
G1 X32.0646 Y-22.7994 Z0.2268
G1 X32.0646 Y-22.1995 Z0.2268 F22.
G2X32.0678Y-22.1964Z0.2268I0.0032J0.0000
G1 X32.3855 Y-22.1964 Z0.2268
G2X32.3886Y-22.1995Z0.2268I0.0000J-0.0031
G1 X32.3886 Y-23.3992 Z0.2268
G2X32.3855Y-23.4024Z0.2268I-0.0031J0.0000
G1 X32.0678 Y-23.4024 Z0.2268
G2X32.0646Y-23.3992Z0.2268I0.0000J0.0032
G1 X32.0646 Y-22.7994 Z0.2268
G1 X32.0646 Y-22.5494 Z0.2268
G0 Z0.2782
G0 X32.0646 Y-22.5494 
G0 Z0.2782
G0 X32.0646 Y-22.7257 
G1 X32.0646 Y-22.7257 Z0.2282 F21.
G1 X32.0646 Y-22.7994 Z0.2152
G1 X32.0646 Y-23.3992 Z0.2152 F22.
G3X32.0678Y-23.4024Z0.2152I0.0032J0.0000
G1 X32.3855 Y-23.4024 Z0.2152
G3X32.3886Y-23.3992Z0.2152I0.0000J0.0032
G1 X32.3886 Y-22.1995 Z0.2152
G3X32.3855Y-22.1964Z0.2152I-0.0031J0.0000
G1 X32.0678 Y-22.1964 Z0.2152
G3X32.0646Y-22.1995Z0.2152I0.0000J-0.0031
G1 X32.0646 Y-22.7994 Z0.2152
G1 X32.0646 Y-23.0494 Z0.2152
G0 Z0.2666
G0 X32.0646 Y-23.0494 
G0 Z0.2666
G0 X32.0646 Y-22.8731 
G1 X32.0646 Y-22.8731 Z0.2166 F21.
G1 X32.0646 Y-22.7994 Z0.2036
G1 X32.0646 Y-22.1995 Z0.2036 F22.
G2X32.0678Y-22.1964Z0.2036I0.0032J0.0000
G1 X32.3855 Y-22.1964 Z0.2036
G2X32.3886Y-22.1995Z0.2036I0.0000J-0.0031
G1 X32.3886 Y-23.3992 Z0.2036
G2X32.3855Y-23.4024Z0.2036I-0.0031J0.0000
G1 X32.0678 Y-23.4024 Z0.2036
G2X32.0646Y-23.3992Z0.2036I0.0000J0.0032
G1 X32.0646 Y-22.7994 Z0.2036
G1 X32.0646 Y-22.5494 Z0.2036
G0 Z0.2550
G0 X32.0646 Y-22.5494 
G0 Z0.2550
G0 X32.0646 Y-22.7257 
G1 X32.0646 Y-22.7257 Z0.2050 F21.
G1 X32.0646 Y-22.7994 Z0.1920
G1 X32.0646 Y-23.3992 Z0.1920 F22.
G3X32.0678Y-23.4024Z0.1920I0.0032J0.0000
G1 X32.3855 Y-23.4024 Z0.1920
G3X32.3886Y-23.3992Z0.1920I0.0000J0.0032
G1 X32.3886 Y-22.1995 Z0.1920
G3X32.3855Y-22.1964Z0.1920I-0.0031J0.0000
G1 X32.0678 Y-22.1964 Z0.1920
G3X32.0646Y-22.1995Z0.1920I0.0000J-0.0031
G1 X32.0646 Y-22.7994 Z0.1920
G1 X32.0646 Y-23.0494 Z0.1920
G0 Z0.3014
G0 X32.0646 Y-23.0494 
G0 Z0.3014
G0 X34.0231 Y-22.7207 
G1 X34.0231 Y-22.7207 Z0.2514 F21.
G1 X34.0231 Y-22.7945 Z0.2384
G1 X34.0231 Y-23.3588 Z0.2384 F22.
G3X34.0262Y-23.3620Z0.2384I0.0031J0.0000
G1 X34.4819 Y-23.3620 Z0.2384
G3X34.4851Y-23.3588Z0.2384I0.0000J0.0032
G1 X34.4851 Y-22.2301 Z0.2384
G3X34.4819Y-22.2270Z0.2384I-0.0032J0.0000
G1 X34.0262 Y-22.2270 Z0.2384
G3X34.0231Y-22.2301Z0.2384I0.0000J-0.0031
G1 X34.0231 Y-22.7945 Z0.2384
G1 X34.0231 Y-23.0445 Z0.2384
G0 Z0.2898
G0 X34.0231 Y-23.0445 
G0 Z0.2898
G0 X34.0231 Y-22.8682 
G1 X34.0231 Y-22.8682 Z0.2398 F21.
G1 X34.0231 Y-22.7945 Z0.2268
G1 X34.0231 Y-22.2301 Z0.2268 F22.
G2X34.0262Y-22.2270Z0.2268I0.0031J0.0000
G1 X34.4819 Y-22.2270 Z0.2268
G2X34.4851Y-22.2301Z0.2268I0.0000J-0.0031
G1 X34.4851 Y-23.3588 Z0.2268
G2X34.4819Y-23.3620Z0.2268I-0.0032J0.0000
G1 X34.0262 Y-23.3620 Z0.2268
G2X34.0231Y-23.3588Z0.2268I0.0000J0.0032
G1 X34.0231 Y-22.7945 Z0.2268
G1 X34.0231 Y-22.5445 Z0.2268
G0 Z0.2782
G0 X34.0231 Y-22.5445 
G0 Z0.2782
G0 X34.0231 Y-22.7207 
G1 X34.0231 Y-22.7207 Z0.2282 F21.
G1 X34.0231 Y-22.7945 Z0.2152
G1 X34.0231 Y-23.3588 Z0.2152 F22.
G3X34.0262Y-23.3620Z0.2152I0.0031J0.0000
G1 X34.4819 Y-23.3620 Z0.2152
G3X34.4851Y-23.3588Z0.2152I0.0000J0.0032
G1 X34.4851 Y-22.2301 Z0.2152
G3X34.4819Y-22.2270Z0.2152I-0.0032J0.0000
G1 X34.0262 Y-22.2270 Z0.2152
G3X34.0231Y-22.2301Z0.2152I0.0000J-0.0031
G1 X34.0231 Y-22.7945 Z0.2152
G1 X34.0231 Y-23.0445 Z0.2152
G0 Z0.2666
G0 X34.0231 Y-23.0445 
G0 Z0.2666
G0 X34.0231 Y-22.8682 
G1 X34.0231 Y-22.8682 Z0.2166 F21.
G1 X34.0231 Y-22.7945 Z0.2036
G1 X34.0231 Y-22.2301 Z0.2036 F22.
G2X34.0262Y-22.2270Z0.2036I0.0031J0.0000
G1 X34.4819 Y-22.2270 Z0.2036
G2X34.4851Y-22.2301Z0.2036I0.0000J-0.0031
G1 X34.4851 Y-23.3588 Z0.2036
G2X34.4819Y-23.3620Z0.2036I-0.0032J0.0000
G1 X34.0262 Y-23.3620 Z0.2036
G2X34.0231Y-23.3588Z0.2036I0.0000J0.0032
G1 X34.0231 Y-22.7945 Z0.2036
G1 X34.0231 Y-22.5445 Z0.2036
G0 Z0.2550
G0 X34.0231 Y-22.5445 
G0 Z0.2550
G0 X34.0231 Y-22.7207 
G1 X34.0231 Y-22.7207 Z0.2050 F21.
G1 X34.0231 Y-22.7945 Z0.1920
G1 X34.0231 Y-23.3588 Z0.1920 F22.
G3X34.0262Y-23.3620Z0.1920I0.0031J0.0000
G1 X34.4819 Y-23.3620 Z0.1920
G3X34.4851Y-23.3588Z0.1920I0.0000J0.0032
G1 X34.4851 Y-22.2301 Z0.1920
G3X34.4819Y-22.2270Z0.1920I-0.0032J0.0000
G1 X34.0262 Y-22.2270 Z0.1920
G3X34.0231Y-22.2301Z0.1920I0.0000J-0.0031
G1 X34.0231 Y-22.7945 Z0.1920
G1 X34.0231 Y-23.0445 Z0.1920
G0 Z0.3014
G0 X34.0231 Y-23.0445 
G0 Z0.3014
G0 X36.3859 Y-22.7257 
G1 X36.3859 Y-22.7257 Z0.2514 F21.
G1 X36.3859 Y-22.7994 Z0.2384
G1 X36.3859 Y-23.3328 Z0.2384 F22.
G3X36.3890Y-23.3359Z0.2384I0.0031J0.0000
G1 X36.9577 Y-23.3359 Z0.2384
G3X36.9609Y-23.3328Z0.2384I0.0000J0.0031
G1 X36.9609 Y-22.2661 Z0.2384
G3X36.9577Y-22.2629Z0.2384I-0.0032J0.0000
G1 X36.3890 Y-22.2629 Z0.2384
G3X36.3859Y-22.2661Z0.2384I0.0000J-0.0032
G1 X36.3859 Y-22.7994 Z0.2384
G1 X36.3859 Y-23.0494 Z0.2384
G0 Z0.2898
G0 X36.3859 Y-23.0494 
G0 Z0.2898
G0 X36.3859 Y-22.8732 
G1 X36.3859 Y-22.8732 Z0.2398 F21.
G1 X36.3859 Y-22.7994 Z0.2268
G1 X36.3859 Y-22.2661 Z0.2268 F22.
G2X36.3890Y-22.2629Z0.2268I0.0031J0.0000
G1 X36.9577 Y-22.2629 Z0.2268
G2X36.9609Y-22.2661Z0.2268I0.0000J-0.0032
G1 X36.9609 Y-23.3328 Z0.2268
G2X36.9577Y-23.3359Z0.2268I-0.0032J0.0000
G1 X36.3890 Y-23.3359 Z0.2268
G2X36.3859Y-23.3328Z0.2268I0.0000J0.0031
G1 X36.3859 Y-22.7994 Z0.2268
G1 X36.3859 Y-22.5494 Z0.2268
G0 Z0.2782
G0 X36.3859 Y-22.5494 
G0 Z0.2782
G0 X36.3859 Y-22.7257 
G1 X36.3859 Y-22.7257 Z0.2282 F21.
G1 X36.3859 Y-22.7994 Z0.2152
G1 X36.3859 Y-23.3328 Z0.2152 F22.
G3X36.3890Y-23.3359Z0.2152I0.0031J0.0000
G1 X36.9577 Y-23.3359 Z0.2152
G3X36.9609Y-23.3328Z0.2152I0.0000J0.0031
G1 X36.9609 Y-22.2661 Z0.2152
G3X36.9577Y-22.2629Z0.2152I-0.0032J0.0000
G1 X36.3890 Y-22.2629 Z0.2152
G3X36.3859Y-22.2661Z0.2152I0.0000J-0.0032
G1 X36.3859 Y-22.7994 Z0.2152
G1 X36.3859 Y-23.0494 Z0.2152
G0 Z0.2666
G0 X36.3859 Y-23.0494 
G0 Z0.2666
G0 X36.3859 Y-22.8732 
G1 X36.3859 Y-22.8732 Z0.2166 F21.
G1 X36.3859 Y-22.7994 Z0.2036
G1 X36.3859 Y-22.2661 Z0.2036 F22.
G2X36.3890Y-22.2629Z0.2036I0.0031J0.0000
G1 X36.9577 Y-22.2629 Z0.2036
G2X36.9609Y-22.2661Z0.2036I0.0000J-0.0032
G1 X36.9609 Y-23.3328 Z0.2036
G2X36.9577Y-23.3359Z0.2036I-0.0032J0.0000
G1 X36.3890 Y-23.3359 Z0.2036
G2X36.3859Y-23.3328Z0.2036I0.0000J0.0031
G1 X36.3859 Y-22.7994 Z0.2036
G1 X36.3859 Y-22.5494 Z0.2036
G0 Z0.2550
G0 X36.3859 Y-22.5494 
G0 Z0.2550
G0 X36.3859 Y-22.7257 
G1 X36.3859 Y-22.7257 Z0.2050 F21.
G1 X36.3859 Y-22.7994 Z0.1920
G1 X36.3859 Y-23.3328 Z0.1920 F22.
G3X36.3890Y-23.3359Z0.1920I0.0031J0.0000
G1 X36.9577 Y-23.3359 Z0.1920
G3X36.9609Y-23.3328Z0.1920I0.0000J0.0031
G1 X36.9609 Y-22.2661 Z0.1920
G3X36.9577Y-22.2629Z0.1920I-0.0032J0.0000
G1 X36.3890 Y-22.2629 Z0.1920
G3X36.3859Y-22.2661Z0.1920I0.0000J-0.0032
G1 X36.3859 Y-22.7994 Z0.1920
G1 X36.3859 Y-23.0494 Z0.1920
G0 Z0.3014
G0 X36.3859 Y-23.0494 
G0 Z0.3014
G0 X38.1709 Y-22.7251 
G1 X38.1709 Y-22.7251 Z0.2514 F21.
G1 X38.1709 Y-22.7989 Z0.2384
G1 X38.1709 Y-23.3082 Z0.2384 F22.
G3X38.1740Y-23.3114Z0.2384I0.0031J0.0000
G1 X38.8677 Y-23.3114 Z0.2384
G3X38.8709Y-23.3082Z0.2384I0.0000J0.0032
G1 X38.8709 Y-22.2895 Z0.2384
G3X38.8677Y-22.2864Z0.2384I-0.0032J0.0000
G1 X38.1740 Y-22.2864 Z0.2384
G3X38.1709Y-22.2895Z0.2384I0.0000J-0.0031
G1 X38.1709 Y-22.7989 Z0.2384
G1 X38.1709 Y-23.0489 Z0.2384
G0 Z0.2898
G0 X38.1709 Y-23.0489 
G0 Z0.2898
G0 X38.1709 Y-22.8726 
G1 X38.1709 Y-22.8726 Z0.2398 F21.
G1 X38.1709 Y-22.7989 Z0.2268
G1 X38.1709 Y-22.2895 Z0.2268 F22.
G2X38.1740Y-22.2864Z0.2268I0.0031J0.0000
G1 X38.8677 Y-22.2864 Z0.2268
G2X38.8709Y-22.2895Z0.2268I0.0000J-0.0031
G1 X38.8709 Y-23.3082 Z0.2268
G2X38.8677Y-23.3114Z0.2268I-0.0032J0.0000
G1 X38.1740 Y-23.3114 Z0.2268
G2X38.1709Y-23.3082Z0.2268I0.0000J0.0032
G1 X38.1709 Y-22.7989 Z0.2268
G1 X38.1709 Y-22.5489 Z0.2268
G0 Z0.2782
G0 X38.1709 Y-22.5489 
G0 Z0.2782
G0 X38.1709 Y-22.7251 
G1 X38.1709 Y-22.7251 Z0.2282 F21.
G1 X38.1709 Y-22.7989 Z0.2152
G1 X38.1709 Y-23.3082 Z0.2152 F22.
G3X38.1740Y-23.3114Z0.2152I0.0031J0.0000
G1 X38.8677 Y-23.3114 Z0.2152
G3X38.8709Y-23.3082Z0.2152I0.0000J0.0032
G1 X38.8709 Y-22.2895 Z0.2152
G3X38.8677Y-22.2864Z0.2152I-0.0032J0.0000
G1 X38.1740 Y-22.2864 Z0.2152
G3X38.1709Y-22.2895Z0.2152I0.0000J-0.0031
G1 X38.1709 Y-22.7989 Z0.2152
G1 X38.1709 Y-23.0489 Z0.2152
G0 Z0.2666
G0 X38.1709 Y-23.0489 
G0 Z0.2666
G0 X38.1709 Y-22.8726 
G1 X38.1709 Y-22.8726 Z0.2166 F21.
G1 X38.1709 Y-22.7989 Z0.2036
G1 X38.1709 Y-22.2895 Z0.2036 F22.
G2X38.1740Y-22.2864Z0.2036I0.0031J0.0000
G1 X38.8677 Y-22.2864 Z0.2036
G2X38.8709Y-22.2895Z0.2036I0.0000J-0.0031
G1 X38.8709 Y-23.3082 Z0.2036
G2X38.8677Y-23.3114Z0.2036I-0.0032J0.0000
G1 X38.1740 Y-23.3114 Z0.2036
G2X38.1709Y-23.3082Z0.2036I0.0000J0.0032
G1 X38.1709 Y-22.7989 Z0.2036
G1 X38.1709 Y-22.5489 Z0.2036
G0 Z0.2550
G0 X38.1709 Y-22.5489 
G0 Z0.2550
G0 X38.1709 Y-22.7251 
G1 X38.1709 Y-22.7251 Z0.2050 F21.
G1 X38.1709 Y-22.7989 Z0.1920
G1 X38.1709 Y-23.3082 Z0.1920 F22.
G3X38.1740Y-23.3114Z0.1920I0.0031J0.0000
G1 X38.8677 Y-23.3114 Z0.1920
G3X38.8709Y-23.3082Z0.1920I0.0000J0.0032
G1 X38.8709 Y-22.2895 Z0.1920
G3X38.8677Y-22.2864Z0.1920I-0.0032J0.0000
G1 X38.1740 Y-22.2864 Z0.1920
G3X38.1709Y-22.2895Z0.1920I0.0000J-0.0031
G1 X38.1709 Y-22.7989 Z0.1920
G1 X38.1709 Y-23.0489 Z0.1920
G0 Z0.3014
G0 X38.1709 Y-23.0489 
G0 Z0.3014
G0 X40.1974 Y-22.7254 
G1 X40.1974 Y-22.7254 Z0.2514 F21.
G1 X40.1974 Y-22.7991 Z0.2384
G1 X40.1974 Y-23.2704 Z0.2384 F22.
G3X40.2006Y-23.2736Z0.2384I0.0032J0.0000
G1 X41.0073 Y-23.2736 Z0.2384
G3X41.0104Y-23.2704Z0.2384I0.0000J0.0032
G1 X41.0104 Y-22.3277 Z0.2384
G3X41.0073Y-22.3246Z0.2384I-0.0031J0.0000
G1 X40.2006 Y-22.3246 Z0.2384
G3X40.1974Y-22.3277Z0.2384I0.0000J-0.0031
G1 X40.1974 Y-22.7991 Z0.2384
G1 X40.1974 Y-23.0491 Z0.2384
G0 Z0.2898
G0 X40.1974 Y-23.0491 
G0 Z0.2898
G0 X40.1974 Y-22.8728 
G1 X40.1974 Y-22.8728 Z0.2398 F21.
G1 X40.1974 Y-22.7991 Z0.2268
G1 X40.1974 Y-22.3277 Z0.2268 F22.
G2X40.2006Y-22.3246Z0.2268I0.0032J0.0000
G1 X41.0073 Y-22.3246 Z0.2268
G2X41.0104Y-22.3277Z0.2268I0.0000J-0.0031
G1 X41.0104 Y-23.2704 Z0.2268
G2X41.0073Y-23.2736Z0.2268I-0.0031J0.0000
G1 X40.2006 Y-23.2736 Z0.2268
G2X40.1974Y-23.2704Z0.2268I0.0000J0.0032
G1 X40.1974 Y-22.7991 Z0.2268
G1 X40.1974 Y-22.5491 Z0.2268
G0 Z0.2782
G0 X40.1974 Y-22.5491 
G0 Z0.2782
G0 X40.1974 Y-22.7254 
G1 X40.1974 Y-22.7254 Z0.2282 F21.
G1 X40.1974 Y-22.7991 Z0.2152
G1 X40.1974 Y-23.2704 Z0.2152 F22.
G3X40.2006Y-23.2736Z0.2152I0.0032J0.0000
G1 X41.0073 Y-23.2736 Z0.2152
G3X41.0104Y-23.2704Z0.2152I0.0000J0.0032
G1 X41.0104 Y-22.3277 Z0.2152
G3X41.0073Y-22.3246Z0.2152I-0.0031J0.0000
G1 X40.2006 Y-22.3246 Z0.2152
G3X40.1974Y-22.3277Z0.2152I0.0000J-0.0031
G1 X40.1974 Y-22.7991 Z0.2152
G1 X40.1974 Y-23.0491 Z0.2152
G0 Z0.2666
G0 X40.1974 Y-23.0491 
G0 Z0.2666
G0 X40.1974 Y-22.8728 
G1 X40.1974 Y-22.8728 Z0.2166 F21.
G1 X40.1974 Y-22.7991 Z0.2036
G1 X40.1974 Y-22.3277 Z0.2036 F22.
G2X40.2006Y-22.3246Z0.2036I0.0032J0.0000
G1 X41.0073 Y-22.3246 Z0.2036
G2X41.0104Y-22.3277Z0.2036I0.0000J-0.0031
G1 X41.0104 Y-23.2704 Z0.2036
G2X41.0073Y-23.2736Z0.2036I-0.0031J0.0000
G1 X40.2006 Y-23.2736 Z0.2036
G2X40.1974Y-23.2704Z0.2036I0.0000J0.0032
G1 X40.1974 Y-22.7991 Z0.2036
G1 X40.1974 Y-22.5491 Z0.2036
G0 Z0.2550
G0 X40.1974 Y-22.5491 
G0 Z0.2550
G0 X40.1974 Y-22.7254 
G1 X40.1974 Y-22.7254 Z0.2050 F21.
G1 X40.1974 Y-22.7991 Z0.1920
G1 X40.1974 Y-23.2704 Z0.1920 F22.
G3X40.2006Y-23.2736Z0.1920I0.0032J0.0000
G1 X41.0073 Y-23.2736 Z0.1920
G3X41.0104Y-23.2704Z0.1920I0.0000J0.0032
G1 X41.0104 Y-22.3277 Z0.1920
G3X41.0073Y-22.3246Z0.1920I-0.0031J0.0000
G1 X40.2006 Y-22.3246 Z0.1920
G3X40.1974Y-22.3277Z0.1920I0.0000J-0.0031
G1 X40.1974 Y-22.7991 Z0.1920
G1 X40.1974 Y-23.0491 Z0.1920
G0 Z0.3014
G0 X40.1974 Y-23.0491 
G0 Z0.3014
G0 X42.8684 Y-23.2475 
G1 X42.8684 Y-23.2475 Z0.2514 F21.
G1 X42.9421 Y-23.2475 Z0.2384
G1 X43.4074 Y-23.2475 Z0.2384 F22.
G3X43.4106Y-23.2443Z0.2384I0.0000J0.0032
G1 X43.4106 Y-22.3536 Z0.2384
G3X43.4074Y-22.3505Z0.2384I-0.0032J0.0000
G1 X42.4767 Y-22.3505 Z0.2384
G3X42.4736Y-22.3536Z0.2384I0.0000J-0.0031
G1 X42.4736 Y-23.2443 Z0.2384
G3X42.4767Y-23.2475Z0.2384I0.0031J0.0000
G1 X42.9421 Y-23.2475 Z0.2384
G1 X43.1921 Y-23.2475 Z0.2384
G0 Z0.2898
G0 X43.1921 Y-23.2475 
G0 Z0.2898
G0 X43.0158 Y-23.2475 
G1 X43.0158 Y-23.2475 Z0.2398 F21.
G1 X42.9421 Y-23.2475 Z0.2268
G1 X42.4767 Y-23.2475 Z0.2268 F22.
G2X42.4736Y-23.2443Z0.2268I0.0000J0.0032
G1 X42.4736 Y-22.3536 Z0.2268
G2X42.4767Y-22.3505Z0.2268I0.0031J0.0000
G1 X43.4074 Y-22.3505 Z0.2268
G2X43.4106Y-22.3536Z0.2268I0.0000J-0.0031
G1 X43.4106 Y-23.2443 Z0.2268
G2X43.4074Y-23.2475Z0.2268I-0.0032J0.0000
G1 X42.9421 Y-23.2475 Z0.2268
G1 X42.6921 Y-23.2475 Z0.2268
G0 Z0.2782
G0 X42.6921 Y-23.2475 
G0 Z0.2782
G0 X42.8684 Y-23.2475 
G1 X42.8684 Y-23.2475 Z0.2282 F21.
G1 X42.9421 Y-23.2475 Z0.2152
G1 X43.4074 Y-23.2475 Z0.2152 F22.
G3X43.4106Y-23.2443Z0.2152I0.0000J0.0032
G1 X43.4106 Y-22.3536 Z0.2152
G3X43.4074Y-22.3505Z0.2152I-0.0032J0.0000
G1 X42.4767 Y-22.3505 Z0.2152
G3X42.4736Y-22.3536Z0.2152I0.0000J-0.0031
G1 X42.4736 Y-23.2443 Z0.2152
G3X42.4767Y-23.2475Z0.2152I0.0031J0.0000
G1 X42.9421 Y-23.2475 Z0.2152
G1 X43.1921 Y-23.2475 Z0.2152
G0 Z0.2666
G0 X43.1921 Y-23.2475 
G0 Z0.2666
G0 X43.0158 Y-23.2475 
G1 X43.0158 Y-23.2475 Z0.2166 F21.
G1 X42.9421 Y-23.2475 Z0.2036
G1 X42.4767 Y-23.2475 Z0.2036 F22.
G2X42.4736Y-23.2443Z0.2036I0.0000J0.0032
G1 X42.4736 Y-22.3536 Z0.2036
G2X42.4767Y-22.3505Z0.2036I0.0031J0.0000
G1 X43.4074 Y-22.3505 Z0.2036
G2X43.4106Y-22.3536Z0.2036I0.0000J-0.0031
G1 X43.4106 Y-23.2443 Z0.2036
G2X43.4074Y-23.2475Z0.2036I-0.0032J0.0000
G1 X42.9421 Y-23.2475 Z0.2036
G1 X42.6921 Y-23.2475 Z0.2036
G0 Z0.2550
G0 X42.6921 Y-23.2475 
G0 Z0.2550
G0 X42.8684 Y-23.2475 
G1 X42.8684 Y-23.2475 Z0.2050 F21.
G1 X42.9421 Y-23.2475 Z0.1920
G1 X43.4074 Y-23.2475 Z0.1920 F22.
G3X43.4106Y-23.2443Z0.1920I0.0000J0.0032
G1 X43.4106 Y-22.3536 Z0.1920
G3X43.4074Y-22.3505Z0.1920I-0.0032J0.0000
G1 X42.4767 Y-22.3505 Z0.1920
G3X42.4736Y-22.3536Z0.1920I0.0000J-0.0031
G1 X42.4736 Y-23.2443 Z0.1920
G3X42.4767Y-23.2475Z0.1920I0.0031J0.0000
G1 X42.9421 Y-23.2475 Z0.1920
G1 X43.1921 Y-23.2475 Z0.1920
G0 Z0.3014
G0 X43.1921 Y-23.2475 
G0 Z0.3014
G0 X45.4928 Y-23.2123 
G1 X45.4928 Y-23.2123 Z0.2514 F21.
G1 X45.5666 Y-23.2123 Z0.2384
G1 X46.0834 Y-23.2123 Z0.2384 F22.
G3X46.0866Y-23.2091Z0.2384I0.0000J0.0032
G1 X46.0866 Y-22.3874 Z0.2384
G3X46.0834Y-22.3843Z0.2384I-0.0032J0.0000
G1 X45.0497 Y-22.3843 Z0.2384
G3X45.0466Y-22.3874Z0.2384I0.0000J-0.0031
G1 X45.0466 Y-23.2091 Z0.2384
G3X45.0497Y-23.2123Z0.2384I0.0031J0.0000
G1 X45.5666 Y-23.2123 Z0.2384
G1 X45.8166 Y-23.2123 Z0.2384
G0 Z0.2898
G0 X45.8166 Y-23.2123 
G0 Z0.2898
G0 X45.6403 Y-23.2123 
G1 X45.6403 Y-23.2123 Z0.2398 F21.
G1 X45.5666 Y-23.2123 Z0.2268
G1 X45.0497 Y-23.2123 Z0.2268 F22.
G2X45.0466Y-23.2091Z0.2268I0.0000J0.0032
G1 X45.0466 Y-22.3874 Z0.2268
G2X45.0497Y-22.3843Z0.2268I0.0031J0.0000
G1 X46.0834 Y-22.3843 Z0.2268
G2X46.0866Y-22.3874Z0.2268I0.0000J-0.0031
G1 X46.0866 Y-23.2091 Z0.2268
G2X46.0834Y-23.2123Z0.2268I-0.0032J0.0000
G1 X45.5666 Y-23.2123 Z0.2268
G1 X45.3166 Y-23.2123 Z0.2268
G0 Z0.2782
G0 X45.3166 Y-23.2123 
G0 Z0.2782
G0 X45.4928 Y-23.2123 
G1 X45.4928 Y-23.2123 Z0.2282 F21.
G1 X45.5666 Y-23.2123 Z0.2152
G1 X46.0834 Y-23.2123 Z0.2152 F22.
G3X46.0866Y-23.2091Z0.2152I0.0000J0.0032
G1 X46.0866 Y-22.3874 Z0.2152
G3X46.0834Y-22.3843Z0.2152I-0.0032J0.0000
G1 X45.0497 Y-22.3843 Z0.2152
G3X45.0466Y-22.3874Z0.2152I0.0000J-0.0031
G1 X45.0466 Y-23.2091 Z0.2152
G3X45.0497Y-23.2123Z0.2152I0.0031J0.0000
G1 X45.5666 Y-23.2123 Z0.2152
G1 X45.8166 Y-23.2123 Z0.2152
G0 Z0.2666
G0 X45.8166 Y-23.2123 
G0 Z0.2666
G0 X45.6403 Y-23.2123 
G1 X45.6403 Y-23.2123 Z0.2166 F21.
G1 X45.5666 Y-23.2123 Z0.2036
G1 X45.0497 Y-23.2123 Z0.2036 F22.
G2X45.0466Y-23.2091Z0.2036I0.0000J0.0032
G1 X45.0466 Y-22.3874 Z0.2036
G2X45.0497Y-22.3843Z0.2036I0.0031J0.0000
G1 X46.0834 Y-22.3843 Z0.2036
G2X46.0866Y-22.3874Z0.2036I0.0000J-0.0031
G1 X46.0866 Y-23.2091 Z0.2036
G2X46.0834Y-23.2123Z0.2036I-0.0032J0.0000
G1 X45.5666 Y-23.2123 Z0.2036
G1 X45.3166 Y-23.2123 Z0.2036
G0 Z0.2550
G0 X45.3166 Y-23.2123 
G0 Z0.2550
G0 X45.4928 Y-23.2123 
G1 X45.4928 Y-23.2123 Z0.2050 F21.
G1 X45.5666 Y-23.2123 Z0.1920
G1 X46.0834 Y-23.2123 Z0.1920 F22.
G3X46.0866Y-23.2091Z0.1920I0.0000J0.0032
G1 X46.0866 Y-22.3874 Z0.1920
G3X46.0834Y-22.3843Z0.1920I-0.0032J0.0000
G1 X45.0497 Y-22.3843 Z0.1920
G3X45.0466Y-22.3874Z0.1920I0.0000J-0.0031
G1 X45.0466 Y-23.2091 Z0.1920
G3X45.0497Y-23.2123Z0.1920I0.0031J0.0000
G1 X45.5666 Y-23.2123 Z0.1920
G1 X45.8166 Y-23.2123 Z0.1920
G0 Z1.0000
G0 X45.8166 Y-23.2123 
M5
G53 Z
X2Y0
