( MOP:  02-inlay-InglewoodDiamondsDulc-idPT06-s21-01 )
( FILE: G:\Shared drives\AlloyProjectFiles\Customer CAD files\Alloy-Standard-Builds-CAM\Fingerboards-in\02-inlay-InglewoodDiamondsDulc-idPT06-s21-01.nc)
G90
(  BEGIN TOOL LIST )
(  TOOL 15 - Fretkerf PT025 - DESC: 0.0250 DIA, 2 FLUTE,  CARBIDE MAT )
(  ENDOF TOOL LIST )
( 02-inlay-InglewoodDiamondsDulc-idPT06-s21-01)
T15
S20000
M3
G0 Z1.0000
G0 X33.3622 Y-22.9948 
G1 X33.3622 Y-22.9948 Z0.2745 F75.
G1 X33.4081 Y-22.9068 Z0.2570 F21.
G1 X33.4641 Y-22.7994 Z0.2570 F22.
G1 X33.4657 Y-22.7994 Z0.2570
G1 X33.4641 Y-22.7994 Z0.2570
G1 X33.3601 Y-22.6001 Z0.2570
G1 X33.3601 Y-22.5856 Z0.2570
G1 X33.3601 Y-22.6001 Z0.2570
G1 X33.2561 Y-22.7994 Z0.2570
G1 X33.2545 Y-22.7994 Z0.2570
G1 X33.2561 Y-22.7994 Z0.2570
G1 X33.3601 Y-22.9988 Z0.2570
G1 X33.3601 Y-23.0133 Z0.2570
G1 X33.3601 Y-22.9988 Z0.2570
G1 X33.4081 Y-22.9068 Z0.2570
G1 X33.4641 Y-22.7994 Z0.2570
G1 X33.4657 Y-22.7994 Z0.2570
G1 X33.4641 Y-22.7994 Z0.2570
G1 X33.4060 Y-22.6880 Z0.2570
G0 Z0.3605
G0 X33.4060 Y-22.6880 
G0 Z0.3605
G0 X33.3622 Y-22.9948 
G1 X33.3622 Y-22.9948 Z0.2615 F75.
G1 X33.4081 Y-22.9068 Z0.2440 F21.
G1 X33.4641 Y-22.7994 Z0.2440 F22.
G1 X33.4657 Y-22.7994 Z0.2440
G1 X33.4641 Y-22.7994 Z0.2440
G1 X33.3601 Y-22.6001 Z0.2440
G1 X33.3601 Y-22.5856 Z0.2440
G1 X33.3601 Y-22.6001 Z0.2440
G1 X33.2561 Y-22.7994 Z0.2440
G1 X33.2545 Y-22.7994 Z0.2440
G1 X33.2561 Y-22.7994 Z0.2440
G1 X33.3601 Y-22.9988 Z0.2440
G1 X33.3601 Y-23.0133 Z0.2440
G1 X33.3601 Y-22.9988 Z0.2440
G1 X33.4081 Y-22.9068 Z0.2440
G1 X33.4641 Y-22.7994 Z0.2440
G1 X33.4657 Y-22.7994 Z0.2440
G1 X33.4641 Y-22.7994 Z0.2440
G1 X33.4060 Y-22.6880 Z0.2440
G0 Z0.3605
G0 X33.4060 Y-22.6880 
G0 Z0.3605
G0 X33.3622 Y-22.9948 
G1 X33.3622 Y-22.9948 Z0.2485 F75.
G1 X33.4081 Y-22.9068 Z0.2310 F21.
G1 X33.4641 Y-22.7994 Z0.2310 F22.
G1 X33.4657 Y-22.7994 Z0.2310
G1 X33.4641 Y-22.7994 Z0.2310
G1 X33.3601 Y-22.6001 Z0.2310
G1 X33.3601 Y-22.5856 Z0.2310
G1 X33.3601 Y-22.6001 Z0.2310
G1 X33.2561 Y-22.7994 Z0.2310
G1 X33.2545 Y-22.7994 Z0.2310
G1 X33.2561 Y-22.7994 Z0.2310
G1 X33.3601 Y-22.9988 Z0.2310
G1 X33.3601 Y-23.0133 Z0.2310
G1 X33.3601 Y-22.9988 Z0.2310
G1 X33.4081 Y-22.9068 Z0.2310
G1 X33.4641 Y-22.7994 Z0.2310
G1 X33.4657 Y-22.7994 Z0.2310
G1 X33.4641 Y-22.7994 Z0.2310
G1 X33.4060 Y-22.6880 Z0.2310
G0 Z0.3605
G0 X33.4060 Y-22.6880 
G0 Z0.3605
G0 X33.3622 Y-22.9948 
G1 X33.3622 Y-22.9948 Z0.2355 F75.
G1 X33.4081 Y-22.9068 Z0.2180 F21.
G1 X33.4641 Y-22.7994 Z0.2180 F22.
G1 X33.4657 Y-22.7994 Z0.2180
G1 X33.4641 Y-22.7994 Z0.2180
G1 X33.3601 Y-22.6001 Z0.2180
G1 X33.3601 Y-22.5856 Z0.2180
G1 X33.3601 Y-22.6001 Z0.2180
G1 X33.2561 Y-22.7994 Z0.2180
G1 X33.2545 Y-22.7994 Z0.2180
G1 X33.2561 Y-22.7994 Z0.2180
G1 X33.3601 Y-22.9988 Z0.2180
G1 X33.3601 Y-23.0133 Z0.2180
G1 X33.3601 Y-22.9988 Z0.2180
G1 X33.4081 Y-22.9068 Z0.2180
G1 X33.4641 Y-22.7994 Z0.2180
G1 X33.4657 Y-22.7994 Z0.2180
G1 X33.4641 Y-22.7994 Z0.2180
G1 X33.4060 Y-22.6880 Z0.2180
G0 Z0.3605
G0 X33.4060 Y-22.6880 
G0 Z0.3605
G0 X33.3622 Y-22.9948 
G1 X33.3622 Y-22.9948 Z0.2225 F75.
G1 X33.4081 Y-22.9068 Z0.2050 F21.
G1 X33.4641 Y-22.7994 Z0.2050 F22.
G1 X33.4657 Y-22.7994 Z0.2050
G1 X33.4641 Y-22.7994 Z0.2050
G1 X33.3601 Y-22.6001 Z0.2050
G1 X33.3601 Y-22.5856 Z0.2050
G1 X33.3601 Y-22.6001 Z0.2050
G1 X33.2561 Y-22.7994 Z0.2050
G1 X33.2545 Y-22.7994 Z0.2050
G1 X33.2561 Y-22.7994 Z0.2050
G1 X33.3601 Y-22.9988 Z0.2050
G1 X33.3601 Y-23.0133 Z0.2050
G1 X33.3601 Y-22.9988 Z0.2050
G1 X33.4081 Y-22.9068 Z0.2050
G1 X33.4641 Y-22.7994 Z0.2050
G1 X33.4657 Y-22.7994 Z0.2050
G1 X33.4641 Y-22.7994 Z0.2050
G1 X33.4060 Y-22.6880 Z0.2050
G0 Z0.3605
G0 X33.4060 Y-22.6880 
G0 Z0.3605
G0 X36.1660 Y-23.1277 
G1 X36.1660 Y-23.1277 Z0.2745 F75.
G1 X36.1201 Y-23.0397 Z0.2570 F21.
G1 X36.0721 Y-22.9478 Z0.2570 F22.
G1 X36.0721 Y-22.9333 Z0.2570
G1 X36.0721 Y-22.9478 Z0.2570
G1 X35.9681 Y-23.1471 Z0.2570
G1 X35.9665 Y-23.1471 Z0.2570
G1 X35.9681 Y-23.1471 Z0.2570
G1 X36.0721 Y-23.3465 Z0.2570
G1 X36.0721 Y-23.3610 Z0.2570
G1 X36.0721 Y-23.3465 Z0.2570
G1 X36.1761 Y-23.1471 Z0.2570
G1 X36.1777 Y-23.1471 Z0.2570
G1 X36.1761 Y-23.1471 Z0.2570
G1 X36.1201 Y-23.0397 Z0.2570
G1 X36.0721 Y-22.9478 Z0.2570
G1 X36.0721 Y-22.9333 Z0.2570
G1 X36.0721 Y-22.9478 Z0.2570
G1 X36.0179 Y-23.0517 Z0.2570
G0 Z0.3605
G0 X36.0179 Y-23.0517 
G0 Z0.3605
G0 X36.1660 Y-23.1277 
G1 X36.1660 Y-23.1277 Z0.2615 F75.
G1 X36.1201 Y-23.0397 Z0.2440 F21.
G1 X36.0721 Y-22.9478 Z0.2440 F22.
G1 X36.0721 Y-22.9333 Z0.2440
G1 X36.0721 Y-22.9478 Z0.2440
G1 X35.9681 Y-23.1471 Z0.2440
G1 X35.9665 Y-23.1471 Z0.2440
G1 X35.9681 Y-23.1471 Z0.2440
G1 X36.0721 Y-23.3465 Z0.2440
G1 X36.0721 Y-23.3610 Z0.2440
G1 X36.0721 Y-23.3465 Z0.2440
G1 X36.1761 Y-23.1471 Z0.2440
G1 X36.1777 Y-23.1471 Z0.2440
G1 X36.1761 Y-23.1471 Z0.2440
G1 X36.1201 Y-23.0397 Z0.2440
G1 X36.0721 Y-22.9478 Z0.2440
G1 X36.0721 Y-22.9333 Z0.2440
G1 X36.0721 Y-22.9478 Z0.2440
G1 X36.0179 Y-23.0517 Z0.2440
G0 Z0.3605
G0 X36.0179 Y-23.0517 
G0 Z0.3605
G0 X36.1660 Y-23.1277 
G1 X36.1660 Y-23.1277 Z0.2485 F75.
G1 X36.1201 Y-23.0397 Z0.2310 F21.
G1 X36.0721 Y-22.9478 Z0.2310 F22.
G1 X36.0721 Y-22.9333 Z0.2310
G1 X36.0721 Y-22.9478 Z0.2310
G1 X35.9681 Y-23.1471 Z0.2310
G1 X35.9665 Y-23.1471 Z0.2310
G1 X35.9681 Y-23.1471 Z0.2310
G1 X36.0721 Y-23.3465 Z0.2310
G1 X36.0721 Y-23.3610 Z0.2310
G1 X36.0721 Y-23.3465 Z0.2310
G1 X36.1761 Y-23.1471 Z0.2310
G1 X36.1777 Y-23.1471 Z0.2310
G1 X36.1761 Y-23.1471 Z0.2310
G1 X36.1201 Y-23.0397 Z0.2310
G1 X36.0721 Y-22.9478 Z0.2310
G1 X36.0721 Y-22.9333 Z0.2310
G1 X36.0721 Y-22.9478 Z0.2310
G1 X36.0179 Y-23.0517 Z0.2310
G0 Z0.3605
G0 X36.0179 Y-23.0517 
G0 Z0.3605
G0 X36.1660 Y-23.1277 
G1 X36.1660 Y-23.1277 Z0.2355 F75.
G1 X36.1201 Y-23.0397 Z0.2180 F21.
G1 X36.0721 Y-22.9478 Z0.2180 F22.
G1 X36.0721 Y-22.9333 Z0.2180
G1 X36.0721 Y-22.9478 Z0.2180
G1 X35.9681 Y-23.1471 Z0.2180
G1 X35.9665 Y-23.1471 Z0.2180
G1 X35.9681 Y-23.1471 Z0.2180
G1 X36.0721 Y-23.3465 Z0.2180
G1 X36.0721 Y-23.3610 Z0.2180
G1 X36.0721 Y-23.3465 Z0.2180
G1 X36.1761 Y-23.1471 Z0.2180
G1 X36.1777 Y-23.1471 Z0.2180
G1 X36.1761 Y-23.1471 Z0.2180
G1 X36.1201 Y-23.0397 Z0.2180
G1 X36.0721 Y-22.9478 Z0.2180
G1 X36.0721 Y-22.9333 Z0.2180
G1 X36.0721 Y-22.9478 Z0.2180
G1 X36.0179 Y-23.0517 Z0.2180
G0 Z0.3605
G0 X36.0179 Y-23.0517 
G0 Z0.3605
G0 X36.1660 Y-23.1277 
G1 X36.1660 Y-23.1277 Z0.2225 F75.
G1 X36.1201 Y-23.0397 Z0.2050 F21.
G1 X36.0721 Y-22.9478 Z0.2050 F22.
G1 X36.0721 Y-22.9333 Z0.2050
G1 X36.0721 Y-22.9478 Z0.2050
G1 X35.9681 Y-23.1471 Z0.2050
G1 X35.9665 Y-23.1471 Z0.2050
G1 X35.9681 Y-23.1471 Z0.2050
G1 X36.0721 Y-23.3465 Z0.2050
G1 X36.0721 Y-23.3610 Z0.2050
G1 X36.0721 Y-23.3465 Z0.2050
G1 X36.1761 Y-23.1471 Z0.2050
G1 X36.1777 Y-23.1471 Z0.2050
G1 X36.1761 Y-23.1471 Z0.2050
G1 X36.1201 Y-23.0397 Z0.2050
G1 X36.0721 Y-22.9478 Z0.2050
G1 X36.0721 Y-22.9333 Z0.2050
G1 X36.0721 Y-22.9478 Z0.2050
G1 X36.0179 Y-23.0517 Z0.2050
G0 Z0.3605
G0 X36.0179 Y-23.0517 
G0 Z0.3605
G0 X36.1660 Y-22.4323 
G1 X36.1660 Y-22.4323 Z0.2745 F75.
G1 X36.1201 Y-22.3443 Z0.2570 F21.
G1 X36.0721 Y-22.2524 Z0.2570 F22.
G1 X36.0721 Y-22.2379 Z0.2570
G1 X36.0721 Y-22.2524 Z0.2570
G1 X35.9681 Y-22.4517 Z0.2570
G1 X35.9665 Y-22.4517 Z0.2570
G1 X35.9681 Y-22.4517 Z0.2570
G1 X36.0721 Y-22.6511 Z0.2570
G1 X36.0721 Y-22.6656 Z0.2570
G1 X36.0721 Y-22.6511 Z0.2570
G1 X36.1761 Y-22.4517 Z0.2570
G1 X36.1777 Y-22.4517 Z0.2570
G1 X36.1761 Y-22.4517 Z0.2570
G1 X36.1201 Y-22.3443 Z0.2570
G1 X36.0721 Y-22.2524 Z0.2570
G1 X36.0721 Y-22.2379 Z0.2570
G1 X36.0721 Y-22.2524 Z0.2570
G1 X36.0179 Y-22.3563 Z0.2570
G0 Z0.3615
G0 X36.0179 Y-22.3563 
G0 Z0.3615
G0 X36.1660 Y-22.4323 
G1 X36.1660 Y-22.4323 Z0.2615 F75.
G1 X36.1201 Y-22.3443 Z0.2440 F21.
G1 X36.0721 Y-22.2524 Z0.2440 F22.
G1 X36.0721 Y-22.2379 Z0.2440
G1 X36.0721 Y-22.2524 Z0.2440
G1 X35.9681 Y-22.4517 Z0.2440
G1 X35.9665 Y-22.4517 Z0.2440
G1 X35.9681 Y-22.4517 Z0.2440
G1 X36.0721 Y-22.6511 Z0.2440
G1 X36.0721 Y-22.6656 Z0.2440
G1 X36.0721 Y-22.6511 Z0.2440
G1 X36.1761 Y-22.4517 Z0.2440
G1 X36.1777 Y-22.4517 Z0.2440
G1 X36.1761 Y-22.4517 Z0.2440
G1 X36.1201 Y-22.3443 Z0.2440
G1 X36.0721 Y-22.2524 Z0.2440
G1 X36.0721 Y-22.2379 Z0.2440
G1 X36.0721 Y-22.2524 Z0.2440
G1 X36.0179 Y-22.3563 Z0.2440
G0 Z0.3518
G0 X36.0179 Y-22.3563 
G0 Z0.3518
G0 X36.1660 Y-22.4323 
G1 X36.1660 Y-22.4323 Z0.2485 F75.
G1 X36.1201 Y-22.3443 Z0.2310 F21.
G1 X36.0721 Y-22.2524 Z0.2310 F22.
G1 X36.0721 Y-22.2379 Z0.2310
G1 X36.0721 Y-22.2524 Z0.2310
G1 X35.9681 Y-22.4517 Z0.2310
G1 X35.9665 Y-22.4517 Z0.2310
G1 X35.9681 Y-22.4517 Z0.2310
G1 X36.0721 Y-22.6511 Z0.2310
G1 X36.0721 Y-22.6656 Z0.2310
G1 X36.0721 Y-22.6511 Z0.2310
G1 X36.1761 Y-22.4517 Z0.2310
G1 X36.1777 Y-22.4517 Z0.2310
G1 X36.1761 Y-22.4517 Z0.2310
G1 X36.1201 Y-22.3443 Z0.2310
G1 X36.0721 Y-22.2524 Z0.2310
G1 X36.0721 Y-22.2379 Z0.2310
G1 X36.0721 Y-22.2524 Z0.2310
G1 X36.0179 Y-22.3563 Z0.2310
G0 Z0.3518
G0 X36.0179 Y-22.3563 
G0 Z0.3518
G0 X36.1660 Y-22.4323 
G1 X36.1660 Y-22.4323 Z0.2355 F75.
G1 X36.1201 Y-22.3443 Z0.2180 F21.
G1 X36.0721 Y-22.2524 Z0.2180 F22.
G1 X36.0721 Y-22.2379 Z0.2180
G1 X36.0721 Y-22.2524 Z0.2180
G1 X35.9681 Y-22.4517 Z0.2180
G1 X35.9665 Y-22.4517 Z0.2180
G1 X35.9681 Y-22.4517 Z0.2180
G1 X36.0721 Y-22.6511 Z0.2180
G1 X36.0721 Y-22.6656 Z0.2180
G1 X36.0721 Y-22.6511 Z0.2180
G1 X36.1761 Y-22.4517 Z0.2180
G1 X36.1777 Y-22.4517 Z0.2180
G1 X36.1761 Y-22.4517 Z0.2180
G1 X36.1201 Y-22.3443 Z0.2180
G1 X36.0721 Y-22.2524 Z0.2180
G1 X36.0721 Y-22.2379 Z0.2180
G1 X36.0721 Y-22.2524 Z0.2180
G1 X36.0179 Y-22.3563 Z0.2180
G0 Z0.3518
G0 X36.0179 Y-22.3563 
G0 Z0.3518
G0 X36.1660 Y-22.4323 
G1 X36.1660 Y-22.4323 Z0.2225 F75.
G1 X36.1201 Y-22.3443 Z0.2050 F21.
G1 X36.0721 Y-22.2524 Z0.2050 F22.
G1 X36.0721 Y-22.2379 Z0.2050
G1 X36.0721 Y-22.2524 Z0.2050
G1 X35.9681 Y-22.4517 Z0.2050
G1 X35.9665 Y-22.4517 Z0.2050
G1 X35.9681 Y-22.4517 Z0.2050
G1 X36.0721 Y-22.6511 Z0.2050
G1 X36.0721 Y-22.6656 Z0.2050
G1 X36.0721 Y-22.6511 Z0.2050
G1 X36.1761 Y-22.4517 Z0.2050
G1 X36.1777 Y-22.4517 Z0.2050
G1 X36.1761 Y-22.4517 Z0.2050
G1 X36.1201 Y-22.3443 Z0.2050
G1 X36.0721 Y-22.2524 Z0.2050
G1 X36.0721 Y-22.2379 Z0.2050
G1 X36.0721 Y-22.2524 Z0.2050
G1 X36.0179 Y-22.3563 Z0.2050
G0 Z0.3605
G0 X36.0179 Y-22.3563 
G0 Z0.3605
G0 X41.4622 Y-22.9948 
G1 X41.4622 Y-22.9948 Z0.2745 F75.
G1 X41.5081 Y-22.9068 Z0.2570 F21.
G1 X41.5641 Y-22.7994 Z0.2570 F22.
G1 X41.5657 Y-22.7994 Z0.2570
G1 X41.5641 Y-22.7994 Z0.2570
G1 X41.4601 Y-22.6001 Z0.2570
G1 X41.4601 Y-22.5856 Z0.2570
G1 X41.4601 Y-22.6001 Z0.2570
G1 X41.3561 Y-22.7994 Z0.2570
G1 X41.3545 Y-22.7994 Z0.2570
G1 X41.3561 Y-22.7994 Z0.2570
G1 X41.4601 Y-22.9988 Z0.2570
G1 X41.4601 Y-23.0133 Z0.2570
G1 X41.4601 Y-22.9988 Z0.2570
G1 X41.5081 Y-22.9068 Z0.2570
G1 X41.5641 Y-22.7994 Z0.2570
G1 X41.5657 Y-22.7994 Z0.2570
G1 X41.5641 Y-22.7994 Z0.2570
G1 X41.5060 Y-22.6880 Z0.2570
G0 Z0.3605
G0 X41.5060 Y-22.6880 
G0 Z0.3605
G0 X41.4622 Y-22.9948 
G1 X41.4622 Y-22.9948 Z0.2615 F75.
G1 X41.5081 Y-22.9068 Z0.2440 F21.
G1 X41.5641 Y-22.7994 Z0.2440 F22.
G1 X41.5657 Y-22.7994 Z0.2440
G1 X41.5641 Y-22.7994 Z0.2440
G1 X41.4601 Y-22.6001 Z0.2440
G1 X41.4601 Y-22.5856 Z0.2440
G1 X41.4601 Y-22.6001 Z0.2440
G1 X41.3561 Y-22.7994 Z0.2440
G1 X41.3545 Y-22.7994 Z0.2440
G1 X41.3561 Y-22.7994 Z0.2440
G1 X41.4601 Y-22.9988 Z0.2440
G1 X41.4601 Y-23.0133 Z0.2440
G1 X41.4601 Y-22.9988 Z0.2440
G1 X41.5081 Y-22.9068 Z0.2440
G1 X41.5641 Y-22.7994 Z0.2440
G1 X41.5657 Y-22.7994 Z0.2440
G1 X41.5641 Y-22.7994 Z0.2440
G1 X41.5060 Y-22.6880 Z0.2440
G0 Z0.3605
G0 X41.5060 Y-22.6880 
G0 Z0.3605
G0 X41.4622 Y-22.9948 
G1 X41.4622 Y-22.9948 Z0.2485 F75.
G1 X41.5081 Y-22.9068 Z0.2310 F21.
G1 X41.5641 Y-22.7994 Z0.2310 F22.
G1 X41.5657 Y-22.7994 Z0.2310
G1 X41.5641 Y-22.7994 Z0.2310
G1 X41.4601 Y-22.6001 Z0.2310
G1 X41.4601 Y-22.5856 Z0.2310
G1 X41.4601 Y-22.6001 Z0.2310
G1 X41.3561 Y-22.7994 Z0.2310
G1 X41.3545 Y-22.7994 Z0.2310
G1 X41.3561 Y-22.7994 Z0.2310
G1 X41.4601 Y-22.9988 Z0.2310
G1 X41.4601 Y-23.0133 Z0.2310
G1 X41.4601 Y-22.9988 Z0.2310
G1 X41.5081 Y-22.9068 Z0.2310
G1 X41.5641 Y-22.7994 Z0.2310
G1 X41.5657 Y-22.7994 Z0.2310
G1 X41.5641 Y-22.7994 Z0.2310
G1 X41.5060 Y-22.6880 Z0.2310
G0 Z0.3605
G0 X41.5060 Y-22.6880 
G0 Z0.3605
G0 X41.4622 Y-22.9948 
G1 X41.4622 Y-22.9948 Z0.2355 F75.
G1 X41.5081 Y-22.9068 Z0.2180 F21.
G1 X41.5641 Y-22.7994 Z0.2180 F22.
G1 X41.5657 Y-22.7994 Z0.2180
G1 X41.5641 Y-22.7994 Z0.2180
G1 X41.4601 Y-22.6001 Z0.2180
G1 X41.4601 Y-22.5856 Z0.2180
G1 X41.4601 Y-22.6001 Z0.2180
G1 X41.3561 Y-22.7994 Z0.2180
G1 X41.3545 Y-22.7994 Z0.2180
G1 X41.3561 Y-22.7994 Z0.2180
G1 X41.4601 Y-22.9988 Z0.2180
G1 X41.4601 Y-23.0133 Z0.2180
G1 X41.4601 Y-22.9988 Z0.2180
G1 X41.5081 Y-22.9068 Z0.2180
G1 X41.5641 Y-22.7994 Z0.2180
G1 X41.5657 Y-22.7994 Z0.2180
G1 X41.5641 Y-22.7994 Z0.2180
G1 X41.5060 Y-22.6880 Z0.2180
G0 Z0.3605
G0 X41.5060 Y-22.6880 
G0 Z0.3605
G0 X41.4622 Y-22.9948 
G1 X41.4622 Y-22.9948 Z0.2225 F75.
G1 X41.5081 Y-22.9068 Z0.2050 F21.
G1 X41.5641 Y-22.7994 Z0.2050 F22.
G1 X41.5657 Y-22.7994 Z0.2050
G1 X41.5641 Y-22.7994 Z0.2050
G1 X41.4601 Y-22.6001 Z0.2050
G1 X41.4601 Y-22.5856 Z0.2050
G1 X41.4601 Y-22.6001 Z0.2050
G1 X41.3561 Y-22.7994 Z0.2050
G1 X41.3545 Y-22.7994 Z0.2050
G1 X41.3561 Y-22.7994 Z0.2050
G1 X41.4601 Y-22.9988 Z0.2050
G1 X41.4601 Y-23.0133 Z0.2050
G1 X41.4601 Y-22.9988 Z0.2050
G1 X41.5081 Y-22.9068 Z0.2050
G1 X41.5641 Y-22.7994 Z0.2050
G1 X41.5657 Y-22.7994 Z0.2050
G1 X41.5641 Y-22.7994 Z0.2050
G1 X41.5060 Y-22.6880 Z0.2050
G0 Z1.0000
G0 X41.5060 Y-22.6880 
M5
G53 Z
X2Y0
