( MOP:  02-inlay-Moser-idPT06-s24PT625-02 )
( FILE: G:\Shared drives\AlloyProjectFiles\Customer CAD files\Alloy-Standard-Builds-CAM\Fingerboards-in\02-inlay-Moser-idPT06-s24PT625-02.nc)
G90
(  BEGIN TOOL LIST )
(  TOOL 19 - Downcut 1.5mm PT0590 - DESC: 0.0590 DIA, 2 FLUTE,  CARBIDE MAT )
(  ENDOF TOOL LIST )
( 02-inlay-Moser-idPT06-s24PT625-02)
T19
S12000
M3
G0 Z4.0000
G0 X29.0599 Y-22.6860 
G1 X29.0599 Y-22.6860 Z0.2450 F75.
G1 X29.0599 Y-22.7994 Z0.2250 F25.
G1 X29.0599 Y-23.4035 Z0.2250 F30.
G17
G3X29.1021Y-23.3148Z0.2250I-0.0771J0.0910
G2X29.1188Y-23.2798Z0.2250I0.0471J-0.0011
G3X29.1851Y-23.0609Z0.2250I-0.1351J0.1604
G2X29.1968Y-23.0147Z0.2250I0.0451J0.0131
G3X29.2896Y-22.7994Z0.2250I-0.2276J0.2257
G3X29.1968Y-22.5842Z0.2250I-0.3204J-0.0105
G2X29.1851Y-22.5380Z0.2250I0.0334J0.0331
G3X29.1188Y-22.3190Z0.2250I-0.2014J0.0585
G2X29.1021Y-22.2840Z0.2250I0.0304J0.0360
G3X29.0599Y-22.1954Z0.2250I-0.1193J-0.0024
G1 X29.0599 Y-22.7994 Z0.2250
G1 X29.0599 Y-23.0494 Z0.2250
G0 Z0.3250
G0 X29.0599 Y-23.0494 
G0 Z0.3250
G0 X29.0599 Y-22.6860 
G1 X29.0599 Y-22.6860 Z0.2200 F75.
G1 X29.0599 Y-22.7994 Z0.2000 F25.
G1 X29.0599 Y-23.4035 Z0.2000 F30.
G3X29.1021Y-23.3148Z0.2000I-0.0771J0.0910
G2X29.1188Y-23.2798Z0.2000I0.0471J-0.0011
G3X29.1851Y-23.0609Z0.2000I-0.1351J0.1604
G2X29.1968Y-23.0147Z0.2000I0.0451J0.0131
G3X29.2896Y-22.7994Z0.2000I-0.2276J0.2257
G3X29.1968Y-22.5842Z0.2000I-0.3204J-0.0105
G2X29.1851Y-22.5380Z0.2000I0.0334J0.0331
G3X29.1188Y-22.3190Z0.2000I-0.2014J0.0585
G2X29.1021Y-22.2840Z0.2000I0.0304J0.0360
G3X29.0599Y-22.1954Z0.2000I-0.1193J-0.0024
G1 X29.0599 Y-22.7994 Z0.2000
G1 X29.0599 Y-23.0494 Z0.2000
G0 Z0.3495
G0 X29.0599 Y-23.0494 
G0 Z0.3495
G0 X29.9612 Y-22.6860 
G1 X29.9612 Y-22.6860 Z0.2450 F75.
G1 X29.9612 Y-22.7994 Z0.2250 F25.
G1 X29.9612 Y-23.3815 Z0.2250 F30.
G3X30.0055Y-23.2622Z0.2250I-0.0880J0.1005
G2X30.0285Y-23.2149Z0.2250I0.0465J0.0066
G3X30.1015Y-23.0613Z0.2250I-0.0752J0.1298
G2X30.1214Y-23.0150Z0.2250I0.0464J0.0075
G3X30.2348Y-22.7996Z0.2250I-0.1460J0.2144
G1 X30.2348 Y-22.7993 Z0.2250
G3X30.1214Y-22.5839Z0.2250I-0.2594J0.0010
G2X30.1015Y-22.5376Z0.2250I0.0265J0.0388
G3X30.0285Y-22.3840Z0.2250I-0.1482J0.0238
G2X30.0055Y-22.3367Z0.2250I0.0235J0.0407
G3X29.9612Y-22.2173Z0.2250I-0.1323J0.0188
G1 X29.9612 Y-22.7994 Z0.2250
G1 X29.9612 Y-23.0494 Z0.2250
G0 Z0.3250
G0 X29.9612 Y-23.0494 
G0 Z0.3250
G0 X29.9612 Y-22.6860 
G1 X29.9612 Y-22.6860 Z0.2200 F75.
G1 X29.9612 Y-22.7994 Z0.2000 F25.
G1 X29.9612 Y-23.3815 Z0.2000 F30.
G3X30.0055Y-23.2622Z0.2000I-0.0880J0.1005
G2X30.0285Y-23.2149Z0.2000I0.0465J0.0066
G3X30.1015Y-23.0613Z0.2000I-0.0752J0.1298
G2X30.1214Y-23.0150Z0.2000I0.0464J0.0075
G3X30.2348Y-22.7996Z0.2000I-0.1460J0.2144
G1 X30.2348 Y-22.7993 Z0.2000
G3X30.1214Y-22.5839Z0.2000I-0.2594J0.0010
G2X30.1015Y-22.5376Z0.2000I0.0265J0.0388
G3X30.0285Y-22.3840Z0.2000I-0.1482J0.0238
G2X30.0055Y-22.3367Z0.2000I0.0235J0.0407
G3X29.9612Y-22.2173Z0.2000I-0.1323J0.0188
G1 X29.9612 Y-22.7994 Z0.2000
G1 X29.9612 Y-23.0494 Z0.2000
G0 Z0.3495
G0 X29.9612 Y-23.0494 
G0 Z0.3495
G0 X30.9713 Y-22.6860 
G1 X30.9713 Y-22.6860 Z0.2450 F75.
G1 X30.9713 Y-22.7994 Z0.2250 F25.
G1 X30.9713 Y-23.3589 Z0.2250 F30.
G3X31.0137Y-23.2797Z0.2250I-0.0458J0.0755
G2X31.0402Y-23.2351Z0.2250I0.0474J0.0020
G1 X31.0418 Y-23.2344 Z0.2250
G3X31.1170Y-23.0682Z0.2250I-0.0543J0.1247
G2X31.1469Y-23.0092Z0.2250I0.0448J0.0144
G3X31.2973Y-22.7996Z0.2250I-0.0694J0.2085
G1 X31.2973 Y-22.7992 Z0.2250
G3X31.1469Y-22.5896Z0.2250I-0.2198J0.0011
G2X31.1170Y-22.5307Z0.2250I0.0149J0.0446
G3X31.0418Y-22.3645Z0.2250I-0.1295J0.0415
G1 X31.0402 Y-22.3638 Z0.2250
G2X31.0137Y-22.3192Z0.2250I0.0209J0.0426
G3X30.9713Y-22.2399Z0.2250I-0.0882J0.0037
G1 X30.9713 Y-22.7994 Z0.2250
G1 X30.9713 Y-23.0494 Z0.2250
G0 Z0.3250
G0 X30.9713 Y-23.0494 
G0 Z0.3250
G0 X30.9713 Y-22.6860 
G1 X30.9713 Y-22.6860 Z0.2200 F75.
G1 X30.9713 Y-22.7994 Z0.2000 F25.
G1 X30.9713 Y-23.3589 Z0.2000 F30.
G3X31.0137Y-23.2797Z0.2000I-0.0458J0.0755
G2X31.0402Y-23.2351Z0.2000I0.0474J0.0020
G1 X31.0418 Y-23.2344 Z0.2000
G3X31.1170Y-23.0682Z0.2000I-0.0543J0.1247
G2X31.1469Y-23.0092Z0.2000I0.0448J0.0144
G3X31.2973Y-22.7996Z0.2000I-0.0694J0.2085
G1 X31.2973 Y-22.7992 Z0.2000
G3X31.1469Y-22.5896Z0.2000I-0.2198J0.0011
G2X31.1170Y-22.5307Z0.2000I0.0149J0.0446
G3X31.0418Y-22.3645Z0.2000I-0.1295J0.0415
G1 X31.0402 Y-22.3638 Z0.2000
G2X31.0137Y-22.3192Z0.2000I0.0209J0.0426
G3X30.9713Y-22.2399Z0.2000I-0.0882J0.0037
G1 X30.9713 Y-22.7994 Z0.2000
G1 X30.9713 Y-23.0494 Z0.2000
G0 Z0.3495
G0 X30.9713 Y-23.0494 
G0 Z0.3495
G0 X32.1097 Y-22.6859 
G1 X32.1097 Y-22.6859 Z0.2450 F75.
G1 X32.1099 Y-22.7994 Z0.2250 F25.
G1 X32.1113 Y-23.3526 Z0.2250 F30.
G3X32.1763Y-23.2358Z0.2250I-0.0810J0.1215
G2X32.2182Y-23.1907Z0.2250I0.0469J-0.0016
G1 X32.2301 Y-23.1898 Z0.2250
G3X32.3578Y-23.0336Z0.2250I-0.0215J0.1479
G2X32.3794Y-22.9917Z0.2250I0.0469J0.0024
G3X32.3784Y-22.6057Z0.2250I-0.1202J0.1927
G2X32.3567Y-22.5639Z0.2250I0.0251J0.0396
G3X32.2282Y-22.4083Z0.2250I-0.1504J0.0067
G1 X32.2163 Y-22.4075 Z0.2250
G2X32.1742Y-22.3639Z0.2250I0.0047J0.0467
G1 X32.1737 Y-22.3523 Z0.2250
G3X32.1086Y-22.2461Z0.2250I-0.1442J-0.0154
G1 X32.1099 Y-22.7994 Z0.2250
G1 X32.1105 Y-23.0494 Z0.2250
G0 Z0.3250
G0 X32.1105 Y-23.0494 
G0 Z0.3250
G0 X32.1097 Y-22.6859 
G1 X32.1097 Y-22.6859 Z0.2200 F75.
G1 X32.1099 Y-22.7994 Z0.2000 F25.
G1 X32.1113 Y-23.3526 Z0.2000 F30.
G3X32.1763Y-23.2358Z0.2000I-0.0810J0.1215
G2X32.2182Y-23.1907Z0.2000I0.0469J-0.0016
G1 X32.2301 Y-23.1898 Z0.2000
G3X32.3578Y-23.0336Z0.2000I-0.0215J0.1479
G2X32.3794Y-22.9917Z0.2000I0.0469J0.0024
G3X32.3784Y-22.6057Z0.2000I-0.1202J0.1927
G2X32.3567Y-22.5639Z0.2000I0.0251J0.0396
G3X32.2282Y-22.4083Z0.2000I-0.1504J0.0067
G1 X32.2163 Y-22.4075 Z0.2000
G2X32.1742Y-22.3639Z0.2000I0.0047J0.0467
G1 X32.1737 Y-22.3523 Z0.2000
G3X32.1086Y-22.2461Z0.2000I-0.1442J-0.0154
G1 X32.1099 Y-22.7994 Z0.2000
G1 X32.1105 Y-23.0494 Z0.2000
G0 Z0.3495
G0 X32.1105 Y-23.0494 
G0 Z0.3495
G0 X34.1252 Y-22.6860 
G1 X34.1252 Y-22.6860 Z0.2450 F75.
G1 X34.1252 Y-22.7994 Z0.2250 F25.
G1 X34.1252 Y-23.3579 Z0.2250 F30.
G3X34.1890Y-23.2408Z0.2250I-0.0854J0.1225
G2X34.2326Y-23.1956Z0.2250I0.0470J-0.0017
G3X34.3790Y-23.0379Z0.2250I-0.0116J0.1576
G2X34.3996Y-22.9990Z0.2250I0.0472J0.0000
G3X34.5040Y-22.7998Z0.2250I-0.1340J0.1973
G1 X34.5040 Y-22.7991 Z0.2250
G3X34.3996Y-22.5999Z0.2250I-0.2384J0.0020
G2X34.3790Y-22.5610Z0.2250I0.0266J0.0390
G3X34.2326Y-22.4033Z0.2250I-0.1580J0.0001
G2X34.1890Y-22.3581Z0.2250I0.0034J0.0469
G3X34.1252Y-22.2410Z0.2250I-0.1492J-0.0053
G1 X34.1252 Y-22.7994 Z0.2250
G1 X34.1252 Y-23.0494 Z0.2250
G0 Z0.3250
G0 X34.1252 Y-23.0494 
G0 Z0.3250
G0 X34.1252 Y-22.6860 
G1 X34.1252 Y-22.6860 Z0.2200 F75.
G1 X34.1252 Y-22.7994 Z0.2000 F25.
G1 X34.1252 Y-23.3579 Z0.2000 F30.
G3X34.1890Y-23.2408Z0.2000I-0.0854J0.1225
G2X34.2326Y-23.1956Z0.2000I0.0470J-0.0017
G3X34.3790Y-23.0379Z0.2000I-0.0116J0.1576
G2X34.3996Y-22.9990Z0.2000I0.0472J0.0000
G3X34.5040Y-22.7998Z0.2000I-0.1340J0.1973
G1 X34.5040 Y-22.7991 Z0.2000
G3X34.3996Y-22.5999Z0.2000I-0.2384J0.0020
G2X34.3790Y-22.5610Z0.2000I0.0266J0.0390
G3X34.2326Y-22.4033Z0.2000I-0.1580J0.0001
G2X34.1890Y-22.3581Z0.2000I0.0034J0.0469
G3X34.1252Y-22.2410Z0.2000I-0.1492J-0.0053
G1 X34.1252 Y-22.7994 Z0.2000
G1 X34.1252 Y-23.0494 Z0.2000
G0 Z0.3495
G0 X34.1252 Y-23.0494 
G0 Z0.3495
G0 X36.4479 Y-22.6860 
G1 X36.4479 Y-22.6860 Z0.2450 F75.
G1 X36.4479 Y-22.7994 Z0.2250 F25.
G1 X36.4479 Y-23.3931 Z0.2250 F30.
G3X36.5741Y-23.2586Z0.2250I-0.0247J0.1496
G2X36.6240Y-23.2162Z0.2250I0.0469J-0.0047
G3X36.7803Y-23.0718Z0.2250I0.0094J0.1466
G2X36.8128Y-23.0277Z0.2250I0.0471J-0.0007
G3X36.9791Y-22.7994Z0.2250I-0.0750J0.2294
G3X36.8128Y-22.5712Z0.2250I-0.2413J-0.0011
G2X36.7803Y-22.5271Z0.2250I0.0146J0.0448
G3X36.6240Y-22.3827Z0.2250I-0.1469J-0.0021
G2X36.5741Y-22.3403Z0.2250I-0.0030J0.0471
G3X36.4479Y-22.2058Z0.2250I-0.1509J-0.0151
G1 X36.4479 Y-22.7994 Z0.2250
G1 X36.4479 Y-23.0494 Z0.2250
G0 Z0.3250
G0 X36.4479 Y-23.0494 
G0 Z0.3250
G0 X36.4479 Y-22.6860 
G1 X36.4479 Y-22.6860 Z0.2200 F75.
G1 X36.4479 Y-22.7994 Z0.2000 F25.
G1 X36.4479 Y-23.3931 Z0.2000 F30.
G3X36.5741Y-23.2586Z0.2000I-0.0247J0.1496
G2X36.6240Y-23.2162Z0.2000I0.0469J-0.0047
G3X36.7803Y-23.0718Z0.2000I0.0094J0.1466
G2X36.8128Y-23.0277Z0.2000I0.0471J-0.0007
G3X36.9791Y-22.7994Z0.2000I-0.0750J0.2294
G3X36.8128Y-22.5712Z0.2000I-0.2413J-0.0011
G2X36.7803Y-22.5271Z0.2000I0.0146J0.0448
G3X36.6240Y-22.3827Z0.2000I-0.1469J-0.0021
G2X36.5741Y-22.3403Z0.2000I-0.0030J0.0471
G3X36.4479Y-22.2058Z0.2000I-0.1509J-0.0151
G1 X36.4479 Y-22.7994 Z0.2000
G1 X36.4479 Y-23.0494 Z0.2000
G0 Z0.3495
G0 X36.4479 Y-23.0494 
G0 Z0.3495
G0 X38.2609 Y-22.6860 
G1 X38.2609 Y-22.6860 Z0.2450 F75.
G1 X38.2609 Y-22.7994 Z0.2250 F25.
G1 X38.2609 Y-23.3613 Z0.2250 F30.
G3X38.4342Y-23.2942Z0.2250I0.0519J0.1234
G3X38.4573Y-23.2268Z0.2250I-0.3055J0.1425
G1 X38.4602 Y-23.2218 Z0.2250
G2X38.4845Y-23.2032Z0.2250I0.0342J-0.0197
G1 X38.4898 Y-23.2019 Z0.2250
G2X38.5041Y-23.2009Z0.2250I0.0099J-0.0382
G3X38.6448Y-23.0941Z0.2250I0.0177J0.1228
G3X38.6471Y-23.0425Z0.2250I-0.1608J0.0329
G2X38.6485Y-23.0297Z0.2250I0.0394J0.0022
G1 X38.6502 Y-23.0235 Z0.2250
G2X38.6701Y-22.9990Z0.2250I0.0380J-0.0106
G1 X38.6754 Y-22.9963 Z0.2250
G2X38.6888Y-22.9921Z0.2250I0.0181J-0.0351
G3X38.8560Y-22.8347Z0.2250I-0.0085J0.1766
G3X38.7529Y-22.6209Z0.2250I-0.1931J0.0386
G3X38.6888Y-22.6067Z0.2250I-0.0650J-0.1419
G2X38.6754Y-22.6026Z0.2250I0.0047J0.0392
G1 X38.6701 Y-22.5999 Z0.2250
G2X38.6502Y-22.5753Z0.2250I0.0181J0.0351
G1 X38.6485 Y-22.5691 Z0.2250
G2X38.6471Y-22.5564Z0.2250I0.0380J0.0105
G3X38.5335Y-22.3964Z0.2250I-0.1352J0.0244
G1 X38.5199 Y-22.3962 Z0.2250
G1 X38.5041 Y-22.3980 Z0.2250
G2X38.4898Y-22.3970Z0.2250I-0.0044J0.0393
G1 X38.4845 Y-22.3956 Z0.2250
G2X38.4602Y-22.3771Z0.2250I0.0099J0.0382
G2X38.4484Y-22.3403Z0.2250I0.0662J0.0416
G3X38.2758Y-22.2320Z0.2250I-0.1383J-0.0287
G1 X38.2609 Y-22.2376 Z0.2250
G1 X38.2609 Y-22.7994 Z0.2250
G1 X38.2609 Y-23.0494 Z0.2250
G0 Z0.3250
G0 X38.2609 Y-23.0494 
G0 Z0.3250
G0 X38.2609 Y-22.6860 
G1 X38.2609 Y-22.6860 Z0.2200 F75.
G1 X38.2609 Y-22.7994 Z0.2000 F25.
G1 X38.2609 Y-23.3613 Z0.2000 F30.
G3X38.4342Y-23.2942Z0.2000I0.0519J0.1234
G3X38.4573Y-23.2268Z0.2000I-0.3055J0.1425
G1 X38.4602 Y-23.2218 Z0.2000
G2X38.4845Y-23.2032Z0.2000I0.0342J-0.0197
G1 X38.4898 Y-23.2019 Z0.2000
G2X38.5041Y-23.2009Z0.2000I0.0099J-0.0382
G3X38.6448Y-23.0941Z0.2000I0.0177J0.1228
G3X38.6471Y-23.0425Z0.2000I-0.1608J0.0329
G2X38.6485Y-23.0297Z0.2000I0.0394J0.0022
G1 X38.6502 Y-23.0235 Z0.2000
G2X38.6701Y-22.9990Z0.2000I0.0380J-0.0106
G1 X38.6754 Y-22.9963 Z0.2000
G2X38.6888Y-22.9921Z0.2000I0.0181J-0.0351
G3X38.8560Y-22.8347Z0.2000I-0.0085J0.1766
G3X38.7529Y-22.6209Z0.2000I-0.1931J0.0386
G3X38.6888Y-22.6067Z0.2000I-0.0650J-0.1419
G2X38.6754Y-22.6026Z0.2000I0.0047J0.0392
G1 X38.6701 Y-22.5999 Z0.2000
G2X38.6502Y-22.5753Z0.2000I0.0181J0.0351
G1 X38.6485 Y-22.5691 Z0.2000
G2X38.6471Y-22.5564Z0.2000I0.0380J0.0105
G3X38.5335Y-22.3964Z0.2000I-0.1352J0.0244
G1 X38.5199 Y-22.3962 Z0.2000
G1 X38.5041 Y-22.3980 Z0.2000
G2X38.4898Y-22.3970Z0.2000I-0.0044J0.0393
G1 X38.4845 Y-22.3956 Z0.2000
G2X38.4602Y-22.3771Z0.2000I0.0099J0.0382
G2X38.4484Y-22.3403Z0.2000I0.0662J0.0416
G3X38.2758Y-22.2320Z0.2000I-0.1383J-0.0287
G1 X38.2609 Y-22.2376 Z0.2000
G1 X38.2609 Y-22.7994 Z0.2000
G1 X38.2609 Y-23.0494 Z0.2000
G0 Z0.3495
G0 X38.2609 Y-23.0494 
G0 Z0.3495
G0 X40.3176 Y-22.6860 
G1 X40.3176 Y-22.6860 Z0.2450 F75.
G1 X40.3176 Y-22.7994 Z0.2250 F25.
G1 X40.3176 Y-23.3255 Z0.2250 F30.
G3X40.5220Y-23.2128Z0.2250I0.0559J0.1404
G2X40.5756Y-23.1750Z0.2250I0.0462J-0.0086
G3X40.7257Y-23.0307Z0.2250I0.0206J0.1288
G2X40.7716Y-22.9781Z0.2250I0.0467J0.0056
G3X40.9473Y-22.7994Z0.2250I-0.0030J0.1787
G3X40.7716Y-22.6207Z0.2250I-0.1787J0.0000
G2X40.7257Y-22.5682Z0.2250I0.0008J0.0469
G3X40.5756Y-22.4238Z0.2250I-0.1295J0.0155
G2X40.5220Y-22.3860Z0.2250I-0.0074J0.0464
G3X40.3176Y-22.2734Z0.2250I-0.1485J-0.0278
G1 X40.3176 Y-22.7994 Z0.2250
G1 X40.3176 Y-23.0494 Z0.2250
G0 Z0.3250
G0 X40.3176 Y-23.0494 
G0 Z0.3250
G0 X40.3176 Y-22.6860 
G1 X40.3176 Y-22.6860 Z0.2200 F75.
G1 X40.3176 Y-22.7994 Z0.2000 F25.
G1 X40.3176 Y-23.3255 Z0.2000 F30.
G3X40.5220Y-23.2128Z0.2000I0.0559J0.1404
G2X40.5756Y-23.1750Z0.2000I0.0462J-0.0086
G3X40.7257Y-23.0307Z0.2000I0.0206J0.1288
G2X40.7716Y-22.9781Z0.2000I0.0467J0.0056
G3X40.9473Y-22.7994Z0.2000I-0.0030J0.1787
G3X40.7716Y-22.6207Z0.2000I-0.1787J0.0000
G2X40.7257Y-22.5682Z0.2000I0.0008J0.0469
G3X40.5756Y-22.4238Z0.2000I-0.1295J0.0155
G2X40.5220Y-22.3860Z0.2000I-0.0074J0.0464
G3X40.3176Y-22.2734Z0.2000I-0.1485J-0.0278
G1 X40.3176 Y-22.7994 Z0.2000
G1 X40.3176 Y-23.0494 Z0.2000
G0 Z0.3495
G0 X40.3176 Y-23.0494 
G0 Z0.3495
G0 X42.6440 Y-22.6860 
G1 X42.6440 Y-22.6860 Z0.2450 F75.
G1 X42.6440 Y-22.7994 Z0.2250 F25.
G1 X42.6440 Y-23.3255 Z0.2250 F30.
G3X42.8483Y-23.2128Z0.2250I0.0558J0.1404
G2X42.9019Y-23.1750Z0.2250I0.0462J-0.0086
G3X43.0520Y-23.0307Z0.2250I0.0206J0.1288
G2X43.0979Y-22.9781Z0.2250I0.0467J0.0056
G3X43.2737Y-22.7994Z0.2250I-0.0030J0.1787
G3X43.0979Y-22.6207Z0.2250I-0.1788J0.0000
G2X43.0520Y-22.5682Z0.2250I0.0008J0.0469
G3X42.9019Y-22.4238Z0.2250I-0.1295J0.0155
G2X42.8483Y-22.3860Z0.2250I-0.0074J0.0464
G3X42.6440Y-22.2734Z0.2250I-0.1485J-0.0278
G1 X42.6440 Y-22.7994 Z0.2250
G1 X42.6440 Y-23.0494 Z0.2250
G0 Z0.3250
G0 X42.6440 Y-23.0494 
G0 Z0.3250
G0 X42.6440 Y-22.6860 
G1 X42.6440 Y-22.6860 Z0.2200 F75.
G1 X42.6440 Y-22.7994 Z0.2000 F25.
G1 X42.6440 Y-23.3255 Z0.2000 F30.
G3X42.8483Y-23.2128Z0.2000I0.0558J0.1404
G2X42.9019Y-23.1750Z0.2000I0.0462J-0.0086
G3X43.0520Y-23.0307Z0.2000I0.0206J0.1288
G2X43.0979Y-22.9781Z0.2000I0.0467J0.0056
G3X43.2737Y-22.7994Z0.2000I-0.0030J0.1787
G3X43.0979Y-22.6207Z0.2000I-0.1788J0.0000
G2X43.0520Y-22.5682Z0.2000I0.0008J0.0469
G3X42.9019Y-22.4238Z0.2000I-0.1295J0.0155
G2X42.8483Y-22.3860Z0.2000I-0.0074J0.0464
G3X42.6440Y-22.2734Z0.2000I-0.1485J-0.0278
G1 X42.6440 Y-22.7994 Z0.2000
G1 X42.6440 Y-23.0494 Z0.2000
G0 Z1.0000
G0 X42.6440 Y-23.0494 
M5
G53 Z
X2Y0
