( MOP:  02-inlay-InglewoodDiamonds-idPT06-s21-02 )
( FILE: G:\Shared drives\AlloyProjectFiles\Customer CAD files\Alloy-Standard-Builds-CAM\Fingerboards-in\02-inlay-InglewoodDiamonds-idPT06-s21-02.nc)
G90
(  BEGIN TOOL LIST )
(  TOOL 20 - Downcut 2MM - DESC: 0.0787 DIA, 2 FLUTE,  CARBIDE MAT )
(  ENDOF TOOL LIST )
( 02-inlay-InglewoodDiamonds-idPT06-s21-02)
T20
S14000
M3
G0 Z1.0000
G0 X32.4655 Y-22.8589 
G1 X32.4655 Y-22.8589 Z0.2650 F75.
G1 X32.4345 Y-22.7994 Z0.2532 F25.
G1 X32.4766 Y-22.7187 Z0.2371
G1 X32.5187 Y-22.7994 Z0.2211
G1 X32.4766 Y-22.8802 Z0.2050
G1 X32.4345 Y-22.7994 Z0.2050 F22.
G1 X32.4766 Y-22.7187 Z0.2050
G1 X32.5187 Y-22.7994 Z0.2050
G1 X32.4766 Y-22.8802 Z0.2050
G1 X32.4981 Y-22.8930 Z0.2050
G1 X32.5469 Y-22.7994 Z0.2050
G1 X32.4766 Y-22.6647 Z0.2050
G1 X32.4063 Y-22.7994 Z0.2050
G1 X32.4766 Y-22.9342 Z0.2050
G1 X32.4981 Y-22.8930 Z0.2050
G1 X32.5469 Y-22.7994 Z0.2050
G1 X32.4801 Y-22.6714 Z0.2050
G0 Z0.3650
G0 X32.4801 Y-22.6714 
G0 Z0.3650
G0 X33.3490 Y-22.8589 
G1 X33.3490 Y-22.8589 Z0.2650 F75.
G1 X33.3180 Y-22.7994 Z0.2532 F25.
G1 X33.3601 Y-22.7187 Z0.2371
G1 X33.4022 Y-22.7994 Z0.2211
G1 X33.3601 Y-22.8802 Z0.2050
G1 X33.3180 Y-22.7994 Z0.2050 F22.
G1 X33.3601 Y-22.7187 Z0.2050
G1 X33.4022 Y-22.7994 Z0.2050
G1 X33.3601 Y-22.8802 Z0.2050
G1 X33.3816 Y-22.8930 Z0.2050
G1 X33.4304 Y-22.7994 Z0.2050
G1 X33.3601 Y-22.6647 Z0.2050
G1 X33.2898 Y-22.7994 Z0.2050
G1 X33.3601 Y-22.9342 Z0.2050
G1 X33.3816 Y-22.8930 Z0.2050
G1 X33.4304 Y-22.7994 Z0.2050
G1 X33.3636 Y-22.6714 Z0.2050
G0 Z0.3650
G0 X33.3636 Y-22.6714 
G0 Z0.3650
G0 X34.3405 Y-22.8589 
G1 X34.3405 Y-22.8589 Z0.2650 F75.
G1 X34.3095 Y-22.7994 Z0.2532 F25.
G1 X34.3516 Y-22.7187 Z0.2371
G1 X34.3937 Y-22.7994 Z0.2211
G1 X34.3516 Y-22.8802 Z0.2050
G1 X34.3095 Y-22.7994 Z0.2050 F22.
G1 X34.3516 Y-22.7187 Z0.2050
G1 X34.3937 Y-22.7994 Z0.2050
G1 X34.3516 Y-22.8802 Z0.2050
G1 X34.3731 Y-22.8930 Z0.2050
G1 X34.4219 Y-22.7994 Z0.2050
G1 X34.3516 Y-22.6647 Z0.2050
G1 X34.2813 Y-22.7994 Z0.2050
G1 X34.3516 Y-22.9342 Z0.2050
G1 X34.3731 Y-22.8930 Z0.2050
G1 X34.4219 Y-22.7994 Z0.2050
G1 X34.3551 Y-22.6714 Z0.2050
G0 Z0.3650
G0 X34.3551 Y-22.6714 
G0 Z0.3650
G0 X36.0832 Y-23.0876 
G1 X36.0832 Y-23.0876 Z0.2650 F75.
G1 X36.1142 Y-23.1471 Z0.2532 F25.
G1 X36.0721 Y-23.2279 Z0.2371
G1 X36.0300 Y-23.1471 Z0.2211
G1 X36.0721 Y-23.0664 Z0.2050
G1 X36.1142 Y-23.1471 Z0.2050 F22.
G1 X36.0721 Y-23.2279 Z0.2050
G1 X36.0300 Y-23.1471 Z0.2050
G1 X36.0721 Y-23.0664 Z0.2050
G1 X36.0936 Y-23.0535 Z0.2050
G1 X36.0721 Y-23.0123 Z0.2050
G1 X36.0018 Y-23.1471 Z0.2050
G1 X36.0721 Y-23.2819 Z0.2050
G1 X36.1424 Y-23.1471 Z0.2050
G1 X36.0936 Y-23.0535 Z0.2050
G1 X36.0721 Y-23.0123 Z0.2050
G1 X36.0018 Y-23.1471 Z0.2050
G1 X36.0256 Y-23.1928 Z0.2050
G0 Z0.3650
G0 X36.0256 Y-23.1928 
G0 Z0.3650
G0 X36.0832 Y-22.3923 
G1 X36.0832 Y-22.3923 Z0.2650 F75.
G1 X36.1142 Y-22.4517 Z0.2532 F25.
G1 X36.0721 Y-22.5325 Z0.2371
G1 X36.0300 Y-22.4517 Z0.2211
G1 X36.0721 Y-22.3710 Z0.2050
G1 X36.1142 Y-22.4517 Z0.2050 F22.
G1 X36.0721 Y-22.5325 Z0.2050
G1 X36.0300 Y-22.4517 Z0.2050
G1 X36.0721 Y-22.3710 Z0.2050
G1 X36.0936 Y-22.3582 Z0.2050
G1 X36.0721 Y-22.3170 Z0.2050
G1 X36.0018 Y-22.4517 Z0.2050
G1 X36.0721 Y-22.5865 Z0.2050
G1 X36.1424 Y-22.4517 Z0.2050
G1 X36.0936 Y-22.3582 Z0.2050
G1 X36.0721 Y-22.3170 Z0.2050
G1 X36.0018 Y-22.4517 Z0.2050
G1 X36.0256 Y-22.4974 Z0.2050
G0 Z0.3650
G0 X36.0256 Y-22.4974 
G0 Z0.3650
G0 X38.1070 Y-22.8589 
G1 X38.1070 Y-22.8589 Z0.2650 F75.
G1 X38.0760 Y-22.7994 Z0.2532 F25.
G1 X38.1181 Y-22.7187 Z0.2371
G1 X38.1602 Y-22.7994 Z0.2211
G1 X38.1181 Y-22.8802 Z0.2050
G1 X38.0760 Y-22.7994 Z0.2050 F22.
G1 X38.1181 Y-22.7187 Z0.2050
G1 X38.1602 Y-22.7994 Z0.2050
G1 X38.1181 Y-22.8802 Z0.2050
G1 X38.1396 Y-22.8930 Z0.2050
G1 X38.1884 Y-22.7994 Z0.2050
G1 X38.1181 Y-22.6647 Z0.2050
G1 X38.0478 Y-22.7994 Z0.2050
G1 X38.1181 Y-22.9342 Z0.2050
G1 X38.1396 Y-22.8930 Z0.2050
G1 X38.1884 Y-22.7994 Z0.2050
G1 X38.1216 Y-22.6714 Z0.2050
G0 Z0.3650
G0 X38.1216 Y-22.6714 
G0 Z0.3650
G0 X39.6815 Y-22.8589 
G1 X39.6815 Y-22.8589 Z0.2650 F75.
G1 X39.6505 Y-22.7994 Z0.2532 F25.
G1 X39.6926 Y-22.7187 Z0.2371
G1 X39.7347 Y-22.7994 Z0.2211
G1 X39.6926 Y-22.8802 Z0.2050
G1 X39.6505 Y-22.7994 Z0.2050 F22.
G1 X39.6926 Y-22.7187 Z0.2050
G1 X39.7347 Y-22.7994 Z0.2050
G1 X39.6926 Y-22.8802 Z0.2050
G1 X39.7141 Y-22.8930 Z0.2050
G1 X39.7629 Y-22.7994 Z0.2050
G1 X39.6926 Y-22.6647 Z0.2050
G1 X39.6223 Y-22.7994 Z0.2050
G1 X39.6926 Y-22.9342 Z0.2050
G1 X39.7141 Y-22.8930 Z0.2050
G1 X39.7629 Y-22.7994 Z0.2050
G1 X39.6961 Y-22.6714 Z0.2050
G0 Z0.3650
G0 X39.6961 Y-22.6714 
G0 Z0.3650
G0 X41.4490 Y-22.8589 
G1 X41.4490 Y-22.8589 Z0.2650 F75.
G1 X41.4180 Y-22.7994 Z0.2532 F25.
G1 X41.4601 Y-22.7187 Z0.2371
G1 X41.5022 Y-22.7994 Z0.2211
G1 X41.4601 Y-22.8802 Z0.2050
G1 X41.4180 Y-22.7994 Z0.2050 F22.
G1 X41.4601 Y-22.7187 Z0.2050
G1 X41.5022 Y-22.7994 Z0.2050
G1 X41.4601 Y-22.8802 Z0.2050
G1 X41.4816 Y-22.8930 Z0.2050
G1 X41.5304 Y-22.7994 Z0.2050
G1 X41.4601 Y-22.6647 Z0.2050
G1 X41.3898 Y-22.7994 Z0.2050
G1 X41.4601 Y-22.9342 Z0.2050
G1 X41.4816 Y-22.8930 Z0.2050
G1 X41.5304 Y-22.7994 Z0.2050
G1 X41.4636 Y-22.6714 Z0.2050
G0 Z0.3650
G0 X41.4636 Y-22.6714 
G0 Z0.3650
G0 X43.4330 Y-22.8589 
G1 X43.4330 Y-22.8589 Z0.2650 F75.
G1 X43.4020 Y-22.7994 Z0.2532 F25.
G1 X43.4441 Y-22.7187 Z0.2371
G1 X43.4862 Y-22.7994 Z0.2211
G1 X43.4441 Y-22.8802 Z0.2050
G1 X43.4020 Y-22.7994 Z0.2050 F22.
G1 X43.4441 Y-22.7187 Z0.2050
G1 X43.4862 Y-22.7994 Z0.2050
G1 X43.4441 Y-22.8802 Z0.2050
G1 X43.4656 Y-22.8930 Z0.2050
G1 X43.5144 Y-22.7994 Z0.2050
G1 X43.4441 Y-22.6647 Z0.2050
G1 X43.3738 Y-22.7994 Z0.2050
G1 X43.4441 Y-22.9342 Z0.2050
G1 X43.4656 Y-22.8930 Z0.2050
G1 X43.5144 Y-22.7994 Z0.2050
G1 X43.4476 Y-22.6714 Z0.2050
G0 Z1.0000
G0 X43.4476 Y-22.6714 
M5
G53 Z
X2Y0
