( MOP:  02-nutslot-s25PT5-FenderShort-PT092-04 )
( FILE: G:\Shared drives\AlloyProjectFiles\Customer CAD files\Alloy-Standard-Builds-CAM\Fingerboards-in\02-nutslot-s25PT5-FenderShort-PT092-04.nc)
G90
(  BEGIN TOOL LIST )
(  TOOL 5 - Downcut PT375 - DESC: 0.3750 DIA, 2 FLUTE,  CARBIDE MAT )
(  ENDOF TOOL LIST )
( 02-nutslot-s25PT5-FenderShort-PT092-04)
( Max Depth 1.75)
T05
S12000
M3
G0 Z2.0000
G0 X45.9351 Y-20.4239 
G1 X45.9351 Y-20.4239 Z0.1250 F75.
G1 X45.9351 Y-20.9239 Z0.1250 F25.
G17
G3X46.4351Y-21.4239Z0.1250I0.5000J0.0000
G1 X46.6851 Y-21.4239 Z0.1250 F40.
G2X46.9976Y-21.7364Z0.1250I-0.0004J-0.3129
G1 X46.9976 Y-23.8624 Z0.1250
G2X46.6851Y-24.1749Z0.1250I-0.3129J0.0004
G1 X46.4351 Y-24.1749 Z0.1250
G3X45.9351Y-24.6749Z0.1250I0.0000J-0.5000
G1 X45.9351 Y-25.1749 Z0.1250
G0 Z2.0000
G0 X45.9351 Y-25.1749 
G0 Z2.0000
G0 X45.9351 Y-20.5489 
G1 X45.9351 Y-20.5489 Z0.1250 F75.
G1 X45.9351 Y-21.0489 Z0.1250 F25.
G3X46.4351Y-21.5489Z0.1250I0.5000J0.0000
G1 X46.6851 Y-21.5489 Z0.1250 F40.
G2X46.8726Y-21.7364Z0.1250I0.0000J-0.1875
G1 X46.8726 Y-23.8624 Z0.1250
G2X46.6851Y-24.0499Z0.1250I-0.1875J0.0000
G1 X46.4351 Y-24.0499 Z0.1250
G3X45.9351Y-24.5499Z0.1250I0.0000J-0.5000
G1 X45.9351 Y-25.0499 Z0.1250
G0 Z2.0000
G0 X45.9351 Y-25.0499 
G0 Z2.0000
G0 X45.9351 Y-20.4239 
G1 X45.9351 Y-20.4239 Z0.0000 F75.
G1 X45.9351 Y-20.9239 Z0.0000 F25.
G3X46.4351Y-21.4239Z0.0000I0.5000J0.0000
G1 X46.6851 Y-21.4239 Z0.0000 F40.
G2X46.9976Y-21.7364Z0.0000I-0.0004J-0.3129
G1 X46.9976 Y-23.8624 Z0.0000
G2X46.6851Y-24.1749Z0.0000I-0.3129J0.0004
G1 X46.4351 Y-24.1749 Z0.0000
G3X45.9351Y-24.6749Z0.0000I0.0000J-0.5000
G1 X45.9351 Y-25.1749 Z0.0000
G0 Z2.0000
G0 X45.9351 Y-25.1749 
G0 Z2.0000
G0 X45.9351 Y-20.5489 
G1 X45.9351 Y-20.5489 Z0.0000 F75.
G1 X45.9351 Y-21.0489 Z0.0000 F25.
G3X46.4351Y-21.5489Z0.0000I0.5000J0.0000
G1 X46.6851 Y-21.5489 Z0.0000 F40.
G2X46.8726Y-21.7364Z0.0000I0.0000J-0.1875
G1 X46.8726 Y-23.8624 Z0.0000
G2X46.6851Y-24.0499Z0.0000I-0.1875J0.0000
G1 X46.4351 Y-24.0499 Z0.0000
G3X45.9351Y-24.5499Z0.0000I0.0000J-0.5000
G1 X45.9351 Y-25.0499 Z0.0000
G0 Z2.0000
G0 X45.9351 Y-25.0499 
M5
G53 Z
X2Y0
