( MOP:  02-nutslot-AnyScale-Gibson-AnyNutDepth-01 )
( FILE: G:\Shared drives\AlloyProjectFiles\Customer CAD files\Alloy-Standard-Builds-CAM\Fingerboards-in\02-nutslot-AnyScale-Gibson-AnyNutDepth-01.nc)
G90
(  BEGIN TOOL LIST )
(  TOOL 5 - Downcut PT375 - DESC: 0.3750 DIA, 2 FLUTE,  CARBIDE MAT )
(  ENDOF TOOL LIST )
( 02-nutslot-AnyScale-Gibson-AnyNutDepth-01)
( Max Depth 1.75)
T05
S12000
M3
G0 Z4.0000
G0 X46.4476 Y-21.2389 
G1 X46.4476 Y-21.2389 Z0.3750 F75.
G1 X46.4476 Y-21.3639 Z0.3750 F25.
G1 X46.4476 Y-21.8639 Z0.2500
G1 X46.4476 Y-23.7350 Z0.2500 F80.
G1 X46.4476 Y-23.9850 Z0.2500 F75.
G1 X46.4476 Y-24.2350 Z0.2500
G0 Z0.5000
G0 X46.4476 Y-24.2350 
G0 Z0.5000
G0 X46.4476 Y-21.2389 
G1 X46.4476 Y-21.2389 Z0.2500 F75.
G1 X46.4476 Y-21.3639 Z0.2500 F25.
G1 X46.4476 Y-21.8639 Z0.1250
G1 X46.4476 Y-23.7350 Z0.1250 F80.
G1 X46.4476 Y-23.9850 Z0.1250 F75.
G1 X46.4476 Y-24.2350 Z0.1250
G0 Z0.3750
G0 X46.4476 Y-24.2350 
G0 Z0.3750
G0 X46.4476 Y-21.2389 
G1 X46.4476 Y-21.2389 Z0.1250 F75.
G1 X46.4476 Y-21.3639 Z0.1250 F25.
G1 X46.4476 Y-21.8639 Z0.0000
G1 X46.4476 Y-23.7350 Z0.0000 F80.
G1 X46.4476 Y-23.9850 Z0.0000 F75.
G1 X46.4476 Y-24.2350 Z0.0000
G0 Z4.0000
G0 X46.4476 Y-24.2350 
M5
G53 Z
X2Y0
