( MOP:  02-nutslot-AnyScale-Fender-PT103-01 )
( FILE: G:\Shared drives\AlloyProjectFiles\Customer CAD files\Alloy-Standard-Builds-CAM\Fingerboards-in\02-nutslot-AnyScale-Fender-PT103-01.nc)
G90
(  BEGIN TOOL LIST )
(  TOOL 7 - Downcut PT125 - DESC: 0.1250 DIA, 2 FLUTE,  CARBIDE MAT )
(  ENDOF TOOL LIST )
( 02-nutslot-AnyScale-Fender-PT103-01)
T07
S11000
M3
G0 Z4.0000
G0 X46.3226 Y-21.4760 
G1 X46.3226 Y-21.4760 Z0.2735 F75.
G1 X46.3226 Y-21.0507 Z0.1985 F25.
G1 X46.3226 Y-24.5482 Z0.1985 F60.
G0 Z0.4720
G0 X46.3226 Y-24.5482 
G0 Z0.4720
G0 X46.3226 Y-21.4760 
G1 X46.3226 Y-21.4760 Z0.2220 F75.
G1 X46.3226 Y-21.0507 Z0.1470 F25.
G1 X46.3226 Y-24.5482 Z0.1470 F60.
G0 Z4.0000
G0 X46.3226 Y-24.5482 
M5
G53 Z
X2Y0
