( MOP:  02-nutslot-s25PT5-FenderTruncated-PT092-01 )
( FILE: G:\Shared drives\AlloyProjectFiles\Customer CAD files\Alloy-Standard-Builds-CAM\Fingerboards-in\02-nutslot-s25PT5-FenderTruncated-PT092-01.nc)
G90
(  BEGIN TOOL LIST )
(  TOOL 7 - Downcut PT125 - DESC: 0.1250 DIA, 2 FLUTE,  CARBIDE MAT )
(  ENDOF TOOL LIST )
( 02-nutslot-s25PT5-FenderTruncated-PT092-01)
T07
S11000
M3
G0 Z4.0000
G0 X46.3226 Y-21.4760 
G1 X46.3226 Y-21.4760 Z0.2790 F75.
G1 X46.3226 Y-21.0507 Z0.2040 F25.
G1 X46.3226 Y-24.5482 Z0.2040 F60.
G0 Z0.5830
G0 X46.3226 Y-24.5482 
G0 Z0.5830
G0 X46.3226 Y-21.4760 
G1 X46.3226 Y-21.4760 Z0.2330 F75.
G1 X46.3226 Y-21.0507 Z0.1580 F25.
G1 X46.3226 Y-24.5482 Z0.1580 F60.
G0 Z4.0000
G0 X46.3226 Y-24.5482 
M5
G53 Z
X2Y0
