( MOP:  02-radius-r16-AnyScale-final-start-NOMIRROR-01a )
( FILE: G:\Shared drives\AlloyProjectFiles\Customer CAD files\Alloy-Standard-Builds-CAM\Fingerboards-in\02-radius-r16-AnyScale-final-start-NOMIRROR-01.nc)
G90
(  BEGIN TOOL LIST )
(  TOOL 3 - Downcut PT750 - DESC: 0.7500 DIA, 2 FLUTE,  CARBIDE MAT )
(  ENDOF TOOL LIST )
( 02-radius-r16-AnyScale-final-start-NOMIRROR-01a)
T03
S14000
M3
G1 X25.1250 Y-22.7982 Z1.0000 F400.
G1 X25.1250 Y-22.7982 Z0.6100 F75.
G1 X25.1250 Y-22.7982 Z0.5100 F30.
G1 X25.1262 Y-22.7982 Z0.4855 F55.
G1 X25.1298 Y-22.7982 Z0.4612
G1 X25.1358 Y-22.7982 Z0.4374
G1 X25.1440 Y-22.7982 Z0.4143
G1 X25.1545 Y-22.7982 Z0.3922
G1 X25.1671 Y-22.7982 Z0.3711
G1 X25.1818 Y-22.7982 Z0.3514
G1 X25.1982 Y-22.7982 Z0.3332
G1 X25.2164 Y-22.7982 Z0.3167
G1 X25.2361 Y-22.7982 Z0.3021
G1 X25.2572 Y-22.7982 Z0.2895
G1 X25.2793 Y-22.7982 Z0.2790
G1 X25.3024 Y-22.7982 Z0.2708
G1 X25.3262 Y-22.7982 Z0.2648
G1 X25.3505 Y-22.7982 Z0.2612
G1 X25.3750 Y-22.7982 Z0.2600
G1 X47.3686 Y-22.7982 Z0.2600 F110.
G1 X47.3931 Y-22.7982 Z0.2612
G1 X47.4174 Y-22.7982 Z0.2648
G1 X47.4412 Y-22.7982 Z0.2708
G1 X47.4643 Y-22.7982 Z0.2790
G1 X47.4865 Y-22.7982 Z0.2895
G1 X47.5075 Y-22.7982 Z0.3021
G1 X47.5272 Y-22.7982 Z0.3167
G1 X47.5454 Y-22.7982 Z0.3332
G1 X47.5619 Y-22.7982 Z0.3514
G1 X47.5765 Y-22.7982 Z0.3711
G1 X47.5891 Y-22.7982 Z0.3922
G1 X47.5996 Y-22.7982 Z0.4143
G1 X47.6079 Y-22.7982 Z0.4374
G1 X47.6138 Y-22.7982 Z0.4612
G1 X47.6174 Y-22.7982 Z0.4855
G1 X47.6186 Y-22.7982 Z0.5100
G1 X47.6186 Y-22.7982 Z0.6100
G1 X47.6186 Y-22.7982 Z1.0000 F400.
( 02-radius-r16-AnyScale-final-start-NOMIRROR-01b)
G1 X47.2601 Y-22.8494 Z1.0000 F110.
G1 X47.2601 Y-22.8494 Z0.3826
G1 X47.2601 Y-22.8500 Z0.3703 F55.
G1 X47.2601 Y-22.8518 Z0.3582
G1 X47.2601 Y-22.8548 Z0.3463
G1 X47.2601 Y-22.8589 Z0.3347
G1 X47.2601 Y-22.8642 Z0.3236
G1 X47.2601 Y-22.8705 Z0.3131
G1 X47.2601 Y-22.8778 Z0.3033
G1 X47.2601 Y-22.8860 Z0.2942
G1 X47.2601 Y-22.8951 Z0.2859
G1 X47.2601 Y-22.9050 Z0.2786
G1 X47.2601 Y-22.9155 Z0.2723
G1 X47.2601 Y-22.9266 Z0.2671
G1 X47.2601 Y-22.9381 Z0.2629
G1 X47.2601 Y-22.9500 Z0.2600
G1 X47.2601 Y-22.9622 Z0.2582
G1 X47.2601 Y-22.9744 Z0.2576
G1 X47.2601 Y-23.1657 Z0.2575 F110.
G1 X47.2601 Y-23.2135 Z0.2575
G1 X47.2601 Y-23.2613 Z0.2572
G1 X47.2601 Y-23.2972 Z0.2570
G1 X47.2601 Y-23.3331 Z0.2567
G1 X47.2601 Y-23.3570 Z0.2564
G1 X47.2601 Y-23.3809 Z0.2561
G1 X47.2601 Y-23.4048 Z0.2557
G1 X47.2601 Y-23.4287 Z0.2554
G1 X47.2601 Y-23.4765 Z0.2545
G1 X47.2601 Y-23.5004 Z0.2540
G1 X47.2601 Y-23.5243 Z0.2535
G1 X47.2601 Y-23.5483 Z0.2529
G1 X47.2601 Y-23.5722 Z0.2523
G1 X47.2601 Y-23.6080 Z0.2514
G1 X47.2601 Y-23.6439 Z0.2504
G1 X47.2601 Y-23.6917 Z0.2489
G1 X47.2601 Y-23.7395 Z0.2472
G1 X47.2601 Y-23.7874 Z0.2454
G1 X47.2601 Y-23.8352 Z0.2435
G1 X47.2601 Y-23.8830 Z0.2414
G1 X47.2601 Y-23.9189 Z0.2398
G1 X47.2601 Y-23.9547 Z0.2380
G1 X47.2601 Y-23.9786 Z0.2368
G1 X47.2601 Y-24.0025 Z0.2356
G1 X47.2601 Y-24.0264 Z0.2343
G1 X47.2601 Y-24.0504 Z0.2330
G1 X47.2601 Y-24.0982 Z0.2303
G1 X47.2601 Y-24.1371 Z0.2280
G1 X47.2601 Y-24.1521 Z0.2270
G1 X47.2601 Y-24.1820 Z0.2252
G1 X47.2601 Y-24.2270 Z0.2222
G1 X47.2601 Y-24.2720 Z0.2192
G1 X47.2601 Y-24.3170 Z0.2160
G1 X47.2601 Y-24.3619 Z0.2127
G1 X47.2601 Y-24.3671 Z0.2126
G1 X47.2601 Y-24.3722 Z0.2130
G1 X47.2601 Y-24.3772 Z0.2139
G1 X47.2601 Y-24.3822 Z0.2154
G1 X47.2601 Y-24.3869 Z0.2173
G1 X47.2601 Y-24.3914 Z0.2198
G1 X47.2601 Y-24.3957 Z0.2226
G1 X47.2601 Y-24.3996 Z0.2259
G1 X47.2601 Y-24.4032 Z0.2296
G1 X47.2601 Y-24.4064 Z0.2337
G1 X47.2601 Y-24.4091 Z0.2380
G1 X47.2601 Y-24.4114 Z0.2426
G1 X47.2601 Y-24.4132 Z0.2474
G1 X47.2601 Y-24.4146 Z0.2524
G1 X47.2601 Y-24.4153 Z0.2574
G1 X47.2601 Y-24.4156 Z0.2626
G1 X47.2601 Y-24.4156 Z0.3076
G1 X47.0951 Y-22.8494 Z0.3825
G1 X47.0951 Y-22.8500 Z0.3703 F55.
G1 X47.0951 Y-22.8518 Z0.3582
G1 X47.0951 Y-22.8548 Z0.3463
G1 X47.0951 Y-22.8589 Z0.3347
G1 X47.0951 Y-22.8642 Z0.3236
G1 X47.0951 Y-22.8705 Z0.3131
G1 X47.0951 Y-22.8778 Z0.3033
G1 X47.0951 Y-22.8860 Z0.2942
G1 X47.0951 Y-22.8951 Z0.2859
G1 X47.0951 Y-22.9050 Z0.2786
G1 X47.0951 Y-22.9155 Z0.2723
G1 X47.0951 Y-22.9266 Z0.2671
G1 X47.0951 Y-22.9381 Z0.2629
G1 X47.0951 Y-22.9500 Z0.2600
G1 X47.0951 Y-22.9622 Z0.2582
G1 X47.0951 Y-22.9744 Z0.2576
G1 X47.0951 Y-23.1657 Z0.2575 F110.
G1 X47.0951 Y-23.2135 Z0.2575
G1 X47.0951 Y-23.2613 Z0.2572
G1 X47.0951 Y-23.2972 Z0.2570
G1 X47.0951 Y-23.3331 Z0.2567
G1 X47.0951 Y-23.3570 Z0.2564
G1 X47.0951 Y-23.3809 Z0.2561
G1 X47.0951 Y-23.4048 Z0.2557
G1 X47.0951 Y-23.4287 Z0.2554
G1 X47.0951 Y-23.4765 Z0.2545
G1 X47.0951 Y-23.5004 Z0.2540
G1 X47.0951 Y-23.5243 Z0.2535
G1 X47.0951 Y-23.5483 Z0.2529
G1 X47.0951 Y-23.5722 Z0.2523
G1 X47.0951 Y-23.6080 Z0.2514
G1 X47.0951 Y-23.6439 Z0.2504
G1 X47.0951 Y-23.6917 Z0.2489
G1 X47.0951 Y-23.7395 Z0.2472
G1 X47.0951 Y-23.7874 Z0.2454
G1 X47.0951 Y-23.8352 Z0.2435
G1 X47.0951 Y-23.8830 Z0.2414
G1 X47.0951 Y-23.9189 Z0.2398
G1 X47.0951 Y-23.9547 Z0.2380
G1 X47.0951 Y-23.9786 Z0.2368
G1 X47.0951 Y-24.0025 Z0.2356
G1 X47.0951 Y-24.0264 Z0.2343
G1 X47.0951 Y-24.0504 Z0.2330
G1 X47.0951 Y-24.0982 Z0.2303
G1 X47.0951 Y-24.1372 Z0.2280
G1 X47.0951 Y-24.1523 Z0.2270
G1 X47.0951 Y-24.1824 Z0.2251
G1 X47.0951 Y-24.2277 Z0.2222
G1 X47.0951 Y-24.2729 Z0.2191
G1 X47.0951 Y-24.3182 Z0.2159
G1 X47.0951 Y-24.3635 Z0.2126
G1 X47.0951 Y-24.3686 Z0.2125
G1 X47.0951 Y-24.3737 Z0.2129
G1 X47.0951 Y-24.3788 Z0.2138
G1 X47.0951 Y-24.3837 Z0.2153
G1 X47.0951 Y-24.3884 Z0.2172
G1 X47.0951 Y-24.3930 Z0.2196
G1 X47.0951 Y-24.3972 Z0.2225
G1 X47.0951 Y-24.4012 Z0.2258
G1 X47.0951 Y-24.4047 Z0.2295
G1 X47.0951 Y-24.4079 Z0.2335
G1 X47.0951 Y-24.4107 Z0.2379
G1 X47.0951 Y-24.4130 Z0.2425
G1 X47.0951 Y-24.4148 Z0.2473
G1 X47.0951 Y-24.4161 Z0.2522
G1 X47.0951 Y-24.4169 Z0.2573
G1 X47.0951 Y-24.4171 Z0.2624
G1 X47.0951 Y-24.4171 Z0.3076
G1 X46.9301 Y-22.8494 Z0.3825
G1 X46.9301 Y-22.8500 Z0.3703 F55.
G1 X46.9301 Y-22.8518 Z0.3582
G1 X46.9301 Y-22.8548 Z0.3463
G1 X46.9301 Y-22.8589 Z0.3347
G1 X46.9301 Y-22.8642 Z0.3236
G1 X46.9301 Y-22.8705 Z0.3131
G1 X46.9301 Y-22.8778 Z0.3033
G1 X46.9301 Y-22.8860 Z0.2942
G1 X46.9301 Y-22.8951 Z0.2859
G1 X46.9301 Y-22.9050 Z0.2786
G1 X46.9301 Y-22.9155 Z0.2723
G1 X46.9301 Y-22.9266 Z0.2671
G1 X46.9301 Y-22.9381 Z0.2629
G1 X46.9301 Y-22.9500 Z0.2600
G1 X46.9301 Y-22.9622 Z0.2582
G1 X46.9301 Y-22.9744 Z0.2576
G1 X46.9301 Y-23.1657 Z0.2575 F110.
G1 X46.9301 Y-23.2135 Z0.2575
G1 X46.9301 Y-23.2613 Z0.2572
G1 X46.9301 Y-23.2972 Z0.2570
G1 X46.9301 Y-23.3331 Z0.2567
G1 X46.9301 Y-23.3570 Z0.2564
G1 X46.9301 Y-23.3809 Z0.2561
G1 X46.9301 Y-23.4048 Z0.2557
G1 X46.9301 Y-23.4287 Z0.2554
G1 X46.9301 Y-23.4765 Z0.2545
G1 X46.9301 Y-23.5004 Z0.2540
G1 X46.9301 Y-23.5243 Z0.2535
G1 X46.9301 Y-23.5483 Z0.2529
G1 X46.9301 Y-23.5722 Z0.2523
G1 X46.9301 Y-23.6080 Z0.2514
G1 X46.9301 Y-23.6439 Z0.2504
G1 X46.9301 Y-23.6917 Z0.2489
G1 X46.9301 Y-23.7395 Z0.2472
G1 X46.9301 Y-23.7874 Z0.2454
G1 X46.9301 Y-23.8352 Z0.2435
G1 X46.9301 Y-23.8830 Z0.2414
G1 X46.9301 Y-23.9189 Z0.2398
G1 X46.9301 Y-23.9547 Z0.2380
G1 X46.9301 Y-23.9786 Z0.2368
G1 X46.9301 Y-24.0025 Z0.2356
G1 X46.9301 Y-24.0264 Z0.2343
G1 X46.9301 Y-24.0504 Z0.2330
G1 X46.9301 Y-24.0982 Z0.2303
G1 X46.9301 Y-24.1373 Z0.2280
G1 X46.9301 Y-24.1524 Z0.2270
G1 X46.9301 Y-24.1828 Z0.2251
G1 X46.9301 Y-24.2284 Z0.2222
G1 X46.9301 Y-24.2739 Z0.2191
G1 X46.9301 Y-24.3194 Z0.2158
G1 X46.9301 Y-24.3650 Z0.2125
G1 X46.9301 Y-24.3701 Z0.2124
G1 X46.9301 Y-24.3752 Z0.2128
G1 X46.9301 Y-24.3803 Z0.2137
G1 X46.9301 Y-24.3852 Z0.2152
G1 X46.9301 Y-24.3900 Z0.2171
G1 X46.9301 Y-24.3945 Z0.2195
G1 X46.9301 Y-24.3988 Z0.2224
G1 X46.9301 Y-24.4027 Z0.2257
G1 X46.9301 Y-24.4063 Z0.2294
G1 X46.9301 Y-24.4095 Z0.2334
G1 X46.9301 Y-24.4122 Z0.2378
G1 X46.9301 Y-24.4145 Z0.2423
G1 X46.9301 Y-24.4163 Z0.2472
G1 X46.9301 Y-24.4176 Z0.2521
G1 X46.9301 Y-24.4184 Z0.2572
G1 X46.9301 Y-24.4187 Z0.2623
G1 X46.9301 Y-24.4187 Z0.3076
G1 X46.7651 Y-22.8494 Z0.3825
G1 X46.7651 Y-22.8500 Z0.3703 F55.
G1 X46.7651 Y-22.8518 Z0.3582
G1 X46.7651 Y-22.8548 Z0.3463
G1 X46.7651 Y-22.8589 Z0.3347
G1 X46.7651 Y-22.8642 Z0.3236
G1 X46.7651 Y-22.8705 Z0.3131
G1 X46.7651 Y-22.8778 Z0.3033
G1 X46.7651 Y-22.8860 Z0.2942
G1 X46.7651 Y-22.8951 Z0.2859
G1 X46.7651 Y-22.9050 Z0.2786
G1 X46.7651 Y-22.9155 Z0.2723
G1 X46.7651 Y-22.9266 Z0.2671
G1 X46.7651 Y-22.9381 Z0.2629
G1 X46.7651 Y-22.9500 Z0.2600
G1 X46.7651 Y-22.9622 Z0.2582
G1 X46.7651 Y-22.9744 Z0.2576
G1 X46.7651 Y-23.1657 Z0.2575 F110.
G1 X46.7651 Y-23.2135 Z0.2575
G1 X46.7651 Y-23.2613 Z0.2572
G1 X46.7651 Y-23.2972 Z0.2570
G1 X46.7651 Y-23.3331 Z0.2567
G1 X46.7651 Y-23.3570 Z0.2564
G1 X46.7651 Y-23.3809 Z0.2561
G1 X46.7651 Y-23.4048 Z0.2557
G1 X46.7651 Y-23.4287 Z0.2554
G1 X46.7651 Y-23.4765 Z0.2545
G1 X46.7651 Y-23.5004 Z0.2540
G1 X46.7651 Y-23.5243 Z0.2535
G1 X46.7651 Y-23.5483 Z0.2529
G1 X46.7651 Y-23.5722 Z0.2523
G1 X46.7651 Y-23.6080 Z0.2514
G1 X46.7651 Y-23.6439 Z0.2504
G1 X46.7651 Y-23.6917 Z0.2489
G1 X46.7651 Y-23.7395 Z0.2472
G1 X46.7651 Y-23.7874 Z0.2454
G1 X46.7651 Y-23.8352 Z0.2435
G1 X46.7651 Y-23.8830 Z0.2414
G1 X46.7651 Y-23.9189 Z0.2398
G1 X46.7651 Y-23.9547 Z0.2380
G1 X46.7651 Y-23.9786 Z0.2368
G1 X46.7651 Y-24.0025 Z0.2356
G1 X46.7651 Y-24.0264 Z0.2343
G1 X46.7651 Y-24.0504 Z0.2330
G1 X46.7651 Y-24.0982 Z0.2303
G1 X46.7651 Y-24.1374 Z0.2280
G1 X46.7651 Y-24.1526 Z0.2270
G1 X46.7651 Y-24.1832 Z0.2251
G1 X46.7651 Y-24.2290 Z0.2221
G1 X46.7651 Y-24.2748 Z0.2190
G1 X46.7651 Y-24.3054 Z0.2168
G1 X46.7651 Y-24.3207 Z0.2157
G1 X46.7651 Y-24.3665 Z0.2124
G1 X46.7651 Y-24.3716 Z0.2122
G1 X46.7651 Y-24.3768 Z0.2126
G1 X46.7651 Y-24.3818 Z0.2136
G1 X46.7651 Y-24.3867 Z0.2150
G1 X46.7651 Y-24.3915 Z0.2170
G1 X46.7651 Y-24.3960 Z0.2194
G1 X46.7651 Y-24.4003 Z0.2223
G1 X46.7651 Y-24.4042 Z0.2256
G1 X46.7651 Y-24.4078 Z0.2293
G1 X46.7651 Y-24.4110 Z0.2333
G1 X46.7651 Y-24.4137 Z0.2376
G1 X46.7651 Y-24.4160 Z0.2422
G1 X46.7651 Y-24.4178 Z0.2470
G1 X46.7651 Y-24.4191 Z0.2520
G1 X46.7651 Y-24.4199 Z0.2571
G1 X46.7651 Y-24.4202 Z0.2622
G1 X46.7651 Y-24.4202 Z0.3076
G1 X46.6001 Y-22.8494 Z0.3825
G1 X46.6001 Y-22.8500 Z0.3703 F55.
G1 X46.6001 Y-22.8518 Z0.3582
G1 X46.6001 Y-22.8548 Z0.3463
G1 X46.6001 Y-22.8589 Z0.3347
G1 X46.6001 Y-22.8642 Z0.3236
G1 X46.6001 Y-22.8705 Z0.3131
G1 X46.6001 Y-22.8778 Z0.3033
G1 X46.6001 Y-22.8860 Z0.2942
G1 X46.6001 Y-22.8951 Z0.2859
G1 X46.6001 Y-22.9050 Z0.2786
G1 X46.6001 Y-22.9155 Z0.2723
G1 X46.6001 Y-22.9266 Z0.2671
G1 X46.6001 Y-22.9381 Z0.2629
G1 X46.6001 Y-22.9500 Z0.2600
G1 X46.6001 Y-22.9622 Z0.2582
G1 X46.6001 Y-22.9744 Z0.2576
G1 X46.6001 Y-23.1657 Z0.2575 F110.
G1 X46.6001 Y-23.2135 Z0.2575
G1 X46.6001 Y-23.2613 Z0.2572
G1 X46.6001 Y-23.2972 Z0.2570
G1 X46.6001 Y-23.3331 Z0.2567
G1 X46.6001 Y-23.3570 Z0.2564
G1 X46.6001 Y-23.3809 Z0.2561
G1 X46.6001 Y-23.4048 Z0.2557
G1 X46.6001 Y-23.4287 Z0.2554
G1 X46.6001 Y-23.4765 Z0.2545
G1 X46.6001 Y-23.5004 Z0.2540
G1 X46.6001 Y-23.5243 Z0.2535
G1 X46.6001 Y-23.5483 Z0.2529
G1 X46.6001 Y-23.5722 Z0.2523
G1 X46.6001 Y-23.6080 Z0.2514
G1 X46.6001 Y-23.6439 Z0.2504
G1 X46.6001 Y-23.6917 Z0.2489
G1 X46.6001 Y-23.7395 Z0.2472
G1 X46.6001 Y-23.7874 Z0.2454
G1 X46.6001 Y-23.8352 Z0.2435
G1 X46.6001 Y-23.8830 Z0.2414
G1 X46.6001 Y-23.9189 Z0.2398
G1 X46.6001 Y-23.9547 Z0.2380
G1 X46.6001 Y-23.9786 Z0.2368
G1 X46.6001 Y-24.0025 Z0.2356
G1 X46.6001 Y-24.0264 Z0.2343
G1 X46.6001 Y-24.0504 Z0.2330
G1 X46.6001 Y-24.0982 Z0.2303
G1 X46.6001 Y-24.1375 Z0.2280
G1 X46.6001 Y-24.1836 Z0.2251
G1 X46.6001 Y-24.2297 Z0.2221
G1 X46.6001 Y-24.2758 Z0.2189
G1 X46.6001 Y-24.3065 Z0.2167
G1 X46.6001 Y-24.3219 Z0.2156
G1 X46.6001 Y-24.3373 Z0.2145
G1 X46.6001 Y-24.3680 Z0.2122
G1 X46.6001 Y-24.3732 Z0.2121
G1 X46.6001 Y-24.3783 Z0.2125
G1 X46.6001 Y-24.3833 Z0.2135
G1 X46.6001 Y-24.3883 Z0.2149
G1 X46.6001 Y-24.3930 Z0.2169
G1 X46.6001 Y-24.3976 Z0.2193
G1 X46.6001 Y-24.4018 Z0.2222
G1 X46.6001 Y-24.4057 Z0.2255
G1 X46.6001 Y-24.4093 Z0.2291
G1 X46.6001 Y-24.4125 Z0.2332
G1 X46.6001 Y-24.4153 Z0.2375
G1 X46.6001 Y-24.4176 Z0.2421
G1 X46.6001 Y-24.4194 Z0.2469
G1 X46.6001 Y-24.4207 Z0.2519
G1 X46.6001 Y-24.4215 Z0.2570
G1 X46.6001 Y-24.4217 Z0.2621
G1 X46.6001 Y-24.4217 Z0.3076
G1 X46.4351 Y-22.8494 Z0.3825
G1 X46.4351 Y-22.8500 Z0.3703 F55.
G1 X46.4351 Y-22.8518 Z0.3582
G1 X46.4351 Y-22.8548 Z0.3463
G1 X46.4351 Y-22.8589 Z0.3347
G1 X46.4351 Y-22.8642 Z0.3236
G1 X46.4351 Y-22.8705 Z0.3131
G1 X46.4351 Y-22.8778 Z0.3033
G1 X46.4351 Y-22.8860 Z0.2942
G1 X46.4351 Y-22.8951 Z0.2859
G1 X46.4351 Y-22.9050 Z0.2786
G1 X46.4351 Y-22.9155 Z0.2723
G1 X46.4351 Y-22.9266 Z0.2671
G1 X46.4351 Y-22.9381 Z0.2629
G1 X46.4351 Y-22.9500 Z0.2600
G1 X46.4351 Y-22.9622 Z0.2582
G1 X46.4351 Y-22.9744 Z0.2576
G1 X46.4351 Y-23.1657 Z0.2575 F110.
G1 X46.4351 Y-23.2135 Z0.2575
G1 X46.4351 Y-23.2613 Z0.2572
G1 X46.4351 Y-23.2972 Z0.2570
G1 X46.4351 Y-23.3331 Z0.2567
G1 X46.4351 Y-23.3570 Z0.2564
G1 X46.4351 Y-23.3809 Z0.2561
G1 X46.4351 Y-23.4048 Z0.2557
G1 X46.4351 Y-23.4287 Z0.2554
G1 X46.4351 Y-23.4765 Z0.2545
G1 X46.4351 Y-23.5004 Z0.2540
G1 X46.4351 Y-23.5243 Z0.2535
G1 X46.4351 Y-23.5483 Z0.2529
G1 X46.4351 Y-23.5722 Z0.2523
G1 X46.4351 Y-23.6080 Z0.2514
G1 X46.4351 Y-23.6439 Z0.2504
G1 X46.4351 Y-23.6917 Z0.2489
G1 X46.4351 Y-23.7395 Z0.2472
G1 X46.4351 Y-23.7874 Z0.2454
G1 X46.4351 Y-23.8352 Z0.2435
G1 X46.4351 Y-23.8830 Z0.2414
G1 X46.4351 Y-23.9189 Z0.2398
G1 X46.4351 Y-23.9547 Z0.2380
G1 X46.4351 Y-23.9786 Z0.2368
G1 X46.4351 Y-24.0025 Z0.2356
G1 X46.4351 Y-24.0264 Z0.2343
G1 X46.4351 Y-24.0504 Z0.2330
G1 X46.4351 Y-24.0982 Z0.2303
G1 X46.4351 Y-24.1375 Z0.2279
G1 X46.4351 Y-24.1839 Z0.2251
G1 X46.4351 Y-24.2303 Z0.2220
G1 X46.4351 Y-24.2767 Z0.2189
G1 X46.4351 Y-24.3077 Z0.2167
G1 X46.4351 Y-24.3231 Z0.2156
G1 X46.4351 Y-24.3386 Z0.2144
G1 X46.4351 Y-24.3695 Z0.2121
G1 X46.4351 Y-24.3747 Z0.2120
G1 X46.4351 Y-24.3798 Z0.2124
G1 X46.4351 Y-24.3849 Z0.2133
G1 X46.4351 Y-24.3898 Z0.2148
G1 X46.4351 Y-24.3945 Z0.2167
G1 X46.4351 Y-24.3991 Z0.2192
G1 X46.4351 Y-24.4033 Z0.2220
G1 X46.4351 Y-24.4073 Z0.2253
G1 X46.4351 Y-24.4109 Z0.2290
G1 X46.4351 Y-24.4140 Z0.2331
G1 X46.4351 Y-24.4168 Z0.2374
G1 X46.4351 Y-24.4191 Z0.2420
G1 X46.4351 Y-24.4209 Z0.2468
G1 X46.4351 Y-24.4222 Z0.2518
G1 X46.4351 Y-24.4230 Z0.2568
G1 X46.4351 Y-24.4233 Z0.2620
G1 X46.4351 Y-24.4233 Z0.3076
G1 X46.2701 Y-22.8494 Z0.3825
G1 X46.2701 Y-22.8500 Z0.3703 F55.
G1 X46.2701 Y-22.8518 Z0.3582
G1 X46.2701 Y-22.8548 Z0.3463
G1 X46.2701 Y-22.8589 Z0.3347
G1 X46.2701 Y-22.8642 Z0.3236
G1 X46.2701 Y-22.8705 Z0.3131
G1 X46.2701 Y-22.8778 Z0.3033
G1 X46.2701 Y-22.8860 Z0.2942
G1 X46.2701 Y-22.8951 Z0.2859
G1 X46.2701 Y-22.9050 Z0.2786
G1 X46.2701 Y-22.9155 Z0.2723
G1 X46.2701 Y-22.9266 Z0.2671
G1 X46.2701 Y-22.9381 Z0.2629
G1 X46.2701 Y-22.9500 Z0.2600
G1 X46.2701 Y-22.9622 Z0.2582
G1 X46.2701 Y-22.9744 Z0.2576
G1 X46.2701 Y-23.1657 Z0.2575 F110.
G1 X46.2701 Y-23.2135 Z0.2575
G1 X46.2701 Y-23.2613 Z0.2572
G1 X46.2701 Y-23.2972 Z0.2570
G1 X46.2701 Y-23.3331 Z0.2567
G1 X46.2701 Y-23.3570 Z0.2564
G1 X46.2701 Y-23.3809 Z0.2561
G1 X46.2701 Y-23.4048 Z0.2557
G1 X46.2701 Y-23.4287 Z0.2554
G1 X46.2701 Y-23.4765 Z0.2545
G1 X46.2701 Y-23.5004 Z0.2540
G1 X46.2701 Y-23.5243 Z0.2535
G1 X46.2701 Y-23.5483 Z0.2529
G1 X46.2701 Y-23.5722 Z0.2523
G1 X46.2701 Y-23.6080 Z0.2514
G1 X46.2701 Y-23.6439 Z0.2504
G1 X46.2701 Y-23.6917 Z0.2489
G1 X46.2701 Y-23.7395 Z0.2472
G1 X46.2701 Y-23.7874 Z0.2454
G1 X46.2701 Y-23.8352 Z0.2435
G1 X46.2701 Y-23.8830 Z0.2414
G1 X46.2701 Y-23.9189 Z0.2398
G1 X46.2701 Y-23.9547 Z0.2380
G1 X46.2701 Y-23.9786 Z0.2368
G1 X46.2701 Y-24.0025 Z0.2356
G1 X46.2701 Y-24.0264 Z0.2343
G1 X46.2701 Y-24.0504 Z0.2330
G1 X46.2701 Y-24.0982 Z0.2303
G1 X46.2701 Y-24.1376 Z0.2279
G1 X46.2701 Y-24.1843 Z0.2250
G1 X46.2701 Y-24.2310 Z0.2220
G1 X46.2701 Y-24.2777 Z0.2188
G1 X46.2701 Y-24.3088 Z0.2166
G1 X46.2701 Y-24.3399 Z0.2143
G1 X46.2701 Y-24.3555 Z0.2132
G1 X46.2701 Y-24.3711 Z0.2120
G1 X46.2701 Y-24.3762 Z0.2119
G1 X46.2701 Y-24.3813 Z0.2123
G1 X46.2701 Y-24.3864 Z0.2132
G1 X46.2701 Y-24.3913 Z0.2147
G1 X46.2701 Y-24.3961 Z0.2166
G1 X46.2701 Y-24.4006 Z0.2190
G1 X46.2701 Y-24.4049 Z0.2219
G1 X46.2701 Y-24.4088 Z0.2252
G1 X46.2701 Y-24.4124 Z0.2289
G1 X46.2701 Y-24.4156 Z0.2329
G1 X46.2701 Y-24.4184 Z0.2373
G1 X46.2701 Y-24.4207 Z0.2419
G1 X46.2701 Y-24.4225 Z0.2467
G1 X46.2701 Y-24.4238 Z0.2516
G1 X46.2701 Y-24.4246 Z0.2567
G1 X46.2701 Y-24.4248 Z0.2619
G1 X46.2701 Y-24.4248 Z0.3076
G1 X46.1051 Y-22.8494 Z0.3825
G1 X46.1051 Y-22.8500 Z0.3703 F55.
G1 X46.1051 Y-22.8518 Z0.3582
G1 X46.1051 Y-22.8548 Z0.3463
G1 X46.1051 Y-22.8589 Z0.3347
G1 X46.1051 Y-22.8642 Z0.3236
G1 X46.1051 Y-22.8705 Z0.3131
G1 X46.1051 Y-22.8778 Z0.3033
G1 X46.1051 Y-22.8860 Z0.2942
G1 X46.1051 Y-22.8951 Z0.2859
G1 X46.1051 Y-22.9050 Z0.2786
G1 X46.1051 Y-22.9155 Z0.2723
G1 X46.1051 Y-22.9266 Z0.2671
G1 X46.1051 Y-22.9381 Z0.2629
G1 X46.1051 Y-22.9500 Z0.2600
G1 X46.1051 Y-22.9622 Z0.2582
G1 X46.1051 Y-22.9744 Z0.2576
G1 X46.1051 Y-23.1657 Z0.2575 F110.
G1 X46.1051 Y-23.2135 Z0.2575
G1 X46.1051 Y-23.2613 Z0.2572
G1 X46.1051 Y-23.2972 Z0.2570
G1 X46.1051 Y-23.3331 Z0.2567
G1 X46.1051 Y-23.3570 Z0.2564
G1 X46.1051 Y-23.3809 Z0.2561
G1 X46.1051 Y-23.4048 Z0.2557
G1 X46.1051 Y-23.4287 Z0.2554
G1 X46.1051 Y-23.4765 Z0.2545
G1 X46.1051 Y-23.5004 Z0.2540
G1 X46.1051 Y-23.5243 Z0.2535
G1 X46.1051 Y-23.5483 Z0.2529
G1 X46.1051 Y-23.5722 Z0.2523
G1 X46.1051 Y-23.6080 Z0.2514
G1 X46.1051 Y-23.6439 Z0.2504
G1 X46.1051 Y-23.6917 Z0.2489
G1 X46.1051 Y-23.7395 Z0.2472
G1 X46.1051 Y-23.7874 Z0.2454
G1 X46.1051 Y-23.8352 Z0.2435
G1 X46.1051 Y-23.8830 Z0.2414
G1 X46.1051 Y-23.9189 Z0.2398
G1 X46.1051 Y-23.9547 Z0.2380
G1 X46.1051 Y-23.9786 Z0.2368
G1 X46.1051 Y-24.0025 Z0.2356
G1 X46.1051 Y-24.0264 Z0.2343
G1 X46.1051 Y-24.0504 Z0.2330
G1 X46.1051 Y-24.0982 Z0.2303
G1 X46.1051 Y-24.1377 Z0.2279
G1 X46.1051 Y-24.1847 Z0.2250
G1 X46.1051 Y-24.2160 Z0.2230
G1 X46.1051 Y-24.2317 Z0.2219
G1 X46.1051 Y-24.2473 Z0.2209
G1 X46.1051 Y-24.2787 Z0.2187
G1 X46.1051 Y-24.3100 Z0.2165
G1 X46.1051 Y-24.3413 Z0.2142
G1 X46.1051 Y-24.3569 Z0.2131
G1 X46.1051 Y-24.3726 Z0.2119
G1 X46.1051 Y-24.3777 Z0.2118
G1 X46.1051 Y-24.3829 Z0.2122
G1 X46.1051 Y-24.3879 Z0.2131
G1 X46.1051 Y-24.3929 Z0.2145
G1 X46.1051 Y-24.3976 Z0.2165
G1 X46.1051 Y-24.4022 Z0.2189
G1 X46.1051 Y-24.4064 Z0.2218
G1 X46.1051 Y-24.4104 Z0.2251
G1 X46.1051 Y-24.4139 Z0.2288
G1 X46.1051 Y-24.4171 Z0.2328
G1 X46.1051 Y-24.4199 Z0.2371
G1 X46.1051 Y-24.4222 Z0.2417
G1 X46.1051 Y-24.4240 Z0.2466
G1 X46.1051 Y-24.4253 Z0.2515
G1 X46.1051 Y-24.4261 Z0.2566
G1 X46.1051 Y-24.4264 Z0.2617
G1 X46.1051 Y-24.4264 Z0.3076
G1 X45.9401 Y-22.8494 Z0.3825
G1 X45.9401 Y-22.8500 Z0.3703 F55.
G1 X45.9401 Y-22.8518 Z0.3582
G1 X45.9401 Y-22.8548 Z0.3463
G1 X45.9401 Y-22.8589 Z0.3347
G1 X45.9401 Y-22.8642 Z0.3236
G1 X45.9401 Y-22.8705 Z0.3131
G1 X45.9401 Y-22.8778 Z0.3033
G1 X45.9401 Y-22.8860 Z0.2942
G1 X45.9401 Y-22.8951 Z0.2859
G1 X45.9401 Y-22.9050 Z0.2786
G1 X45.9401 Y-22.9155 Z0.2723
G1 X45.9401 Y-22.9266 Z0.2671
G1 X45.9401 Y-22.9381 Z0.2629
G1 X45.9401 Y-22.9500 Z0.2600
G1 X45.9401 Y-22.9622 Z0.2582
G1 X45.9401 Y-22.9744 Z0.2576
G1 X45.9401 Y-23.1657 Z0.2575 F110.
G1 X45.9401 Y-23.2135 Z0.2575
G1 X45.9401 Y-23.2613 Z0.2572
G1 X45.9401 Y-23.2972 Z0.2570
G1 X45.9401 Y-23.3331 Z0.2567
G1 X45.9401 Y-23.3570 Z0.2564
G1 X45.9401 Y-23.3809 Z0.2561
G1 X45.9401 Y-23.4048 Z0.2557
G1 X45.9401 Y-23.4287 Z0.2554
G1 X45.9401 Y-23.4765 Z0.2545
G1 X45.9401 Y-23.5004 Z0.2540
G1 X45.9401 Y-23.5243 Z0.2535
G1 X45.9401 Y-23.5483 Z0.2529
G1 X45.9401 Y-23.5722 Z0.2523
G1 X45.9401 Y-23.6080 Z0.2514
G1 X45.9401 Y-23.6439 Z0.2504
G1 X45.9401 Y-23.6917 Z0.2489
G1 X45.9401 Y-23.7395 Z0.2472
G1 X45.9401 Y-23.7874 Z0.2454
G1 X45.9401 Y-23.8352 Z0.2435
G1 X45.9401 Y-23.8830 Z0.2414
G1 X45.9401 Y-23.9189 Z0.2398
G1 X45.9401 Y-23.9547 Z0.2380
G1 X45.9401 Y-23.9786 Z0.2368
G1 X45.9401 Y-24.0025 Z0.2356
G1 X45.9401 Y-24.0264 Z0.2343
G1 X45.9401 Y-24.0504 Z0.2330
G1 X45.9401 Y-24.0982 Z0.2303
G1 X45.9401 Y-24.1378 Z0.2279
G1 X45.9401 Y-24.1851 Z0.2250
G1 X45.9401 Y-24.2166 Z0.2229
G1 X45.9401 Y-24.2323 Z0.2219
G1 X45.9401 Y-24.2481 Z0.2208
G1 X45.9401 Y-24.2796 Z0.2187
G1 X45.9401 Y-24.3111 Z0.2164
G1 X45.9401 Y-24.3426 Z0.2141
G1 X45.9401 Y-24.3584 Z0.2130
G1 X45.9401 Y-24.3741 Z0.2118
G1 X45.9401 Y-24.3793 Z0.2116
G1 X45.9401 Y-24.3844 Z0.2120
G1 X45.9401 Y-24.3894 Z0.2130
G1 X45.9401 Y-24.3944 Z0.2144
G1 X45.9401 Y-24.3991 Z0.2164
G1 X45.9401 Y-24.4037 Z0.2188
G1 X45.9401 Y-24.4079 Z0.2217
G1 X45.9401 Y-24.4119 Z0.2250
G1 X45.9401 Y-24.4155 Z0.2286
G1 X45.9401 Y-24.4187 Z0.2327
G1 X45.9401 Y-24.4214 Z0.2370
G1 X45.9401 Y-24.4237 Z0.2416
G1 X45.9401 Y-24.4255 Z0.2464
G1 X45.9401 Y-24.4268 Z0.2514
G1 X45.9401 Y-24.4276 Z0.2565
G1 X45.9401 Y-24.4279 Z0.2616
G1 X45.9401 Y-24.4279 Z0.3076
G1 X45.7751 Y-22.8494 Z0.3825
G1 X45.7751 Y-22.8500 Z0.3703 F55.
G1 X45.7751 Y-22.8518 Z0.3582
G1 X45.7751 Y-22.8548 Z0.3463
G1 X45.7751 Y-22.8589 Z0.3347
G1 X45.7751 Y-22.8642 Z0.3236
G1 X45.7751 Y-22.8705 Z0.3131
G1 X45.7751 Y-22.8778 Z0.3033
G1 X45.7751 Y-22.8860 Z0.2942
G1 X45.7751 Y-22.8951 Z0.2859
G1 X45.7751 Y-22.9050 Z0.2786
G1 X45.7751 Y-22.9155 Z0.2723
G1 X45.7751 Y-22.9266 Z0.2671
G1 X45.7751 Y-22.9381 Z0.2629
G1 X45.7751 Y-22.9500 Z0.2600
G1 X45.7751 Y-22.9622 Z0.2582
G1 X45.7751 Y-22.9744 Z0.2576
G1 X45.7751 Y-23.1657 Z0.2575 F110.
G1 X45.7751 Y-23.2135 Z0.2575
G1 X45.7751 Y-23.2613 Z0.2572
G1 X45.7751 Y-23.2972 Z0.2570
G1 X45.7751 Y-23.3331 Z0.2567
G1 X45.7751 Y-23.3570 Z0.2564
G1 X45.7751 Y-23.3809 Z0.2561
G1 X45.7751 Y-23.4048 Z0.2557
G1 X45.7751 Y-23.4287 Z0.2554
G1 X45.7751 Y-23.4765 Z0.2545
G1 X45.7751 Y-23.5004 Z0.2540
G1 X45.7751 Y-23.5243 Z0.2535
G1 X45.7751 Y-23.5483 Z0.2529
G1 X45.7751 Y-23.5722 Z0.2523
G1 X45.7751 Y-23.6080 Z0.2514
G1 X45.7751 Y-23.6439 Z0.2504
G1 X45.7751 Y-23.6917 Z0.2489
G1 X45.7751 Y-23.7395 Z0.2472
G1 X45.7751 Y-23.7874 Z0.2454
G1 X45.7751 Y-23.8352 Z0.2435
G1 X45.7751 Y-23.8830 Z0.2414
G1 X45.7751 Y-23.9189 Z0.2398
G1 X45.7751 Y-23.9547 Z0.2380
G1 X45.7751 Y-23.9786 Z0.2368
G1 X45.7751 Y-24.0025 Z0.2356
G1 X45.7751 Y-24.0264 Z0.2343
G1 X45.7751 Y-24.0504 Z0.2330
G1 X45.7751 Y-24.0982 Z0.2303
G1 X45.7751 Y-24.1379 Z0.2279
G1 X45.7751 Y-24.1538 Z0.2269
G1 X45.7751 Y-24.1855 Z0.2250
G1 X45.7751 Y-24.2172 Z0.2229
G1 X45.7751 Y-24.2330 Z0.2218
G1 X45.7751 Y-24.2489 Z0.2208
G1 X45.7751 Y-24.2806 Z0.2186
G1 X45.7751 Y-24.3123 Z0.2163
G1 X45.7751 Y-24.3598 Z0.2129
G1 X45.7751 Y-24.3756 Z0.2117
G1 X45.7751 Y-24.3808 Z0.2115
G1 X45.7751 Y-24.3859 Z0.2119
G1 X45.7751 Y-24.3910 Z0.2129
G1 X45.7751 Y-24.3959 Z0.2143
G1 X45.7751 Y-24.4007 Z0.2162
G1 X45.7751 Y-24.4052 Z0.2187
G1 X45.7751 Y-24.4095 Z0.2215
G1 X45.7751 Y-24.4134 Z0.2248
G1 X45.7751 Y-24.4170 Z0.2285
G1 X45.7751 Y-24.4202 Z0.2326
G1 X45.7751 Y-24.4230 Z0.2369
G1 X45.7751 Y-24.4253 Z0.2415
G1 X45.7751 Y-24.4271 Z0.2463
G1 X45.7751 Y-24.4284 Z0.2513
G1 X45.7751 Y-24.4292 Z0.2564
G1 X45.7751 Y-24.4294 Z0.2615
G1 X45.7751 Y-24.4294 Z0.3076
G1 X45.6101 Y-22.8494 Z0.3825
G1 X45.6101 Y-22.8500 Z0.3703 F55.
G1 X45.6101 Y-22.8518 Z0.3582
G1 X45.6101 Y-22.8548 Z0.3463
G1 X45.6101 Y-22.8589 Z0.3347
G1 X45.6101 Y-22.8642 Z0.3236
G1 X45.6101 Y-22.8705 Z0.3131
G1 X45.6101 Y-22.8778 Z0.3033
G1 X45.6101 Y-22.8860 Z0.2942
G1 X45.6101 Y-22.8951 Z0.2859
G1 X45.6101 Y-22.9050 Z0.2786
G1 X45.6101 Y-22.9155 Z0.2723
G1 X45.6101 Y-22.9266 Z0.2671
G1 X45.6101 Y-22.9381 Z0.2629
G1 X45.6101 Y-22.9500 Z0.2600
G1 X45.6101 Y-22.9622 Z0.2582
G1 X45.6101 Y-22.9744 Z0.2576
G1 X45.6101 Y-23.1657 Z0.2575 F110.
G1 X45.6101 Y-23.2135 Z0.2575
G1 X45.6101 Y-23.2613 Z0.2572
G1 X45.6101 Y-23.2972 Z0.2570
G1 X45.6101 Y-23.3331 Z0.2567
G1 X45.6101 Y-23.3570 Z0.2564
G1 X45.6101 Y-23.3809 Z0.2561
G1 X45.6101 Y-23.4048 Z0.2557
G1 X45.6101 Y-23.4287 Z0.2554
G1 X45.6101 Y-23.4765 Z0.2545
G1 X45.6101 Y-23.5004 Z0.2540
G1 X45.6101 Y-23.5243 Z0.2535
G1 X45.6101 Y-23.5483 Z0.2529
G1 X45.6101 Y-23.5722 Z0.2523
G1 X45.6101 Y-23.6080 Z0.2514
G1 X45.6101 Y-23.6439 Z0.2504
G1 X45.6101 Y-23.6917 Z0.2489
G1 X45.6101 Y-23.7395 Z0.2472
G1 X45.6101 Y-23.7874 Z0.2454
G1 X45.6101 Y-23.8352 Z0.2435
G1 X45.6101 Y-23.8830 Z0.2414
G1 X45.6101 Y-23.9189 Z0.2398
G1 X45.6101 Y-23.9547 Z0.2380
G1 X45.6101 Y-23.9786 Z0.2368
G1 X45.6101 Y-24.0025 Z0.2356
G1 X45.6101 Y-24.0264 Z0.2343
G1 X45.6101 Y-24.0504 Z0.2330
G1 X45.6101 Y-24.0982 Z0.2303
G1 X45.6101 Y-24.1380 Z0.2279
G1 X45.6101 Y-24.1540 Z0.2269
G1 X45.6101 Y-24.1859 Z0.2249
G1 X45.6101 Y-24.2177 Z0.2229
G1 X45.6101 Y-24.2337 Z0.2218
G1 X45.6101 Y-24.2496 Z0.2207
G1 X45.6101 Y-24.2815 Z0.2185
G1 X45.6101 Y-24.3134 Z0.2163
G1 X45.6101 Y-24.3612 Z0.2128
G1 X45.6101 Y-24.3772 Z0.2115
G1 X45.6101 Y-24.3823 Z0.2114
G1 X45.6101 Y-24.3874 Z0.2118
G1 X45.6101 Y-24.3925 Z0.2127
G1 X45.6101 Y-24.3974 Z0.2142
G1 X45.6101 Y-24.4022 Z0.2161
G1 X45.6101 Y-24.4067 Z0.2185
G1 X45.6101 Y-24.4110 Z0.2214
G1 X45.6101 Y-24.4150 Z0.2247
G1 X45.6101 Y-24.4185 Z0.2284
G1 X45.6101 Y-24.4217 Z0.2324
G1 X45.6101 Y-24.4245 Z0.2368
G1 X45.6101 Y-24.4268 Z0.2414
G1 X45.6101 Y-24.4286 Z0.2462
G1 X45.6101 Y-24.4299 Z0.2512
G1 X45.6101 Y-24.4307 Z0.2563
G1 X45.6101 Y-24.4310 Z0.2614
G1 X45.6101 Y-24.4310 Z0.3076
G1 X45.4451 Y-22.8494 Z0.3825
G1 X45.4451 Y-22.8500 Z0.3703 F55.
G1 X45.4451 Y-22.8518 Z0.3582
G1 X45.4451 Y-22.8548 Z0.3463
G1 X45.4451 Y-22.8589 Z0.3347
G1 X45.4451 Y-22.8642 Z0.3236
G1 X45.4451 Y-22.8705 Z0.3131
G1 X45.4451 Y-22.8778 Z0.3033
G1 X45.4451 Y-22.8860 Z0.2942
G1 X45.4451 Y-22.8951 Z0.2859
G1 X45.4451 Y-22.9050 Z0.2786
G1 X45.4451 Y-22.9155 Z0.2723
G1 X45.4451 Y-22.9266 Z0.2671
G1 X45.4451 Y-22.9381 Z0.2629
G1 X45.4451 Y-22.9500 Z0.2600
G1 X45.4451 Y-22.9622 Z0.2582
G1 X45.4451 Y-22.9744 Z0.2576
G1 X45.4451 Y-23.1657 Z0.2575 F110.
G1 X45.4451 Y-23.2135 Z0.2575
G1 X45.4451 Y-23.2613 Z0.2572
G1 X45.4451 Y-23.2972 Z0.2570
G1 X45.4451 Y-23.3331 Z0.2567
G1 X45.4451 Y-23.3570 Z0.2564
G1 X45.4451 Y-23.3809 Z0.2561
G1 X45.4451 Y-23.4048 Z0.2557
G1 X45.4451 Y-23.4287 Z0.2554
G1 X45.4451 Y-23.4765 Z0.2545
G1 X45.4451 Y-23.5004 Z0.2540
G1 X45.4451 Y-23.5243 Z0.2535
G1 X45.4451 Y-23.5483 Z0.2529
G1 X45.4451 Y-23.5722 Z0.2523
G1 X45.4451 Y-23.6080 Z0.2514
G1 X45.4451 Y-23.6439 Z0.2504
G1 X45.4451 Y-23.6917 Z0.2489
G1 X45.4451 Y-23.7395 Z0.2472
G1 X45.4451 Y-23.7874 Z0.2454
G1 X45.4451 Y-23.8352 Z0.2435
G1 X45.4451 Y-23.8830 Z0.2414
G1 X45.4451 Y-23.9189 Z0.2398
G1 X45.4451 Y-23.9547 Z0.2380
G1 X45.4451 Y-23.9786 Z0.2368
G1 X45.4451 Y-24.0025 Z0.2356
G1 X45.4451 Y-24.0264 Z0.2343
G1 X45.4451 Y-24.0504 Z0.2330
G1 X45.4451 Y-24.0982 Z0.2303
G1 X45.4451 Y-24.1381 Z0.2279
G1 X45.4451 Y-24.1542 Z0.2269
G1 X45.4451 Y-24.1862 Z0.2249
G1 X45.4451 Y-24.2183 Z0.2228
G1 X45.4451 Y-24.2343 Z0.2218
G1 X45.4451 Y-24.2664 Z0.2196
G1 X45.4451 Y-24.2825 Z0.2185
G1 X45.4451 Y-24.3145 Z0.2162
G1 X45.4451 Y-24.3627 Z0.2126
G1 X45.4451 Y-24.3787 Z0.2114
G1 X45.4451 Y-24.3838 Z0.2113
G1 X45.4451 Y-24.3890 Z0.2117
G1 X45.4451 Y-24.3940 Z0.2126
G1 X45.4451 Y-24.3990 Z0.2141
G1 X45.4451 Y-24.4037 Z0.2160
G1 X45.4451 Y-24.4083 Z0.2184
G1 X45.4451 Y-24.4125 Z0.2213
G1 X45.4451 Y-24.4165 Z0.2246
G1 X45.4451 Y-24.4201 Z0.2283
G1 X45.4451 Y-24.4233 Z0.2323
G1 X45.4451 Y-24.4260 Z0.2367
G1 X45.4451 Y-24.4283 Z0.2413
G1 X45.4451 Y-24.4301 Z0.2461
G1 X45.4451 Y-24.4314 Z0.2511
G1 X45.4451 Y-24.4322 Z0.2561
G1 X45.4451 Y-24.4325 Z0.2613
G1 X45.4451 Y-24.4325 Z0.3076
G1 X45.2801 Y-22.8494 Z0.3825
G1 X45.2801 Y-22.8500 Z0.3703 F55.
G1 X45.2801 Y-22.8518 Z0.3582
G1 X45.2801 Y-22.8548 Z0.3463
G1 X45.2801 Y-22.8589 Z0.3347
G1 X45.2801 Y-22.8642 Z0.3236
G1 X45.2801 Y-22.8705 Z0.3131
G1 X45.2801 Y-22.8778 Z0.3033
G1 X45.2801 Y-22.8860 Z0.2942
G1 X45.2801 Y-22.8951 Z0.2859
G1 X45.2801 Y-22.9050 Z0.2786
G1 X45.2801 Y-22.9155 Z0.2723
G1 X45.2801 Y-22.9266 Z0.2671
G1 X45.2801 Y-22.9381 Z0.2629
G1 X45.2801 Y-22.9500 Z0.2600
G1 X45.2801 Y-22.9622 Z0.2582
G1 X45.2801 Y-22.9744 Z0.2576
G1 X45.2801 Y-23.1657 Z0.2575 F110.
G1 X45.2801 Y-23.2135 Z0.2575
G1 X45.2801 Y-23.2613 Z0.2572
G1 X45.2801 Y-23.2972 Z0.2570
G1 X45.2801 Y-23.3331 Z0.2567
G1 X45.2801 Y-23.3570 Z0.2564
G1 X45.2801 Y-23.3809 Z0.2561
G1 X45.2801 Y-23.4048 Z0.2557
G1 X45.2801 Y-23.4287 Z0.2554
G1 X45.2801 Y-23.4765 Z0.2545
G1 X45.2801 Y-23.5004 Z0.2540
G1 X45.2801 Y-23.5243 Z0.2535
G1 X45.2801 Y-23.5483 Z0.2529
G1 X45.2801 Y-23.5722 Z0.2523
G1 X45.2801 Y-23.6080 Z0.2514
G1 X45.2801 Y-23.6439 Z0.2504
G1 X45.2801 Y-23.6917 Z0.2489
G1 X45.2801 Y-23.7395 Z0.2472
G1 X45.2801 Y-23.7874 Z0.2454
G1 X45.2801 Y-23.8352 Z0.2435
G1 X45.2801 Y-23.8830 Z0.2414
G1 X45.2801 Y-23.9189 Z0.2398
G1 X45.2801 Y-23.9547 Z0.2380
G1 X45.2801 Y-23.9786 Z0.2368
G1 X45.2801 Y-24.0025 Z0.2356
G1 X45.2801 Y-24.0264 Z0.2343
G1 X45.2801 Y-24.0504 Z0.2330
G1 X45.2801 Y-24.0982 Z0.2303
G1 X45.2801 Y-24.1382 Z0.2279
G1 X45.2801 Y-24.1543 Z0.2269
G1 X45.2801 Y-24.1866 Z0.2249
G1 X45.2801 Y-24.2189 Z0.2228
G1 X45.2801 Y-24.2350 Z0.2217
G1 X45.2801 Y-24.2673 Z0.2195
G1 X45.2801 Y-24.2834 Z0.2184
G1 X45.2801 Y-24.3157 Z0.2161
G1 X45.2801 Y-24.3479 Z0.2137
G1 X45.2801 Y-24.3641 Z0.2125
G1 X45.2801 Y-24.3802 Z0.2113
G1 X45.2801 Y-24.3854 Z0.2112
G1 X45.2801 Y-24.3905 Z0.2116
G1 X45.2801 Y-24.3955 Z0.2125
G1 X45.2801 Y-24.4005 Z0.2139
G1 X45.2801 Y-24.4052 Z0.2159
G1 X45.2801 Y-24.4098 Z0.2183
G1 X45.2801 Y-24.4141 Z0.2212
G1 X45.2801 Y-24.4180 Z0.2245
G1 X45.2801 Y-24.4216 Z0.2282
G1 X45.2801 Y-24.4248 Z0.2322
G1 X45.2801 Y-24.4275 Z0.2365
G1 X45.2801 Y-24.4298 Z0.2411
G1 X45.2801 Y-24.4317 Z0.2460
G1 X45.2801 Y-24.4330 Z0.2509
G1 X45.2801 Y-24.4338 Z0.2560
G1 X45.2801 Y-24.4340 Z0.2612
G1 X45.2801 Y-24.4340 Z0.3076
G1 X45.1151 Y-22.8494 Z0.3825
G1 X45.1151 Y-22.8500 Z0.3703 F55.
G1 X45.1151 Y-22.8518 Z0.3582
G1 X45.1151 Y-22.8548 Z0.3463
G1 X45.1151 Y-22.8589 Z0.3347
G1 X45.1151 Y-22.8642 Z0.3236
G1 X45.1151 Y-22.8705 Z0.3131
G1 X45.1151 Y-22.8778 Z0.3033
G1 X45.1151 Y-22.8860 Z0.2942
G1 X45.1151 Y-22.8951 Z0.2859
G1 X45.1151 Y-22.9050 Z0.2786
G1 X45.1151 Y-22.9155 Z0.2723
G1 X45.1151 Y-22.9266 Z0.2671
G1 X45.1151 Y-22.9381 Z0.2629
G1 X45.1151 Y-22.9500 Z0.2600
G1 X45.1151 Y-22.9622 Z0.2582
G1 X45.1151 Y-22.9744 Z0.2576
G1 X45.1151 Y-23.1657 Z0.2575 F110.
G1 X45.1151 Y-23.2135 Z0.2575
G1 X45.1151 Y-23.2613 Z0.2572
G1 X45.1151 Y-23.2972 Z0.2570
G1 X45.1151 Y-23.3331 Z0.2567
G1 X45.1151 Y-23.3570 Z0.2564
G1 X45.1151 Y-23.3809 Z0.2561
G1 X45.1151 Y-23.4048 Z0.2557
G1 X45.1151 Y-23.4287 Z0.2554
G1 X45.1151 Y-23.4765 Z0.2545
G1 X45.1151 Y-23.5004 Z0.2540
G1 X45.1151 Y-23.5243 Z0.2535
G1 X45.1151 Y-23.5483 Z0.2529
G1 X45.1151 Y-23.5722 Z0.2523
G1 X45.1151 Y-23.6080 Z0.2514
G1 X45.1151 Y-23.6439 Z0.2504
G1 X45.1151 Y-23.6917 Z0.2489
G1 X45.1151 Y-23.7395 Z0.2472
G1 X45.1151 Y-23.7874 Z0.2454
G1 X45.1151 Y-23.8352 Z0.2435
G1 X45.1151 Y-23.8830 Z0.2414
G1 X45.1151 Y-23.9189 Z0.2398
G1 X45.1151 Y-23.9547 Z0.2380
G1 X45.1151 Y-23.9786 Z0.2368
G1 X45.1151 Y-24.0025 Z0.2356
G1 X45.1151 Y-24.0264 Z0.2343
G1 X45.1151 Y-24.0504 Z0.2330
G1 X45.1151 Y-24.0982 Z0.2303
G1 X45.1151 Y-24.1383 Z0.2279
G1 X45.1151 Y-24.1545 Z0.2269
G1 X45.1151 Y-24.1870 Z0.2249
G1 X45.1151 Y-24.2195 Z0.2227
G1 X45.1151 Y-24.2357 Z0.2217
G1 X45.1151 Y-24.2681 Z0.2195
G1 X45.1151 Y-24.2844 Z0.2183
G1 X45.1151 Y-24.3168 Z0.2160
G1 X45.1151 Y-24.3493 Z0.2136
G1 X45.1151 Y-24.3655 Z0.2124
G1 X45.1151 Y-24.3817 Z0.2112
G1 X45.1151 Y-24.3869 Z0.2111
G1 X45.1151 Y-24.3920 Z0.2115
G1 X45.1151 Y-24.3971 Z0.2124
G1 X45.1151 Y-24.4020 Z0.2138
G1 X45.1151 Y-24.4068 Z0.2158
G1 X45.1151 Y-24.4113 Z0.2182
G1 X45.1151 Y-24.4156 Z0.2211
G1 X45.1151 Y-24.4195 Z0.2244
G1 X45.1151 Y-24.4231 Z0.2281
G1 X45.1151 Y-24.4263 Z0.2321
G1 X45.1151 Y-24.4291 Z0.2364
G1 X45.1151 Y-24.4314 Z0.2410
G1 X45.1151 Y-24.4332 Z0.2458
G1 X45.1151 Y-24.4345 Z0.2508
G1 X45.1151 Y-24.4353 Z0.2559
G1 X45.1151 Y-24.4355 Z0.2610
G1 X45.1151 Y-24.4355 Z0.3076
G1 X44.9501 Y-22.8494 Z0.3825
G1 X44.9501 Y-22.8500 Z0.3703 F55.
G1 X44.9501 Y-22.8518 Z0.3582
G1 X44.9501 Y-22.8548 Z0.3463
G1 X44.9501 Y-22.8589 Z0.3347
G1 X44.9501 Y-22.8642 Z0.3236
G1 X44.9501 Y-22.8705 Z0.3131
G1 X44.9501 Y-22.8778 Z0.3033
G1 X44.9501 Y-22.8860 Z0.2942
G1 X44.9501 Y-22.8951 Z0.2859
G1 X44.9501 Y-22.9050 Z0.2786
G1 X44.9501 Y-22.9155 Z0.2723
G1 X44.9501 Y-22.9266 Z0.2671
G1 X44.9501 Y-22.9381 Z0.2629
G1 X44.9501 Y-22.9500 Z0.2600
G1 X44.9501 Y-22.9622 Z0.2582
G1 X44.9501 Y-22.9744 Z0.2576
G1 X44.9501 Y-23.1657 Z0.2575 F110.
G1 X44.9501 Y-23.2135 Z0.2575
G1 X44.9501 Y-23.2613 Z0.2572
G1 X44.9501 Y-23.2972 Z0.2570
G1 X44.9501 Y-23.3331 Z0.2567
G1 X44.9501 Y-23.3570 Z0.2564
G1 X44.9501 Y-23.3809 Z0.2561
G1 X44.9501 Y-23.4048 Z0.2557
G1 X44.9501 Y-23.4287 Z0.2554
G1 X44.9501 Y-23.4765 Z0.2545
G1 X44.9501 Y-23.5004 Z0.2540
G1 X44.9501 Y-23.5243 Z0.2535
G1 X44.9501 Y-23.5483 Z0.2529
G1 X44.9501 Y-23.5722 Z0.2523
G1 X44.9501 Y-23.6080 Z0.2514
G1 X44.9501 Y-23.6439 Z0.2504
G1 X44.9501 Y-23.6917 Z0.2489
G1 X44.9501 Y-23.7395 Z0.2472
G1 X44.9501 Y-23.7874 Z0.2454
G1 X44.9501 Y-23.8352 Z0.2435
G1 X44.9501 Y-23.8830 Z0.2414
G1 X44.9501 Y-23.9189 Z0.2398
G1 X44.9501 Y-23.9547 Z0.2380
G1 X44.9501 Y-23.9786 Z0.2368
G1 X44.9501 Y-24.0025 Z0.2356
G1 X44.9501 Y-24.0264 Z0.2343
G1 X44.9501 Y-24.0504 Z0.2330
G1 X44.9501 Y-24.0982 Z0.2303
G1 X44.9501 Y-24.1384 Z0.2279
G1 X44.9501 Y-24.1547 Z0.2269
G1 X44.9501 Y-24.1874 Z0.2248
G1 X44.9501 Y-24.2200 Z0.2227
G1 X44.9501 Y-24.2527 Z0.2205
G1 X44.9501 Y-24.2690 Z0.2194
G1 X44.9501 Y-24.2853 Z0.2183
G1 X44.9501 Y-24.3180 Z0.2159
G1 X44.9501 Y-24.3506 Z0.2135
G1 X44.9501 Y-24.3669 Z0.2123
G1 X44.9501 Y-24.3833 Z0.2111
G1 X44.9501 Y-24.3884 Z0.2109
G1 X44.9501 Y-24.3935 Z0.2113
G1 X44.9501 Y-24.3986 Z0.2123
G1 X44.9501 Y-24.4035 Z0.2137
G1 X44.9501 Y-24.4083 Z0.2157
G1 X44.9501 Y-24.4128 Z0.2181
G1 X44.9501 Y-24.4171 Z0.2210
G1 X44.9501 Y-24.4211 Z0.2242
G1 X44.9501 Y-24.4246 Z0.2279
G1 X44.9501 Y-24.4278 Z0.2320
G1 X44.9501 Y-24.4306 Z0.2363
G1 X44.9501 Y-24.4329 Z0.2409
G1 X44.9501 Y-24.4347 Z0.2457
G1 X44.9501 Y-24.4360 Z0.2507
G1 X44.9501 Y-24.4368 Z0.2558
G1 X44.9501 Y-24.4371 Z0.2609
G1 X44.9501 Y-24.4371 Z0.3076
G1 X44.7851 Y-22.8494 Z0.3825
G1 X44.7851 Y-22.8500 Z0.3703 F55.
G1 X44.7851 Y-22.8518 Z0.3582
G1 X44.7851 Y-22.8548 Z0.3463
G1 X44.7851 Y-22.8589 Z0.3347
G1 X44.7851 Y-22.8642 Z0.3236
G1 X44.7851 Y-22.8705 Z0.3131
G1 X44.7851 Y-22.8778 Z0.3033
G1 X44.7851 Y-22.8860 Z0.2942
G1 X44.7851 Y-22.8951 Z0.2859
G1 X44.7851 Y-22.9050 Z0.2786
G1 X44.7851 Y-22.9155 Z0.2723
G1 X44.7851 Y-22.9266 Z0.2671
G1 X44.7851 Y-22.9381 Z0.2629
G1 X44.7851 Y-22.9500 Z0.2600
G1 X44.7851 Y-22.9622 Z0.2582
G1 X44.7851 Y-22.9744 Z0.2576
G1 X44.7851 Y-23.1657 Z0.2575 F110.
G1 X44.7851 Y-23.2135 Z0.2575
G1 X44.7851 Y-23.2613 Z0.2572
G1 X44.7851 Y-23.2972 Z0.2570
G1 X44.7851 Y-23.3331 Z0.2567
G1 X44.7851 Y-23.3570 Z0.2564
G1 X44.7851 Y-23.3809 Z0.2561
G1 X44.7851 Y-23.4048 Z0.2557
G1 X44.7851 Y-23.4287 Z0.2554
G1 X44.7851 Y-23.4765 Z0.2545
G1 X44.7851 Y-23.5004 Z0.2540
G1 X44.7851 Y-23.5243 Z0.2535
G1 X44.7851 Y-23.5483 Z0.2529
G1 X44.7851 Y-23.5722 Z0.2523
G1 X44.7851 Y-23.6080 Z0.2514
G1 X44.7851 Y-23.6439 Z0.2504
G1 X44.7851 Y-23.6917 Z0.2489
G1 X44.7851 Y-23.7395 Z0.2472
G1 X44.7851 Y-23.7874 Z0.2454
G1 X44.7851 Y-23.8352 Z0.2435
G1 X44.7851 Y-23.8830 Z0.2414
G1 X44.7851 Y-23.9189 Z0.2398
G1 X44.7851 Y-23.9547 Z0.2380
G1 X44.7851 Y-23.9786 Z0.2368
G1 X44.7851 Y-24.0025 Z0.2356
G1 X44.7851 Y-24.0264 Z0.2343
G1 X44.7851 Y-24.0504 Z0.2330
G1 X44.7851 Y-24.0982 Z0.2303
G1 X44.7851 Y-24.1385 Z0.2279
G1 X44.7851 Y-24.1549 Z0.2269
G1 X44.7851 Y-24.1878 Z0.2248
G1 X44.7851 Y-24.2206 Z0.2227
G1 X44.7851 Y-24.2534 Z0.2205
G1 X44.7851 Y-24.2699 Z0.2193
G1 X44.7851 Y-24.2863 Z0.2182
G1 X44.7851 Y-24.3191 Z0.2159
G1 X44.7851 Y-24.3519 Z0.2134
G1 X44.7851 Y-24.3684 Z0.2122
G1 X44.7851 Y-24.3848 Z0.2110
G1 X44.7851 Y-24.3899 Z0.2108
G1 X44.7851 Y-24.3951 Z0.2112
G1 X44.7851 Y-24.4001 Z0.2122
G1 X44.7851 Y-24.4051 Z0.2136
G1 X44.7851 Y-24.4098 Z0.2155
G1 X44.7851 Y-24.4144 Z0.2180
G1 X44.7851 Y-24.4186 Z0.2208
G1 X44.7851 Y-24.4226 Z0.2241
G1 X44.7851 Y-24.4262 Z0.2278
G1 X44.7851 Y-24.4294 Z0.2319
G1 X44.7851 Y-24.4321 Z0.2362
G1 X44.7851 Y-24.4344 Z0.2408
G1 X44.7851 Y-24.4362 Z0.2456
G1 X44.7851 Y-24.4375 Z0.2506
G1 X44.7851 Y-24.4383 Z0.2557
G1 X44.7851 Y-24.4386 Z0.2608
G1 X44.7851 Y-24.4386 Z0.3076
G1 X44.6201 Y-22.8494 Z0.3825
G1 X44.6201 Y-22.8500 Z0.3703 F55.
G1 X44.6201 Y-22.8518 Z0.3582
G1 X44.6201 Y-22.8548 Z0.3463
G1 X44.6201 Y-22.8589 Z0.3347
G1 X44.6201 Y-22.8642 Z0.3236
G1 X44.6201 Y-22.8705 Z0.3131
G1 X44.6201 Y-22.8778 Z0.3033
G1 X44.6201 Y-22.8860 Z0.2942
G1 X44.6201 Y-22.8951 Z0.2859
G1 X44.6201 Y-22.9050 Z0.2786
G1 X44.6201 Y-22.9155 Z0.2723
G1 X44.6201 Y-22.9266 Z0.2671
G1 X44.6201 Y-22.9381 Z0.2629
G1 X44.6201 Y-22.9500 Z0.2600
G1 X44.6201 Y-22.9622 Z0.2582
G1 X44.6201 Y-22.9744 Z0.2576
G1 X44.6201 Y-23.1657 Z0.2575 F110.
G1 X44.6201 Y-23.2135 Z0.2575
G1 X44.6201 Y-23.2613 Z0.2572
G1 X44.6201 Y-23.2972 Z0.2570
G1 X44.6201 Y-23.3331 Z0.2567
G1 X44.6201 Y-23.3570 Z0.2564
G1 X44.6201 Y-23.3809 Z0.2561
G1 X44.6201 Y-23.4048 Z0.2557
G1 X44.6201 Y-23.4287 Z0.2554
G1 X44.6201 Y-23.4765 Z0.2545
G1 X44.6201 Y-23.5004 Z0.2540
G1 X44.6201 Y-23.5243 Z0.2535
G1 X44.6201 Y-23.5483 Z0.2529
G1 X44.6201 Y-23.5722 Z0.2523
G1 X44.6201 Y-23.6080 Z0.2514
G1 X44.6201 Y-23.6439 Z0.2504
G1 X44.6201 Y-23.6917 Z0.2489
G1 X44.6201 Y-23.7395 Z0.2472
G1 X44.6201 Y-23.7874 Z0.2454
G1 X44.6201 Y-23.8352 Z0.2435
G1 X44.6201 Y-23.8830 Z0.2414
G1 X44.6201 Y-23.9189 Z0.2398
G1 X44.6201 Y-23.9547 Z0.2380
G1 X44.6201 Y-23.9786 Z0.2368
G1 X44.6201 Y-24.0025 Z0.2356
G1 X44.6201 Y-24.0264 Z0.2343
G1 X44.6201 Y-24.0504 Z0.2330
G1 X44.6201 Y-24.0982 Z0.2303
G1 X44.6201 Y-24.1386 Z0.2279
G1 X44.6201 Y-24.1551 Z0.2269
G1 X44.6201 Y-24.1881 Z0.2248
G1 X44.6201 Y-24.2212 Z0.2226
G1 X44.6201 Y-24.2542 Z0.2204
G1 X44.6201 Y-24.2707 Z0.2193
G1 X44.6201 Y-24.2872 Z0.2181
G1 X44.6201 Y-24.3203 Z0.2158
G1 X44.6201 Y-24.3533 Z0.2133
G1 X44.6201 Y-24.3863 Z0.2108
G1 X44.6201 Y-24.3914 Z0.2107
G1 X44.6201 Y-24.3966 Z0.2111
G1 X44.6201 Y-24.4016 Z0.2120
G1 X44.6201 Y-24.4066 Z0.2135
G1 X44.6201 Y-24.4113 Z0.2154
G1 X44.6201 Y-24.4159 Z0.2179
G1 X44.6201 Y-24.4201 Z0.2207
G1 X44.6201 Y-24.4241 Z0.2240
G1 X44.6201 Y-24.4277 Z0.2277
G1 X44.6201 Y-24.4309 Z0.2318
G1 X44.6201 Y-24.4336 Z0.2361
G1 X44.6201 Y-24.4359 Z0.2407
G1 X44.6201 Y-24.4377 Z0.2455
G1 X44.6201 Y-24.4390 Z0.2505
G1 X44.6201 Y-24.4398 Z0.2556
G1 X44.6201 Y-24.4401 Z0.2607
G1 X44.6201 Y-24.4401 Z0.3076
G1 X44.4551 Y-22.8494 Z0.3825
G1 X44.4551 Y-22.8500 Z0.3703 F55.
G1 X44.4551 Y-22.8518 Z0.3582
G1 X44.4551 Y-22.8548 Z0.3463
G1 X44.4551 Y-22.8589 Z0.3347
G1 X44.4551 Y-22.8642 Z0.3236
G1 X44.4551 Y-22.8705 Z0.3131
G1 X44.4551 Y-22.8778 Z0.3033
G1 X44.4551 Y-22.8860 Z0.2942
G1 X44.4551 Y-22.8951 Z0.2859
G1 X44.4551 Y-22.9050 Z0.2786
G1 X44.4551 Y-22.9155 Z0.2723
G1 X44.4551 Y-22.9266 Z0.2671
G1 X44.4551 Y-22.9381 Z0.2629
G1 X44.4551 Y-22.9500 Z0.2600
G1 X44.4551 Y-22.9622 Z0.2582
G1 X44.4551 Y-22.9744 Z0.2576
G1 X44.4551 Y-23.1657 Z0.2575 F110.
G1 X44.4551 Y-23.2135 Z0.2575
G1 X44.4551 Y-23.2613 Z0.2572
G1 X44.4551 Y-23.2972 Z0.2570
G1 X44.4551 Y-23.3331 Z0.2567
G1 X44.4551 Y-23.3570 Z0.2564
G1 X44.4551 Y-23.3809 Z0.2561
G1 X44.4551 Y-23.4048 Z0.2557
G1 X44.4551 Y-23.4287 Z0.2554
G1 X44.4551 Y-23.4765 Z0.2545
G1 X44.4551 Y-23.5004 Z0.2540
G1 X44.4551 Y-23.5243 Z0.2535
G1 X44.4551 Y-23.5483 Z0.2529
G1 X44.4551 Y-23.5722 Z0.2523
G1 X44.4551 Y-23.6080 Z0.2514
G1 X44.4551 Y-23.6439 Z0.2504
G1 X44.4551 Y-23.6917 Z0.2489
G1 X44.4551 Y-23.7395 Z0.2472
G1 X44.4551 Y-23.7874 Z0.2454
G1 X44.4551 Y-23.8352 Z0.2435
G1 X44.4551 Y-23.8830 Z0.2414
G1 X44.4551 Y-23.9189 Z0.2398
G1 X44.4551 Y-23.9547 Z0.2380
G1 X44.4551 Y-23.9786 Z0.2368
G1 X44.4551 Y-24.0025 Z0.2356
G1 X44.4551 Y-24.0264 Z0.2343
G1 X44.4551 Y-24.0504 Z0.2330
G1 X44.4551 Y-24.0982 Z0.2303
G1 X44.4551 Y-24.1387 Z0.2279
G1 X44.4551 Y-24.1553 Z0.2268
G1 X44.4551 Y-24.1885 Z0.2248
G1 X44.4551 Y-24.2217 Z0.2226
G1 X44.4551 Y-24.2550 Z0.2203
G1 X44.4551 Y-24.2716 Z0.2192
G1 X44.4551 Y-24.2882 Z0.2180
G1 X44.4551 Y-24.3214 Z0.2157
G1 X44.4551 Y-24.3546 Z0.2132
G1 X44.4551 Y-24.3878 Z0.2107
G1 X44.4551 Y-24.3930 Z0.2106
G1 X44.4551 Y-24.3981 Z0.2110
G1 X44.4551 Y-24.4032 Z0.2119
G1 X44.4551 Y-24.4081 Z0.2134
G1 X44.4551 Y-24.4129 Z0.2153
G1 X44.4551 Y-24.4174 Z0.2177
G1 X44.4551 Y-24.4217 Z0.2206
G1 X44.4551 Y-24.4256 Z0.2239
G1 X44.4551 Y-24.4292 Z0.2276
G1 X44.4551 Y-24.4324 Z0.2316
G1 X44.4551 Y-24.4351 Z0.2360
G1 X44.4551 Y-24.4374 Z0.2406
G1 X44.4551 Y-24.4392 Z0.2454
G1 X44.4551 Y-24.4406 Z0.2504
G1 X44.4551 Y-24.4413 Z0.2554
G1 X44.4551 Y-24.4416 Z0.2606
G1 X44.4551 Y-24.4416 Z0.3076
G1 X44.2901 Y-22.8494 Z0.3825
G1 X44.2901 Y-22.8500 Z0.3703 F55.
G1 X44.2901 Y-22.8518 Z0.3582
G1 X44.2901 Y-22.8548 Z0.3463
G1 X44.2901 Y-22.8589 Z0.3347
G1 X44.2901 Y-22.8642 Z0.3236
G1 X44.2901 Y-22.8705 Z0.3131
G1 X44.2901 Y-22.8778 Z0.3033
G1 X44.2901 Y-22.8860 Z0.2942
G1 X44.2901 Y-22.8951 Z0.2859
G1 X44.2901 Y-22.9050 Z0.2786
G1 X44.2901 Y-22.9155 Z0.2723
G1 X44.2901 Y-22.9266 Z0.2671
G1 X44.2901 Y-22.9381 Z0.2629
G1 X44.2901 Y-22.9500 Z0.2600
G1 X44.2901 Y-22.9622 Z0.2582
G1 X44.2901 Y-22.9744 Z0.2576
G1 X44.2901 Y-23.1657 Z0.2575 F110.
G1 X44.2901 Y-23.2135 Z0.2575
G1 X44.2901 Y-23.2613 Z0.2572
G1 X44.2901 Y-23.2972 Z0.2570
G1 X44.2901 Y-23.3331 Z0.2567
G1 X44.2901 Y-23.3570 Z0.2564
G1 X44.2901 Y-23.3809 Z0.2561
G1 X44.2901 Y-23.4048 Z0.2557
G1 X44.2901 Y-23.4287 Z0.2554
G1 X44.2901 Y-23.4765 Z0.2545
G1 X44.2901 Y-23.5004 Z0.2540
G1 X44.2901 Y-23.5243 Z0.2535
G1 X44.2901 Y-23.5483 Z0.2529
G1 X44.2901 Y-23.5722 Z0.2523
G1 X44.2901 Y-23.6080 Z0.2514
G1 X44.2901 Y-23.6439 Z0.2504
G1 X44.2901 Y-23.6917 Z0.2489
G1 X44.2901 Y-23.7395 Z0.2472
G1 X44.2901 Y-23.7874 Z0.2454
G1 X44.2901 Y-23.8352 Z0.2435
G1 X44.2901 Y-23.8830 Z0.2414
G1 X44.2901 Y-23.9189 Z0.2398
G1 X44.2901 Y-23.9547 Z0.2380
G1 X44.2901 Y-23.9786 Z0.2368
G1 X44.2901 Y-24.0025 Z0.2356
G1 X44.2901 Y-24.0264 Z0.2343
G1 X44.2901 Y-24.0504 Z0.2330
G1 X44.2901 Y-24.0982 Z0.2303
G1 X44.2901 Y-24.1388 Z0.2279
G1 X44.2901 Y-24.1555 Z0.2268
G1 X44.2901 Y-24.1889 Z0.2247
G1 X44.2901 Y-24.2223 Z0.2226
G1 X44.2901 Y-24.2557 Z0.2203
G1 X44.2901 Y-24.2724 Z0.2192
G1 X44.2901 Y-24.2891 Z0.2180
G1 X44.2901 Y-24.3225 Z0.2156
G1 X44.2901 Y-24.3559 Z0.2131
G1 X44.2901 Y-24.3894 Z0.2106
G1 X44.2901 Y-24.3945 Z0.2105
G1 X44.2901 Y-24.3996 Z0.2109
G1 X44.2901 Y-24.4047 Z0.2118
G1 X44.2901 Y-24.4096 Z0.2133
G1 X44.2901 Y-24.4144 Z0.2152
G1 X44.2901 Y-24.4189 Z0.2176
G1 X44.2901 Y-24.4232 Z0.2205
G1 X44.2901 Y-24.4271 Z0.2238
G1 X44.2901 Y-24.4307 Z0.2275
G1 X44.2901 Y-24.4339 Z0.2315
G1 X44.2901 Y-24.4367 Z0.2359
G1 X44.2901 Y-24.4390 Z0.2405
G1 X44.2901 Y-24.4408 Z0.2453
G1 X44.2901 Y-24.4421 Z0.2502
G1 X44.2901 Y-24.4429 Z0.2553
G1 X44.2901 Y-24.4431 Z0.2605
G1 X44.2901 Y-24.4431 Z0.3076
G1 X44.1251 Y-22.8494 Z0.3825
G1 X44.1251 Y-22.8500 Z0.3703 F55.
G1 X44.1251 Y-22.8518 Z0.3582
G1 X44.1251 Y-22.8548 Z0.3463
G1 X44.1251 Y-22.8589 Z0.3347
G1 X44.1251 Y-22.8642 Z0.3236
G1 X44.1251 Y-22.8705 Z0.3131
G1 X44.1251 Y-22.8778 Z0.3033
G1 X44.1251 Y-22.8860 Z0.2942
G1 X44.1251 Y-22.8951 Z0.2859
G1 X44.1251 Y-22.9050 Z0.2786
G1 X44.1251 Y-22.9155 Z0.2723
G1 X44.1251 Y-22.9266 Z0.2671
G1 X44.1251 Y-22.9381 Z0.2629
G1 X44.1251 Y-22.9500 Z0.2600
G1 X44.1251 Y-22.9622 Z0.2582
G1 X44.1251 Y-22.9744 Z0.2576
G1 X44.1251 Y-23.1657 Z0.2575 F110.
G1 X44.1251 Y-23.2135 Z0.2575
G1 X44.1251 Y-23.2613 Z0.2572
G1 X44.1251 Y-23.2972 Z0.2570
G1 X44.1251 Y-23.3331 Z0.2567
G1 X44.1251 Y-23.3570 Z0.2564
G1 X44.1251 Y-23.3809 Z0.2561
G1 X44.1251 Y-23.4048 Z0.2557
G1 X44.1251 Y-23.4287 Z0.2554
G1 X44.1251 Y-23.4765 Z0.2545
G1 X44.1251 Y-23.5004 Z0.2540
G1 X44.1251 Y-23.5243 Z0.2535
G1 X44.1251 Y-23.5483 Z0.2529
G1 X44.1251 Y-23.5722 Z0.2523
G1 X44.1251 Y-23.6080 Z0.2514
G1 X44.1251 Y-23.6439 Z0.2504
G1 X44.1251 Y-23.6917 Z0.2489
G1 X44.1251 Y-23.7395 Z0.2472
G1 X44.1251 Y-23.7874 Z0.2454
G1 X44.1251 Y-23.8352 Z0.2435
G1 X44.1251 Y-23.8830 Z0.2414
G1 X44.1251 Y-23.9189 Z0.2398
G1 X44.1251 Y-23.9547 Z0.2380
G1 X44.1251 Y-23.9786 Z0.2368
G1 X44.1251 Y-24.0025 Z0.2356
G1 X44.1251 Y-24.0264 Z0.2343
G1 X44.1251 Y-24.0504 Z0.2330
G1 X44.1251 Y-24.0982 Z0.2303
G1 X44.1251 Y-24.1389 Z0.2279
G1 X44.1251 Y-24.1557 Z0.2268
G1 X44.1251 Y-24.1893 Z0.2247
G1 X44.1251 Y-24.2229 Z0.2225
G1 X44.1251 Y-24.2565 Z0.2202
G1 X44.1251 Y-24.2733 Z0.2191
G1 X44.1251 Y-24.2901 Z0.2179
G1 X44.1251 Y-24.3237 Z0.2155
G1 X44.1251 Y-24.3573 Z0.2130
G1 X44.1251 Y-24.3909 Z0.2105
G1 X44.1251 Y-24.3960 Z0.2104
G1 X44.1251 Y-24.4011 Z0.2108
G1 X44.1251 Y-24.4062 Z0.2117
G1 X44.1251 Y-24.4111 Z0.2131
G1 X44.1251 Y-24.4159 Z0.2151
G1 X44.1251 Y-24.4204 Z0.2175
G1 X44.1251 Y-24.4247 Z0.2204
G1 X44.1251 Y-24.4287 Z0.2237
G1 X44.1251 Y-24.4322 Z0.2274
G1 X44.1251 Y-24.4354 Z0.2314
G1 X44.1251 Y-24.4382 Z0.2357
G1 X44.1251 Y-24.4405 Z0.2403
G1 X44.1251 Y-24.4423 Z0.2452
G1 X44.1251 Y-24.4436 Z0.2501
G1 X44.1251 Y-24.4444 Z0.2552
G1 X44.1251 Y-24.4447 Z0.2603
G1 X44.1251 Y-24.4447 Z0.3076
G1 X43.9601 Y-22.8494 Z0.3825
G1 X43.9601 Y-22.8500 Z0.3703 F55.
G1 X43.9601 Y-22.8518 Z0.3582
G1 X43.9601 Y-22.8548 Z0.3463
G1 X43.9601 Y-22.8589 Z0.3347
G1 X43.9601 Y-22.8642 Z0.3236
G1 X43.9601 Y-22.8705 Z0.3131
G1 X43.9601 Y-22.8778 Z0.3033
G1 X43.9601 Y-22.8860 Z0.2942
G1 X43.9601 Y-22.8951 Z0.2859
G1 X43.9601 Y-22.9050 Z0.2786
G1 X43.9601 Y-22.9155 Z0.2723
G1 X43.9601 Y-22.9266 Z0.2671
G1 X43.9601 Y-22.9381 Z0.2629
G1 X43.9601 Y-22.9500 Z0.2600
G1 X43.9601 Y-22.9622 Z0.2582
G1 X43.9601 Y-22.9744 Z0.2576
G1 X43.9601 Y-23.1657 Z0.2575 F110.
G1 X43.9601 Y-23.2135 Z0.2575
G1 X43.9601 Y-23.2613 Z0.2572
G1 X43.9601 Y-23.2972 Z0.2570
G1 X43.9601 Y-23.3331 Z0.2567
G1 X43.9601 Y-23.3570 Z0.2564
G1 X43.9601 Y-23.3809 Z0.2561
G1 X43.9601 Y-23.4048 Z0.2557
G1 X43.9601 Y-23.4287 Z0.2554
G1 X43.9601 Y-23.4765 Z0.2545
G1 X43.9601 Y-23.5004 Z0.2540
G1 X43.9601 Y-23.5243 Z0.2535
G1 X43.9601 Y-23.5483 Z0.2529
G1 X43.9601 Y-23.5722 Z0.2523
G1 X43.9601 Y-23.6080 Z0.2514
G1 X43.9601 Y-23.6439 Z0.2504
G1 X43.9601 Y-23.6917 Z0.2489
G1 X43.9601 Y-23.7395 Z0.2472
G1 X43.9601 Y-23.7874 Z0.2454
G1 X43.9601 Y-23.8352 Z0.2435
G1 X43.9601 Y-23.8830 Z0.2414
G1 X43.9601 Y-23.9189 Z0.2398
G1 X43.9601 Y-23.9547 Z0.2380
G1 X43.9601 Y-23.9786 Z0.2368
G1 X43.9601 Y-24.0025 Z0.2356
G1 X43.9601 Y-24.0264 Z0.2343
G1 X43.9601 Y-24.0504 Z0.2330
G1 X43.9601 Y-24.0982 Z0.2303
G1 X43.9601 Y-24.1390 Z0.2279
G1 X43.9601 Y-24.1559 Z0.2268
G1 X43.9601 Y-24.1897 Z0.2247
G1 X43.9601 Y-24.2235 Z0.2225
G1 X43.9601 Y-24.2572 Z0.2202
G1 X43.9601 Y-24.2741 Z0.2190
G1 X43.9601 Y-24.2910 Z0.2178
G1 X43.9601 Y-24.3248 Z0.2154
G1 X43.9601 Y-24.3586 Z0.2129
G1 X43.9601 Y-24.3924 Z0.2104
G1 X43.9601 Y-24.3975 Z0.2102
G1 X43.9601 Y-24.4027 Z0.2106
G1 X43.9601 Y-24.4077 Z0.2116
G1 X43.9601 Y-24.4127 Z0.2130
G1 X43.9601 Y-24.4174 Z0.2150
G1 X43.9601 Y-24.4220 Z0.2174
G1 X43.9601 Y-24.4262 Z0.2203
G1 X43.9601 Y-24.4302 Z0.2236
G1 X43.9601 Y-24.4338 Z0.2272
G1 X43.9601 Y-24.4370 Z0.2313
G1 X43.9601 Y-24.4397 Z0.2356
G1 X43.9601 Y-24.4420 Z0.2402
G1 X43.9601 Y-24.4438 Z0.2450
G1 X43.9601 Y-24.4451 Z0.2500
G1 X43.9601 Y-24.4459 Z0.2551
G1 X43.9601 Y-24.4462 Z0.2602
G1 X43.9601 Y-24.4462 Z0.3076
G1 X43.7951 Y-22.8494 Z0.3825
G1 X43.7951 Y-22.8500 Z0.3703 F55.
G1 X43.7951 Y-22.8518 Z0.3582
G1 X43.7951 Y-22.8548 Z0.3463
G1 X43.7951 Y-22.8589 Z0.3347
G1 X43.7951 Y-22.8642 Z0.3236
G1 X43.7951 Y-22.8705 Z0.3131
G1 X43.7951 Y-22.8778 Z0.3033
G1 X43.7951 Y-22.8860 Z0.2942
G1 X43.7951 Y-22.8951 Z0.2859
G1 X43.7951 Y-22.9050 Z0.2786
G1 X43.7951 Y-22.9155 Z0.2723
G1 X43.7951 Y-22.9266 Z0.2671
G1 X43.7951 Y-22.9381 Z0.2629
G1 X43.7951 Y-22.9500 Z0.2600
G1 X43.7951 Y-22.9622 Z0.2582
G1 X43.7951 Y-22.9744 Z0.2576
G1 X43.7951 Y-23.1657 Z0.2575 F110.
G1 X43.7951 Y-23.2135 Z0.2575
G1 X43.7951 Y-23.2613 Z0.2572
G1 X43.7951 Y-23.2972 Z0.2570
G1 X43.7951 Y-23.3331 Z0.2567
G1 X43.7951 Y-23.3570 Z0.2564
G1 X43.7951 Y-23.3809 Z0.2561
G1 X43.7951 Y-23.4048 Z0.2557
G1 X43.7951 Y-23.4287 Z0.2554
G1 X43.7951 Y-23.4765 Z0.2545
G1 X43.7951 Y-23.5004 Z0.2540
G1 X43.7951 Y-23.5243 Z0.2535
G1 X43.7951 Y-23.5483 Z0.2529
G1 X43.7951 Y-23.5722 Z0.2523
G1 X43.7951 Y-23.6080 Z0.2514
G1 X43.7951 Y-23.6439 Z0.2504
G1 X43.7951 Y-23.6917 Z0.2489
G1 X43.7951 Y-23.7395 Z0.2472
G1 X43.7951 Y-23.7874 Z0.2454
G1 X43.7951 Y-23.8352 Z0.2435
G1 X43.7951 Y-23.8830 Z0.2414
G1 X43.7951 Y-23.9189 Z0.2398
G1 X43.7951 Y-23.9547 Z0.2380
G1 X43.7951 Y-23.9786 Z0.2368
G1 X43.7951 Y-24.0025 Z0.2356
G1 X43.7951 Y-24.0264 Z0.2343
G1 X43.7951 Y-24.0504 Z0.2330
G1 X43.7951 Y-24.0982 Z0.2303
G1 X43.7951 Y-24.1391 Z0.2279
G1 X43.7951 Y-24.1561 Z0.2268
G1 X43.7951 Y-24.1900 Z0.2247
G1 X43.7951 Y-24.2240 Z0.2224
G1 X43.7951 Y-24.2580 Z0.2201
G1 X43.7951 Y-24.2750 Z0.2190
G1 X43.7951 Y-24.2920 Z0.2178
G1 X43.7951 Y-24.3260 Z0.2153
G1 X43.7951 Y-24.3599 Z0.2128
G1 X43.7951 Y-24.3939 Z0.2103
G1 X43.7951 Y-24.3991 Z0.2101
G1 X43.7951 Y-24.4042 Z0.2105
G1 X43.7951 Y-24.4093 Z0.2115
G1 X43.7951 Y-24.4142 Z0.2129
G1 X43.7951 Y-24.4190 Z0.2148
G1 X43.7951 Y-24.4235 Z0.2173
G1 X43.7951 Y-24.4278 Z0.2201
G1 X43.7951 Y-24.4317 Z0.2234
G1 X43.7951 Y-24.4353 Z0.2271
G1 X43.7951 Y-24.4385 Z0.2312
G1 X43.7951 Y-24.4412 Z0.2355
G1 X43.7951 Y-24.4435 Z0.2401
G1 X43.7951 Y-24.4454 Z0.2449
G1 X43.7951 Y-24.4467 Z0.2499
G1 X43.7951 Y-24.4475 Z0.2550
G1 X43.7951 Y-24.4477 Z0.2601
G1 X43.7951 Y-24.4477 Z0.3076
G1 X43.6301 Y-22.8494 Z0.3825
G1 X43.6301 Y-22.8500 Z0.3703 F55.
G1 X43.6301 Y-22.8518 Z0.3582
G1 X43.6301 Y-22.8548 Z0.3463
G1 X43.6301 Y-22.8589 Z0.3347
G1 X43.6301 Y-22.8642 Z0.3236
G1 X43.6301 Y-22.8705 Z0.3131
G1 X43.6301 Y-22.8778 Z0.3033
G1 X43.6301 Y-22.8860 Z0.2942
G1 X43.6301 Y-22.8951 Z0.2859
G1 X43.6301 Y-22.9050 Z0.2786
G1 X43.6301 Y-22.9155 Z0.2723
G1 X43.6301 Y-22.9266 Z0.2671
G1 X43.6301 Y-22.9381 Z0.2629
G1 X43.6301 Y-22.9500 Z0.2600
G1 X43.6301 Y-22.9622 Z0.2582
G1 X43.6301 Y-22.9744 Z0.2576
G1 X43.6301 Y-23.1657 Z0.2575 F110.
G1 X43.6301 Y-23.2135 Z0.2575
G1 X43.6301 Y-23.2613 Z0.2572
G1 X43.6301 Y-23.2972 Z0.2570
G1 X43.6301 Y-23.3331 Z0.2567
G1 X43.6301 Y-23.3570 Z0.2564
G1 X43.6301 Y-23.3809 Z0.2561
G1 X43.6301 Y-23.4048 Z0.2557
G1 X43.6301 Y-23.4287 Z0.2554
G1 X43.6301 Y-23.4765 Z0.2545
G1 X43.6301 Y-23.5004 Z0.2540
G1 X43.6301 Y-23.5243 Z0.2535
G1 X43.6301 Y-23.5483 Z0.2529
G1 X43.6301 Y-23.5722 Z0.2523
G1 X43.6301 Y-23.6080 Z0.2514
G1 X43.6301 Y-23.6439 Z0.2504
G1 X43.6301 Y-23.6917 Z0.2489
G1 X43.6301 Y-23.7395 Z0.2472
G1 X43.6301 Y-23.7874 Z0.2454
G1 X43.6301 Y-23.8352 Z0.2435
G1 X43.6301 Y-23.8830 Z0.2414
G1 X43.6301 Y-23.9189 Z0.2398
G1 X43.6301 Y-23.9547 Z0.2380
G1 X43.6301 Y-23.9786 Z0.2368
G1 X43.6301 Y-24.0025 Z0.2356
G1 X43.6301 Y-24.0264 Z0.2343
G1 X43.6301 Y-24.0504 Z0.2330
G1 X43.6301 Y-24.0982 Z0.2303
G1 X43.6301 Y-24.1392 Z0.2278
G1 X43.6301 Y-24.1563 Z0.2268
G1 X43.6301 Y-24.1904 Z0.2246
G1 X43.6301 Y-24.2246 Z0.2224
G1 X43.6301 Y-24.2588 Z0.2201
G1 X43.6301 Y-24.2759 Z0.2189
G1 X43.6301 Y-24.3100 Z0.2165
G1 X43.6301 Y-24.3271 Z0.2153
G1 X43.6301 Y-24.3613 Z0.2127
G1 X43.6301 Y-24.3954 Z0.2101
G1 X43.6301 Y-24.4006 Z0.2100
G1 X43.6301 Y-24.4057 Z0.2104
G1 X43.6301 Y-24.4108 Z0.2113
G1 X43.6301 Y-24.4157 Z0.2128
G1 X43.6301 Y-24.4205 Z0.2147
G1 X43.6301 Y-24.4250 Z0.2171
G1 X43.6301 Y-24.4293 Z0.2200
G1 X43.6301 Y-24.4332 Z0.2233
G1 X43.6301 Y-24.4368 Z0.2270
G1 X43.6301 Y-24.4400 Z0.2310
G1 X43.6301 Y-24.4428 Z0.2354
G1 X43.6301 Y-24.4451 Z0.2400
G1 X43.6301 Y-24.4469 Z0.2448
G1 X43.6301 Y-24.4482 Z0.2498
G1 X43.6301 Y-24.4490 Z0.2549
G1 X43.6301 Y-24.4493 Z0.2600
G1 X43.6301 Y-24.4493 Z0.3076
G1 X43.4651 Y-22.8494 Z0.3825
G1 X43.4651 Y-22.8500 Z0.3703 F55.
G1 X43.4651 Y-22.8518 Z0.3582
G1 X43.4651 Y-22.8548 Z0.3463
G1 X43.4651 Y-22.8589 Z0.3347
G1 X43.4651 Y-22.8642 Z0.3236
G1 X43.4651 Y-22.8705 Z0.3131
G1 X43.4651 Y-22.8778 Z0.3033
G1 X43.4651 Y-22.8860 Z0.2942
G1 X43.4651 Y-22.8951 Z0.2859
G1 X43.4651 Y-22.9050 Z0.2786
G1 X43.4651 Y-22.9155 Z0.2723
G1 X43.4651 Y-22.9266 Z0.2671
G1 X43.4651 Y-22.9381 Z0.2629
G1 X43.4651 Y-22.9500 Z0.2600
G1 X43.4651 Y-22.9622 Z0.2582
G1 X43.4651 Y-22.9744 Z0.2576
G1 X43.4651 Y-23.1657 Z0.2575 F110.
G1 X43.4651 Y-23.2135 Z0.2575
G1 X43.4651 Y-23.2613 Z0.2572
G1 X43.4651 Y-23.2972 Z0.2570
G1 X43.4651 Y-23.3331 Z0.2567
G1 X43.4651 Y-23.3570 Z0.2564
G1 X43.4651 Y-23.3809 Z0.2561
G1 X43.4651 Y-23.4048 Z0.2557
G1 X43.4651 Y-23.4287 Z0.2554
G1 X43.4651 Y-23.4765 Z0.2545
G1 X43.4651 Y-23.5004 Z0.2540
G1 X43.4651 Y-23.5243 Z0.2535
G1 X43.4651 Y-23.5483 Z0.2529
G1 X43.4651 Y-23.5722 Z0.2523
G1 X43.4651 Y-23.6080 Z0.2514
G1 X43.4651 Y-23.6439 Z0.2504
G1 X43.4651 Y-23.6917 Z0.2489
G1 X43.4651 Y-23.7395 Z0.2472
G1 X43.4651 Y-23.7874 Z0.2454
G1 X43.4651 Y-23.8352 Z0.2435
G1 X43.4651 Y-23.8830 Z0.2414
G1 X43.4651 Y-23.9189 Z0.2398
G1 X43.4651 Y-23.9547 Z0.2380
G1 X43.4651 Y-23.9786 Z0.2368
G1 X43.4651 Y-24.0025 Z0.2356
G1 X43.4651 Y-24.0264 Z0.2343
G1 X43.4651 Y-24.0504 Z0.2330
G1 X43.4651 Y-24.0982 Z0.2303
G1 X43.4651 Y-24.1393 Z0.2278
G1 X43.4651 Y-24.1564 Z0.2268
G1 X43.4651 Y-24.1908 Z0.2246
G1 X43.4651 Y-24.2252 Z0.2224
G1 X43.4651 Y-24.2595 Z0.2200
G1 X43.4651 Y-24.2767 Z0.2189
G1 X43.4651 Y-24.3111 Z0.2164
G1 X43.4651 Y-24.3282 Z0.2152
G1 X43.4651 Y-24.3626 Z0.2126
G1 X43.4651 Y-24.3970 Z0.2100
G1 X43.4651 Y-24.4021 Z0.2099
G1 X43.4651 Y-24.4072 Z0.2103
G1 X43.4651 Y-24.4123 Z0.2112
G1 X43.4651 Y-24.4172 Z0.2127
G1 X43.4651 Y-24.4220 Z0.2146
G1 X43.4651 Y-24.4265 Z0.2170
G1 X43.4651 Y-24.4308 Z0.2199
G1 X43.4651 Y-24.4348 Z0.2232
G1 X43.4651 Y-24.4383 Z0.2269
G1 X43.4651 Y-24.4415 Z0.2309
G1 X43.4651 Y-24.4443 Z0.2353
G1 X43.4651 Y-24.4466 Z0.2399
G1 X43.4651 Y-24.4484 Z0.2447
G1 X43.4651 Y-24.4497 Z0.2497
G1 X43.4651 Y-24.4505 Z0.2547
G1 X43.4651 Y-24.4508 Z0.2599
G1 X43.4651 Y-24.4508 Z0.3076
G1 X43.3001 Y-22.8494 Z0.3825
G1 X43.3001 Y-22.8500 Z0.3703 F55.
G1 X43.3001 Y-22.8518 Z0.3582
G1 X43.3001 Y-22.8548 Z0.3463
G1 X43.3001 Y-22.8589 Z0.3347
G1 X43.3001 Y-22.8642 Z0.3236
G1 X43.3001 Y-22.8705 Z0.3131
G1 X43.3001 Y-22.8778 Z0.3033
G1 X43.3001 Y-22.8860 Z0.2942
G1 X43.3001 Y-22.8951 Z0.2859
G1 X43.3001 Y-22.9050 Z0.2786
G1 X43.3001 Y-22.9155 Z0.2723
G1 X43.3001 Y-22.9266 Z0.2671
G1 X43.3001 Y-22.9381 Z0.2629
G1 X43.3001 Y-22.9500 Z0.2600
G1 X43.3001 Y-22.9622 Z0.2582
G1 X43.3001 Y-22.9744 Z0.2576
G1 X43.3001 Y-23.1657 Z0.2575 F110.
G1 X43.3001 Y-23.2135 Z0.2575
G1 X43.3001 Y-23.2613 Z0.2572
G1 X43.3001 Y-23.2972 Z0.2570
G1 X43.3001 Y-23.3331 Z0.2567
G1 X43.3001 Y-23.3570 Z0.2564
G1 X43.3001 Y-23.3809 Z0.2561
G1 X43.3001 Y-23.4048 Z0.2557
G1 X43.3001 Y-23.4287 Z0.2554
G1 X43.3001 Y-23.4765 Z0.2545
G1 X43.3001 Y-23.5004 Z0.2540
G1 X43.3001 Y-23.5243 Z0.2535
G1 X43.3001 Y-23.5483 Z0.2529
G1 X43.3001 Y-23.5722 Z0.2523
G1 X43.3001 Y-23.6080 Z0.2514
G1 X43.3001 Y-23.6439 Z0.2504
G1 X43.3001 Y-23.6917 Z0.2489
G1 X43.3001 Y-23.7395 Z0.2472
G1 X43.3001 Y-23.7874 Z0.2454
G1 X43.3001 Y-23.8352 Z0.2435
G1 X43.3001 Y-23.8830 Z0.2414
G1 X43.3001 Y-23.9189 Z0.2398
G1 X43.3001 Y-23.9547 Z0.2380
G1 X43.3001 Y-23.9786 Z0.2368
G1 X43.3001 Y-24.0025 Z0.2356
G1 X43.3001 Y-24.0264 Z0.2343
G1 X43.3001 Y-24.0504 Z0.2330
G1 X43.3001 Y-24.0982 Z0.2303
G1 X43.3001 Y-24.1394 Z0.2278
G1 X43.3001 Y-24.1566 Z0.2268
G1 X43.3001 Y-24.1912 Z0.2246
G1 X43.3001 Y-24.2257 Z0.2223
G1 X43.3001 Y-24.2603 Z0.2200
G1 X43.3001 Y-24.2776 Z0.2188
G1 X43.3001 Y-24.3121 Z0.2164
G1 X43.3001 Y-24.3294 Z0.2151
G1 X43.3001 Y-24.3639 Z0.2125
G1 X43.3001 Y-24.3985 Z0.2099
G1 X43.3001 Y-24.4036 Z0.2098
G1 X43.3001 Y-24.4088 Z0.2102
G1 X43.3001 Y-24.4138 Z0.2111
G1 X43.3001 Y-24.4188 Z0.2126
G1 X43.3001 Y-24.4235 Z0.2145
G1 X43.3001 Y-24.4281 Z0.2169
G1 X43.3001 Y-24.4323 Z0.2198
G1 X43.3001 Y-24.4363 Z0.2231
G1 X43.3001 Y-24.4399 Z0.2268
G1 X43.3001 Y-24.4431 Z0.2308
G1 X43.3001 Y-24.4458 Z0.2351
G1 X43.3001 Y-24.4481 Z0.2398
G1 X43.3001 Y-24.4499 Z0.2446
G1 X43.3001 Y-24.4512 Z0.2495
G1 X43.3001 Y-24.4520 Z0.2546
G1 X43.3001 Y-24.4523 Z0.2598
G1 X43.3001 Y-24.4523 Z0.3076
G1 X43.1351 Y-22.8494 Z0.3825
G1 X43.1351 Y-22.8500 Z0.3703 F55.
G1 X43.1351 Y-22.8518 Z0.3582
G1 X43.1351 Y-22.8548 Z0.3463
G1 X43.1351 Y-22.8589 Z0.3347
G1 X43.1351 Y-22.8642 Z0.3236
G1 X43.1351 Y-22.8705 Z0.3131
G1 X43.1351 Y-22.8778 Z0.3033
G1 X43.1351 Y-22.8860 Z0.2942
G1 X43.1351 Y-22.8951 Z0.2859
G1 X43.1351 Y-22.9050 Z0.2786
G1 X43.1351 Y-22.9155 Z0.2723
G1 X43.1351 Y-22.9266 Z0.2671
G1 X43.1351 Y-22.9381 Z0.2629
G1 X43.1351 Y-22.9500 Z0.2600
G1 X43.1351 Y-22.9622 Z0.2582
G1 X43.1351 Y-22.9744 Z0.2576
G1 X43.1351 Y-23.1657 Z0.2575 F110.
G1 X43.1351 Y-23.2135 Z0.2575
G1 X43.1351 Y-23.2613 Z0.2572
G1 X43.1351 Y-23.2972 Z0.2570
G1 X43.1351 Y-23.3331 Z0.2567
G1 X43.1351 Y-23.3570 Z0.2564
G1 X43.1351 Y-23.3809 Z0.2561
G1 X43.1351 Y-23.4048 Z0.2557
G1 X43.1351 Y-23.4287 Z0.2554
G1 X43.1351 Y-23.4765 Z0.2545
G1 X43.1351 Y-23.5004 Z0.2540
G1 X43.1351 Y-23.5243 Z0.2535
G1 X43.1351 Y-23.5483 Z0.2529
G1 X43.1351 Y-23.5722 Z0.2523
G1 X43.1351 Y-23.6080 Z0.2514
G1 X43.1351 Y-23.6439 Z0.2504
G1 X43.1351 Y-23.6917 Z0.2489
G1 X43.1351 Y-23.7395 Z0.2472
G1 X43.1351 Y-23.7874 Z0.2454
G1 X43.1351 Y-23.8352 Z0.2435
G1 X43.1351 Y-23.8830 Z0.2414
G1 X43.1351 Y-23.9189 Z0.2398
G1 X43.1351 Y-23.9547 Z0.2380
G1 X43.1351 Y-23.9786 Z0.2368
G1 X43.1351 Y-24.0025 Z0.2356
G1 X43.1351 Y-24.0264 Z0.2343
G1 X43.1351 Y-24.0504 Z0.2330
G1 X43.1351 Y-24.0982 Z0.2303
G1 X43.1351 Y-24.1395 Z0.2278
G1 X43.1351 Y-24.1568 Z0.2267
G1 X43.1351 Y-24.1916 Z0.2246
G1 X43.1351 Y-24.2263 Z0.2223
G1 X43.1351 Y-24.2611 Z0.2199
G1 X43.1351 Y-24.2784 Z0.2187
G1 X43.1351 Y-24.3132 Z0.2163
G1 X43.1351 Y-24.3305 Z0.2150
G1 X43.1351 Y-24.3653 Z0.2124
G1 X43.1351 Y-24.4000 Z0.2098
G1 X43.1351 Y-24.4052 Z0.2097
G1 X43.1351 Y-24.4103 Z0.2101
G1 X43.1351 Y-24.4154 Z0.2110
G1 X43.1351 Y-24.4203 Z0.2124
G1 X43.1351 Y-24.4251 Z0.2144
G1 X43.1351 Y-24.4296 Z0.2168
G1 X43.1351 Y-24.4339 Z0.2197
G1 X43.1351 Y-24.4378 Z0.2230
G1 X43.1351 Y-24.4414 Z0.2267
G1 X43.1351 Y-24.4446 Z0.2307
G1 X43.1351 Y-24.4473 Z0.2350
G1 X43.1351 Y-24.4496 Z0.2396
G1 X43.1351 Y-24.4515 Z0.2444
G1 X43.1351 Y-24.4528 Z0.2494
G1 X43.1351 Y-24.4536 Z0.2545
G1 X43.1351 Y-24.4538 Z0.2596
G1 X43.1351 Y-24.4538 Z0.3076
G1 X42.9701 Y-22.8494 Z0.3825
G1 X42.9701 Y-22.8500 Z0.3703 F55.
G1 X42.9701 Y-22.8518 Z0.3582
G1 X42.9701 Y-22.8548 Z0.3463
G1 X42.9701 Y-22.8589 Z0.3347
G1 X42.9701 Y-22.8642 Z0.3236
G1 X42.9701 Y-22.8705 Z0.3131
G1 X42.9701 Y-22.8778 Z0.3033
G1 X42.9701 Y-22.8860 Z0.2942
G1 X42.9701 Y-22.8951 Z0.2859
G1 X42.9701 Y-22.9050 Z0.2786
G1 X42.9701 Y-22.9155 Z0.2723
G1 X42.9701 Y-22.9266 Z0.2671
G1 X42.9701 Y-22.9381 Z0.2629
G1 X42.9701 Y-22.9500 Z0.2600
G1 X42.9701 Y-22.9622 Z0.2582
G1 X42.9701 Y-22.9744 Z0.2576
G1 X42.9701 Y-23.1657 Z0.2575 F110.
G1 X42.9701 Y-23.2135 Z0.2575
G1 X42.9701 Y-23.2613 Z0.2572
G1 X42.9701 Y-23.2972 Z0.2570
G1 X42.9701 Y-23.3331 Z0.2567
G1 X42.9701 Y-23.3570 Z0.2564
G1 X42.9701 Y-23.3809 Z0.2561
G1 X42.9701 Y-23.4048 Z0.2557
G1 X42.9701 Y-23.4287 Z0.2554
G1 X42.9701 Y-23.4765 Z0.2545
G1 X42.9701 Y-23.5004 Z0.2540
G1 X42.9701 Y-23.5243 Z0.2535
G1 X42.9701 Y-23.5483 Z0.2529
G1 X42.9701 Y-23.5722 Z0.2523
G1 X42.9701 Y-23.6080 Z0.2514
G1 X42.9701 Y-23.6439 Z0.2504
G1 X42.9701 Y-23.6917 Z0.2489
G1 X42.9701 Y-23.7395 Z0.2472
G1 X42.9701 Y-23.7874 Z0.2454
G1 X42.9701 Y-23.8352 Z0.2435
G1 X42.9701 Y-23.8830 Z0.2414
G1 X42.9701 Y-23.9189 Z0.2398
G1 X42.9701 Y-23.9547 Z0.2380
G1 X42.9701 Y-23.9786 Z0.2368
G1 X42.9701 Y-24.0025 Z0.2356
G1 X42.9701 Y-24.0264 Z0.2343
G1 X42.9701 Y-24.0504 Z0.2330
G1 X42.9701 Y-24.0982 Z0.2303
G1 X42.9701 Y-24.1395 Z0.2278
G1 X42.9701 Y-24.1570 Z0.2267
G1 X42.9701 Y-24.1919 Z0.2245
G1 X42.9701 Y-24.2269 Z0.2223
G1 X42.9701 Y-24.2618 Z0.2199
G1 X42.9701 Y-24.2793 Z0.2187
G1 X42.9701 Y-24.3142 Z0.2162
G1 X42.9701 Y-24.3317 Z0.2149
G1 X42.9701 Y-24.3666 Z0.2123
G1 X42.9701 Y-24.4015 Z0.2097
G1 X42.9701 Y-24.4067 Z0.2095
G1 X42.9701 Y-24.4118 Z0.2099
G1 X42.9701 Y-24.4169 Z0.2109
G1 X42.9701 Y-24.4218 Z0.2123
G1 X42.9701 Y-24.4266 Z0.2143
G1 X42.9701 Y-24.4311 Z0.2167
G1 X42.9701 Y-24.4354 Z0.2196
G1 X42.9701 Y-24.4393 Z0.2229
G1 X42.9701 Y-24.4429 Z0.2265
G1 X42.9701 Y-24.4461 Z0.2306
G1 X42.9701 Y-24.4489 Z0.2349
G1 X42.9701 Y-24.4512 Z0.2395
G1 X42.9701 Y-24.4530 Z0.2443
G1 X42.9701 Y-24.4543 Z0.2493
G1 X42.9701 Y-24.4551 Z0.2544
G1 X42.9701 Y-24.4553 Z0.2595
G1 X42.9701 Y-24.4553 Z0.3076
G1 X42.8051 Y-22.8494 Z0.3825
G1 X42.8051 Y-22.8500 Z0.3703 F55.
G1 X42.8051 Y-22.8518 Z0.3582
G1 X42.8051 Y-22.8548 Z0.3463
G1 X42.8051 Y-22.8589 Z0.3347
G1 X42.8051 Y-22.8642 Z0.3236
G1 X42.8051 Y-22.8705 Z0.3131
G1 X42.8051 Y-22.8778 Z0.3033
G1 X42.8051 Y-22.8860 Z0.2942
G1 X42.8051 Y-22.8951 Z0.2859
G1 X42.8051 Y-22.9050 Z0.2786
G1 X42.8051 Y-22.9155 Z0.2723
G1 X42.8051 Y-22.9266 Z0.2671
G1 X42.8051 Y-22.9381 Z0.2629
G1 X42.8051 Y-22.9500 Z0.2600
G1 X42.8051 Y-22.9622 Z0.2582
G1 X42.8051 Y-22.9744 Z0.2576
G1 X42.8051 Y-23.1657 Z0.2575 F110.
G1 X42.8051 Y-23.2135 Z0.2575
G1 X42.8051 Y-23.2613 Z0.2572
G1 X42.8051 Y-23.2972 Z0.2570
G1 X42.8051 Y-23.3331 Z0.2567
G1 X42.8051 Y-23.3570 Z0.2564
G1 X42.8051 Y-23.3809 Z0.2561
G1 X42.8051 Y-23.4048 Z0.2557
G1 X42.8051 Y-23.4287 Z0.2554
G1 X42.8051 Y-23.4765 Z0.2545
G1 X42.8051 Y-23.5004 Z0.2540
G1 X42.8051 Y-23.5243 Z0.2535
G1 X42.8051 Y-23.5483 Z0.2529
G1 X42.8051 Y-23.5722 Z0.2523
G1 X42.8051 Y-23.6080 Z0.2514
G1 X42.8051 Y-23.6439 Z0.2504
G1 X42.8051 Y-23.6917 Z0.2489
G1 X42.8051 Y-23.7395 Z0.2472
G1 X42.8051 Y-23.7874 Z0.2454
G1 X42.8051 Y-23.8352 Z0.2435
G1 X42.8051 Y-23.8830 Z0.2414
G1 X42.8051 Y-23.9189 Z0.2398
G1 X42.8051 Y-23.9547 Z0.2380
G1 X42.8051 Y-23.9786 Z0.2368
G1 X42.8051 Y-24.0025 Z0.2356
G1 X42.8051 Y-24.0264 Z0.2343
G1 X42.8051 Y-24.0504 Z0.2330
G1 X42.8051 Y-24.0982 Z0.2303
G1 X42.8051 Y-24.1396 Z0.2278
G1 X42.8051 Y-24.1572 Z0.2267
G1 X42.8051 Y-24.1923 Z0.2245
G1 X42.8051 Y-24.2275 Z0.2222
G1 X42.8051 Y-24.2626 Z0.2198
G1 X42.8051 Y-24.2801 Z0.2186
G1 X42.8051 Y-24.3153 Z0.2161
G1 X42.8051 Y-24.3328 Z0.2148
G1 X42.8051 Y-24.3679 Z0.2122
G1 X42.8051 Y-24.4031 Z0.2096
G1 X42.8051 Y-24.4082 Z0.2094
G1 X42.8051 Y-24.4133 Z0.2098
G1 X42.8051 Y-24.4184 Z0.2108
G1 X42.8051 Y-24.4233 Z0.2122
G1 X42.8051 Y-24.4281 Z0.2141
G1 X42.8051 Y-24.4326 Z0.2166
G1 X42.8051 Y-24.4369 Z0.2194
G1 X42.8051 Y-24.4409 Z0.2227
G1 X42.8051 Y-24.4444 Z0.2264
G1 X42.8051 Y-24.4476 Z0.2305
G1 X42.8051 Y-24.4504 Z0.2348
G1 X42.8051 Y-24.4527 Z0.2394
G1 X42.8051 Y-24.4545 Z0.2442
G1 X42.8051 Y-24.4558 Z0.2492
G1 X42.8051 Y-24.4566 Z0.2543
G1 X42.8051 Y-24.4569 Z0.2594
G1 X42.8051 Y-24.4569 Z0.3076
G1 X42.6401 Y-22.8494 Z0.3825
G1 X42.6401 Y-22.8500 Z0.3703 F55.
G1 X42.6401 Y-22.8518 Z0.3582
G1 X42.6401 Y-22.8548 Z0.3463
G1 X42.6401 Y-22.8589 Z0.3347
G1 X42.6401 Y-22.8642 Z0.3236
G1 X42.6401 Y-22.8705 Z0.3131
G1 X42.6401 Y-22.8778 Z0.3033
G1 X42.6401 Y-22.8860 Z0.2942
G1 X42.6401 Y-22.8951 Z0.2859
G1 X42.6401 Y-22.9050 Z0.2786
G1 X42.6401 Y-22.9155 Z0.2723
G1 X42.6401 Y-22.9266 Z0.2671
G1 X42.6401 Y-22.9381 Z0.2629
G1 X42.6401 Y-22.9500 Z0.2600
G1 X42.6401 Y-22.9622 Z0.2582
G1 X42.6401 Y-22.9744 Z0.2576
G1 X42.6401 Y-23.1657 Z0.2575 F110.
G1 X42.6401 Y-23.2135 Z0.2575
G1 X42.6401 Y-23.2613 Z0.2572
G1 X42.6401 Y-23.2972 Z0.2570
G1 X42.6401 Y-23.3331 Z0.2567
G1 X42.6401 Y-23.3570 Z0.2564
G1 X42.6401 Y-23.3809 Z0.2561
G1 X42.6401 Y-23.4048 Z0.2557
G1 X42.6401 Y-23.4287 Z0.2554
G1 X42.6401 Y-23.4765 Z0.2545
G1 X42.6401 Y-23.5004 Z0.2540
G1 X42.6401 Y-23.5243 Z0.2535
G1 X42.6401 Y-23.5483 Z0.2529
G1 X42.6401 Y-23.5722 Z0.2523
G1 X42.6401 Y-23.6080 Z0.2514
G1 X42.6401 Y-23.6439 Z0.2504
G1 X42.6401 Y-23.6917 Z0.2489
G1 X42.6401 Y-23.7395 Z0.2472
G1 X42.6401 Y-23.7874 Z0.2454
G1 X42.6401 Y-23.8352 Z0.2435
G1 X42.6401 Y-23.8830 Z0.2414
G1 X42.6401 Y-23.9189 Z0.2398
G1 X42.6401 Y-23.9547 Z0.2380
G1 X42.6401 Y-23.9786 Z0.2368
G1 X42.6401 Y-24.0025 Z0.2356
G1 X42.6401 Y-24.0264 Z0.2343
G1 X42.6401 Y-24.0504 Z0.2330
G1 X42.6401 Y-24.0982 Z0.2303
G1 X42.6401 Y-24.1397 Z0.2278
G1 X42.6401 Y-24.1574 Z0.2267
G1 X42.6401 Y-24.1927 Z0.2245
G1 X42.6401 Y-24.2280 Z0.2222
G1 X42.6401 Y-24.2633 Z0.2198
G1 X42.6401 Y-24.2810 Z0.2186
G1 X42.6401 Y-24.3163 Z0.2161
G1 X42.6401 Y-24.3340 Z0.2148
G1 X42.6401 Y-24.3693 Z0.2121
G1 X42.6401 Y-24.4046 Z0.2094
G1 X42.6401 Y-24.4097 Z0.2093
G1 X42.6401 Y-24.4149 Z0.2097
G1 X42.6401 Y-24.4199 Z0.2106
G1 X42.6401 Y-24.4249 Z0.2121
G1 X42.6401 Y-24.4296 Z0.2140
G1 X42.6401 Y-24.4342 Z0.2164
G1 X42.6401 Y-24.4384 Z0.2193
G1 X42.6401 Y-24.4424 Z0.2226
G1 X42.6401 Y-24.4460 Z0.2263
G1 X42.6401 Y-24.4492 Z0.2303
G1 X42.6401 Y-24.4519 Z0.2347
G1 X42.6401 Y-24.4542 Z0.2393
G1 X42.6401 Y-24.4560 Z0.2441
G1 X42.6401 Y-24.4573 Z0.2491
G1 X42.6401 Y-24.4581 Z0.2542
G1 X42.6401 Y-24.4584 Z0.2593
G1 X42.6401 Y-24.4584 Z0.3076
G1 X42.4751 Y-22.8494 Z0.3825
G1 X42.4751 Y-22.8500 Z0.3703 F55.
G1 X42.4751 Y-22.8518 Z0.3582
G1 X42.4751 Y-22.8548 Z0.3463
G1 X42.4751 Y-22.8589 Z0.3347
G1 X42.4751 Y-22.8642 Z0.3236
G1 X42.4751 Y-22.8705 Z0.3131
G1 X42.4751 Y-22.8778 Z0.3033
G1 X42.4751 Y-22.8860 Z0.2942
G1 X42.4751 Y-22.8951 Z0.2859
G1 X42.4751 Y-22.9050 Z0.2786
G1 X42.4751 Y-22.9155 Z0.2723
G1 X42.4751 Y-22.9266 Z0.2671
G1 X42.4751 Y-22.9381 Z0.2629
G1 X42.4751 Y-22.9500 Z0.2600
G1 X42.4751 Y-22.9622 Z0.2582
G1 X42.4751 Y-22.9744 Z0.2576
G1 X42.4751 Y-23.1657 Z0.2575 F110.
G1 X42.4751 Y-23.2135 Z0.2575
G1 X42.4751 Y-23.2613 Z0.2572
G1 X42.4751 Y-23.2972 Z0.2570
G1 X42.4751 Y-23.3331 Z0.2567
G1 X42.4751 Y-23.3570 Z0.2564
G1 X42.4751 Y-23.3809 Z0.2561
G1 X42.4751 Y-23.4048 Z0.2557
G1 X42.4751 Y-23.4287 Z0.2554
G1 X42.4751 Y-23.4765 Z0.2545
G1 X42.4751 Y-23.5004 Z0.2540
G1 X42.4751 Y-23.5243 Z0.2535
G1 X42.4751 Y-23.5483 Z0.2529
G1 X42.4751 Y-23.5722 Z0.2523
G1 X42.4751 Y-23.6080 Z0.2514
G1 X42.4751 Y-23.6439 Z0.2504
G1 X42.4751 Y-23.6917 Z0.2489
G1 X42.4751 Y-23.7395 Z0.2472
G1 X42.4751 Y-23.7874 Z0.2454
G1 X42.4751 Y-23.8352 Z0.2435
G1 X42.4751 Y-23.8830 Z0.2414
G1 X42.4751 Y-23.9189 Z0.2398
G1 X42.4751 Y-23.9547 Z0.2380
G1 X42.4751 Y-23.9786 Z0.2368
G1 X42.4751 Y-24.0025 Z0.2356
G1 X42.4751 Y-24.0264 Z0.2343
G1 X42.4751 Y-24.0504 Z0.2330
G1 X42.4751 Y-24.0982 Z0.2303
G1 X42.4751 Y-24.1398 Z0.2278
G1 X42.4751 Y-24.1576 Z0.2267
G1 X42.4751 Y-24.1931 Z0.2245
G1 X42.4751 Y-24.2286 Z0.2221
G1 X42.4751 Y-24.2641 Z0.2197
G1 X42.4751 Y-24.2996 Z0.2172
G1 X42.4751 Y-24.3174 Z0.2160
G1 X42.4751 Y-24.3529 Z0.2134
G1 X42.4751 Y-24.3706 Z0.2120
G1 X42.4751 Y-24.4061 Z0.2093
G1 X42.4751 Y-24.4113 Z0.2092
G1 X42.4751 Y-24.4164 Z0.2096
G1 X42.4751 Y-24.4214 Z0.2105
G1 X42.4751 Y-24.4264 Z0.2120
G1 X42.4751 Y-24.4311 Z0.2139
G1 X42.4751 Y-24.4357 Z0.2163
G1 X42.4751 Y-24.4400 Z0.2192
G1 X42.4751 Y-24.4439 Z0.2225
G1 X42.4751 Y-24.4475 Z0.2262
G1 X42.4751 Y-24.4507 Z0.2302
G1 X42.4751 Y-24.4534 Z0.2346
G1 X42.4751 Y-24.4557 Z0.2392
G1 X42.4751 Y-24.4576 Z0.2440
G1 X42.4751 Y-24.4589 Z0.2490
G1 X42.4751 Y-24.4597 Z0.2540
G1 X42.4751 Y-24.4599 Z0.2592
G1 X42.4751 Y-24.4599 Z0.3076
G1 X42.3101 Y-22.8494 Z0.3825
G1 X42.3101 Y-22.8500 Z0.3703 F55.
G1 X42.3101 Y-22.8518 Z0.3582
G1 X42.3101 Y-22.8548 Z0.3463
G1 X42.3101 Y-22.8589 Z0.3347
G1 X42.3101 Y-22.8642 Z0.3236
G1 X42.3101 Y-22.8705 Z0.3131
G1 X42.3101 Y-22.8778 Z0.3033
G1 X42.3101 Y-22.8860 Z0.2942
G1 X42.3101 Y-22.8951 Z0.2859
G1 X42.3101 Y-22.9050 Z0.2786
G1 X42.3101 Y-22.9155 Z0.2723
G1 X42.3101 Y-22.9266 Z0.2671
G1 X42.3101 Y-22.9381 Z0.2629
G1 X42.3101 Y-22.9500 Z0.2600
G1 X42.3101 Y-22.9622 Z0.2582
G1 X42.3101 Y-22.9744 Z0.2576
G1 X42.3101 Y-23.1657 Z0.2575 F110.
G1 X42.3101 Y-23.2135 Z0.2575
G1 X42.3101 Y-23.2613 Z0.2572
G1 X42.3101 Y-23.2972 Z0.2570
G1 X42.3101 Y-23.3331 Z0.2567
G1 X42.3101 Y-23.3570 Z0.2564
G1 X42.3101 Y-23.3809 Z0.2561
G1 X42.3101 Y-23.4048 Z0.2557
G1 X42.3101 Y-23.4287 Z0.2554
G1 X42.3101 Y-23.4765 Z0.2545
G1 X42.3101 Y-23.5004 Z0.2540
G1 X42.3101 Y-23.5243 Z0.2535
G1 X42.3101 Y-23.5483 Z0.2529
G1 X42.3101 Y-23.5722 Z0.2523
G1 X42.3101 Y-23.6080 Z0.2514
G1 X42.3101 Y-23.6439 Z0.2504
G1 X42.3101 Y-23.6917 Z0.2489
G1 X42.3101 Y-23.7395 Z0.2472
G1 X42.3101 Y-23.7874 Z0.2454
G1 X42.3101 Y-23.8352 Z0.2435
G1 X42.3101 Y-23.8830 Z0.2414
G1 X42.3101 Y-23.9189 Z0.2398
G1 X42.3101 Y-23.9547 Z0.2380
G1 X42.3101 Y-23.9786 Z0.2368
G1 X42.3101 Y-24.0025 Z0.2356
G1 X42.3101 Y-24.0264 Z0.2343
G1 X42.3101 Y-24.0504 Z0.2330
G1 X42.3101 Y-24.0982 Z0.2303
G1 X42.3101 Y-24.1399 Z0.2278
G1 X42.3101 Y-24.1756 Z0.2256
G1 X42.3101 Y-24.1935 Z0.2244
G1 X42.3101 Y-24.2292 Z0.2221
G1 X42.3101 Y-24.2649 Z0.2197
G1 X42.3101 Y-24.3006 Z0.2172
G1 X42.3101 Y-24.3184 Z0.2159
G1 X42.3101 Y-24.3541 Z0.2133
G1 X42.3101 Y-24.3719 Z0.2119
G1 X42.3101 Y-24.4076 Z0.2092
G1 X42.3101 Y-24.4128 Z0.2091
G1 X42.3101 Y-24.4179 Z0.2095
G1 X42.3101 Y-24.4230 Z0.2104
G1 X42.3101 Y-24.4279 Z0.2118
G1 X42.3101 Y-24.4327 Z0.2138
G1 X42.3101 Y-24.4372 Z0.2162
G1 X42.3101 Y-24.4415 Z0.2191
G1 X42.3101 Y-24.4454 Z0.2224
G1 X42.3101 Y-24.4490 Z0.2261
G1 X42.3101 Y-24.4522 Z0.2301
G1 X42.3101 Y-24.4550 Z0.2344
G1 X42.3101 Y-24.4573 Z0.2390
G1 X42.3101 Y-24.4591 Z0.2439
G1 X42.3101 Y-24.4604 Z0.2488
G1 X42.3101 Y-24.4612 Z0.2539
G1 X42.3101 Y-24.4615 Z0.2591
G1 X42.3101 Y-24.4615 Z0.3076
G1 X42.1451 Y-22.8494 Z0.3825
G1 X42.1451 Y-22.8500 Z0.3703 F55.
G1 X42.1451 Y-22.8518 Z0.3582
G1 X42.1451 Y-22.8548 Z0.3463
G1 X42.1451 Y-22.8589 Z0.3347
G1 X42.1451 Y-22.8642 Z0.3236
G1 X42.1451 Y-22.8705 Z0.3131
G1 X42.1451 Y-22.8778 Z0.3033
G1 X42.1451 Y-22.8860 Z0.2942
G1 X42.1451 Y-22.8951 Z0.2859
G1 X42.1451 Y-22.9050 Z0.2786
G1 X42.1451 Y-22.9155 Z0.2723
G1 X42.1451 Y-22.9266 Z0.2671
G1 X42.1451 Y-22.9381 Z0.2629
G1 X42.1451 Y-22.9500 Z0.2600
G1 X42.1451 Y-22.9622 Z0.2582
G1 X42.1451 Y-22.9744 Z0.2576
G1 X42.1451 Y-23.1657 Z0.2575 F110.
G1 X42.1451 Y-23.2135 Z0.2575
G1 X42.1451 Y-23.2613 Z0.2572
G1 X42.1451 Y-23.2972 Z0.2570
G1 X42.1451 Y-23.3331 Z0.2567
G1 X42.1451 Y-23.3570 Z0.2564
G1 X42.1451 Y-23.3809 Z0.2561
G1 X42.1451 Y-23.4048 Z0.2557
G1 X42.1451 Y-23.4287 Z0.2554
G1 X42.1451 Y-23.4765 Z0.2545
G1 X42.1451 Y-23.5004 Z0.2540
G1 X42.1451 Y-23.5243 Z0.2535
G1 X42.1451 Y-23.5483 Z0.2529
G1 X42.1451 Y-23.5722 Z0.2523
G1 X42.1451 Y-23.6080 Z0.2514
G1 X42.1451 Y-23.6439 Z0.2504
G1 X42.1451 Y-23.6917 Z0.2489
G1 X42.1451 Y-23.7395 Z0.2472
G1 X42.1451 Y-23.7874 Z0.2454
G1 X42.1451 Y-23.8352 Z0.2435
G1 X42.1451 Y-23.8830 Z0.2414
G1 X42.1451 Y-23.9189 Z0.2398
G1 X42.1451 Y-23.9547 Z0.2380
G1 X42.1451 Y-23.9786 Z0.2368
G1 X42.1451 Y-24.0025 Z0.2356
G1 X42.1451 Y-24.0264 Z0.2343
G1 X42.1451 Y-24.0504 Z0.2330
G1 X42.1451 Y-24.0982 Z0.2303
G1 X42.1451 Y-24.1400 Z0.2278
G1 X42.1451 Y-24.1759 Z0.2256
G1 X42.1451 Y-24.1939 Z0.2244
G1 X42.1451 Y-24.2297 Z0.2221
G1 X42.1451 Y-24.2656 Z0.2196
G1 X42.1451 Y-24.3015 Z0.2171
G1 X42.1451 Y-24.3194 Z0.2158
G1 X42.1451 Y-24.3553 Z0.2132
G1 X42.1451 Y-24.3733 Z0.2118
G1 X42.1451 Y-24.4092 Z0.2091
G1 X42.1451 Y-24.4143 Z0.2090
G1 X42.1451 Y-24.4194 Z0.2094
G1 X42.1451 Y-24.4245 Z0.2103
G1 X42.1451 Y-24.4294 Z0.2117
G1 X42.1451 Y-24.4342 Z0.2137
G1 X42.1451 Y-24.4387 Z0.2161
G1 X42.1451 Y-24.4430 Z0.2190
G1 X42.1451 Y-24.4470 Z0.2223
G1 X42.1451 Y-24.4505 Z0.2259
G1 X42.1451 Y-24.4537 Z0.2300
G1 X42.1451 Y-24.4565 Z0.2343
G1 X42.1451 Y-24.4588 Z0.2389
G1 X42.1451 Y-24.4606 Z0.2437
G1 X42.1451 Y-24.4619 Z0.2487
G1 X42.1451 Y-24.4627 Z0.2538
G1 X42.1451 Y-24.4630 Z0.2589
G1 X42.1451 Y-24.4630 Z0.3076
G1 X41.9801 Y-22.8494 Z0.3825
G1 X41.9801 Y-22.8500 Z0.3703 F55.
G1 X41.9801 Y-22.8518 Z0.3582
G1 X41.9801 Y-22.8548 Z0.3463
G1 X41.9801 Y-22.8589 Z0.3347
G1 X41.9801 Y-22.8642 Z0.3236
G1 X41.9801 Y-22.8705 Z0.3131
G1 X41.9801 Y-22.8778 Z0.3033
G1 X41.9801 Y-22.8860 Z0.2942
G1 X41.9801 Y-22.8951 Z0.2859
G1 X41.9801 Y-22.9050 Z0.2786
G1 X41.9801 Y-22.9155 Z0.2723
G1 X41.9801 Y-22.9266 Z0.2671
G1 X41.9801 Y-22.9381 Z0.2629
G1 X41.9801 Y-22.9500 Z0.2600
G1 X41.9801 Y-22.9622 Z0.2582
G1 X41.9801 Y-22.9744 Z0.2576
G1 X41.9801 Y-23.1657 Z0.2575 F110.
G1 X41.9801 Y-23.2135 Z0.2575
G1 X41.9801 Y-23.2613 Z0.2572
G1 X41.9801 Y-23.2972 Z0.2570
G1 X41.9801 Y-23.3331 Z0.2567
G1 X41.9801 Y-23.3570 Z0.2564
G1 X41.9801 Y-23.3809 Z0.2561
G1 X41.9801 Y-23.4048 Z0.2557
G1 X41.9801 Y-23.4287 Z0.2554
G1 X41.9801 Y-23.4765 Z0.2545
G1 X41.9801 Y-23.5004 Z0.2540
G1 X41.9801 Y-23.5243 Z0.2535
G1 X41.9801 Y-23.5483 Z0.2529
G1 X41.9801 Y-23.5722 Z0.2523
G1 X41.9801 Y-23.6080 Z0.2514
G1 X41.9801 Y-23.6439 Z0.2504
G1 X41.9801 Y-23.6917 Z0.2489
G1 X41.9801 Y-23.7395 Z0.2472
G1 X41.9801 Y-23.7874 Z0.2454
G1 X41.9801 Y-23.8352 Z0.2435
G1 X41.9801 Y-23.8830 Z0.2414
G1 X41.9801 Y-23.9189 Z0.2398
G1 X41.9801 Y-23.9547 Z0.2380
G1 X41.9801 Y-23.9786 Z0.2368
G1 X41.9801 Y-24.0025 Z0.2356
G1 X41.9801 Y-24.0264 Z0.2343
G1 X41.9801 Y-24.0504 Z0.2330
G1 X41.9801 Y-24.0982 Z0.2303
G1 X41.9801 Y-24.1401 Z0.2278
G1 X41.9801 Y-24.1762 Z0.2255
G1 X41.9801 Y-24.1942 Z0.2244
G1 X41.9801 Y-24.2303 Z0.2220
G1 X41.9801 Y-24.2664 Z0.2196
G1 X41.9801 Y-24.3025 Z0.2170
G1 X41.9801 Y-24.3205 Z0.2158
G1 X41.9801 Y-24.3566 Z0.2131
G1 X41.9801 Y-24.3746 Z0.2117
G1 X41.9801 Y-24.4107 Z0.2090
G1 X41.9801 Y-24.4158 Z0.2088
G1 X41.9801 Y-24.4210 Z0.2092
G1 X41.9801 Y-24.4260 Z0.2102
G1 X41.9801 Y-24.4310 Z0.2116
G1 X41.9801 Y-24.4357 Z0.2135
G1 X41.9801 Y-24.4403 Z0.2160
G1 X41.9801 Y-24.4445 Z0.2188
G1 X41.9801 Y-24.4485 Z0.2221
G1 X41.9801 Y-24.4521 Z0.2258
G1 X41.9801 Y-24.4553 Z0.2299
G1 X41.9801 Y-24.4580 Z0.2342
G1 X41.9801 Y-24.4603 Z0.2388
G1 X41.9801 Y-24.4621 Z0.2436
G1 X41.9801 Y-24.4635 Z0.2486
G1 X41.9801 Y-24.4642 Z0.2537
G1 X41.9801 Y-24.4645 Z0.2588
G1 X41.9801 Y-24.4645 Z0.3076
G1 X41.8151 Y-22.8494 Z0.3825
G1 X41.8151 Y-22.8500 Z0.3703 F55.
G1 X41.8151 Y-22.8518 Z0.3582
G1 X41.8151 Y-22.8548 Z0.3463
G1 X41.8151 Y-22.8589 Z0.3347
G1 X41.8151 Y-22.8642 Z0.3236
G1 X41.8151 Y-22.8705 Z0.3131
G1 X41.8151 Y-22.8778 Z0.3033
G1 X41.8151 Y-22.8860 Z0.2942
G1 X41.8151 Y-22.8951 Z0.2859
G1 X41.8151 Y-22.9050 Z0.2786
G1 X41.8151 Y-22.9155 Z0.2723
G1 X41.8151 Y-22.9266 Z0.2671
G1 X41.8151 Y-22.9381 Z0.2629
G1 X41.8151 Y-22.9500 Z0.2600
G1 X41.8151 Y-22.9622 Z0.2582
G1 X41.8151 Y-22.9744 Z0.2576
G1 X41.8151 Y-23.1657 Z0.2575 F110.
G1 X41.8151 Y-23.2135 Z0.2575
G1 X41.8151 Y-23.2613 Z0.2572
G1 X41.8151 Y-23.2972 Z0.2570
G1 X41.8151 Y-23.3331 Z0.2567
G1 X41.8151 Y-23.3570 Z0.2564
G1 X41.8151 Y-23.3809 Z0.2561
G1 X41.8151 Y-23.4048 Z0.2557
G1 X41.8151 Y-23.4287 Z0.2554
G1 X41.8151 Y-23.4765 Z0.2545
G1 X41.8151 Y-23.5004 Z0.2540
G1 X41.8151 Y-23.5243 Z0.2535
G1 X41.8151 Y-23.5483 Z0.2529
G1 X41.8151 Y-23.5722 Z0.2523
G1 X41.8151 Y-23.6080 Z0.2514
G1 X41.8151 Y-23.6439 Z0.2504
G1 X41.8151 Y-23.6917 Z0.2489
G1 X41.8151 Y-23.7395 Z0.2472
G1 X41.8151 Y-23.7874 Z0.2454
G1 X41.8151 Y-23.8352 Z0.2435
G1 X41.8151 Y-23.8830 Z0.2414
G1 X41.8151 Y-23.9189 Z0.2398
G1 X41.8151 Y-23.9547 Z0.2380
G1 X41.8151 Y-23.9786 Z0.2368
G1 X41.8151 Y-24.0025 Z0.2356
G1 X41.8151 Y-24.0264 Z0.2343
G1 X41.8151 Y-24.0504 Z0.2330
G1 X41.8151 Y-24.0982 Z0.2303
G1 X41.8151 Y-24.1402 Z0.2278
G1 X41.8151 Y-24.1765 Z0.2255
G1 X41.8151 Y-24.1946 Z0.2244
G1 X41.8151 Y-24.2309 Z0.2220
G1 X41.8151 Y-24.2671 Z0.2195
G1 X41.8151 Y-24.3034 Z0.2170
G1 X41.8151 Y-24.3215 Z0.2157
G1 X41.8151 Y-24.3578 Z0.2130
G1 X41.8151 Y-24.3759 Z0.2116
G1 X41.8151 Y-24.4122 Z0.2088
G1 X41.8151 Y-24.4173 Z0.2087
G1 X41.8151 Y-24.4225 Z0.2091
G1 X41.8151 Y-24.4275 Z0.2100
G1 X41.8151 Y-24.4325 Z0.2115
G1 X41.8151 Y-24.4372 Z0.2134
G1 X41.8151 Y-24.4418 Z0.2158
G1 X41.8151 Y-24.4461 Z0.2187
G1 X41.8151 Y-24.4500 Z0.2220
G1 X41.8151 Y-24.4536 Z0.2257
G1 X41.8151 Y-24.4568 Z0.2297
G1 X41.8151 Y-24.4596 Z0.2341
G1 X41.8151 Y-24.4619 Z0.2387
G1 X41.8151 Y-24.4637 Z0.2435
G1 X41.8151 Y-24.4650 Z0.2485
G1 X41.8151 Y-24.4658 Z0.2536
G1 X41.8151 Y-24.4660 Z0.2587
G1 X41.8151 Y-24.4660 Z0.3076
G1 X41.6501 Y-22.8494 Z0.3825
G1 X41.6501 Y-22.8500 Z0.3703 F55.
G1 X41.6501 Y-22.8518 Z0.3582
G1 X41.6501 Y-22.8548 Z0.3463
G1 X41.6501 Y-22.8589 Z0.3347
G1 X41.6501 Y-22.8642 Z0.3236
G1 X41.6501 Y-22.8705 Z0.3131
G1 X41.6501 Y-22.8778 Z0.3033
G1 X41.6501 Y-22.8860 Z0.2942
G1 X41.6501 Y-22.8951 Z0.2859
G1 X41.6501 Y-22.9050 Z0.2786
G1 X41.6501 Y-22.9155 Z0.2723
G1 X41.6501 Y-22.9266 Z0.2671
G1 X41.6501 Y-22.9381 Z0.2629
G1 X41.6501 Y-22.9500 Z0.2600
G1 X41.6501 Y-22.9622 Z0.2582
G1 X41.6501 Y-22.9744 Z0.2576
G1 X41.6501 Y-23.1657 Z0.2575 F110.
G1 X41.6501 Y-23.2135 Z0.2575
G1 X41.6501 Y-23.2613 Z0.2572
G1 X41.6501 Y-23.2972 Z0.2570
G1 X41.6501 Y-23.3331 Z0.2567
G1 X41.6501 Y-23.3570 Z0.2564
G1 X41.6501 Y-23.3809 Z0.2561
G1 X41.6501 Y-23.4048 Z0.2557
G1 X41.6501 Y-23.4287 Z0.2554
G1 X41.6501 Y-23.4765 Z0.2545
G1 X41.6501 Y-23.5004 Z0.2540
G1 X41.6501 Y-23.5243 Z0.2535
G1 X41.6501 Y-23.5483 Z0.2529
G1 X41.6501 Y-23.5722 Z0.2523
G1 X41.6501 Y-23.6080 Z0.2514
G1 X41.6501 Y-23.6439 Z0.2504
G1 X41.6501 Y-23.6917 Z0.2489
G1 X41.6501 Y-23.7395 Z0.2472
G1 X41.6501 Y-23.7874 Z0.2454
G1 X41.6501 Y-23.8352 Z0.2435
G1 X41.6501 Y-23.8830 Z0.2414
G1 X41.6501 Y-23.9189 Z0.2398
G1 X41.6501 Y-23.9547 Z0.2380
G1 X41.6501 Y-23.9786 Z0.2368
G1 X41.6501 Y-24.0025 Z0.2356
G1 X41.6501 Y-24.0264 Z0.2343
G1 X41.6501 Y-24.0504 Z0.2330
G1 X41.6501 Y-24.0982 Z0.2303
G1 X41.6501 Y-24.1403 Z0.2278
G1 X41.6501 Y-24.1768 Z0.2255
G1 X41.6501 Y-24.1950 Z0.2243
G1 X41.6501 Y-24.2314 Z0.2219
G1 X41.6501 Y-24.2679 Z0.2195
G1 X41.6501 Y-24.3044 Z0.2169
G1 X41.6501 Y-24.3226 Z0.2156
G1 X41.6501 Y-24.3590 Z0.2129
G1 X41.6501 Y-24.3773 Z0.2115
G1 X41.6501 Y-24.4137 Z0.2087
G1 X41.6501 Y-24.4189 Z0.2086
G1 X41.6501 Y-24.4240 Z0.2090
G1 X41.6501 Y-24.4291 Z0.2099
G1 X41.6501 Y-24.4340 Z0.2114
G1 X41.6501 Y-24.4388 Z0.2133
G1 X41.6501 Y-24.4433 Z0.2157
G1 X41.6501 Y-24.4476 Z0.2186
G1 X41.6501 Y-24.4515 Z0.2219
G1 X41.6501 Y-24.4551 Z0.2256
G1 X41.6501 Y-24.4583 Z0.2296
G1 X41.6501 Y-24.4611 Z0.2340
G1 X41.6501 Y-24.4634 Z0.2386
G1 X41.6501 Y-24.4652 Z0.2434
G1 X41.6501 Y-24.4665 Z0.2483
G1 X41.6501 Y-24.4673 Z0.2534
G1 X41.6501 Y-24.4676 Z0.2586
G1 X41.6501 Y-24.4676 Z0.3076
G1 X41.4851 Y-22.8494 Z0.3825
G1 X41.4851 Y-22.8500 Z0.3703 F55.
G1 X41.4851 Y-22.8518 Z0.3582
G1 X41.4851 Y-22.8548 Z0.3463
G1 X41.4851 Y-22.8589 Z0.3347
G1 X41.4851 Y-22.8642 Z0.3236
G1 X41.4851 Y-22.8705 Z0.3131
G1 X41.4851 Y-22.8778 Z0.3033
G1 X41.4851 Y-22.8860 Z0.2942
G1 X41.4851 Y-22.8951 Z0.2859
G1 X41.4851 Y-22.9050 Z0.2786
G1 X41.4851 Y-22.9155 Z0.2723
G1 X41.4851 Y-22.9266 Z0.2671
G1 X41.4851 Y-22.9381 Z0.2629
G1 X41.4851 Y-22.9500 Z0.2600
G1 X41.4851 Y-22.9622 Z0.2582
G1 X41.4851 Y-22.9744 Z0.2576
G1 X41.4851 Y-23.1657 Z0.2575 F110.
G1 X41.4851 Y-23.2135 Z0.2575
G1 X41.4851 Y-23.2613 Z0.2572
G1 X41.4851 Y-23.2972 Z0.2570
G1 X41.4851 Y-23.3331 Z0.2567
G1 X41.4851 Y-23.3570 Z0.2564
G1 X41.4851 Y-23.3809 Z0.2561
G1 X41.4851 Y-23.4048 Z0.2557
G1 X41.4851 Y-23.4287 Z0.2554
G1 X41.4851 Y-23.4765 Z0.2545
G1 X41.4851 Y-23.5004 Z0.2540
G1 X41.4851 Y-23.5243 Z0.2535
G1 X41.4851 Y-23.5483 Z0.2529
G1 X41.4851 Y-23.5722 Z0.2523
G1 X41.4851 Y-23.6080 Z0.2514
G1 X41.4851 Y-23.6439 Z0.2504
G1 X41.4851 Y-23.6917 Z0.2489
G1 X41.4851 Y-23.7395 Z0.2472
G1 X41.4851 Y-23.7874 Z0.2454
G1 X41.4851 Y-23.8352 Z0.2435
G1 X41.4851 Y-23.8830 Z0.2414
G1 X41.4851 Y-23.9189 Z0.2398
G1 X41.4851 Y-23.9547 Z0.2380
G1 X41.4851 Y-23.9786 Z0.2368
G1 X41.4851 Y-24.0025 Z0.2356
G1 X41.4851 Y-24.0264 Z0.2343
G1 X41.4851 Y-24.0504 Z0.2330
G1 X41.4851 Y-24.0982 Z0.2303
G1 X41.4851 Y-24.1404 Z0.2278
G1 X41.4851 Y-24.1771 Z0.2255
G1 X41.4851 Y-24.1954 Z0.2243
G1 X41.4851 Y-24.2320 Z0.2219
G1 X41.4851 Y-24.2687 Z0.2194
G1 X41.4851 Y-24.3053 Z0.2168
G1 X41.4851 Y-24.3236 Z0.2155
G1 X41.4851 Y-24.3603 Z0.2128
G1 X41.4851 Y-24.3969 Z0.2100
G1 X41.4851 Y-24.4153 Z0.2086
G1 X41.4851 Y-24.4204 Z0.2085
G1 X41.4851 Y-24.4255 Z0.2089
G1 X41.4851 Y-24.4306 Z0.2098
G1 X41.4851 Y-24.4355 Z0.2112
G1 X41.4851 Y-24.4403 Z0.2132
G1 X41.4851 Y-24.4449 Z0.2156
G1 X41.4851 Y-24.4491 Z0.2185
G1 X41.4851 Y-24.4531 Z0.2217
G1 X41.4851 Y-24.4567 Z0.2254
G1 X41.4851 Y-24.4599 Z0.2295
G1 X41.4851 Y-24.4626 Z0.2338
G1 X41.4851 Y-24.4649 Z0.2384
G1 X41.4851 Y-24.4668 Z0.2432
G1 X41.4851 Y-24.4681 Z0.2482
G1 X41.4851 Y-24.4689 Z0.2533
G1 X41.4851 Y-24.4691 Z0.2584
G1 X41.4851 Y-24.4691 Z0.3076
G1 X41.3201 Y-22.8494 Z0.3825
G1 X41.3201 Y-22.8500 Z0.3703 F55.
G1 X41.3201 Y-22.8518 Z0.3582
G1 X41.3201 Y-22.8548 Z0.3463
G1 X41.3201 Y-22.8589 Z0.3347
G1 X41.3201 Y-22.8642 Z0.3236
G1 X41.3201 Y-22.8705 Z0.3131
G1 X41.3201 Y-22.8778 Z0.3033
G1 X41.3201 Y-22.8860 Z0.2942
G1 X41.3201 Y-22.8951 Z0.2859
G1 X41.3201 Y-22.9050 Z0.2786
G1 X41.3201 Y-22.9155 Z0.2723
G1 X41.3201 Y-22.9266 Z0.2671
G1 X41.3201 Y-22.9381 Z0.2629
G1 X41.3201 Y-22.9500 Z0.2600
G1 X41.3201 Y-22.9622 Z0.2582
G1 X41.3201 Y-22.9744 Z0.2576
G1 X41.3201 Y-23.1657 Z0.2575 F110.
G1 X41.3201 Y-23.2135 Z0.2575
G1 X41.3201 Y-23.2613 Z0.2572
G1 X41.3201 Y-23.2972 Z0.2570
G1 X41.3201 Y-23.3331 Z0.2567
G1 X41.3201 Y-23.3570 Z0.2564
G1 X41.3201 Y-23.3809 Z0.2561
G1 X41.3201 Y-23.4048 Z0.2557
G1 X41.3201 Y-23.4287 Z0.2554
G1 X41.3201 Y-23.4765 Z0.2545
G1 X41.3201 Y-23.5004 Z0.2540
G1 X41.3201 Y-23.5243 Z0.2535
G1 X41.3201 Y-23.5483 Z0.2529
G1 X41.3201 Y-23.5722 Z0.2523
G1 X41.3201 Y-23.6080 Z0.2514
G1 X41.3201 Y-23.6439 Z0.2504
G1 X41.3201 Y-23.6917 Z0.2489
G1 X41.3201 Y-23.7395 Z0.2472
G1 X41.3201 Y-23.7874 Z0.2454
G1 X41.3201 Y-23.8352 Z0.2435
G1 X41.3201 Y-23.8830 Z0.2414
G1 X41.3201 Y-23.9189 Z0.2398
G1 X41.3201 Y-23.9547 Z0.2380
G1 X41.3201 Y-23.9786 Z0.2368
G1 X41.3201 Y-24.0025 Z0.2356
G1 X41.3201 Y-24.0264 Z0.2343
G1 X41.3201 Y-24.0504 Z0.2330
G1 X41.3201 Y-24.0982 Z0.2303
G1 X41.3201 Y-24.1405 Z0.2278
G1 X41.3201 Y-24.1773 Z0.2255
G1 X41.3201 Y-24.1958 Z0.2243
G1 X41.3201 Y-24.2326 Z0.2219
G1 X41.3201 Y-24.2694 Z0.2194
G1 X41.3201 Y-24.3063 Z0.2168
G1 X41.3201 Y-24.3247 Z0.2154
G1 X41.3201 Y-24.3615 Z0.2127
G1 X41.3201 Y-24.3984 Z0.2099
G1 X41.3201 Y-24.4168 Z0.2085
G1 X41.3201 Y-24.4219 Z0.2083
G1 X41.3201 Y-24.4271 Z0.2087
G1 X41.3201 Y-24.4321 Z0.2097
G1 X41.3201 Y-24.4371 Z0.2111
G1 X41.3201 Y-24.4418 Z0.2130
G1 X41.3201 Y-24.4464 Z0.2155
G1 X41.3201 Y-24.4507 Z0.2183
G1 X41.3201 Y-24.4546 Z0.2216
G1 X41.3201 Y-24.4582 Z0.2253
G1 X41.3201 Y-24.4614 Z0.2293
G1 X41.3201 Y-24.4642 Z0.2337
G1 X41.3201 Y-24.4665 Z0.2383
G1 X41.3201 Y-24.4683 Z0.2431
G1 X41.3201 Y-24.4696 Z0.2481
G1 X41.3201 Y-24.4704 Z0.2532
G1 X41.3201 Y-24.4707 Z0.2583
G1 X41.3201 Y-24.4707 Z0.3076
G1 X41.1551 Y-22.8494 Z0.3825
G1 X41.1551 Y-22.8500 Z0.3703 F55.
G1 X41.1551 Y-22.8518 Z0.3582
G1 X41.1551 Y-22.8548 Z0.3463
G1 X41.1551 Y-22.8589 Z0.3347
G1 X41.1551 Y-22.8642 Z0.3236
G1 X41.1551 Y-22.8705 Z0.3131
G1 X41.1551 Y-22.8778 Z0.3033
G1 X41.1551 Y-22.8860 Z0.2942
G1 X41.1551 Y-22.8951 Z0.2859
G1 X41.1551 Y-22.9050 Z0.2786
G1 X41.1551 Y-22.9155 Z0.2723
G1 X41.1551 Y-22.9266 Z0.2671
G1 X41.1551 Y-22.9381 Z0.2629
G1 X41.1551 Y-22.9500 Z0.2600
G1 X41.1551 Y-22.9622 Z0.2582
G1 X41.1551 Y-22.9744 Z0.2576
G1 X41.1551 Y-23.1657 Z0.2575 F110.
G1 X41.1551 Y-23.2135 Z0.2575
G1 X41.1551 Y-23.2613 Z0.2572
G1 X41.1551 Y-23.2972 Z0.2570
G1 X41.1551 Y-23.3331 Z0.2567
G1 X41.1551 Y-23.3570 Z0.2564
G1 X41.1551 Y-23.3809 Z0.2561
G1 X41.1551 Y-23.4048 Z0.2557
G1 X41.1551 Y-23.4287 Z0.2554
G1 X41.1551 Y-23.4765 Z0.2545
G1 X41.1551 Y-23.5004 Z0.2540
G1 X41.1551 Y-23.5243 Z0.2535
G1 X41.1551 Y-23.5483 Z0.2529
G1 X41.1551 Y-23.5722 Z0.2523
G1 X41.1551 Y-23.6080 Z0.2514
G1 X41.1551 Y-23.6439 Z0.2504
G1 X41.1551 Y-23.6917 Z0.2489
G1 X41.1551 Y-23.7395 Z0.2472
G1 X41.1551 Y-23.7874 Z0.2454
G1 X41.1551 Y-23.8352 Z0.2435
G1 X41.1551 Y-23.8830 Z0.2414
G1 X41.1551 Y-23.9189 Z0.2398
G1 X41.1551 Y-23.9547 Z0.2380
G1 X41.1551 Y-23.9786 Z0.2368
G1 X41.1551 Y-24.0025 Z0.2356
G1 X41.1551 Y-24.0264 Z0.2343
G1 X41.1551 Y-24.0504 Z0.2330
G1 X41.1551 Y-24.0982 Z0.2303
G1 X41.1551 Y-24.1406 Z0.2278
G1 X41.1551 Y-24.1776 Z0.2254
G1 X41.1551 Y-24.1961 Z0.2243
G1 X41.1551 Y-24.2332 Z0.2218
G1 X41.1551 Y-24.2702 Z0.2193
G1 X41.1551 Y-24.3072 Z0.2167
G1 X41.1551 Y-24.3257 Z0.2154
G1 X41.1551 Y-24.3628 Z0.2126
G1 X41.1551 Y-24.3998 Z0.2098
G1 X41.1551 Y-24.4183 Z0.2084
G1 X41.1551 Y-24.4234 Z0.2082
G1 X41.1551 Y-24.4286 Z0.2086
G1 X41.1551 Y-24.4337 Z0.2095
G1 X41.1551 Y-24.4386 Z0.2110
G1 X41.1551 Y-24.4434 Z0.2129
G1 X41.1551 Y-24.4479 Z0.2153
G1 X41.1551 Y-24.4522 Z0.2182
G1 X41.1551 Y-24.4561 Z0.2215
G1 X41.1551 Y-24.4597 Z0.2252
G1 X41.1551 Y-24.4629 Z0.2292
G1 X41.1551 Y-24.4657 Z0.2336
G1 X41.1551 Y-24.4680 Z0.2382
G1 X41.1551 Y-24.4698 Z0.2430
G1 X41.1551 Y-24.4711 Z0.2480
G1 X41.1551 Y-24.4719 Z0.2531
G1 X41.1551 Y-24.4722 Z0.2582
G1 X41.1551 Y-24.4722 Z0.3076
G1 X40.9901 Y-22.8494 Z0.3825
G1 X40.9901 Y-22.8500 Z0.3703 F55.
G1 X40.9901 Y-22.8518 Z0.3582
G1 X40.9901 Y-22.8548 Z0.3463
G1 X40.9901 Y-22.8589 Z0.3347
G1 X40.9901 Y-22.8642 Z0.3236
G1 X40.9901 Y-22.8705 Z0.3131
G1 X40.9901 Y-22.8778 Z0.3033
G1 X40.9901 Y-22.8860 Z0.2942
G1 X40.9901 Y-22.8951 Z0.2859
G1 X40.9901 Y-22.9050 Z0.2786
G1 X40.9901 Y-22.9155 Z0.2723
G1 X40.9901 Y-22.9266 Z0.2671
G1 X40.9901 Y-22.9381 Z0.2629
G1 X40.9901 Y-22.9500 Z0.2600
G1 X40.9901 Y-22.9622 Z0.2582
G1 X40.9901 Y-22.9744 Z0.2576
G1 X40.9901 Y-23.1657 Z0.2575 F110.
G1 X40.9901 Y-23.2135 Z0.2575
G1 X40.9901 Y-23.2613 Z0.2572
G1 X40.9901 Y-23.2972 Z0.2570
G1 X40.9901 Y-23.3331 Z0.2567
G1 X40.9901 Y-23.3570 Z0.2564
G1 X40.9901 Y-23.3809 Z0.2561
G1 X40.9901 Y-23.4048 Z0.2557
G1 X40.9901 Y-23.4287 Z0.2554
G1 X40.9901 Y-23.4765 Z0.2545
G1 X40.9901 Y-23.5004 Z0.2540
G1 X40.9901 Y-23.5243 Z0.2535
G1 X40.9901 Y-23.5483 Z0.2529
G1 X40.9901 Y-23.5722 Z0.2523
G1 X40.9901 Y-23.6080 Z0.2514
G1 X40.9901 Y-23.6439 Z0.2504
G1 X40.9901 Y-23.6917 Z0.2489
G1 X40.9901 Y-23.7395 Z0.2472
G1 X40.9901 Y-23.7874 Z0.2454
G1 X40.9901 Y-23.8352 Z0.2435
G1 X40.9901 Y-23.8830 Z0.2414
G1 X40.9901 Y-23.9189 Z0.2398
G1 X40.9901 Y-23.9547 Z0.2380
G1 X40.9901 Y-23.9786 Z0.2368
G1 X40.9901 Y-24.0025 Z0.2356
G1 X40.9901 Y-24.0264 Z0.2343
G1 X40.9901 Y-24.0504 Z0.2330
G1 X40.9901 Y-24.0982 Z0.2303
G1 X40.9901 Y-24.1407 Z0.2278
G1 X40.9901 Y-24.1779 Z0.2254
G1 X40.9901 Y-24.1965 Z0.2242
G1 X40.9901 Y-24.2337 Z0.2218
G1 X40.9901 Y-24.2710 Z0.2193
G1 X40.9901 Y-24.3082 Z0.2166
G1 X40.9901 Y-24.3454 Z0.2139
G1 X40.9901 Y-24.3640 Z0.2125
G1 X40.9901 Y-24.4012 Z0.2097
G1 X40.9901 Y-24.4198 Z0.2082
G1 X40.9901 Y-24.4250 Z0.2081
G1 X40.9901 Y-24.4301 Z0.2085
G1 X40.9901 Y-24.4352 Z0.2094
G1 X40.9901 Y-24.4401 Z0.2108
G1 X40.9901 Y-24.4449 Z0.2128
G1 X40.9901 Y-24.4494 Z0.2152
G1 X40.9901 Y-24.4537 Z0.2181
G1 X40.9901 Y-24.4577 Z0.2214
G1 X40.9901 Y-24.4613 Z0.2251
G1 X40.9901 Y-24.4645 Z0.2291
G1 X40.9901 Y-24.4672 Z0.2334
G1 X40.9901 Y-24.4695 Z0.2381
G1 X40.9901 Y-24.4714 Z0.2429
G1 X40.9901 Y-24.4727 Z0.2479
G1 X40.9901 Y-24.4735 Z0.2529
G1 X40.9901 Y-24.4737 Z0.2581
G1 X40.9901 Y-24.4737 Z0.3076
G1 X40.8251 Y-22.8494 Z0.3825
G1 X40.8251 Y-22.8500 Z0.3703 F55.
G1 X40.8251 Y-22.8518 Z0.3582
G1 X40.8251 Y-22.8548 Z0.3463
G1 X40.8251 Y-22.8589 Z0.3347
G1 X40.8251 Y-22.8642 Z0.3236
G1 X40.8251 Y-22.8705 Z0.3131
G1 X40.8251 Y-22.8778 Z0.3033
G1 X40.8251 Y-22.8860 Z0.2942
G1 X40.8251 Y-22.8951 Z0.2859
G1 X40.8251 Y-22.9050 Z0.2786
G1 X40.8251 Y-22.9155 Z0.2723
G1 X40.8251 Y-22.9266 Z0.2671
G1 X40.8251 Y-22.9381 Z0.2629
G1 X40.8251 Y-22.9500 Z0.2600
G1 X40.8251 Y-22.9622 Z0.2582
G1 X40.8251 Y-22.9744 Z0.2576
G1 X40.8251 Y-23.1657 Z0.2575 F110.
G1 X40.8251 Y-23.2135 Z0.2575
G1 X40.8251 Y-23.2613 Z0.2572
G1 X40.8251 Y-23.2972 Z0.2570
G1 X40.8251 Y-23.3331 Z0.2567
G1 X40.8251 Y-23.3570 Z0.2564
G1 X40.8251 Y-23.3809 Z0.2561
G1 X40.8251 Y-23.4048 Z0.2557
G1 X40.8251 Y-23.4287 Z0.2554
G1 X40.8251 Y-23.4765 Z0.2545
G1 X40.8251 Y-23.5004 Z0.2540
G1 X40.8251 Y-23.5243 Z0.2535
G1 X40.8251 Y-23.5483 Z0.2529
G1 X40.8251 Y-23.5722 Z0.2523
G1 X40.8251 Y-23.6080 Z0.2514
G1 X40.8251 Y-23.6439 Z0.2504
G1 X40.8251 Y-23.6917 Z0.2489
G1 X40.8251 Y-23.7395 Z0.2472
G1 X40.8251 Y-23.7874 Z0.2454
G1 X40.8251 Y-23.8352 Z0.2435
G1 X40.8251 Y-23.8830 Z0.2414
G1 X40.8251 Y-23.9189 Z0.2398
G1 X40.8251 Y-23.9547 Z0.2380
G1 X40.8251 Y-23.9786 Z0.2368
G1 X40.8251 Y-24.0025 Z0.2356
G1 X40.8251 Y-24.0264 Z0.2343
G1 X40.8251 Y-24.0504 Z0.2330
G1 X40.8251 Y-24.0982 Z0.2303
G1 X40.8251 Y-24.1408 Z0.2277
G1 X40.8251 Y-24.1782 Z0.2254
G1 X40.8251 Y-24.1969 Z0.2242
G1 X40.8251 Y-24.2343 Z0.2218
G1 X40.8251 Y-24.2717 Z0.2192
G1 X40.8251 Y-24.3091 Z0.2166
G1 X40.8251 Y-24.3465 Z0.2138
G1 X40.8251 Y-24.3652 Z0.2124
G1 X40.8251 Y-24.4026 Z0.2096
G1 X40.8251 Y-24.4213 Z0.2081
G1 X40.8251 Y-24.4265 Z0.2080
G1 X40.8251 Y-24.4316 Z0.2084
G1 X40.8251 Y-24.4367 Z0.2093
G1 X40.8251 Y-24.4416 Z0.2107
G1 X40.8251 Y-24.4464 Z0.2127
G1 X40.8251 Y-24.4510 Z0.2151
G1 X40.8251 Y-24.4553 Z0.2179
G1 X40.8251 Y-24.4592 Z0.2212
G1 X40.8251 Y-24.4628 Z0.2249
G1 X40.8251 Y-24.4660 Z0.2290
G1 X40.8251 Y-24.4688 Z0.2333
G1 X40.8251 Y-24.4711 Z0.2379
G1 X40.8251 Y-24.4729 Z0.2427
G1 X40.8251 Y-24.4742 Z0.2477
G1 X40.8251 Y-24.4750 Z0.2528
G1 X40.8251 Y-24.4753 Z0.2580
G1 X40.8251 Y-24.4753 Z0.3076
G1 X40.6601 Y-22.8494 Z0.3825
G1 X40.6601 Y-22.8500 Z0.3703 F55.
G1 X40.6601 Y-22.8518 Z0.3582
G1 X40.6601 Y-22.8548 Z0.3463
G1 X40.6601 Y-22.8589 Z0.3347
G1 X40.6601 Y-22.8642 Z0.3236
G1 X40.6601 Y-22.8705 Z0.3131
G1 X40.6601 Y-22.8778 Z0.3033
G1 X40.6601 Y-22.8860 Z0.2942
G1 X40.6601 Y-22.8951 Z0.2859
G1 X40.6601 Y-22.9050 Z0.2786
G1 X40.6601 Y-22.9155 Z0.2723
G1 X40.6601 Y-22.9266 Z0.2671
G1 X40.6601 Y-22.9381 Z0.2629
G1 X40.6601 Y-22.9500 Z0.2600
G1 X40.6601 Y-22.9622 Z0.2582
G1 X40.6601 Y-22.9744 Z0.2576
G1 X40.6601 Y-23.1657 Z0.2575 F110.
G1 X40.6601 Y-23.2135 Z0.2575
G1 X40.6601 Y-23.2613 Z0.2572
G1 X40.6601 Y-23.2972 Z0.2570
G1 X40.6601 Y-23.3331 Z0.2567
G1 X40.6601 Y-23.3570 Z0.2564
G1 X40.6601 Y-23.3809 Z0.2561
G1 X40.6601 Y-23.4048 Z0.2557
G1 X40.6601 Y-23.4287 Z0.2554
G1 X40.6601 Y-23.4765 Z0.2545
G1 X40.6601 Y-23.5004 Z0.2540
G1 X40.6601 Y-23.5243 Z0.2535
G1 X40.6601 Y-23.5483 Z0.2529
G1 X40.6601 Y-23.5722 Z0.2523
G1 X40.6601 Y-23.6080 Z0.2514
G1 X40.6601 Y-23.6439 Z0.2504
G1 X40.6601 Y-23.6917 Z0.2489
G1 X40.6601 Y-23.7395 Z0.2472
G1 X40.6601 Y-23.7874 Z0.2454
G1 X40.6601 Y-23.8352 Z0.2435
G1 X40.6601 Y-23.8830 Z0.2414
G1 X40.6601 Y-23.9189 Z0.2398
G1 X40.6601 Y-23.9547 Z0.2380
G1 X40.6601 Y-23.9786 Z0.2368
G1 X40.6601 Y-24.0025 Z0.2356
G1 X40.6601 Y-24.0264 Z0.2343
G1 X40.6601 Y-24.0504 Z0.2330
G1 X40.6601 Y-24.0982 Z0.2303
G1 X40.6601 Y-24.1409 Z0.2277
G1 X40.6601 Y-24.1785 Z0.2254
G1 X40.6601 Y-24.1973 Z0.2242
G1 X40.6601 Y-24.2349 Z0.2217
G1 X40.6601 Y-24.2725 Z0.2192
G1 X40.6601 Y-24.3101 Z0.2165
G1 X40.6601 Y-24.3477 Z0.2138
G1 X40.6601 Y-24.3665 Z0.2124
G1 X40.6601 Y-24.4041 Z0.2095
G1 X40.6601 Y-24.4229 Z0.2080
G1 X40.6601 Y-24.4280 Z0.2079
G1 X40.6601 Y-24.4332 Z0.2082
G1 X40.6601 Y-24.4382 Z0.2092
G1 X40.6601 Y-24.4432 Z0.2106
G1 X40.6601 Y-24.4480 Z0.2125
G1 X40.6601 Y-24.4525 Z0.2150
G1 X40.6601 Y-24.4568 Z0.2178
G1 X40.6601 Y-24.4607 Z0.2211
G1 X40.6601 Y-24.4643 Z0.2248
G1 X40.6601 Y-24.4675 Z0.2288
G1 X40.6601 Y-24.4703 Z0.2332
G1 X40.6601 Y-24.4726 Z0.2378
G1 X40.6601 Y-24.4744 Z0.2426
G1 X40.6601 Y-24.4757 Z0.2476
G1 X40.6601 Y-24.4765 Z0.2527
G1 X40.6601 Y-24.4768 Z0.2578
G1 X40.6601 Y-24.4768 Z0.3076
G1 X40.4951 Y-22.8494 Z0.3825
G1 X40.4951 Y-22.8500 Z0.3703 F55.
G1 X40.4951 Y-22.8518 Z0.3582
G1 X40.4951 Y-22.8548 Z0.3463
G1 X40.4951 Y-22.8589 Z0.3347
G1 X40.4951 Y-22.8642 Z0.3236
G1 X40.4951 Y-22.8705 Z0.3131
G1 X40.4951 Y-22.8778 Z0.3033
G1 X40.4951 Y-22.8860 Z0.2942
G1 X40.4951 Y-22.8951 Z0.2859
G1 X40.4951 Y-22.9050 Z0.2786
G1 X40.4951 Y-22.9155 Z0.2723
G1 X40.4951 Y-22.9266 Z0.2671
G1 X40.4951 Y-22.9381 Z0.2629
G1 X40.4951 Y-22.9500 Z0.2600
G1 X40.4951 Y-22.9622 Z0.2582
G1 X40.4951 Y-22.9744 Z0.2576
G1 X40.4951 Y-23.1657 Z0.2575 F110.
G1 X40.4951 Y-23.2135 Z0.2575
G1 X40.4951 Y-23.2613 Z0.2572
G1 X40.4951 Y-23.2972 Z0.2570
G1 X40.4951 Y-23.3331 Z0.2567
G1 X40.4951 Y-23.3570 Z0.2564
G1 X40.4951 Y-23.3809 Z0.2561
G1 X40.4951 Y-23.4048 Z0.2557
G1 X40.4951 Y-23.4287 Z0.2554
G1 X40.4951 Y-23.4765 Z0.2545
G1 X40.4951 Y-23.5004 Z0.2540
G1 X40.4951 Y-23.5243 Z0.2535
G1 X40.4951 Y-23.5483 Z0.2529
G1 X40.4951 Y-23.5722 Z0.2523
G1 X40.4951 Y-23.6080 Z0.2514
G1 X40.4951 Y-23.6439 Z0.2504
G1 X40.4951 Y-23.6917 Z0.2489
G1 X40.4951 Y-23.7395 Z0.2472
G1 X40.4951 Y-23.7874 Z0.2454
G1 X40.4951 Y-23.8352 Z0.2435
G1 X40.4951 Y-23.8830 Z0.2414
G1 X40.4951 Y-23.9189 Z0.2398
G1 X40.4951 Y-23.9547 Z0.2380
G1 X40.4951 Y-23.9786 Z0.2368
G1 X40.4951 Y-24.0025 Z0.2356
G1 X40.4951 Y-24.0264 Z0.2343
G1 X40.4951 Y-24.0504 Z0.2330
G1 X40.4951 Y-24.0982 Z0.2303
G1 X40.4951 Y-24.1410 Z0.2277
G1 X40.4951 Y-24.1788 Z0.2254
G1 X40.4951 Y-24.1977 Z0.2242
G1 X40.4951 Y-24.2354 Z0.2217
G1 X40.4951 Y-24.2732 Z0.2191
G1 X40.4951 Y-24.3110 Z0.2164
G1 X40.4951 Y-24.3488 Z0.2137
G1 X40.4951 Y-24.3677 Z0.2123
G1 X40.4951 Y-24.4055 Z0.2094
G1 X40.4951 Y-24.4244 Z0.2079
G1 X40.4951 Y-24.4295 Z0.2077
G1 X40.4951 Y-24.4347 Z0.2081
G1 X40.4951 Y-24.4398 Z0.2090
G1 X40.4951 Y-24.4447 Z0.2105
G1 X40.4951 Y-24.4495 Z0.2124
G1 X40.4951 Y-24.4540 Z0.2148
G1 X40.4951 Y-24.4583 Z0.2177
G1 X40.4951 Y-24.4623 Z0.2210
G1 X40.4951 Y-24.4659 Z0.2247
G1 X40.4951 Y-24.4691 Z0.2287
G1 X40.4951 Y-24.4718 Z0.2331
G1 X40.4951 Y-24.4741 Z0.2377
G1 X40.4951 Y-24.4760 Z0.2425
G1 X40.4951 Y-24.4773 Z0.2475
G1 X40.4951 Y-24.4781 Z0.2526
G1 X40.4951 Y-24.4783 Z0.2577
G1 X40.4951 Y-24.4783 Z0.3076
G1 X40.3301 Y-22.8494 Z0.3825
G1 X40.3301 Y-22.8500 Z0.3703 F55.
G1 X40.3301 Y-22.8518 Z0.3582
G1 X40.3301 Y-22.8548 Z0.3463
G1 X40.3301 Y-22.8589 Z0.3347
G1 X40.3301 Y-22.8642 Z0.3236
G1 X40.3301 Y-22.8705 Z0.3131
G1 X40.3301 Y-22.8778 Z0.3033
G1 X40.3301 Y-22.8860 Z0.2942
G1 X40.3301 Y-22.8951 Z0.2859
G1 X40.3301 Y-22.9050 Z0.2786
G1 X40.3301 Y-22.9155 Z0.2723
G1 X40.3301 Y-22.9266 Z0.2671
G1 X40.3301 Y-22.9381 Z0.2629
G1 X40.3301 Y-22.9500 Z0.2600
G1 X40.3301 Y-22.9622 Z0.2582
G1 X40.3301 Y-22.9744 Z0.2576
G1 X40.3301 Y-23.1657 Z0.2575 F110.
G1 X40.3301 Y-23.2135 Z0.2575
G1 X40.3301 Y-23.2613 Z0.2572
G1 X40.3301 Y-23.2972 Z0.2570
G1 X40.3301 Y-23.3331 Z0.2567
G1 X40.3301 Y-23.3570 Z0.2564
G1 X40.3301 Y-23.3809 Z0.2561
G1 X40.3301 Y-23.4048 Z0.2557
G1 X40.3301 Y-23.4287 Z0.2554
G1 X40.3301 Y-23.4765 Z0.2545
G1 X40.3301 Y-23.5004 Z0.2540
G1 X40.3301 Y-23.5243 Z0.2535
G1 X40.3301 Y-23.5483 Z0.2529
G1 X40.3301 Y-23.5722 Z0.2523
G1 X40.3301 Y-23.6080 Z0.2514
G1 X40.3301 Y-23.6439 Z0.2504
G1 X40.3301 Y-23.6917 Z0.2489
G1 X40.3301 Y-23.7395 Z0.2472
G1 X40.3301 Y-23.7874 Z0.2454
G1 X40.3301 Y-23.8352 Z0.2435
G1 X40.3301 Y-23.8830 Z0.2414
G1 X40.3301 Y-23.9189 Z0.2398
G1 X40.3301 Y-23.9547 Z0.2380
G1 X40.3301 Y-23.9786 Z0.2368
G1 X40.3301 Y-24.0025 Z0.2356
G1 X40.3301 Y-24.0264 Z0.2343
G1 X40.3301 Y-24.0504 Z0.2330
G1 X40.3301 Y-24.0982 Z0.2303
G1 X40.3301 Y-24.1411 Z0.2277
G1 X40.3301 Y-24.1791 Z0.2254
G1 X40.3301 Y-24.1980 Z0.2241
G1 X40.3301 Y-24.2360 Z0.2216
G1 X40.3301 Y-24.2740 Z0.2191
G1 X40.3301 Y-24.3120 Z0.2164
G1 X40.3301 Y-24.3500 Z0.2136
G1 X40.3301 Y-24.3689 Z0.2122
G1 X40.3301 Y-24.4069 Z0.2093
G1 X40.3301 Y-24.4259 Z0.2078
G1 X40.3301 Y-24.4311 Z0.2076
G1 X40.3301 Y-24.4362 Z0.2080
G1 X40.3301 Y-24.4413 Z0.2089
G1 X40.3301 Y-24.4462 Z0.2104
G1 X40.3301 Y-24.4510 Z0.2123
G1 X40.3301 Y-24.4556 Z0.2147
G1 X40.3301 Y-24.4598 Z0.2176
G1 X40.3301 Y-24.4638 Z0.2209
G1 X40.3301 Y-24.4674 Z0.2246
G1 X40.3301 Y-24.4706 Z0.2286
G1 X40.3301 Y-24.4734 Z0.2329
G1 X40.3301 Y-24.4757 Z0.2376
G1 X40.3301 Y-24.4775 Z0.2424
G1 X40.3301 Y-24.4788 Z0.2474
G1 X40.3301 Y-24.4796 Z0.2525
G1 X40.3301 Y-24.4799 Z0.2576
G1 X40.3301 Y-24.4799 Z0.3076
G1 X40.1651 Y-22.8494 Z0.3825
G1 X40.1651 Y-22.8500 Z0.3703 F55.
G1 X40.1651 Y-22.8518 Z0.3582
G1 X40.1651 Y-22.8548 Z0.3463
G1 X40.1651 Y-22.8589 Z0.3347
G1 X40.1651 Y-22.8642 Z0.3236
G1 X40.1651 Y-22.8705 Z0.3131
G1 X40.1651 Y-22.8778 Z0.3033
G1 X40.1651 Y-22.8860 Z0.2942
G1 X40.1651 Y-22.8951 Z0.2859
G1 X40.1651 Y-22.9050 Z0.2786
G1 X40.1651 Y-22.9155 Z0.2723
G1 X40.1651 Y-22.9266 Z0.2671
G1 X40.1651 Y-22.9381 Z0.2629
G1 X40.1651 Y-22.9500 Z0.2600
G1 X40.1651 Y-22.9622 Z0.2582
G1 X40.1651 Y-22.9744 Z0.2576
G1 X40.1651 Y-23.1657 Z0.2575 F110.
G1 X40.1651 Y-23.2135 Z0.2575
G1 X40.1651 Y-23.2613 Z0.2572
G1 X40.1651 Y-23.2972 Z0.2570
G1 X40.1651 Y-23.3331 Z0.2567
G1 X40.1651 Y-23.3570 Z0.2564
G1 X40.1651 Y-23.3809 Z0.2561
G1 X40.1651 Y-23.4048 Z0.2557
G1 X40.1651 Y-23.4287 Z0.2554
G1 X40.1651 Y-23.4765 Z0.2545
G1 X40.1651 Y-23.5004 Z0.2540
G1 X40.1651 Y-23.5243 Z0.2535
G1 X40.1651 Y-23.5483 Z0.2529
G1 X40.1651 Y-23.5722 Z0.2523
G1 X40.1651 Y-23.6080 Z0.2514
G1 X40.1651 Y-23.6439 Z0.2504
G1 X40.1651 Y-23.6917 Z0.2489
G1 X40.1651 Y-23.7395 Z0.2472
G1 X40.1651 Y-23.7874 Z0.2454
G1 X40.1651 Y-23.8352 Z0.2435
G1 X40.1651 Y-23.8830 Z0.2414
G1 X40.1651 Y-23.9189 Z0.2398
G1 X40.1651 Y-23.9547 Z0.2380
G1 X40.1651 Y-23.9786 Z0.2368
G1 X40.1651 Y-24.0025 Z0.2356
G1 X40.1651 Y-24.0264 Z0.2343
G1 X40.1651 Y-24.0504 Z0.2330
G1 X40.1651 Y-24.0982 Z0.2303
G1 X40.1651 Y-24.1412 Z0.2277
G1 X40.1651 Y-24.1793 Z0.2253
G1 X40.1651 Y-24.1984 Z0.2241
G1 X40.1651 Y-24.2366 Z0.2216
G1 X40.1651 Y-24.2748 Z0.2190
G1 X40.1651 Y-24.3129 Z0.2163
G1 X40.1651 Y-24.3511 Z0.2135
G1 X40.1651 Y-24.3702 Z0.2121
G1 X40.1651 Y-24.4084 Z0.2091
G1 X40.1651 Y-24.4274 Z0.2076
G1 X40.1651 Y-24.4326 Z0.2075
G1 X40.1651 Y-24.4377 Z0.2079
G1 X40.1651 Y-24.4428 Z0.2088
G1 X40.1651 Y-24.4477 Z0.2102
G1 X40.1651 Y-24.4525 Z0.2122
G1 X40.1651 Y-24.4571 Z0.2146
G1 X40.1651 Y-24.4614 Z0.2175
G1 X40.1651 Y-24.4653 Z0.2208
G1 X40.1651 Y-24.4689 Z0.2244
G1 X40.1651 Y-24.4721 Z0.2285
G1 X40.1651 Y-24.4749 Z0.2328
G1 X40.1651 Y-24.4772 Z0.2374
G1 X40.1651 Y-24.4790 Z0.2423
G1 X40.1651 Y-24.4803 Z0.2472
G1 X40.1651 Y-24.4811 Z0.2523
G1 X40.1651 Y-24.4814 Z0.2575
G1 X40.1651 Y-24.4814 Z0.3076
