( MOP:  02-radius-r7PT25-AnyScale-final-start-NOMIRROR-01b )
( FILE: G:\Shared drives\AlloyProjectFiles\Customer CAD files\Alloy-Standard-Builds-CAM\Fingerboards-in\02-radius-r7PT25-AnyScale-final-start-NOMIRROR.nc)
G90
(  BEGIN TOOL LIST )
(  TOOL 3 - Downcut PT750 - DESC: 0.7500 DIA, 2 FLUTE,  CARBIDE MAT )
(  ENDOF TOOL LIST )
( 02-radius-r7PT25-AnyScale-final-start-NOMIRROR-01b)
T03
S14000
M3
G0 Z3.0000
G0 X47.2601 Y-21.0744 
G1 X47.2601 Y-21.0744 Z0.3861 F110.
G1 X47.2601 Y-21.0750 Z0.3738 F25.
G1 X47.2601 Y-21.0768 Z0.3617
G1 X47.2601 Y-21.0798 Z0.3498
G1 X47.2601 Y-21.0839 Z0.3382
G1 X47.2601 Y-21.0892 Z0.3271
G1 X47.2601 Y-21.0955 Z0.3166
G1 X47.2601 Y-21.1028 Z0.3068
G1 X47.2601 Y-21.1110 Z0.2977
G1 X47.2601 Y-21.1201 Z0.2894
G1 X47.2601 Y-21.1300 Z0.2821
G1 X47.2601 Y-21.1405 Z0.2758
G1 X47.2601 Y-21.1516 Z0.2706
G1 X47.2601 Y-21.1631 Z0.2664
G1 X47.2601 Y-21.1750 Z0.2635
G1 X47.2601 Y-21.1872 Z0.2617
G1 X47.2601 Y-21.1994 Z0.2611
G1 X47.2601 Y-23.1684 Z0.2611 F50.
G1 X47.2601 Y-23.2036 Z0.2610
G1 X47.2601 Y-23.2153 Z0.2609
G1 X47.2601 Y-23.2388 Z0.2607
G1 X47.2601 Y-23.2622 Z0.2605
G1 X47.2601 Y-23.2856 Z0.2602
G1 X47.2601 Y-23.2974 Z0.2600
G1 X47.2601 Y-23.3208 Z0.2595
G1 X47.2601 Y-23.3325 Z0.2593
G1 X47.2601 Y-23.3560 Z0.2587
G1 X47.2601 Y-23.3794 Z0.2581
G1 X47.2601 Y-23.4029 Z0.2574
G1 X47.2601 Y-23.4146 Z0.2570
G1 X47.2601 Y-23.4380 Z0.2562
G1 X47.2601 Y-23.4497 Z0.2558
G1 X47.2601 Y-23.4732 Z0.2548
G1 X47.2601 Y-23.4966 Z0.2538
G1 X47.2601 Y-23.5083 Z0.2533
G1 X47.2601 Y-23.5318 Z0.2522
G1 X47.2601 Y-23.5435 Z0.2516
G1 X47.2601 Y-23.5669 Z0.2503
G1 X47.2601 Y-23.5904 Z0.2490
G1 X47.2601 Y-23.6138 Z0.2476
G1 X47.2601 Y-23.6255 Z0.2469
G1 X47.2601 Y-23.6490 Z0.2454
G1 X47.2601 Y-23.6607 Z0.2446
G1 X47.2601 Y-23.6841 Z0.2430
G1 X47.2601 Y-23.7076 Z0.2413
G1 X47.2601 Y-23.7310 Z0.2395
G1 X47.2601 Y-23.7427 Z0.2386
G1 X47.2601 Y-23.7545 Z0.2377
G1 X47.2601 Y-23.7779 Z0.2358
G1 X47.2601 Y-23.8013 Z0.2338
G1 X47.2601 Y-23.8248 Z0.2317
G1 X47.2601 Y-23.8365 Z0.2306
G1 X47.2601 Y-23.8599 Z0.2284
G1 X47.2601 Y-23.8717 Z0.2273
G1 X47.2601 Y-23.8951 Z0.2250
G1 X47.2601 Y-23.9185 Z0.2226
G1 X47.2601 Y-23.9420 Z0.2202
G1 X47.2601 Y-23.9537 Z0.2189
G1 X47.2601 Y-23.9771 Z0.2163
G1 X47.2601 Y-23.9889 Z0.2150
G1 X47.2601 Y-24.0123 Z0.2123
G1 X47.2601 Y-24.0357 Z0.2095
G1 X47.2601 Y-24.0592 Z0.2067
G1 X47.2601 Y-24.0709 Z0.2053
G1 X47.2601 Y-24.0944 Z0.2023
G1 X47.2601 Y-24.1061 Z0.2008
G1 X47.2601 Y-24.1295 Z0.1977
G1 X47.2601 Y-24.1530 Z0.1945
G1 X47.2601 Y-24.1764 Z0.1913
G1 X47.2601 Y-24.1881 Z0.1897
G1 X47.2601 Y-24.2201 Z0.1851
G1 X47.2601 Y-24.2404 Z0.1821
G1 X47.2601 Y-24.2505 Z0.1806
G1 X47.2601 Y-24.2606 Z0.1790
G1 X47.2601 Y-24.2809 Z0.1759
G1 X47.2601 Y-24.3011 Z0.1728
G1 X47.2601 Y-24.3214 Z0.1695
G1 X47.2601 Y-24.3417 Z0.1663
G1 X47.2601 Y-24.3619 Z0.1629
G1 X47.2601 Y-24.3754 Z0.1615
G1 X47.2601 Y-24.3889 Z0.1614
G1 X47.2601 Y-24.4024 Z0.1629
G1 X47.2601 Y-24.4156 Z0.1658
G1 X47.2601 Y-24.4285 Z0.1701
G1 X47.2601 Y-24.4407 Z0.1758
G1 X47.2601 Y-24.4523 Z0.1828
G1 X47.2601 Y-24.4631 Z0.1910
G1 X47.2601 Y-24.4730 Z0.2003
G1 X47.2601 Y-24.4817 Z0.2106
G1 X47.2601 Y-24.4893 Z0.2218
G1 X47.2601 Y-24.4957 Z0.2338
G1 X47.2601 Y-24.5007 Z0.2463
G1 X47.2601 Y-24.5043 Z0.2594
G1 X47.2601 Y-24.5065 Z0.2727
G1 X47.2601 Y-24.5072 Z0.2863
G0 Z0.3111
G0 X47.2601 Y-24.5072 
G0 Z0.3861
G0 X47.0951 Y-21.0744 
G1 X47.0951 Y-21.0750 Z0.3738 F25.
G1 X47.0951 Y-21.0768 Z0.3617
G1 X47.0951 Y-21.0798 Z0.3498
G1 X47.0951 Y-21.0839 Z0.3382
G1 X47.0951 Y-21.0892 Z0.3271
G1 X47.0951 Y-21.0955 Z0.3166
G1 X47.0951 Y-21.1028 Z0.3068
G1 X47.0951 Y-21.1110 Z0.2977
G1 X47.0951 Y-21.1201 Z0.2894
G1 X47.0951 Y-21.1300 Z0.2821
G1 X47.0951 Y-21.1405 Z0.2758
G1 X47.0951 Y-21.1516 Z0.2706
G1 X47.0951 Y-21.1631 Z0.2664
G1 X47.0951 Y-21.1750 Z0.2635
G1 X47.0951 Y-21.1872 Z0.2617
G1 X47.0951 Y-21.1994 Z0.2611
G1 X47.0951 Y-23.1684 Z0.2611 F50.
G1 X47.0951 Y-23.2036 Z0.2610
G1 X47.0951 Y-23.2153 Z0.2609
G1 X47.0951 Y-23.2388 Z0.2607
G1 X47.0951 Y-23.2622 Z0.2605
G1 X47.0951 Y-23.2856 Z0.2602
G1 X47.0951 Y-23.2974 Z0.2600
G1 X47.0951 Y-23.3208 Z0.2595
G1 X47.0951 Y-23.3325 Z0.2593
G1 X47.0951 Y-23.3560 Z0.2587
G1 X47.0951 Y-23.3794 Z0.2581
G1 X47.0951 Y-23.4029 Z0.2574
G1 X47.0951 Y-23.4146 Z0.2570
G1 X47.0951 Y-23.4380 Z0.2562
G1 X47.0951 Y-23.4497 Z0.2558
G1 X47.0951 Y-23.4732 Z0.2548
G1 X47.0951 Y-23.4966 Z0.2538
G1 X47.0951 Y-23.5083 Z0.2533
G1 X47.0951 Y-23.5318 Z0.2522
G1 X47.0951 Y-23.5435 Z0.2516
G1 X47.0951 Y-23.5669 Z0.2503
G1 X47.0951 Y-23.5904 Z0.2490
G1 X47.0951 Y-23.6138 Z0.2476
G1 X47.0951 Y-23.6255 Z0.2469
G1 X47.0951 Y-23.6490 Z0.2454
G1 X47.0951 Y-23.6607 Z0.2446
G1 X47.0951 Y-23.6841 Z0.2430
G1 X47.0951 Y-23.7076 Z0.2413
G1 X47.0951 Y-23.7310 Z0.2395
G1 X47.0951 Y-23.7427 Z0.2386
G1 X47.0951 Y-23.7545 Z0.2377
G1 X47.0951 Y-23.7779 Z0.2358
G1 X47.0951 Y-23.8013 Z0.2338
G1 X47.0951 Y-23.8248 Z0.2317
G1 X47.0951 Y-23.8365 Z0.2306
G1 X47.0951 Y-23.8599 Z0.2284
G1 X47.0951 Y-23.8717 Z0.2273
G1 X47.0951 Y-23.8951 Z0.2250
G1 X47.0951 Y-23.9185 Z0.2226
G1 X47.0951 Y-23.9420 Z0.2202
G1 X47.0951 Y-23.9537 Z0.2189
G1 X47.0951 Y-23.9771 Z0.2163
G1 X47.0951 Y-23.9889 Z0.2150
G1 X47.0951 Y-24.0123 Z0.2123
G1 X47.0951 Y-24.0357 Z0.2095
G1 X47.0951 Y-24.0592 Z0.2067
G1 X47.0951 Y-24.0709 Z0.2053
G1 X47.0951 Y-24.0944 Z0.2023
G1 X47.0951 Y-24.1061 Z0.2008
G1 X47.0951 Y-24.1295 Z0.1977
G1 X47.0951 Y-24.1530 Z0.1945
G1 X47.0951 Y-24.1764 Z0.1913
G1 X47.0951 Y-24.1881 Z0.1897
G1 X47.0951 Y-24.2203 Z0.1850
G1 X47.0951 Y-24.2408 Z0.1820
G1 X47.0951 Y-24.2511 Z0.1805
G1 X47.0951 Y-24.2613 Z0.1789
G1 X47.0951 Y-24.2818 Z0.1758
G1 X47.0951 Y-24.3023 Z0.1726
G1 X47.0951 Y-24.3228 Z0.1693
G1 X47.0951 Y-24.3331 Z0.1677
G1 X47.0951 Y-24.3433 Z0.1660
G1 X47.0951 Y-24.3638 Z0.1626
G1 X47.0951 Y-24.3773 Z0.1611
G1 X47.0951 Y-24.3908 Z0.1611
G1 X47.0951 Y-24.4043 Z0.1626
G1 X47.0951 Y-24.4175 Z0.1655
G1 X47.0951 Y-24.4303 Z0.1698
G1 X47.0951 Y-24.4426 Z0.1755
G1 X47.0951 Y-24.4542 Z0.1825
G1 X47.0951 Y-24.4650 Z0.1907
G1 X47.0951 Y-24.4748 Z0.2000
G1 X47.0951 Y-24.4836 Z0.2103
G1 X47.0951 Y-24.4912 Z0.2215
G1 X47.0951 Y-24.4975 Z0.2335
G1 X47.0951 Y-24.5026 Z0.2460
G1 X47.0951 Y-24.5062 Z0.2591
G1 X47.0951 Y-24.5084 Z0.2724
G1 X47.0951 Y-24.5091 Z0.2860
G0 Z0.3111
G0 X47.0951 Y-24.5091 
G0 Z0.3861
G0 X46.9301 Y-21.0744 
G1 X46.9301 Y-21.0750 Z0.3738 F25.
G1 X46.9301 Y-21.0768 Z0.3617
G1 X46.9301 Y-21.0798 Z0.3498
G1 X46.9301 Y-21.0839 Z0.3382
G1 X46.9301 Y-21.0892 Z0.3271
G1 X46.9301 Y-21.0955 Z0.3166
G1 X46.9301 Y-21.1028 Z0.3068
G1 X46.9301 Y-21.1110 Z0.2977
G1 X46.9301 Y-21.1201 Z0.2894
G1 X46.9301 Y-21.1300 Z0.2821
G1 X46.9301 Y-21.1405 Z0.2758
G1 X46.9301 Y-21.1516 Z0.2706
G1 X46.9301 Y-21.1631 Z0.2664
G1 X46.9301 Y-21.1750 Z0.2635
G1 X46.9301 Y-21.1872 Z0.2617
G1 X46.9301 Y-21.1994 Z0.2611
G1 X46.9301 Y-23.1684 Z0.2611 F50.
G1 X46.9301 Y-23.2036 Z0.2610
G1 X46.9301 Y-23.2153 Z0.2609
G1 X46.9301 Y-23.2388 Z0.2607
G1 X46.9301 Y-23.2622 Z0.2605
G1 X46.9301 Y-23.2856 Z0.2602
G1 X46.9301 Y-23.2974 Z0.2600
G1 X46.9301 Y-23.3208 Z0.2595
G1 X46.9301 Y-23.3325 Z0.2593
G1 X46.9301 Y-23.3560 Z0.2587
G1 X46.9301 Y-23.3794 Z0.2581
G1 X46.9301 Y-23.4029 Z0.2574
G1 X46.9301 Y-23.4146 Z0.2570
G1 X46.9301 Y-23.4380 Z0.2562
G1 X46.9301 Y-23.4497 Z0.2558
G1 X46.9301 Y-23.4732 Z0.2548
G1 X46.9301 Y-23.4966 Z0.2538
G1 X46.9301 Y-23.5083 Z0.2533
G1 X46.9301 Y-23.5318 Z0.2522
G1 X46.9301 Y-23.5435 Z0.2516
G1 X46.9301 Y-23.5669 Z0.2503
G1 X46.9301 Y-23.5904 Z0.2490
G1 X46.9301 Y-23.6138 Z0.2476
G1 X46.9301 Y-23.6255 Z0.2469
G1 X46.9301 Y-23.6490 Z0.2454
G1 X46.9301 Y-23.6607 Z0.2446
G1 X46.9301 Y-23.6841 Z0.2430
G1 X46.9301 Y-23.7076 Z0.2413
G1 X46.9301 Y-23.7310 Z0.2395
G1 X46.9301 Y-23.7427 Z0.2386
G1 X46.9301 Y-23.7545 Z0.2377
G1 X46.9301 Y-23.7779 Z0.2358
G1 X46.9301 Y-23.8013 Z0.2338
G1 X46.9301 Y-23.8248 Z0.2317
G1 X46.9301 Y-23.8365 Z0.2306
G1 X46.9301 Y-23.8599 Z0.2284
G1 X46.9301 Y-23.8717 Z0.2273
G1 X46.9301 Y-23.8951 Z0.2250
G1 X46.9301 Y-23.9185 Z0.2226
G1 X46.9301 Y-23.9420 Z0.2202
G1 X46.9301 Y-23.9537 Z0.2189
G1 X46.9301 Y-23.9771 Z0.2163
G1 X46.9301 Y-23.9889 Z0.2150
G1 X46.9301 Y-24.0123 Z0.2123
G1 X46.9301 Y-24.0357 Z0.2095
G1 X46.9301 Y-24.0592 Z0.2067
G1 X46.9301 Y-24.0709 Z0.2053
G1 X46.9301 Y-24.0944 Z0.2023
G1 X46.9301 Y-24.1061 Z0.2008
G1 X46.9301 Y-24.1295 Z0.1977
G1 X46.9301 Y-24.1530 Z0.1945
G1 X46.9301 Y-24.1764 Z0.1913
G1 X46.9301 Y-24.1881 Z0.1897
G1 X46.9301 Y-24.2206 Z0.1850
G1 X46.9301 Y-24.2413 Z0.1819
G1 X46.9301 Y-24.2517 Z0.1804
G1 X46.9301 Y-24.2620 Z0.1788
G1 X46.9301 Y-24.2828 Z0.1756
G1 X46.9301 Y-24.3035 Z0.1724
G1 X46.9301 Y-24.3346 Z0.1674
G1 X46.9301 Y-24.3657 Z0.1623
G1 X46.9301 Y-24.3791 Z0.1608
G1 X46.9301 Y-24.3927 Z0.1608
G1 X46.9301 Y-24.4061 Z0.1623
G1 X46.9301 Y-24.4193 Z0.1652
G1 X46.9301 Y-24.4322 Z0.1695
G1 X46.9301 Y-24.4445 Z0.1752
G1 X46.9301 Y-24.4561 Z0.1822
G1 X46.9301 Y-24.4669 Z0.1904
G1 X46.9301 Y-24.4767 Z0.1997
G1 X46.9301 Y-24.4854 Z0.2100
G1 X46.9301 Y-24.4930 Z0.2212
G1 X46.9301 Y-24.4994 Z0.2331
G1 X46.9301 Y-24.5044 Z0.2457
G1 X46.9301 Y-24.5080 Z0.2588
G1 X46.9301 Y-24.5102 Z0.2721
G1 X46.9301 Y-24.5110 Z0.2856
G0 Z0.3111
G0 X46.9301 Y-24.5110 
G0 Z0.3861
G0 X46.7651 Y-21.0744 
G1 X46.7651 Y-21.0750 Z0.3738 F25.
G1 X46.7651 Y-21.0768 Z0.3617
G1 X46.7651 Y-21.0798 Z0.3498
G1 X46.7651 Y-21.0839 Z0.3382
G1 X46.7651 Y-21.0892 Z0.3271
G1 X46.7651 Y-21.0955 Z0.3166
G1 X46.7651 Y-21.1028 Z0.3068
G1 X46.7651 Y-21.1110 Z0.2977
G1 X46.7651 Y-21.1201 Z0.2894
G1 X46.7651 Y-21.1300 Z0.2821
G1 X46.7651 Y-21.1405 Z0.2758
G1 X46.7651 Y-21.1516 Z0.2706
G1 X46.7651 Y-21.1631 Z0.2664
G1 X46.7651 Y-21.1750 Z0.2635
G1 X46.7651 Y-21.1872 Z0.2617
G1 X46.7651 Y-21.1994 Z0.2611
G1 X46.7651 Y-23.1684 Z0.2611 F50.
G1 X46.7651 Y-23.2036 Z0.2610
G1 X46.7651 Y-23.2153 Z0.2609
G1 X46.7651 Y-23.2388 Z0.2607
G1 X46.7651 Y-23.2622 Z0.2605
G1 X46.7651 Y-23.2856 Z0.2602
G1 X46.7651 Y-23.2974 Z0.2600
G1 X46.7651 Y-23.3208 Z0.2595
G1 X46.7651 Y-23.3325 Z0.2593
G1 X46.7651 Y-23.3560 Z0.2587
G1 X46.7651 Y-23.3794 Z0.2581
G1 X46.7651 Y-23.4029 Z0.2574
G1 X46.7651 Y-23.4146 Z0.2570
G1 X46.7651 Y-23.4380 Z0.2562
G1 X46.7651 Y-23.4497 Z0.2558
G1 X46.7651 Y-23.4732 Z0.2548
G1 X46.7651 Y-23.4966 Z0.2538
G1 X46.7651 Y-23.5083 Z0.2533
G1 X46.7651 Y-23.5318 Z0.2522
G1 X46.7651 Y-23.5435 Z0.2516
G1 X46.7651 Y-23.5669 Z0.2503
G1 X46.7651 Y-23.5904 Z0.2490
G1 X46.7651 Y-23.6138 Z0.2476
G1 X46.7651 Y-23.6255 Z0.2469
G1 X46.7651 Y-23.6490 Z0.2454
G1 X46.7651 Y-23.6607 Z0.2446
G1 X46.7651 Y-23.6841 Z0.2430
G1 X46.7651 Y-23.7076 Z0.2413
G1 X46.7651 Y-23.7310 Z0.2395
G1 X46.7651 Y-23.7427 Z0.2386
G1 X46.7651 Y-23.7545 Z0.2377
G1 X46.7651 Y-23.7779 Z0.2358
G1 X46.7651 Y-23.8013 Z0.2338
G1 X46.7651 Y-23.8248 Z0.2317
G1 X46.7651 Y-23.8365 Z0.2306
G1 X46.7651 Y-23.8599 Z0.2284
G1 X46.7651 Y-23.8717 Z0.2273
G1 X46.7651 Y-23.8951 Z0.2250
G1 X46.7651 Y-23.9185 Z0.2226
G1 X46.7651 Y-23.9420 Z0.2202
G1 X46.7651 Y-23.9537 Z0.2189
G1 X46.7651 Y-23.9771 Z0.2163
G1 X46.7651 Y-23.9889 Z0.2150
G1 X46.7651 Y-24.0123 Z0.2123
G1 X46.7651 Y-24.0357 Z0.2095
G1 X46.7651 Y-24.0592 Z0.2067
G1 X46.7651 Y-24.0709 Z0.2053
G1 X46.7651 Y-24.0944 Z0.2023
G1 X46.7651 Y-24.1061 Z0.2008
G1 X46.7651 Y-24.1295 Z0.1977
G1 X46.7651 Y-24.1530 Z0.1945
G1 X46.7651 Y-24.1764 Z0.1913
G1 X46.7651 Y-24.1881 Z0.1897
G1 X46.7651 Y-24.1998 Z0.1880
G1 X46.7651 Y-24.2208 Z0.1850
G1 X46.7651 Y-24.2418 Z0.1819
G1 X46.7651 Y-24.2627 Z0.1787
G1 X46.7651 Y-24.2732 Z0.1771
G1 X46.7651 Y-24.2837 Z0.1755
G1 X46.7651 Y-24.3046 Z0.1722
G1 X46.7651 Y-24.3361 Z0.1672
G1 X46.7651 Y-24.3675 Z0.1620
G1 X46.7651 Y-24.3810 Z0.1605
G1 X46.7651 Y-24.3945 Z0.1605
G1 X46.7651 Y-24.4080 Z0.1620
G1 X46.7651 Y-24.4212 Z0.1649
G1 X46.7651 Y-24.4341 Z0.1692
G1 X46.7651 Y-24.4464 Z0.1749
G1 X46.7651 Y-24.4580 Z0.1818
G1 X46.7651 Y-24.4688 Z0.1900
G1 X46.7651 Y-24.4786 Z0.1993
G1 X46.7651 Y-24.4874 Z0.2096
G1 X46.7651 Y-24.4950 Z0.2209
G1 X46.7651 Y-24.5013 Z0.2328
G1 X46.7651 Y-24.5063 Z0.2454
G1 X46.7651 Y-24.5099 Z0.2584
G1 X46.7651 Y-24.5121 Z0.2718
G1 X46.7651 Y-24.5129 Z0.2853
G0 Z0.3111
G0 X46.7651 Y-24.5129 
G0 Z0.3861
G0 X46.6001 Y-21.0744 
G1 X46.6001 Y-21.0750 Z0.3738 F25.
G1 X46.6001 Y-21.0768 Z0.3617
G1 X46.6001 Y-21.0798 Z0.3498
G1 X46.6001 Y-21.0839 Z0.3382
G1 X46.6001 Y-21.0892 Z0.3271
G1 X46.6001 Y-21.0955 Z0.3166
G1 X46.6001 Y-21.1028 Z0.3068
G1 X46.6001 Y-21.1110 Z0.2977
G1 X46.6001 Y-21.1201 Z0.2894
G1 X46.6001 Y-21.1300 Z0.2821
G1 X46.6001 Y-21.1405 Z0.2758
G1 X46.6001 Y-21.1516 Z0.2706
G1 X46.6001 Y-21.1631 Z0.2664
G1 X46.6001 Y-21.1750 Z0.2635
G1 X46.6001 Y-21.1872 Z0.2617
G1 X46.6001 Y-21.1994 Z0.2611
G1 X46.6001 Y-23.1684 Z0.2611 F50.
G1 X46.6001 Y-23.2036 Z0.2610
G1 X46.6001 Y-23.2153 Z0.2609
G1 X46.6001 Y-23.2388 Z0.2607
G1 X46.6001 Y-23.2622 Z0.2605
G1 X46.6001 Y-23.2856 Z0.2602
G1 X46.6001 Y-23.2974 Z0.2600
G1 X46.6001 Y-23.3208 Z0.2595
G1 X46.6001 Y-23.3325 Z0.2593
G1 X46.6001 Y-23.3560 Z0.2587
G1 X46.6001 Y-23.3794 Z0.2581
G1 X46.6001 Y-23.4029 Z0.2574
G1 X46.6001 Y-23.4146 Z0.2570
G1 X46.6001 Y-23.4380 Z0.2562
G1 X46.6001 Y-23.4497 Z0.2558
G1 X46.6001 Y-23.4732 Z0.2548
G1 X46.6001 Y-23.4966 Z0.2538
G1 X46.6001 Y-23.5083 Z0.2533
G1 X46.6001 Y-23.5318 Z0.2522
G1 X46.6001 Y-23.5435 Z0.2516
G1 X46.6001 Y-23.5669 Z0.2503
G1 X46.6001 Y-23.5904 Z0.2490
G1 X46.6001 Y-23.6138 Z0.2476
G1 X46.6001 Y-23.6255 Z0.2469
G1 X46.6001 Y-23.6490 Z0.2454
G1 X46.6001 Y-23.6607 Z0.2446
G1 X46.6001 Y-23.6841 Z0.2430
G1 X46.6001 Y-23.7076 Z0.2413
G1 X46.6001 Y-23.7310 Z0.2395
G1 X46.6001 Y-23.7427 Z0.2386
G1 X46.6001 Y-23.7545 Z0.2377
G1 X46.6001 Y-23.7779 Z0.2358
G1 X46.6001 Y-23.8013 Z0.2338
G1 X46.6001 Y-23.8248 Z0.2317
G1 X46.6001 Y-23.8365 Z0.2306
G1 X46.6001 Y-23.8599 Z0.2284
G1 X46.6001 Y-23.8717 Z0.2273
G1 X46.6001 Y-23.8951 Z0.2250
G1 X46.6001 Y-23.9185 Z0.2226
G1 X46.6001 Y-23.9420 Z0.2202
G1 X46.6001 Y-23.9537 Z0.2189
G1 X46.6001 Y-23.9771 Z0.2163
G1 X46.6001 Y-23.9889 Z0.2150
G1 X46.6001 Y-24.0123 Z0.2123
G1 X46.6001 Y-24.0357 Z0.2095
G1 X46.6001 Y-24.0592 Z0.2067
G1 X46.6001 Y-24.0709 Z0.2053
G1 X46.6001 Y-24.0944 Z0.2023
G1 X46.6001 Y-24.1061 Z0.2008
G1 X46.6001 Y-24.1295 Z0.1977
G1 X46.6001 Y-24.1530 Z0.1945
G1 X46.6001 Y-24.1764 Z0.1913
G1 X46.6001 Y-24.1881 Z0.1897
G1 X46.6001 Y-24.1998 Z0.1880
G1 X46.6001 Y-24.2210 Z0.1849
G1 X46.6001 Y-24.2422 Z0.1818
G1 X46.6001 Y-24.2634 Z0.1786
G1 X46.6001 Y-24.2740 Z0.1770
G1 X46.6001 Y-24.2846 Z0.1753
G1 X46.6001 Y-24.3058 Z0.1720
G1 X46.6001 Y-24.3270 Z0.1686
G1 X46.6001 Y-24.3376 Z0.1669
G1 X46.6001 Y-24.3482 Z0.1652
G1 X46.6001 Y-24.3694 Z0.1617
G1 X46.6001 Y-24.3829 Z0.1602
G1 X46.6001 Y-24.3964 Z0.1602
G1 X46.6001 Y-24.4099 Z0.1616
G1 X46.6001 Y-24.4231 Z0.1645
G1 X46.6001 Y-24.4360 Z0.1688
G1 X46.6001 Y-24.4483 Z0.1745
G1 X46.6001 Y-24.4599 Z0.1815
G1 X46.6001 Y-24.4707 Z0.1897
G1 X46.6001 Y-24.4805 Z0.1990
G1 X46.6001 Y-24.4893 Z0.2093
G1 X46.6001 Y-24.4969 Z0.2205
G1 X46.6001 Y-24.5032 Z0.2325
G1 X46.6001 Y-24.5082 Z0.2451
G1 X46.6001 Y-24.5119 Z0.2581
G1 X46.6001 Y-24.5141 Z0.2715
G1 X46.6001 Y-24.5148 Z0.2850
G0 Z0.3111
G0 X46.6001 Y-24.5148 
G0 Z0.3861
G0 X46.4351 Y-21.0744 
G1 X46.4351 Y-21.0750 Z0.3738 F25.
G1 X46.4351 Y-21.0768 Z0.3617
G1 X46.4351 Y-21.0798 Z0.3498
G1 X46.4351 Y-21.0839 Z0.3382
G1 X46.4351 Y-21.0892 Z0.3271
G1 X46.4351 Y-21.0955 Z0.3166
G1 X46.4351 Y-21.1028 Z0.3068
G1 X46.4351 Y-21.1110 Z0.2977
G1 X46.4351 Y-21.1201 Z0.2894
G1 X46.4351 Y-21.1300 Z0.2821
G1 X46.4351 Y-21.1405 Z0.2758
G1 X46.4351 Y-21.1516 Z0.2706
G1 X46.4351 Y-21.1631 Z0.2664
G1 X46.4351 Y-21.1750 Z0.2635
G1 X46.4351 Y-21.1872 Z0.2617
G1 X46.4351 Y-21.1994 Z0.2611
G1 X46.4351 Y-23.1684 Z0.2611 F50.
G1 X46.4351 Y-23.2036 Z0.2610
G1 X46.4351 Y-23.2153 Z0.2609
G1 X46.4351 Y-23.2388 Z0.2607
G1 X46.4351 Y-23.2622 Z0.2605
G1 X46.4351 Y-23.2856 Z0.2602
G1 X46.4351 Y-23.2974 Z0.2600
G1 X46.4351 Y-23.3208 Z0.2595
G1 X46.4351 Y-23.3325 Z0.2593
G1 X46.4351 Y-23.3560 Z0.2587
G1 X46.4351 Y-23.3794 Z0.2581
G1 X46.4351 Y-23.4029 Z0.2574
G1 X46.4351 Y-23.4146 Z0.2570
G1 X46.4351 Y-23.4380 Z0.2562
G1 X46.4351 Y-23.4497 Z0.2558
G1 X46.4351 Y-23.4732 Z0.2548
G1 X46.4351 Y-23.4966 Z0.2538
G1 X46.4351 Y-23.5083 Z0.2533
G1 X46.4351 Y-23.5318 Z0.2522
G1 X46.4351 Y-23.5435 Z0.2516
G1 X46.4351 Y-23.5669 Z0.2503
G1 X46.4351 Y-23.5904 Z0.2490
G1 X46.4351 Y-23.6138 Z0.2476
G1 X46.4351 Y-23.6255 Z0.2469
G1 X46.4351 Y-23.6490 Z0.2454
G1 X46.4351 Y-23.6607 Z0.2446
G1 X46.4351 Y-23.6841 Z0.2430
G1 X46.4351 Y-23.7076 Z0.2413
G1 X46.4351 Y-23.7310 Z0.2395
G1 X46.4351 Y-23.7427 Z0.2386
G1 X46.4351 Y-23.7545 Z0.2377
G1 X46.4351 Y-23.7779 Z0.2358
G1 X46.4351 Y-23.8013 Z0.2338
G1 X46.4351 Y-23.8248 Z0.2317
G1 X46.4351 Y-23.8365 Z0.2306
G1 X46.4351 Y-23.8599 Z0.2284
G1 X46.4351 Y-23.8717 Z0.2273
G1 X46.4351 Y-23.8951 Z0.2250
G1 X46.4351 Y-23.9185 Z0.2226
G1 X46.4351 Y-23.9420 Z0.2202
G1 X46.4351 Y-23.9537 Z0.2189
G1 X46.4351 Y-23.9771 Z0.2163
G1 X46.4351 Y-23.9889 Z0.2150
G1 X46.4351 Y-24.0123 Z0.2123
G1 X46.4351 Y-24.0357 Z0.2095
G1 X46.4351 Y-24.0592 Z0.2067
G1 X46.4351 Y-24.0709 Z0.2053
G1 X46.4351 Y-24.0944 Z0.2023
G1 X46.4351 Y-24.1061 Z0.2008
G1 X46.4351 Y-24.1295 Z0.1977
G1 X46.4351 Y-24.1530 Z0.1945
G1 X46.4351 Y-24.1764 Z0.1913
G1 X46.4351 Y-24.1881 Z0.1897
G1 X46.4351 Y-24.1998 Z0.1880
G1 X46.4351 Y-24.2213 Z0.1849
G1 X46.4351 Y-24.2427 Z0.1817
G1 X46.4351 Y-24.2641 Z0.1785
G1 X46.4351 Y-24.2748 Z0.1769
G1 X46.4351 Y-24.2856 Z0.1752
G1 X46.4351 Y-24.3070 Z0.1718
G1 X46.4351 Y-24.3284 Z0.1684
G1 X46.4351 Y-24.3391 Z0.1667
G1 X46.4351 Y-24.3498 Z0.1649
G1 X46.4351 Y-24.3713 Z0.1614
G1 X46.4351 Y-24.3847 Z0.1599
G1 X46.4351 Y-24.3983 Z0.1599
G1 X46.4351 Y-24.4118 Z0.1613
G1 X46.4351 Y-24.4250 Z0.1642
G1 X46.4351 Y-24.4378 Z0.1685
G1 X46.4351 Y-24.4501 Z0.1742
G1 X46.4351 Y-24.4618 Z0.1811
G1 X46.4351 Y-24.4726 Z0.1893
G1 X46.4351 Y-24.4824 Z0.1986
G1 X46.4351 Y-24.4912 Z0.2090
G1 X46.4351 Y-24.4988 Z0.2202
G1 X46.4351 Y-24.5051 Z0.2321
G1 X46.4351 Y-24.5102 Z0.2447
G1 X46.4351 Y-24.5138 Z0.2578
G1 X46.4351 Y-24.5160 Z0.2711
G1 X46.4351 Y-24.5167 Z0.2847
G0 Z0.3111
G0 X46.4351 Y-24.5167 
G0 Z0.3861
G0 X46.2701 Y-21.0744 
G1 X46.2701 Y-21.0750 Z0.3738 F25.
G1 X46.2701 Y-21.0768 Z0.3617
G1 X46.2701 Y-21.0798 Z0.3498
G1 X46.2701 Y-21.0839 Z0.3382
G1 X46.2701 Y-21.0892 Z0.3271
G1 X46.2701 Y-21.0955 Z0.3166
G1 X46.2701 Y-21.1028 Z0.3068
G1 X46.2701 Y-21.1110 Z0.2977
G1 X46.2701 Y-21.1201 Z0.2894
G1 X46.2701 Y-21.1300 Z0.2821
G1 X46.2701 Y-21.1405 Z0.2758
G1 X46.2701 Y-21.1516 Z0.2706
G1 X46.2701 Y-21.1631 Z0.2664
G1 X46.2701 Y-21.1750 Z0.2635
G1 X46.2701 Y-21.1872 Z0.2617
G1 X46.2701 Y-21.1994 Z0.2611
G1 X46.2701 Y-23.1684 Z0.2611 F50.
G1 X46.2701 Y-23.2036 Z0.2610
G1 X46.2701 Y-23.2153 Z0.2609
G1 X46.2701 Y-23.2388 Z0.2607
G1 X46.2701 Y-23.2622 Z0.2605
G1 X46.2701 Y-23.2856 Z0.2602
G1 X46.2701 Y-23.2974 Z0.2600
G1 X46.2701 Y-23.3208 Z0.2595
G1 X46.2701 Y-23.3325 Z0.2593
G1 X46.2701 Y-23.3560 Z0.2587
G1 X46.2701 Y-23.3794 Z0.2581
G1 X46.2701 Y-23.4029 Z0.2574
G1 X46.2701 Y-23.4146 Z0.2570
G1 X46.2701 Y-23.4380 Z0.2562
G1 X46.2701 Y-23.4497 Z0.2558
G1 X46.2701 Y-23.4732 Z0.2548
G1 X46.2701 Y-23.4966 Z0.2538
G1 X46.2701 Y-23.5083 Z0.2533
G1 X46.2701 Y-23.5318 Z0.2522
G1 X46.2701 Y-23.5435 Z0.2516
G1 X46.2701 Y-23.5669 Z0.2503
G1 X46.2701 Y-23.5904 Z0.2490
G1 X46.2701 Y-23.6138 Z0.2476
G1 X46.2701 Y-23.6255 Z0.2469
G1 X46.2701 Y-23.6490 Z0.2454
G1 X46.2701 Y-23.6607 Z0.2446
G1 X46.2701 Y-23.6841 Z0.2430
G1 X46.2701 Y-23.7076 Z0.2413
G1 X46.2701 Y-23.7310 Z0.2395
G1 X46.2701 Y-23.7427 Z0.2386
G1 X46.2701 Y-23.7545 Z0.2377
G1 X46.2701 Y-23.7779 Z0.2358
G1 X46.2701 Y-23.8013 Z0.2338
G1 X46.2701 Y-23.8248 Z0.2317
G1 X46.2701 Y-23.8365 Z0.2306
G1 X46.2701 Y-23.8599 Z0.2284
G1 X46.2701 Y-23.8717 Z0.2273
G1 X46.2701 Y-23.8951 Z0.2250
G1 X46.2701 Y-23.9185 Z0.2226
G1 X46.2701 Y-23.9420 Z0.2202
G1 X46.2701 Y-23.9537 Z0.2189
G1 X46.2701 Y-23.9771 Z0.2163
G1 X46.2701 Y-23.9889 Z0.2150
G1 X46.2701 Y-24.0123 Z0.2123
G1 X46.2701 Y-24.0357 Z0.2095
G1 X46.2701 Y-24.0592 Z0.2067
G1 X46.2701 Y-24.0709 Z0.2053
G1 X46.2701 Y-24.0944 Z0.2023
G1 X46.2701 Y-24.1061 Z0.2008
G1 X46.2701 Y-24.1295 Z0.1977
G1 X46.2701 Y-24.1530 Z0.1945
G1 X46.2701 Y-24.1764 Z0.1913
G1 X46.2701 Y-24.1881 Z0.1897
G1 X46.2701 Y-24.1998 Z0.1880
G1 X46.2701 Y-24.2215 Z0.1849
G1 X46.2701 Y-24.2432 Z0.1817
G1 X46.2701 Y-24.2648 Z0.1784
G1 X46.2701 Y-24.2757 Z0.1767
G1 X46.2701 Y-24.2865 Z0.1750
G1 X46.2701 Y-24.3081 Z0.1717
G1 X46.2701 Y-24.3298 Z0.1682
G1 X46.2701 Y-24.3406 Z0.1664
G1 X46.2701 Y-24.3623 Z0.1629
G1 X46.2701 Y-24.3731 Z0.1610
G1 X46.2701 Y-24.3866 Z0.1595
G1 X46.2701 Y-24.4002 Z0.1595
G1 X46.2701 Y-24.4137 Z0.1609
G1 X46.2701 Y-24.4269 Z0.1638
G1 X46.2701 Y-24.4398 Z0.1681
G1 X46.2701 Y-24.4521 Z0.1738
G1 X46.2701 Y-24.4637 Z0.1807
G1 X46.2701 Y-24.4746 Z0.1889
G1 X46.2701 Y-24.4844 Z0.1982
G1 X46.2701 Y-24.4932 Z0.2085
G1 X46.2701 Y-24.5008 Z0.2198
G1 X46.2701 Y-24.5072 Z0.2317
G1 X46.2701 Y-24.5122 Z0.2443
G1 X46.2701 Y-24.5159 Z0.2574
G1 X46.2701 Y-24.5181 Z0.2708
G1 X46.2701 Y-24.5188 Z0.2843
G0 Z0.3111
G0 X46.2701 Y-24.5188 
G0 Z0.3861
G0 X46.1051 Y-21.0744 
G1 X46.1051 Y-21.0750 Z0.3738 F25.
G1 X46.1051 Y-21.0768 Z0.3617
G1 X46.1051 Y-21.0798 Z0.3498
G1 X46.1051 Y-21.0839 Z0.3382
G1 X46.1051 Y-21.0892 Z0.3271
G1 X46.1051 Y-21.0955 Z0.3166
G1 X46.1051 Y-21.1028 Z0.3068
G1 X46.1051 Y-21.1110 Z0.2977
G1 X46.1051 Y-21.1201 Z0.2894
G1 X46.1051 Y-21.1300 Z0.2821
G1 X46.1051 Y-21.1405 Z0.2758
G1 X46.1051 Y-21.1516 Z0.2706
G1 X46.1051 Y-21.1631 Z0.2664
G1 X46.1051 Y-21.1750 Z0.2635
G1 X46.1051 Y-21.1872 Z0.2617
G1 X46.1051 Y-21.1994 Z0.2611
G1 X46.1051 Y-23.1684 Z0.2611 F50.
G1 X46.1051 Y-23.2036 Z0.2610
G1 X46.1051 Y-23.2153 Z0.2609
G1 X46.1051 Y-23.2388 Z0.2607
G1 X46.1051 Y-23.2622 Z0.2605
G1 X46.1051 Y-23.2856 Z0.2602
G1 X46.1051 Y-23.2974 Z0.2600
G1 X46.1051 Y-23.3208 Z0.2595
G1 X46.1051 Y-23.3325 Z0.2593
G1 X46.1051 Y-23.3560 Z0.2587
G1 X46.1051 Y-23.3794 Z0.2581
G1 X46.1051 Y-23.4029 Z0.2574
G1 X46.1051 Y-23.4146 Z0.2570
G1 X46.1051 Y-23.4380 Z0.2562
G1 X46.1051 Y-23.4497 Z0.2558
G1 X46.1051 Y-23.4732 Z0.2548
G1 X46.1051 Y-23.4966 Z0.2538
G1 X46.1051 Y-23.5083 Z0.2533
G1 X46.1051 Y-23.5318 Z0.2522
G1 X46.1051 Y-23.5435 Z0.2516
G1 X46.1051 Y-23.5669 Z0.2503
G1 X46.1051 Y-23.5904 Z0.2490
G1 X46.1051 Y-23.6138 Z0.2476
G1 X46.1051 Y-23.6255 Z0.2469
G1 X46.1051 Y-23.6490 Z0.2454
G1 X46.1051 Y-23.6607 Z0.2446
G1 X46.1051 Y-23.6841 Z0.2430
G1 X46.1051 Y-23.7076 Z0.2413
G1 X46.1051 Y-23.7310 Z0.2395
G1 X46.1051 Y-23.7427 Z0.2386
G1 X46.1051 Y-23.7545 Z0.2377
G1 X46.1051 Y-23.7779 Z0.2358
G1 X46.1051 Y-23.8013 Z0.2338
G1 X46.1051 Y-23.8248 Z0.2317
G1 X46.1051 Y-23.8365 Z0.2306
G1 X46.1051 Y-23.8599 Z0.2284
G1 X46.1051 Y-23.8717 Z0.2273
G1 X46.1051 Y-23.8951 Z0.2250
G1 X46.1051 Y-23.9185 Z0.2226
G1 X46.1051 Y-23.9420 Z0.2202
G1 X46.1051 Y-23.9537 Z0.2189
G1 X46.1051 Y-23.9771 Z0.2163
G1 X46.1051 Y-23.9889 Z0.2150
G1 X46.1051 Y-24.0123 Z0.2123
G1 X46.1051 Y-24.0357 Z0.2095
G1 X46.1051 Y-24.0592 Z0.2067
G1 X46.1051 Y-24.0709 Z0.2053
G1 X46.1051 Y-24.0944 Z0.2023
G1 X46.1051 Y-24.1061 Z0.2008
G1 X46.1051 Y-24.1295 Z0.1977
G1 X46.1051 Y-24.1530 Z0.1945
G1 X46.1051 Y-24.1764 Z0.1913
G1 X46.1051 Y-24.1881 Z0.1897
G1 X46.1051 Y-24.1998 Z0.1880
G1 X46.1051 Y-24.2217 Z0.1848
G1 X46.1051 Y-24.2436 Z0.1816
G1 X46.1051 Y-24.2655 Z0.1783
G1 X46.1051 Y-24.2765 Z0.1766
G1 X46.1051 Y-24.2874 Z0.1749
G1 X46.1051 Y-24.3093 Z0.1715
G1 X46.1051 Y-24.3312 Z0.1680
G1 X46.1051 Y-24.3531 Z0.1644
G1 X46.1051 Y-24.3641 Z0.1626
G1 X46.1051 Y-24.3750 Z0.1607
G1 X46.1051 Y-24.3885 Z0.1592
G1 X46.1051 Y-24.4021 Z0.1592
G1 X46.1051 Y-24.4156 Z0.1606
G1 X46.1051 Y-24.4288 Z0.1634
G1 X46.1051 Y-24.4417 Z0.1677
G1 X46.1051 Y-24.4540 Z0.1734
G1 X46.1051 Y-24.4657 Z0.1804
G1 X46.1051 Y-24.4765 Z0.1886
G1 X46.1051 Y-24.4863 Z0.1979
G1 X46.1051 Y-24.4951 Z0.2082
G1 X46.1051 Y-24.5028 Z0.2194
G1 X46.1051 Y-24.5091 Z0.2314
G1 X46.1051 Y-24.5142 Z0.2440
G1 X46.1051 Y-24.5178 Z0.2571
G1 X46.1051 Y-24.5200 Z0.2704
G1 X46.1051 Y-24.5208 Z0.2840
G0 Z0.3111
G0 X46.1051 Y-24.5208 
G0 Z0.3861
G0 X45.9401 Y-21.0744 
G1 X45.9401 Y-21.0750 Z0.3738 F25.
G1 X45.9401 Y-21.0768 Z0.3617
G1 X45.9401 Y-21.0798 Z0.3498
G1 X45.9401 Y-21.0839 Z0.3382
G1 X45.9401 Y-21.0892 Z0.3271
G1 X45.9401 Y-21.0955 Z0.3166
G1 X45.9401 Y-21.1028 Z0.3068
G1 X45.9401 Y-21.1110 Z0.2977
G1 X45.9401 Y-21.1201 Z0.2894
G1 X45.9401 Y-21.1300 Z0.2821
G1 X45.9401 Y-21.1405 Z0.2758
G1 X45.9401 Y-21.1516 Z0.2706
G1 X45.9401 Y-21.1631 Z0.2664
G1 X45.9401 Y-21.1750 Z0.2635
G1 X45.9401 Y-21.1872 Z0.2617
G1 X45.9401 Y-21.1994 Z0.2611
G1 X45.9401 Y-23.1684 Z0.2611 F50.
G1 X45.9401 Y-23.2036 Z0.2610
G1 X45.9401 Y-23.2153 Z0.2609
G1 X45.9401 Y-23.2388 Z0.2607
G1 X45.9401 Y-23.2622 Z0.2605
G1 X45.9401 Y-23.2856 Z0.2602
G1 X45.9401 Y-23.2974 Z0.2600
G1 X45.9401 Y-23.3208 Z0.2595
G1 X45.9401 Y-23.3325 Z0.2593
G1 X45.9401 Y-23.3560 Z0.2587
G1 X45.9401 Y-23.3794 Z0.2581
G1 X45.9401 Y-23.4029 Z0.2574
G1 X45.9401 Y-23.4146 Z0.2570
G1 X45.9401 Y-23.4380 Z0.2562
G1 X45.9401 Y-23.4497 Z0.2558
G1 X45.9401 Y-23.4732 Z0.2548
G1 X45.9401 Y-23.4966 Z0.2538
G1 X45.9401 Y-23.5083 Z0.2533
G1 X45.9401 Y-23.5318 Z0.2522
G1 X45.9401 Y-23.5435 Z0.2516
G1 X45.9401 Y-23.5669 Z0.2503
G1 X45.9401 Y-23.5904 Z0.2490
G1 X45.9401 Y-23.6138 Z0.2476
G1 X45.9401 Y-23.6255 Z0.2469
G1 X45.9401 Y-23.6490 Z0.2454
G1 X45.9401 Y-23.6607 Z0.2446
G1 X45.9401 Y-23.6841 Z0.2430
G1 X45.9401 Y-23.7076 Z0.2413
G1 X45.9401 Y-23.7310 Z0.2395
G1 X45.9401 Y-23.7427 Z0.2386
G1 X45.9401 Y-23.7545 Z0.2377
G1 X45.9401 Y-23.7779 Z0.2358
G1 X45.9401 Y-23.8013 Z0.2338
G1 X45.9401 Y-23.8248 Z0.2317
G1 X45.9401 Y-23.8365 Z0.2306
G1 X45.9401 Y-23.8599 Z0.2284
G1 X45.9401 Y-23.8717 Z0.2273
G1 X45.9401 Y-23.8951 Z0.2250
G1 X45.9401 Y-23.9185 Z0.2226
G1 X45.9401 Y-23.9420 Z0.2202
G1 X45.9401 Y-23.9537 Z0.2189
G1 X45.9401 Y-23.9771 Z0.2163
G1 X45.9401 Y-23.9889 Z0.2150
G1 X45.9401 Y-24.0123 Z0.2123
G1 X45.9401 Y-24.0357 Z0.2095
G1 X45.9401 Y-24.0592 Z0.2067
G1 X45.9401 Y-24.0709 Z0.2053
G1 X45.9401 Y-24.0944 Z0.2023
G1 X45.9401 Y-24.1061 Z0.2008
G1 X45.9401 Y-24.1295 Z0.1977
G1 X45.9401 Y-24.1530 Z0.1945
G1 X45.9401 Y-24.1764 Z0.1913
G1 X45.9401 Y-24.1881 Z0.1897
G1 X45.9401 Y-24.1998 Z0.1880
G1 X45.9401 Y-24.2220 Z0.1848
G1 X45.9401 Y-24.2441 Z0.1815
G1 X45.9401 Y-24.2662 Z0.1782
G1 X45.9401 Y-24.2773 Z0.1765
G1 X45.9401 Y-24.2884 Z0.1748
G1 X45.9401 Y-24.3105 Z0.1713
G1 X45.9401 Y-24.3326 Z0.1677
G1 X45.9401 Y-24.3547 Z0.1641
G1 X45.9401 Y-24.3658 Z0.1623
G1 X45.9401 Y-24.3769 Z0.1604
G1 X45.9401 Y-24.3904 Z0.1589
G1 X45.9401 Y-24.4039 Z0.1588
G1 X45.9401 Y-24.4174 Z0.1602
G1 X45.9401 Y-24.4307 Z0.1631
G1 X45.9401 Y-24.4436 Z0.1674
G1 X45.9401 Y-24.4559 Z0.1731
G1 X45.9401 Y-24.4676 Z0.1800
G1 X45.9401 Y-24.4784 Z0.1882
G1 X45.9401 Y-24.4883 Z0.1975
G1 X45.9401 Y-24.4971 Z0.2078
G1 X45.9401 Y-24.5047 Z0.2191
G1 X45.9401 Y-24.5111 Z0.2310
G1 X45.9401 Y-24.5161 Z0.2437
G1 X45.9401 Y-24.5197 Z0.2567
G1 X45.9401 Y-24.5219 Z0.2701
G1 X45.9401 Y-24.5227 Z0.2837
G0 Z0.3111
G0 X45.9401 Y-24.5227 
G0 Z0.3861
G0 X45.7751 Y-21.0744 
G1 X45.7751 Y-21.0750 Z0.3738 F25.
G1 X45.7751 Y-21.0768 Z0.3617
G1 X45.7751 Y-21.0798 Z0.3498
G1 X45.7751 Y-21.0839 Z0.3382
G1 X45.7751 Y-21.0892 Z0.3271
G1 X45.7751 Y-21.0955 Z0.3166
G1 X45.7751 Y-21.1028 Z0.3068
G1 X45.7751 Y-21.1110 Z0.2977
G1 X45.7751 Y-21.1201 Z0.2894
G1 X45.7751 Y-21.1300 Z0.2821
G1 X45.7751 Y-21.1405 Z0.2758
G1 X45.7751 Y-21.1516 Z0.2706
G1 X45.7751 Y-21.1631 Z0.2664
G1 X45.7751 Y-21.1750 Z0.2635
G1 X45.7751 Y-21.1872 Z0.2617
G1 X45.7751 Y-21.1994 Z0.2611
G1 X45.7751 Y-23.1684 Z0.2611 F50.
G1 X45.7751 Y-23.2036 Z0.2610
G1 X45.7751 Y-23.2153 Z0.2609
G1 X45.7751 Y-23.2388 Z0.2607
G1 X45.7751 Y-23.2622 Z0.2605
G1 X45.7751 Y-23.2856 Z0.2602
G1 X45.7751 Y-23.2974 Z0.2600
G1 X45.7751 Y-23.3208 Z0.2595
G1 X45.7751 Y-23.3325 Z0.2593
G1 X45.7751 Y-23.3560 Z0.2587
G1 X45.7751 Y-23.3794 Z0.2581
G1 X45.7751 Y-23.4029 Z0.2574
G1 X45.7751 Y-23.4146 Z0.2570
G1 X45.7751 Y-23.4380 Z0.2562
G1 X45.7751 Y-23.4497 Z0.2558
G1 X45.7751 Y-23.4732 Z0.2548
G1 X45.7751 Y-23.4966 Z0.2538
G1 X45.7751 Y-23.5083 Z0.2533
G1 X45.7751 Y-23.5318 Z0.2522
G1 X45.7751 Y-23.5435 Z0.2516
G1 X45.7751 Y-23.5669 Z0.2503
G1 X45.7751 Y-23.5904 Z0.2490
G1 X45.7751 Y-23.6138 Z0.2476
G1 X45.7751 Y-23.6255 Z0.2469
G1 X45.7751 Y-23.6490 Z0.2454
G1 X45.7751 Y-23.6607 Z0.2446
G1 X45.7751 Y-23.6841 Z0.2430
G1 X45.7751 Y-23.7076 Z0.2413
G1 X45.7751 Y-23.7310 Z0.2395
G1 X45.7751 Y-23.7427 Z0.2386
G1 X45.7751 Y-23.7545 Z0.2377
G1 X45.7751 Y-23.7779 Z0.2358
G1 X45.7751 Y-23.8013 Z0.2338
G1 X45.7751 Y-23.8248 Z0.2317
G1 X45.7751 Y-23.8365 Z0.2306
G1 X45.7751 Y-23.8599 Z0.2284
G1 X45.7751 Y-23.8717 Z0.2273
G1 X45.7751 Y-23.8951 Z0.2250
G1 X45.7751 Y-23.9185 Z0.2226
G1 X45.7751 Y-23.9420 Z0.2202
G1 X45.7751 Y-23.9537 Z0.2189
G1 X45.7751 Y-23.9771 Z0.2163
G1 X45.7751 Y-23.9889 Z0.2150
G1 X45.7751 Y-24.0123 Z0.2123
G1 X45.7751 Y-24.0357 Z0.2095
G1 X45.7751 Y-24.0592 Z0.2067
G1 X45.7751 Y-24.0709 Z0.2053
G1 X45.7751 Y-24.0944 Z0.2023
G1 X45.7751 Y-24.1061 Z0.2008
G1 X45.7751 Y-24.1295 Z0.1977
G1 X45.7751 Y-24.1530 Z0.1945
G1 X45.7751 Y-24.1764 Z0.1913
G1 X45.7751 Y-24.1881 Z0.1897
G1 X45.7751 Y-24.1998 Z0.1880
G1 X45.7751 Y-24.2222 Z0.1847
G1 X45.7751 Y-24.2446 Z0.1814
G1 X45.7751 Y-24.2669 Z0.1781
G1 X45.7751 Y-24.2781 Z0.1764
G1 X45.7751 Y-24.2893 Z0.1746
G1 X45.7751 Y-24.3117 Z0.1711
G1 X45.7751 Y-24.3340 Z0.1675
G1 X45.7751 Y-24.3564 Z0.1638
G1 X45.7751 Y-24.3676 Z0.1620
G1 X45.7751 Y-24.3787 Z0.1601
G1 X45.7751 Y-24.3922 Z0.1586
G1 X45.7751 Y-24.4058 Z0.1585
G1 X45.7751 Y-24.4193 Z0.1599
G1 X45.7751 Y-24.4326 Z0.1628
G1 X45.7751 Y-24.4454 Z0.1671
G1 X45.7751 Y-24.4578 Z0.1727
G1 X45.7751 Y-24.4694 Z0.1797
G1 X45.7751 Y-24.4802 Z0.1879
G1 X45.7751 Y-24.4901 Z0.1972
G1 X45.7751 Y-24.4989 Z0.2075
G1 X45.7751 Y-24.5066 Z0.2188
G1 X45.7751 Y-24.5129 Z0.2307
G1 X45.7751 Y-24.5180 Z0.2433
G1 X45.7751 Y-24.5216 Z0.2564
G1 X45.7751 Y-24.5238 Z0.2698
G1 X45.7751 Y-24.5246 Z0.2834
G0 Z0.3111
G0 X45.7751 Y-24.5246 
G0 Z0.3861
G0 X45.6101 Y-21.0744 
G1 X45.6101 Y-21.0750 Z0.3738 F25.
G1 X45.6101 Y-21.0768 Z0.3617
G1 X45.6101 Y-21.0798 Z0.3498
G1 X45.6101 Y-21.0839 Z0.3382
G1 X45.6101 Y-21.0892 Z0.3271
G1 X45.6101 Y-21.0955 Z0.3166
G1 X45.6101 Y-21.1028 Z0.3068
G1 X45.6101 Y-21.1110 Z0.2977
G1 X45.6101 Y-21.1201 Z0.2894
G1 X45.6101 Y-21.1300 Z0.2821
G1 X45.6101 Y-21.1405 Z0.2758
G1 X45.6101 Y-21.1516 Z0.2706
G1 X45.6101 Y-21.1631 Z0.2664
G1 X45.6101 Y-21.1750 Z0.2635
G1 X45.6101 Y-21.1872 Z0.2617
G1 X45.6101 Y-21.1994 Z0.2611
G1 X45.6101 Y-23.1684 Z0.2611 F50.
G1 X45.6101 Y-23.2036 Z0.2610
G1 X45.6101 Y-23.2153 Z0.2609
G1 X45.6101 Y-23.2388 Z0.2607
G1 X45.6101 Y-23.2622 Z0.2605
G1 X45.6101 Y-23.2856 Z0.2602
G1 X45.6101 Y-23.2974 Z0.2600
G1 X45.6101 Y-23.3208 Z0.2595
G1 X45.6101 Y-23.3325 Z0.2593
G1 X45.6101 Y-23.3560 Z0.2587
G1 X45.6101 Y-23.3794 Z0.2581
G1 X45.6101 Y-23.4029 Z0.2574
G1 X45.6101 Y-23.4146 Z0.2570
G1 X45.6101 Y-23.4380 Z0.2562
G1 X45.6101 Y-23.4497 Z0.2558
G1 X45.6101 Y-23.4732 Z0.2548
G1 X45.6101 Y-23.4966 Z0.2538
G1 X45.6101 Y-23.5083 Z0.2533
G1 X45.6101 Y-23.5318 Z0.2522
G1 X45.6101 Y-23.5435 Z0.2516
G1 X45.6101 Y-23.5669 Z0.2503
G1 X45.6101 Y-23.5904 Z0.2490
G1 X45.6101 Y-23.6138 Z0.2476
G1 X45.6101 Y-23.6255 Z0.2469
G1 X45.6101 Y-23.6490 Z0.2454
G1 X45.6101 Y-23.6607 Z0.2446
G1 X45.6101 Y-23.6841 Z0.2430
G1 X45.6101 Y-23.7076 Z0.2413
G1 X45.6101 Y-23.7310 Z0.2395
G1 X45.6101 Y-23.7427 Z0.2386
G1 X45.6101 Y-23.7545 Z0.2377
G1 X45.6101 Y-23.7779 Z0.2358
G1 X45.6101 Y-23.8013 Z0.2338
G1 X45.6101 Y-23.8248 Z0.2317
G1 X45.6101 Y-23.8365 Z0.2306
G1 X45.6101 Y-23.8599 Z0.2284
G1 X45.6101 Y-23.8717 Z0.2273
G1 X45.6101 Y-23.8951 Z0.2250
G1 X45.6101 Y-23.9185 Z0.2226
G1 X45.6101 Y-23.9420 Z0.2202
G1 X45.6101 Y-23.9537 Z0.2189
G1 X45.6101 Y-23.9771 Z0.2163
G1 X45.6101 Y-23.9889 Z0.2150
G1 X45.6101 Y-24.0123 Z0.2123
G1 X45.6101 Y-24.0357 Z0.2095
G1 X45.6101 Y-24.0592 Z0.2067
G1 X45.6101 Y-24.0709 Z0.2053
G1 X45.6101 Y-24.0944 Z0.2023
G1 X45.6101 Y-24.1061 Z0.2008
G1 X45.6101 Y-24.1295 Z0.1977
G1 X45.6101 Y-24.1530 Z0.1945
G1 X45.6101 Y-24.1764 Z0.1913
G1 X45.6101 Y-24.1881 Z0.1897
G1 X45.6101 Y-24.1998 Z0.1880
G1 X45.6101 Y-24.2224 Z0.1847
G1 X45.6101 Y-24.2450 Z0.1814
G1 X45.6101 Y-24.2676 Z0.1780
G1 X45.6101 Y-24.2789 Z0.1762
G1 X45.6101 Y-24.3015 Z0.1727
G1 X45.6101 Y-24.3128 Z0.1709
G1 X45.6101 Y-24.3354 Z0.1673
G1 X45.6101 Y-24.3580 Z0.1636
G1 X45.6101 Y-24.3693 Z0.1617
G1 X45.6101 Y-24.3806 Z0.1598
G1 X45.6101 Y-24.3941 Z0.1583
G1 X45.6101 Y-24.4077 Z0.1582
G1 X45.6101 Y-24.4212 Z0.1596
G1 X45.6101 Y-24.4344 Z0.1625
G1 X45.6101 Y-24.4473 Z0.1668
G1 X45.6101 Y-24.4596 Z0.1724
G1 X45.6101 Y-24.4713 Z0.1794
G1 X45.6101 Y-24.4821 Z0.1876
G1 X45.6101 Y-24.4920 Z0.1969
G1 X45.6101 Y-24.5008 Z0.2072
G1 X45.6101 Y-24.5084 Z0.2184
G1 X45.6101 Y-24.5148 Z0.2304
G1 X45.6101 Y-24.5198 Z0.2430
G1 X45.6101 Y-24.5235 Z0.2561
G1 X45.6101 Y-24.5257 Z0.2695
G1 X45.6101 Y-24.5264 Z0.2830
G0 Z0.3111
G0 X45.6101 Y-24.5264 
G0 Z0.3861
G0 X45.4451 Y-21.0744 
G1 X45.4451 Y-21.0750 Z0.3738 F25.
G1 X45.4451 Y-21.0768 Z0.3617
G1 X45.4451 Y-21.0798 Z0.3498
G1 X45.4451 Y-21.0839 Z0.3382
G1 X45.4451 Y-21.0892 Z0.3271
G1 X45.4451 Y-21.0955 Z0.3166
G1 X45.4451 Y-21.1028 Z0.3068
G1 X45.4451 Y-21.1110 Z0.2977
G1 X45.4451 Y-21.1201 Z0.2894
G1 X45.4451 Y-21.1300 Z0.2821
G1 X45.4451 Y-21.1405 Z0.2758
G1 X45.4451 Y-21.1516 Z0.2706
G1 X45.4451 Y-21.1631 Z0.2664
G1 X45.4451 Y-21.1750 Z0.2635
G1 X45.4451 Y-21.1872 Z0.2617
G1 X45.4451 Y-21.1994 Z0.2611
G1 X45.4451 Y-23.1684 Z0.2611 F50.
G1 X45.4451 Y-23.2036 Z0.2610
G1 X45.4451 Y-23.2153 Z0.2609
G1 X45.4451 Y-23.2388 Z0.2607
G1 X45.4451 Y-23.2622 Z0.2605
G1 X45.4451 Y-23.2856 Z0.2602
G1 X45.4451 Y-23.2974 Z0.2600
G1 X45.4451 Y-23.3208 Z0.2595
G1 X45.4451 Y-23.3325 Z0.2593
G1 X45.4451 Y-23.3560 Z0.2587
G1 X45.4451 Y-23.3794 Z0.2581
G1 X45.4451 Y-23.4029 Z0.2574
G1 X45.4451 Y-23.4146 Z0.2570
G1 X45.4451 Y-23.4380 Z0.2562
G1 X45.4451 Y-23.4497 Z0.2558
G1 X45.4451 Y-23.4732 Z0.2548
G1 X45.4451 Y-23.4966 Z0.2538
G1 X45.4451 Y-23.5083 Z0.2533
G1 X45.4451 Y-23.5318 Z0.2522
G1 X45.4451 Y-23.5435 Z0.2516
G1 X45.4451 Y-23.5669 Z0.2503
G1 X45.4451 Y-23.5904 Z0.2490
G1 X45.4451 Y-23.6138 Z0.2476
G1 X45.4451 Y-23.6255 Z0.2469
G1 X45.4451 Y-23.6490 Z0.2454
G1 X45.4451 Y-23.6607 Z0.2446
G1 X45.4451 Y-23.6841 Z0.2430
G1 X45.4451 Y-23.7076 Z0.2413
G1 X45.4451 Y-23.7310 Z0.2395
G1 X45.4451 Y-23.7427 Z0.2386
G1 X45.4451 Y-23.7545 Z0.2377
G1 X45.4451 Y-23.7779 Z0.2358
G1 X45.4451 Y-23.8013 Z0.2338
G1 X45.4451 Y-23.8248 Z0.2317
G1 X45.4451 Y-23.8365 Z0.2306
G1 X45.4451 Y-23.8599 Z0.2284
G1 X45.4451 Y-23.8717 Z0.2273
G1 X45.4451 Y-23.8951 Z0.2250
G1 X45.4451 Y-23.9185 Z0.2226
G1 X45.4451 Y-23.9420 Z0.2202
G1 X45.4451 Y-23.9537 Z0.2189
G1 X45.4451 Y-23.9771 Z0.2163
G1 X45.4451 Y-23.9889 Z0.2150
G1 X45.4451 Y-24.0123 Z0.2123
G1 X45.4451 Y-24.0357 Z0.2095
G1 X45.4451 Y-24.0592 Z0.2067
G1 X45.4451 Y-24.0709 Z0.2053
G1 X45.4451 Y-24.0944 Z0.2023
G1 X45.4451 Y-24.1061 Z0.2008
G1 X45.4451 Y-24.1295 Z0.1977
G1 X45.4451 Y-24.1530 Z0.1945
G1 X45.4451 Y-24.1764 Z0.1913
G1 X45.4451 Y-24.1881 Z0.1897
G1 X45.4451 Y-24.1998 Z0.1880
G1 X45.4451 Y-24.2227 Z0.1847
G1 X45.4451 Y-24.2455 Z0.1813
G1 X45.4451 Y-24.2683 Z0.1778
G1 X45.4451 Y-24.2797 Z0.1761
G1 X45.4451 Y-24.3026 Z0.1725
G1 X45.4451 Y-24.3140 Z0.1707
G1 X45.4451 Y-24.3368 Z0.1671
G1 X45.4451 Y-24.3596 Z0.1633
G1 X45.4451 Y-24.3825 Z0.1595
G1 X45.4451 Y-24.3960 Z0.1580
G1 X45.4451 Y-24.4095 Z0.1579
G1 X45.4451 Y-24.4230 Z0.1593
G1 X45.4451 Y-24.4363 Z0.1622
G1 X45.4451 Y-24.4491 Z0.1665
G1 X45.4451 Y-24.4615 Z0.1722
G1 X45.4451 Y-24.4731 Z0.1791
G1 X45.4451 Y-24.4839 Z0.1873
G1 X45.4451 Y-24.4938 Z0.1966
G1 X45.4451 Y-24.5026 Z0.2070
G1 X45.4451 Y-24.5102 Z0.2182
G1 X45.4451 Y-24.5166 Z0.2302
G1 X45.4451 Y-24.5216 Z0.2428
G1 X45.4451 Y-24.5252 Z0.2558
G1 X45.4451 Y-24.5274 Z0.2692
G1 X45.4451 Y-24.5282 Z0.2827
G0 Z0.3111
G0 X45.4451 Y-24.5282 
G0 Z0.3861
G0 X45.2801 Y-21.0744 
G1 X45.2801 Y-21.0750 Z0.3738 F25.
G1 X45.2801 Y-21.0768 Z0.3617
G1 X45.2801 Y-21.0798 Z0.3498
G1 X45.2801 Y-21.0839 Z0.3382
G1 X45.2801 Y-21.0892 Z0.3271
G1 X45.2801 Y-21.0955 Z0.3166
G1 X45.2801 Y-21.1028 Z0.3068
G1 X45.2801 Y-21.1110 Z0.2977
G1 X45.2801 Y-21.1201 Z0.2894
G1 X45.2801 Y-21.1300 Z0.2821
G1 X45.2801 Y-21.1405 Z0.2758
G1 X45.2801 Y-21.1516 Z0.2706
G1 X45.2801 Y-21.1631 Z0.2664
G1 X45.2801 Y-21.1750 Z0.2635
G1 X45.2801 Y-21.1872 Z0.2617
G1 X45.2801 Y-21.1994 Z0.2611
G1 X45.2801 Y-23.1684 Z0.2611 F50.
G1 X45.2801 Y-23.2036 Z0.2610
G1 X45.2801 Y-23.2153 Z0.2609
G1 X45.2801 Y-23.2388 Z0.2607
G1 X45.2801 Y-23.2622 Z0.2605
G1 X45.2801 Y-23.2856 Z0.2602
G1 X45.2801 Y-23.2974 Z0.2600
G1 X45.2801 Y-23.3208 Z0.2595
G1 X45.2801 Y-23.3325 Z0.2593
G1 X45.2801 Y-23.3560 Z0.2587
G1 X45.2801 Y-23.3794 Z0.2581
G1 X45.2801 Y-23.4029 Z0.2574
G1 X45.2801 Y-23.4146 Z0.2570
G1 X45.2801 Y-23.4380 Z0.2562
G1 X45.2801 Y-23.4497 Z0.2558
G1 X45.2801 Y-23.4732 Z0.2548
G1 X45.2801 Y-23.4966 Z0.2538
G1 X45.2801 Y-23.5083 Z0.2533
G1 X45.2801 Y-23.5318 Z0.2522
G1 X45.2801 Y-23.5435 Z0.2516
G1 X45.2801 Y-23.5669 Z0.2503
G1 X45.2801 Y-23.5904 Z0.2490
G1 X45.2801 Y-23.6138 Z0.2476
G1 X45.2801 Y-23.6255 Z0.2469
G1 X45.2801 Y-23.6490 Z0.2454
G1 X45.2801 Y-23.6607 Z0.2446
G1 X45.2801 Y-23.6841 Z0.2430
G1 X45.2801 Y-23.7076 Z0.2413
G1 X45.2801 Y-23.7310 Z0.2395
G1 X45.2801 Y-23.7427 Z0.2386
G1 X45.2801 Y-23.7545 Z0.2377
G1 X45.2801 Y-23.7779 Z0.2358
G1 X45.2801 Y-23.8013 Z0.2338
G1 X45.2801 Y-23.8248 Z0.2317
G1 X45.2801 Y-23.8365 Z0.2306
G1 X45.2801 Y-23.8599 Z0.2284
G1 X45.2801 Y-23.8717 Z0.2273
G1 X45.2801 Y-23.8951 Z0.2250
G1 X45.2801 Y-23.9185 Z0.2226
G1 X45.2801 Y-23.9420 Z0.2202
G1 X45.2801 Y-23.9537 Z0.2189
G1 X45.2801 Y-23.9771 Z0.2163
G1 X45.2801 Y-23.9889 Z0.2150
G1 X45.2801 Y-24.0123 Z0.2123
G1 X45.2801 Y-24.0357 Z0.2095
G1 X45.2801 Y-24.0592 Z0.2067
G1 X45.2801 Y-24.0709 Z0.2053
G1 X45.2801 Y-24.0944 Z0.2023
G1 X45.2801 Y-24.1061 Z0.2008
G1 X45.2801 Y-24.1295 Z0.1977
G1 X45.2801 Y-24.1530 Z0.1945
G1 X45.2801 Y-24.1764 Z0.1913
G1 X45.2801 Y-24.1881 Z0.1897
G1 X45.2801 Y-24.1998 Z0.1880
G1 X45.2801 Y-24.2229 Z0.1846
G1 X45.2801 Y-24.2460 Z0.1812
G1 X45.2801 Y-24.2690 Z0.1777
G1 X45.2801 Y-24.2806 Z0.1760
G1 X45.2801 Y-24.3036 Z0.1724
G1 X45.2801 Y-24.3152 Z0.1705
G1 X45.2801 Y-24.3382 Z0.1668
G1 X45.2801 Y-24.3613 Z0.1630
G1 X45.2801 Y-24.3843 Z0.1592
G1 X45.2801 Y-24.3978 Z0.1576
G1 X45.2801 Y-24.4114 Z0.1576
G1 X45.2801 Y-24.4249 Z0.1590
G1 X45.2801 Y-24.4381 Z0.1619
G1 X45.2801 Y-24.4510 Z0.1662
G1 X45.2801 Y-24.4633 Z0.1718
G1 X45.2801 Y-24.4750 Z0.1788
G1 X45.2801 Y-24.4858 Z0.1870
G1 X45.2801 Y-24.4957 Z0.1963
G1 X45.2801 Y-24.5045 Z0.2066
G1 X45.2801 Y-24.5121 Z0.2178
G1 X45.2801 Y-24.5185 Z0.2298
G1 X45.2801 Y-24.5235 Z0.2424
G1 X45.2801 Y-24.5271 Z0.2555
G1 X45.2801 Y-24.5293 Z0.2689
G1 X45.2801 Y-24.5301 Z0.2824
G0 Z0.3111
G0 X45.2801 Y-24.5301 
G0 Z0.3861
G0 X45.1151 Y-21.0744 
G1 X45.1151 Y-21.0750 Z0.3738 F25.
G1 X45.1151 Y-21.0768 Z0.3617
G1 X45.1151 Y-21.0798 Z0.3498
G1 X45.1151 Y-21.0839 Z0.3382
G1 X45.1151 Y-21.0892 Z0.3271
G1 X45.1151 Y-21.0955 Z0.3166
G1 X45.1151 Y-21.1028 Z0.3068
G1 X45.1151 Y-21.1110 Z0.2977
G1 X45.1151 Y-21.1201 Z0.2894
G1 X45.1151 Y-21.1300 Z0.2821
G1 X45.1151 Y-21.1405 Z0.2758
G1 X45.1151 Y-21.1516 Z0.2706
G1 X45.1151 Y-21.1631 Z0.2664
G1 X45.1151 Y-21.1750 Z0.2635
G1 X45.1151 Y-21.1872 Z0.2617
G1 X45.1151 Y-21.1994 Z0.2611
G1 X45.1151 Y-23.1684 Z0.2611 F50.
G1 X45.1151 Y-23.2036 Z0.2610
G1 X45.1151 Y-23.2153 Z0.2609
G1 X45.1151 Y-23.2388 Z0.2607
G1 X45.1151 Y-23.2622 Z0.2605
G1 X45.1151 Y-23.2856 Z0.2602
G1 X45.1151 Y-23.2974 Z0.2600
G1 X45.1151 Y-23.3208 Z0.2595
G1 X45.1151 Y-23.3325 Z0.2593
G1 X45.1151 Y-23.3560 Z0.2587
G1 X45.1151 Y-23.3794 Z0.2581
G1 X45.1151 Y-23.4029 Z0.2574
G1 X45.1151 Y-23.4146 Z0.2570
G1 X45.1151 Y-23.4380 Z0.2562
G1 X45.1151 Y-23.4497 Z0.2558
G1 X45.1151 Y-23.4732 Z0.2548
G1 X45.1151 Y-23.4966 Z0.2538
G1 X45.1151 Y-23.5083 Z0.2533
G1 X45.1151 Y-23.5318 Z0.2522
G1 X45.1151 Y-23.5435 Z0.2516
G1 X45.1151 Y-23.5669 Z0.2503
G1 X45.1151 Y-23.5904 Z0.2490
G1 X45.1151 Y-23.6138 Z0.2476
G1 X45.1151 Y-23.6255 Z0.2469
G1 X45.1151 Y-23.6490 Z0.2454
G1 X45.1151 Y-23.6607 Z0.2446
G1 X45.1151 Y-23.6841 Z0.2430
G1 X45.1151 Y-23.7076 Z0.2413
G1 X45.1151 Y-23.7310 Z0.2395
G1 X45.1151 Y-23.7427 Z0.2386
G1 X45.1151 Y-23.7545 Z0.2377
G1 X45.1151 Y-23.7779 Z0.2358
G1 X45.1151 Y-23.8013 Z0.2338
G1 X45.1151 Y-23.8248 Z0.2317
G1 X45.1151 Y-23.8365 Z0.2306
G1 X45.1151 Y-23.8599 Z0.2284
G1 X45.1151 Y-23.8717 Z0.2273
G1 X45.1151 Y-23.8951 Z0.2250
G1 X45.1151 Y-23.9185 Z0.2226
G1 X45.1151 Y-23.9420 Z0.2202
G1 X45.1151 Y-23.9537 Z0.2189
G1 X45.1151 Y-23.9771 Z0.2163
G1 X45.1151 Y-23.9889 Z0.2150
G1 X45.1151 Y-24.0123 Z0.2123
G1 X45.1151 Y-24.0357 Z0.2095
G1 X45.1151 Y-24.0592 Z0.2067
G1 X45.1151 Y-24.0709 Z0.2053
G1 X45.1151 Y-24.0944 Z0.2023
G1 X45.1151 Y-24.1061 Z0.2008
G1 X45.1151 Y-24.1295 Z0.1977
G1 X45.1151 Y-24.1530 Z0.1945
G1 X45.1151 Y-24.1764 Z0.1913
G1 X45.1151 Y-24.1881 Z0.1897
G1 X45.1151 Y-24.1998 Z0.1880
G1 X45.1151 Y-24.2231 Z0.1846
G1 X45.1151 Y-24.2464 Z0.1812
G1 X45.1151 Y-24.2697 Z0.1776
G1 X45.1151 Y-24.2814 Z0.1758
G1 X45.1151 Y-24.3047 Z0.1722
G1 X45.1151 Y-24.3163 Z0.1703
G1 X45.1151 Y-24.3396 Z0.1666
G1 X45.1151 Y-24.3629 Z0.1628
G1 X45.1151 Y-24.3862 Z0.1588
G1 X45.1151 Y-24.3997 Z0.1573
G1 X45.1151 Y-24.4133 Z0.1573
G1 X45.1151 Y-24.4268 Z0.1587
G1 X45.1151 Y-24.4400 Z0.1616
G1 X45.1151 Y-24.4529 Z0.1658
G1 X45.1151 Y-24.4652 Z0.1715
G1 X45.1151 Y-24.4769 Z0.1785
G1 X45.1151 Y-24.4877 Z0.1867
G1 X45.1151 Y-24.4976 Z0.1960
G1 X45.1151 Y-24.5064 Z0.2063
G1 X45.1151 Y-24.5140 Z0.2175
G1 X45.1151 Y-24.5204 Z0.2295
G1 X45.1151 Y-24.5254 Z0.2421
G1 X45.1151 Y-24.5290 Z0.2552
G1 X45.1151 Y-24.5312 Z0.2686
G1 X45.1151 Y-24.5320 Z0.2821
G0 Z0.3111
G0 X45.1151 Y-24.5320 
G0 Z0.3861
G0 X44.9501 Y-21.0744 
G1 X44.9501 Y-21.0750 Z0.3738 F25.
G1 X44.9501 Y-21.0768 Z0.3617
G1 X44.9501 Y-21.0798 Z0.3498
G1 X44.9501 Y-21.0839 Z0.3382
G1 X44.9501 Y-21.0892 Z0.3271
G1 X44.9501 Y-21.0955 Z0.3166
G1 X44.9501 Y-21.1028 Z0.3068
G1 X44.9501 Y-21.1110 Z0.2977
G1 X44.9501 Y-21.1201 Z0.2894
G1 X44.9501 Y-21.1300 Z0.2821
G1 X44.9501 Y-21.1405 Z0.2758
G1 X44.9501 Y-21.1516 Z0.2706
G1 X44.9501 Y-21.1631 Z0.2664
G1 X44.9501 Y-21.1750 Z0.2635
G1 X44.9501 Y-21.1872 Z0.2617
G1 X44.9501 Y-21.1994 Z0.2611
G1 X44.9501 Y-23.1684 Z0.2611 F50.
G1 X44.9501 Y-23.2036 Z0.2610
G1 X44.9501 Y-23.2153 Z0.2609
G1 X44.9501 Y-23.2388 Z0.2607
G1 X44.9501 Y-23.2622 Z0.2605
G1 X44.9501 Y-23.2856 Z0.2602
G1 X44.9501 Y-23.2974 Z0.2600
G1 X44.9501 Y-23.3208 Z0.2595
G1 X44.9501 Y-23.3325 Z0.2593
G1 X44.9501 Y-23.3560 Z0.2587
G1 X44.9501 Y-23.3794 Z0.2581
G1 X44.9501 Y-23.4029 Z0.2574
G1 X44.9501 Y-23.4146 Z0.2570
G1 X44.9501 Y-23.4380 Z0.2562
G1 X44.9501 Y-23.4497 Z0.2558
G1 X44.9501 Y-23.4732 Z0.2548
G1 X44.9501 Y-23.4966 Z0.2538
G1 X44.9501 Y-23.5083 Z0.2533
G1 X44.9501 Y-23.5318 Z0.2522
G1 X44.9501 Y-23.5435 Z0.2516
G1 X44.9501 Y-23.5669 Z0.2503
G1 X44.9501 Y-23.5904 Z0.2490
G1 X44.9501 Y-23.6138 Z0.2476
G1 X44.9501 Y-23.6255 Z0.2469
G1 X44.9501 Y-23.6490 Z0.2454
G1 X44.9501 Y-23.6607 Z0.2446
G1 X44.9501 Y-23.6841 Z0.2430
G1 X44.9501 Y-23.7076 Z0.2413
G1 X44.9501 Y-23.7310 Z0.2395
G1 X44.9501 Y-23.7427 Z0.2386
G1 X44.9501 Y-23.7545 Z0.2377
G1 X44.9501 Y-23.7779 Z0.2358
G1 X44.9501 Y-23.8013 Z0.2338
G1 X44.9501 Y-23.8248 Z0.2317
G1 X44.9501 Y-23.8365 Z0.2306
G1 X44.9501 Y-23.8599 Z0.2284
G1 X44.9501 Y-23.8717 Z0.2273
G1 X44.9501 Y-23.8951 Z0.2250
G1 X44.9501 Y-23.9185 Z0.2226
G1 X44.9501 Y-23.9420 Z0.2202
G1 X44.9501 Y-23.9537 Z0.2189
G1 X44.9501 Y-23.9771 Z0.2163
G1 X44.9501 Y-23.9889 Z0.2150
G1 X44.9501 Y-24.0123 Z0.2123
G1 X44.9501 Y-24.0357 Z0.2095
G1 X44.9501 Y-24.0592 Z0.2067
G1 X44.9501 Y-24.0709 Z0.2053
G1 X44.9501 Y-24.0944 Z0.2023
G1 X44.9501 Y-24.1061 Z0.2008
G1 X44.9501 Y-24.1295 Z0.1977
G1 X44.9501 Y-24.1530 Z0.1945
G1 X44.9501 Y-24.1764 Z0.1913
G1 X44.9501 Y-24.1881 Z0.1897
G1 X44.9501 Y-24.1998 Z0.1880
G1 X44.9501 Y-24.2234 Z0.1846
G1 X44.9501 Y-24.2469 Z0.1811
G1 X44.9501 Y-24.2704 Z0.1775
G1 X44.9501 Y-24.2822 Z0.1757
G1 X44.9501 Y-24.3057 Z0.1720
G1 X44.9501 Y-24.3175 Z0.1702
G1 X44.9501 Y-24.3410 Z0.1664
G1 X44.9501 Y-24.3645 Z0.1625
G1 X44.9501 Y-24.3881 Z0.1585
G1 X44.9501 Y-24.4016 Z0.1570
G1 X44.9501 Y-24.4151 Z0.1569
G1 X44.9501 Y-24.4286 Z0.1584
G1 X44.9501 Y-24.4419 Z0.1612
G1 X44.9501 Y-24.4548 Z0.1655
G1 X44.9501 Y-24.4671 Z0.1712
G1 X44.9501 Y-24.4788 Z0.1781
G1 X44.9501 Y-24.4896 Z0.1863
G1 X44.9501 Y-24.4994 Z0.1956
G1 X44.9501 Y-24.5083 Z0.2060
G1 X44.9501 Y-24.5159 Z0.2172
G1 X44.9501 Y-24.5223 Z0.2292
G1 X44.9501 Y-24.5273 Z0.2418
G1 X44.9501 Y-24.5309 Z0.2548
G1 X44.9501 Y-24.5331 Z0.2682
G1 X44.9501 Y-24.5339 Z0.2818
G0 Z0.3111
G0 X44.9501 Y-24.5339 
G0 Z0.3861
G0 X44.7851 Y-21.0744 
G1 X44.7851 Y-21.0750 Z0.3738 F25.
G1 X44.7851 Y-21.0768 Z0.3617
G1 X44.7851 Y-21.0798 Z0.3498
G1 X44.7851 Y-21.0839 Z0.3382
G1 X44.7851 Y-21.0892 Z0.3271
G1 X44.7851 Y-21.0955 Z0.3166
G1 X44.7851 Y-21.1028 Z0.3068
G1 X44.7851 Y-21.1110 Z0.2977
G1 X44.7851 Y-21.1201 Z0.2894
G1 X44.7851 Y-21.1300 Z0.2821
G1 X44.7851 Y-21.1405 Z0.2758
G1 X44.7851 Y-21.1516 Z0.2706
G1 X44.7851 Y-21.1631 Z0.2664
G1 X44.7851 Y-21.1750 Z0.2635
G1 X44.7851 Y-21.1872 Z0.2617
G1 X44.7851 Y-21.1994 Z0.2611
G1 X44.7851 Y-23.1684 Z0.2611 F50.
G1 X44.7851 Y-23.2036 Z0.2610
G1 X44.7851 Y-23.2153 Z0.2609
G1 X44.7851 Y-23.2388 Z0.2607
G1 X44.7851 Y-23.2622 Z0.2605
G1 X44.7851 Y-23.2856 Z0.2602
G1 X44.7851 Y-23.2974 Z0.2600
G1 X44.7851 Y-23.3208 Z0.2595
G1 X44.7851 Y-23.3325 Z0.2593
G1 X44.7851 Y-23.3560 Z0.2587
G1 X44.7851 Y-23.3794 Z0.2581
G1 X44.7851 Y-23.4029 Z0.2574
G1 X44.7851 Y-23.4146 Z0.2570
G1 X44.7851 Y-23.4380 Z0.2562
G1 X44.7851 Y-23.4497 Z0.2558
G1 X44.7851 Y-23.4732 Z0.2548
G1 X44.7851 Y-23.4966 Z0.2538
G1 X44.7851 Y-23.5083 Z0.2533
G1 X44.7851 Y-23.5318 Z0.2522
G1 X44.7851 Y-23.5435 Z0.2516
G1 X44.7851 Y-23.5669 Z0.2503
G1 X44.7851 Y-23.5904 Z0.2490
G1 X44.7851 Y-23.6138 Z0.2476
G1 X44.7851 Y-23.6255 Z0.2469
G1 X44.7851 Y-23.6490 Z0.2454
G1 X44.7851 Y-23.6607 Z0.2446
G1 X44.7851 Y-23.6841 Z0.2430
G1 X44.7851 Y-23.7076 Z0.2413
G1 X44.7851 Y-23.7310 Z0.2395
G1 X44.7851 Y-23.7427 Z0.2386
G1 X44.7851 Y-23.7545 Z0.2377
G1 X44.7851 Y-23.7779 Z0.2358
G1 X44.7851 Y-23.8013 Z0.2338
G1 X44.7851 Y-23.8248 Z0.2317
G1 X44.7851 Y-23.8365 Z0.2306
G1 X44.7851 Y-23.8599 Z0.2284
G1 X44.7851 Y-23.8717 Z0.2273
G1 X44.7851 Y-23.8951 Z0.2250
G1 X44.7851 Y-23.9185 Z0.2226
G1 X44.7851 Y-23.9420 Z0.2202
G1 X44.7851 Y-23.9537 Z0.2189
G1 X44.7851 Y-23.9771 Z0.2163
G1 X44.7851 Y-23.9889 Z0.2150
G1 X44.7851 Y-24.0123 Z0.2123
G1 X44.7851 Y-24.0357 Z0.2095
G1 X44.7851 Y-24.0592 Z0.2067
G1 X44.7851 Y-24.0709 Z0.2053
G1 X44.7851 Y-24.0944 Z0.2023
G1 X44.7851 Y-24.1061 Z0.2008
G1 X44.7851 Y-24.1295 Z0.1977
G1 X44.7851 Y-24.1530 Z0.1945
G1 X44.7851 Y-24.1764 Z0.1913
G1 X44.7851 Y-24.1881 Z0.1897
G1 X44.7851 Y-24.1998 Z0.1880
G1 X44.7851 Y-24.2236 Z0.1845
G1 X44.7851 Y-24.2474 Z0.1810
G1 X44.7851 Y-24.2711 Z0.1774
G1 X44.7851 Y-24.2949 Z0.1737
G1 X44.7851 Y-24.3068 Z0.1719
G1 X44.7851 Y-24.3305 Z0.1681
G1 X44.7851 Y-24.3424 Z0.1661
G1 X44.7851 Y-24.3662 Z0.1622
G1 X44.7851 Y-24.3899 Z0.1582
G1 X44.7851 Y-24.4034 Z0.1567
G1 X44.7851 Y-24.4170 Z0.1566
G1 X44.7851 Y-24.4305 Z0.1580
G1 X44.7851 Y-24.4438 Z0.1609
G1 X44.7851 Y-24.4566 Z0.1652
G1 X44.7851 Y-24.4690 Z0.1709
G1 X44.7851 Y-24.4806 Z0.1778
G1 X44.7851 Y-24.4915 Z0.1860
G1 X44.7851 Y-24.5013 Z0.1953
G1 X44.7851 Y-24.5101 Z0.2056
G1 X44.7851 Y-24.5178 Z0.2169
G1 X44.7851 Y-24.5241 Z0.2288
G1 X44.7851 Y-24.5292 Z0.2414
G1 X44.7851 Y-24.5328 Z0.2545
G1 X44.7851 Y-24.5350 Z0.2679
G1 X44.7851 Y-24.5358 Z0.2815
G0 Z0.3111
G0 X44.7851 Y-24.5358 
G0 Z0.3861
G0 X44.6201 Y-21.0744 
G1 X44.6201 Y-21.0750 Z0.3738 F25.
G1 X44.6201 Y-21.0768 Z0.3617
G1 X44.6201 Y-21.0798 Z0.3498
G1 X44.6201 Y-21.0839 Z0.3382
G1 X44.6201 Y-21.0892 Z0.3271
G1 X44.6201 Y-21.0955 Z0.3166
G1 X44.6201 Y-21.1028 Z0.3068
G1 X44.6201 Y-21.1110 Z0.2977
G1 X44.6201 Y-21.1201 Z0.2894
G1 X44.6201 Y-21.1300 Z0.2821
G1 X44.6201 Y-21.1405 Z0.2758
G1 X44.6201 Y-21.1516 Z0.2706
G1 X44.6201 Y-21.1631 Z0.2664
G1 X44.6201 Y-21.1750 Z0.2635
G1 X44.6201 Y-21.1872 Z0.2617
G1 X44.6201 Y-21.1994 Z0.2611
G1 X44.6201 Y-23.1684 Z0.2611 F50.
G1 X44.6201 Y-23.2036 Z0.2610
G1 X44.6201 Y-23.2153 Z0.2609
G1 X44.6201 Y-23.2388 Z0.2607
G1 X44.6201 Y-23.2622 Z0.2605
G1 X44.6201 Y-23.2856 Z0.2602
G1 X44.6201 Y-23.2974 Z0.2600
G1 X44.6201 Y-23.3208 Z0.2595
G1 X44.6201 Y-23.3325 Z0.2593
G1 X44.6201 Y-23.3560 Z0.2587
G1 X44.6201 Y-23.3794 Z0.2581
G1 X44.6201 Y-23.4029 Z0.2574
G1 X44.6201 Y-23.4146 Z0.2570
G1 X44.6201 Y-23.4380 Z0.2562
G1 X44.6201 Y-23.4497 Z0.2558
G1 X44.6201 Y-23.4732 Z0.2548
G1 X44.6201 Y-23.4966 Z0.2538
G1 X44.6201 Y-23.5083 Z0.2533
G1 X44.6201 Y-23.5318 Z0.2522
G1 X44.6201 Y-23.5435 Z0.2516
G1 X44.6201 Y-23.5669 Z0.2503
G1 X44.6201 Y-23.5904 Z0.2490
G1 X44.6201 Y-23.6138 Z0.2476
G1 X44.6201 Y-23.6255 Z0.2469
G1 X44.6201 Y-23.6490 Z0.2454
G1 X44.6201 Y-23.6607 Z0.2446
G1 X44.6201 Y-23.6841 Z0.2430
G1 X44.6201 Y-23.7076 Z0.2413
G1 X44.6201 Y-23.7310 Z0.2395
G1 X44.6201 Y-23.7427 Z0.2386
G1 X44.6201 Y-23.7545 Z0.2377
G1 X44.6201 Y-23.7779 Z0.2358
G1 X44.6201 Y-23.8013 Z0.2338
G1 X44.6201 Y-23.8248 Z0.2317
G1 X44.6201 Y-23.8365 Z0.2306
G1 X44.6201 Y-23.8599 Z0.2284
G1 X44.6201 Y-23.8717 Z0.2273
G1 X44.6201 Y-23.8951 Z0.2250
G1 X44.6201 Y-23.9185 Z0.2226
G1 X44.6201 Y-23.9420 Z0.2202
G1 X44.6201 Y-23.9537 Z0.2189
G1 X44.6201 Y-23.9771 Z0.2163
G1 X44.6201 Y-23.9889 Z0.2150
G1 X44.6201 Y-24.0123 Z0.2123
G1 X44.6201 Y-24.0357 Z0.2095
G1 X44.6201 Y-24.0592 Z0.2067
G1 X44.6201 Y-24.0709 Z0.2053
G1 X44.6201 Y-24.0944 Z0.2023
G1 X44.6201 Y-24.1061 Z0.2008
G1 X44.6201 Y-24.1295 Z0.1977
G1 X44.6201 Y-24.1530 Z0.1945
G1 X44.6201 Y-24.1764 Z0.1913
G1 X44.6201 Y-24.1881 Z0.1897
G1 X44.6201 Y-24.1998 Z0.1880
G1 X44.6201 Y-24.2238 Z0.1845
G1 X44.6201 Y-24.2478 Z0.1810
G1 X44.6201 Y-24.2718 Z0.1773
G1 X44.6201 Y-24.2958 Z0.1736
G1 X44.6201 Y-24.3078 Z0.1717
G1 X44.6201 Y-24.3318 Z0.1679
G1 X44.6201 Y-24.3438 Z0.1659
G1 X44.6201 Y-24.3678 Z0.1619
G1 X44.6201 Y-24.3918 Z0.1579
G1 X44.6201 Y-24.4053 Z0.1564
G1 X44.6201 Y-24.4189 Z0.1563
G1 X44.6201 Y-24.4324 Z0.1577
G1 X44.6201 Y-24.4456 Z0.1606
G1 X44.6201 Y-24.4585 Z0.1649
G1 X44.6201 Y-24.4708 Z0.1705
G1 X44.6201 Y-24.4825 Z0.1775
G1 X44.6201 Y-24.4933 Z0.1857
G1 X44.6201 Y-24.5032 Z0.1950
G1 X44.6201 Y-24.5120 Z0.2053
G1 X44.6201 Y-24.5196 Z0.2165
G1 X44.6201 Y-24.5260 Z0.2285
G1 X44.6201 Y-24.5310 Z0.2411
G1 X44.6201 Y-24.5347 Z0.2542
G1 X44.6201 Y-24.5369 Z0.2676
G1 X44.6201 Y-24.5376 Z0.2811
G0 Z0.3111
G0 X44.6201 Y-24.5376 
G0 Z0.3861
G0 X44.4551 Y-21.0744 
G1 X44.4551 Y-21.0750 Z0.3738 F25.
G1 X44.4551 Y-21.0768 Z0.3617
G1 X44.4551 Y-21.0798 Z0.3498
G1 X44.4551 Y-21.0839 Z0.3382
G1 X44.4551 Y-21.0892 Z0.3271
G1 X44.4551 Y-21.0955 Z0.3166
G1 X44.4551 Y-21.1028 Z0.3068
G1 X44.4551 Y-21.1110 Z0.2977
G1 X44.4551 Y-21.1201 Z0.2894
G1 X44.4551 Y-21.1300 Z0.2821
G1 X44.4551 Y-21.1405 Z0.2758
G1 X44.4551 Y-21.1516 Z0.2706
G1 X44.4551 Y-21.1631 Z0.2664
G1 X44.4551 Y-21.1750 Z0.2635
G1 X44.4551 Y-21.1872 Z0.2617
G1 X44.4551 Y-21.1994 Z0.2611
G1 X44.4551 Y-23.1684 Z0.2611 F50.
G1 X44.4551 Y-23.2036 Z0.2610
G1 X44.4551 Y-23.2153 Z0.2609
G1 X44.4551 Y-23.2388 Z0.2607
G1 X44.4551 Y-23.2622 Z0.2605
G1 X44.4551 Y-23.2856 Z0.2602
G1 X44.4551 Y-23.2974 Z0.2600
G1 X44.4551 Y-23.3208 Z0.2595
G1 X44.4551 Y-23.3325 Z0.2593
G1 X44.4551 Y-23.3560 Z0.2587
G1 X44.4551 Y-23.3794 Z0.2581
G1 X44.4551 Y-23.4029 Z0.2574
G1 X44.4551 Y-23.4146 Z0.2570
G1 X44.4551 Y-23.4380 Z0.2562
G1 X44.4551 Y-23.4497 Z0.2558
G1 X44.4551 Y-23.4732 Z0.2548
G1 X44.4551 Y-23.4966 Z0.2538
G1 X44.4551 Y-23.5083 Z0.2533
G1 X44.4551 Y-23.5318 Z0.2522
G1 X44.4551 Y-23.5435 Z0.2516
G1 X44.4551 Y-23.5669 Z0.2503
G1 X44.4551 Y-23.5904 Z0.2490
G1 X44.4551 Y-23.6138 Z0.2476
G1 X44.4551 Y-23.6255 Z0.2469
G1 X44.4551 Y-23.6490 Z0.2454
G1 X44.4551 Y-23.6607 Z0.2446
G1 X44.4551 Y-23.6841 Z0.2430
G1 X44.4551 Y-23.7076 Z0.2413
G1 X44.4551 Y-23.7310 Z0.2395
G1 X44.4551 Y-23.7427 Z0.2386
G1 X44.4551 Y-23.7545 Z0.2377
G1 X44.4551 Y-23.7779 Z0.2358
G1 X44.4551 Y-23.8013 Z0.2338
G1 X44.4551 Y-23.8248 Z0.2317
G1 X44.4551 Y-23.8365 Z0.2306
G1 X44.4551 Y-23.8599 Z0.2284
G1 X44.4551 Y-23.8717 Z0.2273
G1 X44.4551 Y-23.8951 Z0.2250
G1 X44.4551 Y-23.9185 Z0.2226
G1 X44.4551 Y-23.9420 Z0.2202
G1 X44.4551 Y-23.9537 Z0.2189
G1 X44.4551 Y-23.9771 Z0.2163
G1 X44.4551 Y-23.9889 Z0.2150
G1 X44.4551 Y-24.0123 Z0.2123
G1 X44.4551 Y-24.0357 Z0.2095
G1 X44.4551 Y-24.0592 Z0.2067
G1 X44.4551 Y-24.0709 Z0.2053
G1 X44.4551 Y-24.0944 Z0.2023
G1 X44.4551 Y-24.1061 Z0.2008
G1 X44.4551 Y-24.1295 Z0.1977
G1 X44.4551 Y-24.1530 Z0.1945
G1 X44.4551 Y-24.1764 Z0.1913
G1 X44.4551 Y-24.1881 Z0.1897
G1 X44.4551 Y-24.2180 Z0.1854
G1 X44.4551 Y-24.2483 Z0.1809
G1 X44.4551 Y-24.2725 Z0.1772
G1 X44.4551 Y-24.2968 Z0.1734
G1 X44.4551 Y-24.3089 Z0.1715
G1 X44.4551 Y-24.3331 Z0.1677
G1 X44.4551 Y-24.3452 Z0.1657
G1 X44.4551 Y-24.3695 Z0.1617
G1 X44.4551 Y-24.3937 Z0.1576
G1 X44.4551 Y-24.4072 Z0.1560
G1 X44.4551 Y-24.4207 Z0.1560
G1 X44.4551 Y-24.4342 Z0.1574
G1 X44.4551 Y-24.4475 Z0.1603
G1 X44.4551 Y-24.4604 Z0.1646
G1 X44.4551 Y-24.4727 Z0.1702
G1 X44.4551 Y-24.4844 Z0.1772
G1 X44.4551 Y-24.4952 Z0.1854
G1 X44.4551 Y-24.5051 Z0.1947
G1 X44.4551 Y-24.5139 Z0.2050
G1 X44.4551 Y-24.5215 Z0.2162
G1 X44.4551 Y-24.5279 Z0.2282
G1 X44.4551 Y-24.5329 Z0.2408
G1 X44.4551 Y-24.5366 Z0.2539
G1 X44.4551 Y-24.5388 Z0.2673
G1 X44.4551 Y-24.5395 Z0.2808
G0 Z0.3111
G0 X44.4551 Y-24.5395 
G0 Z0.3861
G0 X44.2901 Y-21.0744 
G1 X44.2901 Y-21.0750 Z0.3738 F25.
G1 X44.2901 Y-21.0768 Z0.3617
G1 X44.2901 Y-21.0798 Z0.3498
G1 X44.2901 Y-21.0839 Z0.3382
G1 X44.2901 Y-21.0892 Z0.3271
G1 X44.2901 Y-21.0955 Z0.3166
G1 X44.2901 Y-21.1028 Z0.3068
G1 X44.2901 Y-21.1110 Z0.2977
G1 X44.2901 Y-21.1201 Z0.2894
G1 X44.2901 Y-21.1300 Z0.2821
G1 X44.2901 Y-21.1405 Z0.2758
G1 X44.2901 Y-21.1516 Z0.2706
G1 X44.2901 Y-21.1631 Z0.2664
G1 X44.2901 Y-21.1750 Z0.2635
G1 X44.2901 Y-21.1872 Z0.2617
G1 X44.2901 Y-21.1994 Z0.2611
G1 X44.2901 Y-23.1684 Z0.2611 F50.
G1 X44.2901 Y-23.2036 Z0.2610
G1 X44.2901 Y-23.2153 Z0.2609
G1 X44.2901 Y-23.2388 Z0.2607
G1 X44.2901 Y-23.2622 Z0.2605
G1 X44.2901 Y-23.2856 Z0.2602
G1 X44.2901 Y-23.2974 Z0.2600
G1 X44.2901 Y-23.3208 Z0.2595
G1 X44.2901 Y-23.3325 Z0.2593
G1 X44.2901 Y-23.3560 Z0.2587
G1 X44.2901 Y-23.3794 Z0.2581
G1 X44.2901 Y-23.4029 Z0.2574
G1 X44.2901 Y-23.4146 Z0.2570
G1 X44.2901 Y-23.4380 Z0.2562
G1 X44.2901 Y-23.4497 Z0.2558
G1 X44.2901 Y-23.4732 Z0.2548
G1 X44.2901 Y-23.4966 Z0.2538
G1 X44.2901 Y-23.5083 Z0.2533
G1 X44.2901 Y-23.5318 Z0.2522
G1 X44.2901 Y-23.5435 Z0.2516
G1 X44.2901 Y-23.5669 Z0.2503
G1 X44.2901 Y-23.5904 Z0.2490
G1 X44.2901 Y-23.6138 Z0.2476
G1 X44.2901 Y-23.6255 Z0.2469
G1 X44.2901 Y-23.6490 Z0.2454
G1 X44.2901 Y-23.6607 Z0.2446
G1 X44.2901 Y-23.6841 Z0.2430
G1 X44.2901 Y-23.7076 Z0.2413
G1 X44.2901 Y-23.7310 Z0.2395
G1 X44.2901 Y-23.7427 Z0.2386
G1 X44.2901 Y-23.7545 Z0.2377
G1 X44.2901 Y-23.7779 Z0.2358
G1 X44.2901 Y-23.8013 Z0.2338
G1 X44.2901 Y-23.8248 Z0.2317
G1 X44.2901 Y-23.8365 Z0.2306
G1 X44.2901 Y-23.8599 Z0.2284
G1 X44.2901 Y-23.8717 Z0.2273
G1 X44.2901 Y-23.8951 Z0.2250
G1 X44.2901 Y-23.9185 Z0.2226
G1 X44.2901 Y-23.9420 Z0.2202
G1 X44.2901 Y-23.9537 Z0.2189
G1 X44.2901 Y-23.9771 Z0.2163
G1 X44.2901 Y-23.9889 Z0.2150
G1 X44.2901 Y-24.0123 Z0.2123
G1 X44.2901 Y-24.0357 Z0.2095
G1 X44.2901 Y-24.0592 Z0.2067
G1 X44.2901 Y-24.0709 Z0.2053
G1 X44.2901 Y-24.0944 Z0.2023
G1 X44.2901 Y-24.1061 Z0.2008
G1 X44.2901 Y-24.1295 Z0.1977
G1 X44.2901 Y-24.1530 Z0.1945
G1 X44.2901 Y-24.1764 Z0.1913
G1 X44.2901 Y-24.1881 Z0.1897
G1 X44.2901 Y-24.2121 Z0.1862
G1 X44.2901 Y-24.2243 Z0.1844
G1 X44.2901 Y-24.2488 Z0.1808
G1 X44.2901 Y-24.2732 Z0.1771
G1 X44.2901 Y-24.2977 Z0.1733
G1 X44.2901 Y-24.3099 Z0.1714
G1 X44.2901 Y-24.3344 Z0.1674
G1 X44.2901 Y-24.3466 Z0.1654
G1 X44.2901 Y-24.3711 Z0.1614
G1 X44.2901 Y-24.3956 Z0.1573
G1 X44.2901 Y-24.4090 Z0.1557
G1 X44.2901 Y-24.4226 Z0.1557
G1 X44.2901 Y-24.4361 Z0.1571
G1 X44.2901 Y-24.4494 Z0.1599
G1 X44.2901 Y-24.4623 Z0.1642
G1 X44.2901 Y-24.4746 Z0.1699
G1 X44.2901 Y-24.4862 Z0.1769
G1 X44.2901 Y-24.4971 Z0.1850
G1 X44.2901 Y-24.5069 Z0.1944
G1 X44.2901 Y-24.5157 Z0.2047
G1 X44.2901 Y-24.5234 Z0.2159
G1 X44.2901 Y-24.5298 Z0.2279
G1 X44.2901 Y-24.5348 Z0.2405
G1 X44.2901 Y-24.5384 Z0.2536
G1 X44.2901 Y-24.5406 Z0.2670
G1 X44.2901 Y-24.5414 Z0.2805
G0 Z0.3111
G0 X44.2901 Y-24.5414 
G0 Z0.3861
G0 X44.1251 Y-21.0744 
G1 X44.1251 Y-21.0750 Z0.3738 F25.
G1 X44.1251 Y-21.0768 Z0.3617
G1 X44.1251 Y-21.0798 Z0.3498
G1 X44.1251 Y-21.0839 Z0.3382
G1 X44.1251 Y-21.0892 Z0.3271
G1 X44.1251 Y-21.0955 Z0.3166
G1 X44.1251 Y-21.1028 Z0.3068
G1 X44.1251 Y-21.1110 Z0.2977
G1 X44.1251 Y-21.1201 Z0.2894
G1 X44.1251 Y-21.1300 Z0.2821
G1 X44.1251 Y-21.1405 Z0.2758
G1 X44.1251 Y-21.1516 Z0.2706
G1 X44.1251 Y-21.1631 Z0.2664
G1 X44.1251 Y-21.1750 Z0.2635
G1 X44.1251 Y-21.1872 Z0.2617
G1 X44.1251 Y-21.1994 Z0.2611
G1 X44.1251 Y-23.1684 Z0.2611 F50.
G1 X44.1251 Y-23.2036 Z0.2610
G1 X44.1251 Y-23.2153 Z0.2609
G1 X44.1251 Y-23.2388 Z0.2607
G1 X44.1251 Y-23.2622 Z0.2605
G1 X44.1251 Y-23.2856 Z0.2602
G1 X44.1251 Y-23.2974 Z0.2600
G1 X44.1251 Y-23.3208 Z0.2595
G1 X44.1251 Y-23.3325 Z0.2593
G1 X44.1251 Y-23.3560 Z0.2587
G1 X44.1251 Y-23.3794 Z0.2581
G1 X44.1251 Y-23.4029 Z0.2574
G1 X44.1251 Y-23.4146 Z0.2570
G1 X44.1251 Y-23.4380 Z0.2562
G1 X44.1251 Y-23.4497 Z0.2558
G1 X44.1251 Y-23.4732 Z0.2548
G1 X44.1251 Y-23.4966 Z0.2538
G1 X44.1251 Y-23.5083 Z0.2533
G1 X44.1251 Y-23.5318 Z0.2522
G1 X44.1251 Y-23.5435 Z0.2516
G1 X44.1251 Y-23.5669 Z0.2503
G1 X44.1251 Y-23.5904 Z0.2490
G1 X44.1251 Y-23.6138 Z0.2476
G1 X44.1251 Y-23.6255 Z0.2469
G1 X44.1251 Y-23.6490 Z0.2454
G1 X44.1251 Y-23.6607 Z0.2446
G1 X44.1251 Y-23.6841 Z0.2430
G1 X44.1251 Y-23.7076 Z0.2413
G1 X44.1251 Y-23.7310 Z0.2395
G1 X44.1251 Y-23.7427 Z0.2386
G1 X44.1251 Y-23.7545 Z0.2377
G1 X44.1251 Y-23.7779 Z0.2358
G1 X44.1251 Y-23.8013 Z0.2338
G1 X44.1251 Y-23.8248 Z0.2317
G1 X44.1251 Y-23.8365 Z0.2306
G1 X44.1251 Y-23.8599 Z0.2284
G1 X44.1251 Y-23.8717 Z0.2273
G1 X44.1251 Y-23.8951 Z0.2250
G1 X44.1251 Y-23.9185 Z0.2226
G1 X44.1251 Y-23.9420 Z0.2202
G1 X44.1251 Y-23.9537 Z0.2189
G1 X44.1251 Y-23.9771 Z0.2163
G1 X44.1251 Y-23.9889 Z0.2150
G1 X44.1251 Y-24.0123 Z0.2123
G1 X44.1251 Y-24.0357 Z0.2095
G1 X44.1251 Y-24.0592 Z0.2067
G1 X44.1251 Y-24.0709 Z0.2053
G1 X44.1251 Y-24.0944 Z0.2023
G1 X44.1251 Y-24.1061 Z0.2008
G1 X44.1251 Y-24.1295 Z0.1977
G1 X44.1251 Y-24.1530 Z0.1945
G1 X44.1251 Y-24.1764 Z0.1913
G1 X44.1251 Y-24.1881 Z0.1897
G1 X44.1251 Y-24.2122 Z0.1862
G1 X44.1251 Y-24.2245 Z0.1844
G1 X44.1251 Y-24.2492 Z0.1807
G1 X44.1251 Y-24.2739 Z0.1770
G1 X44.1251 Y-24.2986 Z0.1732
G1 X44.1251 Y-24.3110 Z0.1712
G1 X44.1251 Y-24.3357 Z0.1672
G1 X44.1251 Y-24.3604 Z0.1632
G1 X44.1251 Y-24.3727 Z0.1611
G1 X44.1251 Y-24.3974 Z0.1569
G1 X44.1251 Y-24.4109 Z0.1554
G1 X44.1251 Y-24.4245 Z0.1553
G1 X44.1251 Y-24.4380 Z0.1567
G1 X44.1251 Y-24.4513 Z0.1596
G1 X44.1251 Y-24.4641 Z0.1639
G1 X44.1251 Y-24.4765 Z0.1696
G1 X44.1251 Y-24.4881 Z0.1765
G1 X44.1251 Y-24.4990 Z0.1847
G1 X44.1251 Y-24.5088 Z0.1940
G1 X44.1251 Y-24.5176 Z0.2043
G1 X44.1251 Y-24.5253 Z0.2156
G1 X44.1251 Y-24.5317 Z0.2275
G1 X44.1251 Y-24.5367 Z0.2402
G1 X44.1251 Y-24.5403 Z0.2532
G1 X44.1251 Y-24.5425 Z0.2666
G1 X44.1251 Y-24.5433 Z0.2802
G0 Z0.3111
G0 X44.1251 Y-24.5433 
G0 Z0.3861
G0 X43.9601 Y-21.0744 
G1 X43.9601 Y-21.0750 Z0.3738 F25.
G1 X43.9601 Y-21.0768 Z0.3617
G1 X43.9601 Y-21.0798 Z0.3498
G1 X43.9601 Y-21.0839 Z0.3382
G1 X43.9601 Y-21.0892 Z0.3271
G1 X43.9601 Y-21.0955 Z0.3166
G1 X43.9601 Y-21.1028 Z0.3068
G1 X43.9601 Y-21.1110 Z0.2977
G1 X43.9601 Y-21.1201 Z0.2894
G1 X43.9601 Y-21.1300 Z0.2821
G1 X43.9601 Y-21.1405 Z0.2758
G1 X43.9601 Y-21.1516 Z0.2706
G1 X43.9601 Y-21.1631 Z0.2664
G1 X43.9601 Y-21.1750 Z0.2635
G1 X43.9601 Y-21.1872 Z0.2617
G1 X43.9601 Y-21.1994 Z0.2611
G1 X43.9601 Y-23.1684 Z0.2611 F50.
G1 X43.9601 Y-23.2036 Z0.2610
G1 X43.9601 Y-23.2153 Z0.2609
G1 X43.9601 Y-23.2388 Z0.2607
G1 X43.9601 Y-23.2622 Z0.2605
G1 X43.9601 Y-23.2856 Z0.2602
G1 X43.9601 Y-23.2974 Z0.2600
G1 X43.9601 Y-23.3208 Z0.2595
G1 X43.9601 Y-23.3325 Z0.2593
G1 X43.9601 Y-23.3560 Z0.2587
G1 X43.9601 Y-23.3794 Z0.2581
G1 X43.9601 Y-23.4029 Z0.2574
G1 X43.9601 Y-23.4146 Z0.2570
G1 X43.9601 Y-23.4380 Z0.2562
G1 X43.9601 Y-23.4497 Z0.2558
G1 X43.9601 Y-23.4732 Z0.2548
G1 X43.9601 Y-23.4966 Z0.2538
G1 X43.9601 Y-23.5083 Z0.2533
G1 X43.9601 Y-23.5318 Z0.2522
G1 X43.9601 Y-23.5435 Z0.2516
G1 X43.9601 Y-23.5669 Z0.2503
G1 X43.9601 Y-23.5904 Z0.2490
G1 X43.9601 Y-23.6138 Z0.2476
G1 X43.9601 Y-23.6255 Z0.2469
G1 X43.9601 Y-23.6490 Z0.2454
G1 X43.9601 Y-23.6607 Z0.2446
G1 X43.9601 Y-23.6841 Z0.2430
G1 X43.9601 Y-23.7076 Z0.2413
G1 X43.9601 Y-23.7310 Z0.2395
G1 X43.9601 Y-23.7427 Z0.2386
G1 X43.9601 Y-23.7545 Z0.2377
G1 X43.9601 Y-23.7779 Z0.2358
G1 X43.9601 Y-23.8013 Z0.2338
G1 X43.9601 Y-23.8248 Z0.2317
G1 X43.9601 Y-23.8365 Z0.2306
G1 X43.9601 Y-23.8599 Z0.2284
G1 X43.9601 Y-23.8717 Z0.2273
G1 X43.9601 Y-23.8951 Z0.2250
G1 X43.9601 Y-23.9185 Z0.2226
G1 X43.9601 Y-23.9420 Z0.2202
G1 X43.9601 Y-23.9537 Z0.2189
G1 X43.9601 Y-23.9771 Z0.2163
G1 X43.9601 Y-23.9889 Z0.2150
G1 X43.9601 Y-24.0123 Z0.2123
G1 X43.9601 Y-24.0357 Z0.2095
G1 X43.9601 Y-24.0592 Z0.2067
G1 X43.9601 Y-24.0709 Z0.2053
G1 X43.9601 Y-24.0944 Z0.2023
G1 X43.9601 Y-24.1061 Z0.2008
G1 X43.9601 Y-24.1295 Z0.1977
G1 X43.9601 Y-24.1530 Z0.1945
G1 X43.9601 Y-24.1764 Z0.1913
G1 X43.9601 Y-24.1881 Z0.1897
G1 X43.9601 Y-24.2123 Z0.1862
G1 X43.9601 Y-24.2248 Z0.1844
G1 X43.9601 Y-24.2497 Z0.1807
G1 X43.9601 Y-24.2746 Z0.1769
G1 X43.9601 Y-24.2996 Z0.1730
G1 X43.9601 Y-24.3120 Z0.1710
G1 X43.9601 Y-24.3370 Z0.1670
G1 X43.9601 Y-24.3619 Z0.1629
G1 X43.9601 Y-24.3744 Z0.1608
G1 X43.9601 Y-24.3993 Z0.1566
G1 X43.9601 Y-24.4128 Z0.1551
G1 X43.9601 Y-24.4264 Z0.1550
G1 X43.9601 Y-24.4399 Z0.1564
G1 X43.9601 Y-24.4531 Z0.1593
G1 X43.9601 Y-24.4660 Z0.1636
G1 X43.9601 Y-24.4784 Z0.1692
G1 X43.9601 Y-24.4900 Z0.1762
G1 X43.9601 Y-24.5008 Z0.1844
G1 X43.9601 Y-24.5107 Z0.1937
G1 X43.9601 Y-24.5195 Z0.2040
G1 X43.9601 Y-24.5272 Z0.2152
G1 X43.9601 Y-24.5336 Z0.2272
G1 X43.9601 Y-24.5386 Z0.2398
G1 X43.9601 Y-24.5422 Z0.2529
G1 X43.9601 Y-24.5445 Z0.2663
G1 X43.9601 Y-24.5452 Z0.2799
G0 Z0.3111
G0 X43.9601 Y-24.5452 
G0 Z0.3861
G0 X43.7951 Y-21.0744 
G1 X43.7951 Y-21.0750 Z0.3738 F25.
G1 X43.7951 Y-21.0768 Z0.3617
G1 X43.7951 Y-21.0798 Z0.3498
G1 X43.7951 Y-21.0839 Z0.3382
G1 X43.7951 Y-21.0892 Z0.3271
G1 X43.7951 Y-21.0955 Z0.3166
G1 X43.7951 Y-21.1028 Z0.3068
G1 X43.7951 Y-21.1110 Z0.2977
G1 X43.7951 Y-21.1201 Z0.2894
G1 X43.7951 Y-21.1300 Z0.2821
G1 X43.7951 Y-21.1405 Z0.2758
G1 X43.7951 Y-21.1516 Z0.2706
G1 X43.7951 Y-21.1631 Z0.2664
G1 X43.7951 Y-21.1750 Z0.2635
G1 X43.7951 Y-21.1872 Z0.2617
G1 X43.7951 Y-21.1994 Z0.2611
G1 X43.7951 Y-23.1684 Z0.2611 F50.
G1 X43.7951 Y-23.2036 Z0.2610
G1 X43.7951 Y-23.2153 Z0.2609
G1 X43.7951 Y-23.2388 Z0.2607
G1 X43.7951 Y-23.2622 Z0.2605
G1 X43.7951 Y-23.2856 Z0.2602
G1 X43.7951 Y-23.2974 Z0.2600
G1 X43.7951 Y-23.3208 Z0.2595
G1 X43.7951 Y-23.3325 Z0.2593
G1 X43.7951 Y-23.3560 Z0.2587
G1 X43.7951 Y-23.3794 Z0.2581
G1 X43.7951 Y-23.4029 Z0.2574
G1 X43.7951 Y-23.4146 Z0.2570
G1 X43.7951 Y-23.4380 Z0.2562
G1 X43.7951 Y-23.4497 Z0.2558
G1 X43.7951 Y-23.4732 Z0.2548
G1 X43.7951 Y-23.4966 Z0.2538
G1 X43.7951 Y-23.5083 Z0.2533
G1 X43.7951 Y-23.5318 Z0.2522
G1 X43.7951 Y-23.5435 Z0.2516
G1 X43.7951 Y-23.5669 Z0.2503
G1 X43.7951 Y-23.5904 Z0.2490
G1 X43.7951 Y-23.6138 Z0.2476
G1 X43.7951 Y-23.6255 Z0.2469
G1 X43.7951 Y-23.6490 Z0.2454
G1 X43.7951 Y-23.6607 Z0.2446
G1 X43.7951 Y-23.6841 Z0.2430
G1 X43.7951 Y-23.7076 Z0.2413
G1 X43.7951 Y-23.7310 Z0.2395
G1 X43.7951 Y-23.7427 Z0.2386
G1 X43.7951 Y-23.7545 Z0.2377
G1 X43.7951 Y-23.7779 Z0.2358
G1 X43.7951 Y-23.8013 Z0.2338
G1 X43.7951 Y-23.8248 Z0.2317
G1 X43.7951 Y-23.8365 Z0.2306
G1 X43.7951 Y-23.8599 Z0.2284
G1 X43.7951 Y-23.8717 Z0.2273
G1 X43.7951 Y-23.8951 Z0.2250
G1 X43.7951 Y-23.9185 Z0.2226
G1 X43.7951 Y-23.9420 Z0.2202
G1 X43.7951 Y-23.9537 Z0.2189
G1 X43.7951 Y-23.9771 Z0.2163
G1 X43.7951 Y-23.9889 Z0.2150
G1 X43.7951 Y-24.0123 Z0.2123
G1 X43.7951 Y-24.0357 Z0.2095
G1 X43.7951 Y-24.0592 Z0.2067
G1 X43.7951 Y-24.0709 Z0.2053
G1 X43.7951 Y-24.0944 Z0.2023
G1 X43.7951 Y-24.1061 Z0.2008
G1 X43.7951 Y-24.1295 Z0.1977
G1 X43.7951 Y-24.1530 Z0.1945
G1 X43.7951 Y-24.1764 Z0.1913
G1 X43.7951 Y-24.1881 Z0.1897
G1 X43.7951 Y-24.2124 Z0.1862
G1 X43.7951 Y-24.2250 Z0.1843
G1 X43.7951 Y-24.2502 Z0.1806
G1 X43.7951 Y-24.2753 Z0.1768
G1 X43.7951 Y-24.3068 Z0.1719
G1 X43.7951 Y-24.3257 Z0.1688
G1 X43.7951 Y-24.3382 Z0.1668
G1 X43.7951 Y-24.3634 Z0.1627
G1 X43.7951 Y-24.3949 Z0.1574
G1 X43.7951 Y-24.4012 Z0.1563
G1 X43.7951 Y-24.4147 Z0.1547
G1 X43.7951 Y-24.4283 Z0.1546
G1 X43.7951 Y-24.4418 Z0.1560
G1 X43.7951 Y-24.4551 Z0.1588
G1 X43.7951 Y-24.4680 Z0.1631
G1 X43.7951 Y-24.4804 Z0.1687
G1 X43.7951 Y-24.4921 Z0.1756
G1 X43.7951 Y-24.5030 Z0.1838
G1 X43.7951 Y-24.5129 Z0.1931
G1 X43.7951 Y-24.5217 Z0.2035
G1 X43.7951 Y-24.5294 Z0.2147
G1 X43.7951 Y-24.5358 Z0.2267
G1 X43.7951 Y-24.5409 Z0.2393
G1 X43.7951 Y-24.5445 Z0.2525
G1 X43.7951 Y-24.5467 Z0.2659
G1 X43.7951 Y-24.5475 Z0.2795
G0 Z0.3111
G0 X43.7951 Y-24.5475 
G0 Z0.3861
G0 X43.6301 Y-21.0744 
G1 X43.6301 Y-21.0750 Z0.3738 F25.
G1 X43.6301 Y-21.0768 Z0.3617
G1 X43.6301 Y-21.0798 Z0.3498
G1 X43.6301 Y-21.0839 Z0.3382
G1 X43.6301 Y-21.0892 Z0.3271
G1 X43.6301 Y-21.0955 Z0.3166
G1 X43.6301 Y-21.1028 Z0.3068
G1 X43.6301 Y-21.1110 Z0.2977
G1 X43.6301 Y-21.1201 Z0.2894
G1 X43.6301 Y-21.1300 Z0.2821
G1 X43.6301 Y-21.1405 Z0.2758
G1 X43.6301 Y-21.1516 Z0.2706
G1 X43.6301 Y-21.1631 Z0.2664
G1 X43.6301 Y-21.1750 Z0.2635
G1 X43.6301 Y-21.1872 Z0.2617
G1 X43.6301 Y-21.1994 Z0.2611
G1 X43.6301 Y-23.1684 Z0.2611 F50.
G1 X43.6301 Y-23.2036 Z0.2610
G1 X43.6301 Y-23.2153 Z0.2609
G1 X43.6301 Y-23.2388 Z0.2607
G1 X43.6301 Y-23.2622 Z0.2605
G1 X43.6301 Y-23.2856 Z0.2602
G1 X43.6301 Y-23.2974 Z0.2600
G1 X43.6301 Y-23.3208 Z0.2595
G1 X43.6301 Y-23.3325 Z0.2593
G1 X43.6301 Y-23.3560 Z0.2587
G1 X43.6301 Y-23.3794 Z0.2581
G1 X43.6301 Y-23.4029 Z0.2574
G1 X43.6301 Y-23.4146 Z0.2570
G1 X43.6301 Y-23.4380 Z0.2562
G1 X43.6301 Y-23.4497 Z0.2558
G1 X43.6301 Y-23.4732 Z0.2548
G1 X43.6301 Y-23.4966 Z0.2538
G1 X43.6301 Y-23.5083 Z0.2533
G1 X43.6301 Y-23.5318 Z0.2522
G1 X43.6301 Y-23.5435 Z0.2516
G1 X43.6301 Y-23.5669 Z0.2503
G1 X43.6301 Y-23.5904 Z0.2490
G1 X43.6301 Y-23.6138 Z0.2476
G1 X43.6301 Y-23.6255 Z0.2469
G1 X43.6301 Y-23.6490 Z0.2454
G1 X43.6301 Y-23.6607 Z0.2446
G1 X43.6301 Y-23.6841 Z0.2430
G1 X43.6301 Y-23.7076 Z0.2413
G1 X43.6301 Y-23.7310 Z0.2395
G1 X43.6301 Y-23.7427 Z0.2386
G1 X43.6301 Y-23.7545 Z0.2377
G1 X43.6301 Y-23.7779 Z0.2358
G1 X43.6301 Y-23.8013 Z0.2338
G1 X43.6301 Y-23.8248 Z0.2317
G1 X43.6301 Y-23.8365 Z0.2306
G1 X43.6301 Y-23.8599 Z0.2284
G1 X43.6301 Y-23.8717 Z0.2273
G1 X43.6301 Y-23.8951 Z0.2250
G1 X43.6301 Y-23.9185 Z0.2226
G1 X43.6301 Y-23.9420 Z0.2202
G1 X43.6301 Y-23.9537 Z0.2189
G1 X43.6301 Y-23.9771 Z0.2163
G1 X43.6301 Y-23.9889 Z0.2150
G1 X43.6301 Y-24.0123 Z0.2123
G1 X43.6301 Y-24.0357 Z0.2095
G1 X43.6301 Y-24.0592 Z0.2067
G1 X43.6301 Y-24.0709 Z0.2053
G1 X43.6301 Y-24.0944 Z0.2023
G1 X43.6301 Y-24.1061 Z0.2008
G1 X43.6301 Y-24.1295 Z0.1977
G1 X43.6301 Y-24.1530 Z0.1945
G1 X43.6301 Y-24.1764 Z0.1913
G1 X43.6301 Y-24.1881 Z0.1897
G1 X43.6301 Y-24.2125 Z0.1862
G1 X43.6301 Y-24.2252 Z0.1843
G1 X43.6301 Y-24.2506 Z0.1805
G1 X43.6301 Y-24.2760 Z0.1767
G1 X43.6301 Y-24.3014 Z0.1727
G1 X43.6301 Y-24.3268 Z0.1687
G1 X43.6301 Y-24.3395 Z0.1666
G1 X43.6301 Y-24.3649 Z0.1624
G1 X43.6301 Y-24.3903 Z0.1581
G1 X43.6301 Y-24.4030 Z0.1560
G1 X43.6301 Y-24.4165 Z0.1544
G1 X43.6301 Y-24.4301 Z0.1543
G1 X43.6301 Y-24.4436 Z0.1557
G1 X43.6301 Y-24.4569 Z0.1585
G1 X43.6301 Y-24.4698 Z0.1628
G1 X43.6301 Y-24.4822 Z0.1685
G1 X43.6301 Y-24.4939 Z0.1754
G1 X43.6301 Y-24.5047 Z0.1836
G1 X43.6301 Y-24.5146 Z0.1929
G1 X43.6301 Y-24.5235 Z0.2032
G1 X43.6301 Y-24.5311 Z0.2145
G1 X43.6301 Y-24.5375 Z0.2265
G1 X43.6301 Y-24.5426 Z0.2391
G1 X43.6301 Y-24.5462 Z0.2522
G1 X43.6301 Y-24.5484 Z0.2656
G1 X43.6301 Y-24.5492 Z0.2792
G0 Z0.3111
G0 X43.6301 Y-24.5492 
G0 Z0.3861
G0 X43.4651 Y-21.0744 
G1 X43.4651 Y-21.0750 Z0.3738 F25.
G1 X43.4651 Y-21.0768 Z0.3617
G1 X43.4651 Y-21.0798 Z0.3498
G1 X43.4651 Y-21.0839 Z0.3382
G1 X43.4651 Y-21.0892 Z0.3271
G1 X43.4651 Y-21.0955 Z0.3166
G1 X43.4651 Y-21.1028 Z0.3068
G1 X43.4651 Y-21.1110 Z0.2977
G1 X43.4651 Y-21.1201 Z0.2894
G1 X43.4651 Y-21.1300 Z0.2821
G1 X43.4651 Y-21.1405 Z0.2758
G1 X43.4651 Y-21.1516 Z0.2706
G1 X43.4651 Y-21.1631 Z0.2664
G1 X43.4651 Y-21.1750 Z0.2635
G1 X43.4651 Y-21.1872 Z0.2617
G1 X43.4651 Y-21.1994 Z0.2611
G1 X43.4651 Y-23.1684 Z0.2611 F50.
G1 X43.4651 Y-23.2036 Z0.2610
G1 X43.4651 Y-23.2153 Z0.2609
G1 X43.4651 Y-23.2388 Z0.2607
G1 X43.4651 Y-23.2622 Z0.2605
G1 X43.4651 Y-23.2856 Z0.2602
G1 X43.4651 Y-23.2974 Z0.2600
G1 X43.4651 Y-23.3208 Z0.2595
G1 X43.4651 Y-23.3325 Z0.2593
G1 X43.4651 Y-23.3560 Z0.2587
G1 X43.4651 Y-23.3794 Z0.2581
G1 X43.4651 Y-23.4029 Z0.2574
G1 X43.4651 Y-23.4146 Z0.2570
G1 X43.4651 Y-23.4380 Z0.2562
G1 X43.4651 Y-23.4497 Z0.2558
G1 X43.4651 Y-23.4732 Z0.2548
G1 X43.4651 Y-23.4966 Z0.2538
G1 X43.4651 Y-23.5083 Z0.2533
G1 X43.4651 Y-23.5318 Z0.2522
G1 X43.4651 Y-23.5435 Z0.2516
G1 X43.4651 Y-23.5669 Z0.2503
G1 X43.4651 Y-23.5904 Z0.2490
G1 X43.4651 Y-23.6138 Z0.2476
G1 X43.4651 Y-23.6255 Z0.2469
G1 X43.4651 Y-23.6490 Z0.2454
G1 X43.4651 Y-23.6607 Z0.2446
G1 X43.4651 Y-23.6841 Z0.2430
G1 X43.4651 Y-23.7076 Z0.2413
G1 X43.4651 Y-23.7310 Z0.2395
G1 X43.4651 Y-23.7427 Z0.2386
G1 X43.4651 Y-23.7545 Z0.2377
G1 X43.4651 Y-23.7779 Z0.2358
G1 X43.4651 Y-23.8013 Z0.2338
G1 X43.4651 Y-23.8248 Z0.2317
G1 X43.4651 Y-23.8365 Z0.2306
G1 X43.4651 Y-23.8599 Z0.2284
G1 X43.4651 Y-23.8717 Z0.2273
G1 X43.4651 Y-23.8951 Z0.2250
G1 X43.4651 Y-23.9185 Z0.2226
G1 X43.4651 Y-23.9420 Z0.2202
G1 X43.4651 Y-23.9537 Z0.2189
G1 X43.4651 Y-23.9771 Z0.2163
G1 X43.4651 Y-23.9889 Z0.2150
G1 X43.4651 Y-24.0123 Z0.2123
G1 X43.4651 Y-24.0357 Z0.2095
G1 X43.4651 Y-24.0592 Z0.2067
G1 X43.4651 Y-24.0709 Z0.2053
G1 X43.4651 Y-24.0944 Z0.2023
G1 X43.4651 Y-24.1061 Z0.2008
G1 X43.4651 Y-24.1295 Z0.1977
G1 X43.4651 Y-24.1530 Z0.1945
G1 X43.4651 Y-24.1764 Z0.1913
G1 X43.4651 Y-24.1881 Z0.1897
G1 X43.4651 Y-24.2126 Z0.1861
G1 X43.4651 Y-24.2255 Z0.1843
G1 X43.4651 Y-24.2511 Z0.1805
G1 X43.4651 Y-24.2767 Z0.1766
G1 X43.4651 Y-24.3024 Z0.1726
G1 X43.4651 Y-24.3280 Z0.1685
G1 X43.4651 Y-24.3408 Z0.1664
G1 X43.4651 Y-24.3664 Z0.1622
G1 X43.4651 Y-24.3921 Z0.1578
G1 X43.4651 Y-24.4049 Z0.1556
G1 X43.4651 Y-24.4184 Z0.1541
G1 X43.4651 Y-24.4320 Z0.1540
G1 X43.4651 Y-24.4455 Z0.1553
G1 X43.4651 Y-24.4588 Z0.1582
G1 X43.4651 Y-24.4717 Z0.1625
G1 X43.4651 Y-24.4841 Z0.1681
G1 X43.4651 Y-24.4958 Z0.1751
G1 X43.4651 Y-24.5066 Z0.1832
G1 X43.4651 Y-24.5165 Z0.1926
G1 X43.4651 Y-24.5254 Z0.2029
G1 X43.4651 Y-24.5330 Z0.2141
G1 X43.4651 Y-24.5394 Z0.2261
G1 X43.4651 Y-24.5445 Z0.2387
G1 X43.4651 Y-24.5481 Z0.2518
G1 X43.4651 Y-24.5504 Z0.2653
G1 X43.4651 Y-24.5511 Z0.2788
G0 Z0.3111
G0 X43.4651 Y-24.5511 
G0 Z0.3861
G0 X43.3001 Y-21.0744 
G1 X43.3001 Y-21.0750 Z0.3738 F25.
G1 X43.3001 Y-21.0768 Z0.3617
G1 X43.3001 Y-21.0798 Z0.3498
G1 X43.3001 Y-21.0839 Z0.3382
G1 X43.3001 Y-21.0892 Z0.3271
G1 X43.3001 Y-21.0955 Z0.3166
G1 X43.3001 Y-21.1028 Z0.3068
G1 X43.3001 Y-21.1110 Z0.2977
G1 X43.3001 Y-21.1201 Z0.2894
G1 X43.3001 Y-21.1300 Z0.2821
G1 X43.3001 Y-21.1405 Z0.2758
G1 X43.3001 Y-21.1516 Z0.2706
G1 X43.3001 Y-21.1631 Z0.2664
G1 X43.3001 Y-21.1750 Z0.2635
G1 X43.3001 Y-21.1872 Z0.2617
G1 X43.3001 Y-21.1994 Z0.2611
G1 X43.3001 Y-23.1684 Z0.2611 F50.
G1 X43.3001 Y-23.2036 Z0.2610
G1 X43.3001 Y-23.2153 Z0.2609
G1 X43.3001 Y-23.2388 Z0.2607
G1 X43.3001 Y-23.2622 Z0.2605
G1 X43.3001 Y-23.2856 Z0.2602
G1 X43.3001 Y-23.2974 Z0.2600
G1 X43.3001 Y-23.3208 Z0.2595
G1 X43.3001 Y-23.3325 Z0.2593
G1 X43.3001 Y-23.3560 Z0.2587
G1 X43.3001 Y-23.3794 Z0.2581
G1 X43.3001 Y-23.4029 Z0.2574
G1 X43.3001 Y-23.4146 Z0.2570
G1 X43.3001 Y-23.4380 Z0.2562
G1 X43.3001 Y-23.4497 Z0.2558
G1 X43.3001 Y-23.4732 Z0.2548
G1 X43.3001 Y-23.4966 Z0.2538
G1 X43.3001 Y-23.5083 Z0.2533
G1 X43.3001 Y-23.5318 Z0.2522
G1 X43.3001 Y-23.5435 Z0.2516
G1 X43.3001 Y-23.5669 Z0.2503
G1 X43.3001 Y-23.5904 Z0.2490
G1 X43.3001 Y-23.6138 Z0.2476
G1 X43.3001 Y-23.6255 Z0.2469
G1 X43.3001 Y-23.6490 Z0.2454
G1 X43.3001 Y-23.6607 Z0.2446
G1 X43.3001 Y-23.6841 Z0.2430
G1 X43.3001 Y-23.7076 Z0.2413
G1 X43.3001 Y-23.7310 Z0.2395
G1 X43.3001 Y-23.7427 Z0.2386
G1 X43.3001 Y-23.7545 Z0.2377
G1 X43.3001 Y-23.7779 Z0.2358
G1 X43.3001 Y-23.8013 Z0.2338
G1 X43.3001 Y-23.8248 Z0.2317
G1 X43.3001 Y-23.8365 Z0.2306
G1 X43.3001 Y-23.8599 Z0.2284
G1 X43.3001 Y-23.8717 Z0.2273
G1 X43.3001 Y-23.8951 Z0.2250
G1 X43.3001 Y-23.9185 Z0.2226
G1 X43.3001 Y-23.9420 Z0.2202
G1 X43.3001 Y-23.9537 Z0.2189
G1 X43.3001 Y-23.9771 Z0.2163
G1 X43.3001 Y-23.9889 Z0.2150
G1 X43.3001 Y-24.0123 Z0.2123
G1 X43.3001 Y-24.0357 Z0.2095
G1 X43.3001 Y-24.0592 Z0.2067
G1 X43.3001 Y-24.0709 Z0.2053
G1 X43.3001 Y-24.0944 Z0.2023
G1 X43.3001 Y-24.1061 Z0.2008
G1 X43.3001 Y-24.1295 Z0.1977
G1 X43.3001 Y-24.1530 Z0.1945
G1 X43.3001 Y-24.1764 Z0.1913
G1 X43.3001 Y-24.1881 Z0.1897
G1 X43.3001 Y-24.2128 Z0.1861
G1 X43.3001 Y-24.2257 Z0.1842
G1 X43.3001 Y-24.2516 Z0.1804
G1 X43.3001 Y-24.2774 Z0.1765
G1 X43.3001 Y-24.3033 Z0.1724
G1 X43.3001 Y-24.3356 Z0.1673
G1 X43.3001 Y-24.3550 Z0.1641
G1 X43.3001 Y-24.3680 Z0.1619
G1 X43.3001 Y-24.3938 Z0.1576
G1 X43.3001 Y-24.4068 Z0.1553
G1 X43.3001 Y-24.4203 Z0.1537
G1 X43.3001 Y-24.4339 Z0.1536
G1 X43.3001 Y-24.4474 Z0.1550
G1 X43.3001 Y-24.4607 Z0.1578
G1 X43.3001 Y-24.4736 Z0.1621
G1 X43.3001 Y-24.4860 Z0.1677
G1 X43.3001 Y-24.4977 Z0.1747
G1 X43.3001 Y-24.5086 Z0.1829
G1 X43.3001 Y-24.5185 Z0.1922
G1 X43.3001 Y-24.5273 Z0.2025
G1 X43.3001 Y-24.5350 Z0.2138
G1 X43.3001 Y-24.5414 Z0.2258
G1 X43.3001 Y-24.5464 Z0.2384
G1 X43.3001 Y-24.5501 Z0.2515
G1 X43.3001 Y-24.5523 Z0.2649
G1 X43.3001 Y-24.5530 Z0.2785
G0 Z0.3111
G0 X43.3001 Y-24.5530 
G0 Z0.3861
G0 X43.1351 Y-21.0744 
G1 X43.1351 Y-21.0750 Z0.3738 F25.
G1 X43.1351 Y-21.0768 Z0.3617
G1 X43.1351 Y-21.0798 Z0.3498
G1 X43.1351 Y-21.0839 Z0.3382
G1 X43.1351 Y-21.0892 Z0.3271
G1 X43.1351 Y-21.0955 Z0.3166
G1 X43.1351 Y-21.1028 Z0.3068
G1 X43.1351 Y-21.1110 Z0.2977
G1 X43.1351 Y-21.1201 Z0.2894
G1 X43.1351 Y-21.1300 Z0.2821
G1 X43.1351 Y-21.1405 Z0.2758
G1 X43.1351 Y-21.1516 Z0.2706
G1 X43.1351 Y-21.1631 Z0.2664
G1 X43.1351 Y-21.1750 Z0.2635
G1 X43.1351 Y-21.1872 Z0.2617
G1 X43.1351 Y-21.1994 Z0.2611
G1 X43.1351 Y-23.1684 Z0.2611 F50.
G1 X43.1351 Y-23.2036 Z0.2610
G1 X43.1351 Y-23.2153 Z0.2609
G1 X43.1351 Y-23.2388 Z0.2607
G1 X43.1351 Y-23.2622 Z0.2605
G1 X43.1351 Y-23.2856 Z0.2602
G1 X43.1351 Y-23.2974 Z0.2600
G1 X43.1351 Y-23.3208 Z0.2595
G1 X43.1351 Y-23.3325 Z0.2593
G1 X43.1351 Y-23.3560 Z0.2587
G1 X43.1351 Y-23.3794 Z0.2581
G1 X43.1351 Y-23.4029 Z0.2574
G1 X43.1351 Y-23.4146 Z0.2570
G1 X43.1351 Y-23.4380 Z0.2562
G1 X43.1351 Y-23.4497 Z0.2558
G1 X43.1351 Y-23.4732 Z0.2548
G1 X43.1351 Y-23.4966 Z0.2538
G1 X43.1351 Y-23.5083 Z0.2533
G1 X43.1351 Y-23.5318 Z0.2522
G1 X43.1351 Y-23.5435 Z0.2516
G1 X43.1351 Y-23.5669 Z0.2503
G1 X43.1351 Y-23.5904 Z0.2490
G1 X43.1351 Y-23.6138 Z0.2476
G1 X43.1351 Y-23.6255 Z0.2469
G1 X43.1351 Y-23.6490 Z0.2454
G1 X43.1351 Y-23.6607 Z0.2446
G1 X43.1351 Y-23.6841 Z0.2430
G1 X43.1351 Y-23.7076 Z0.2413
G1 X43.1351 Y-23.7310 Z0.2395
G1 X43.1351 Y-23.7427 Z0.2386
G1 X43.1351 Y-23.7545 Z0.2377
G1 X43.1351 Y-23.7779 Z0.2358
G1 X43.1351 Y-23.8013 Z0.2338
G1 X43.1351 Y-23.8248 Z0.2317
G1 X43.1351 Y-23.8365 Z0.2306
G1 X43.1351 Y-23.8599 Z0.2284
G1 X43.1351 Y-23.8717 Z0.2273
G1 X43.1351 Y-23.8951 Z0.2250
G1 X43.1351 Y-23.9185 Z0.2226
G1 X43.1351 Y-23.9420 Z0.2202
G1 X43.1351 Y-23.9537 Z0.2189
G1 X43.1351 Y-23.9771 Z0.2163
G1 X43.1351 Y-23.9889 Z0.2150
G1 X43.1351 Y-24.0123 Z0.2123
G1 X43.1351 Y-24.0357 Z0.2095
G1 X43.1351 Y-24.0592 Z0.2067
G1 X43.1351 Y-24.0709 Z0.2053
G1 X43.1351 Y-24.0944 Z0.2023
G1 X43.1351 Y-24.1061 Z0.2008
G1 X43.1351 Y-24.1295 Z0.1977
G1 X43.1351 Y-24.1530 Z0.1945
G1 X43.1351 Y-24.1764 Z0.1913
G1 X43.1351 Y-24.1881 Z0.1897
G1 X43.1351 Y-24.2129 Z0.1861
G1 X43.1351 Y-24.2259 Z0.1842
G1 X43.1351 Y-24.2520 Z0.1803
G1 X43.1351 Y-24.2781 Z0.1764
G1 X43.1351 Y-24.3042 Z0.1723
G1 X43.1351 Y-24.3303 Z0.1681
G1 X43.1351 Y-24.3564 Z0.1638
G1 X43.1351 Y-24.3695 Z0.1617
G1 X43.1351 Y-24.3956 Z0.1573
G1 X43.1351 Y-24.4086 Z0.1550
G1 X43.1351 Y-24.4221 Z0.1534
G1 X43.1351 Y-24.4357 Z0.1533
G1 X43.1351 Y-24.4493 Z0.1547
G1 X43.1351 Y-24.4626 Z0.1575
G1 X43.1351 Y-24.4755 Z0.1618
G1 X43.1351 Y-24.4879 Z0.1674
G1 X43.1351 Y-24.4996 Z0.1744
G1 X43.1351 Y-24.5104 Z0.1825
G1 X43.1351 Y-24.5204 Z0.1919
G1 X43.1351 Y-24.5292 Z0.2022
G1 X43.1351 Y-24.5369 Z0.2134
G1 X43.1351 Y-24.5433 Z0.2254
G1 X43.1351 Y-24.5483 Z0.2381
G1 X43.1351 Y-24.5520 Z0.2512
G1 X43.1351 Y-24.5542 Z0.2646
G1 X43.1351 Y-24.5549 Z0.2782
G0 Z0.3111
G0 X43.1351 Y-24.5549 
G0 Z0.3861
G0 X42.9701 Y-21.0744 
G1 X42.9701 Y-21.0750 Z0.3738 F25.
G1 X42.9701 Y-21.0768 Z0.3617
G1 X42.9701 Y-21.0798 Z0.3498
G1 X42.9701 Y-21.0839 Z0.3382
G1 X42.9701 Y-21.0892 Z0.3271
G1 X42.9701 Y-21.0955 Z0.3166
G1 X42.9701 Y-21.1028 Z0.3068
G1 X42.9701 Y-21.1110 Z0.2977
G1 X42.9701 Y-21.1201 Z0.2894
G1 X42.9701 Y-21.1300 Z0.2821
G1 X42.9701 Y-21.1405 Z0.2758
G1 X42.9701 Y-21.1516 Z0.2706
G1 X42.9701 Y-21.1631 Z0.2664
G1 X42.9701 Y-21.1750 Z0.2635
G1 X42.9701 Y-21.1872 Z0.2617
G1 X42.9701 Y-21.1994 Z0.2611
G1 X42.9701 Y-23.1684 Z0.2611 F50.
G1 X42.9701 Y-23.2036 Z0.2610
G1 X42.9701 Y-23.2153 Z0.2609
G1 X42.9701 Y-23.2388 Z0.2607
G1 X42.9701 Y-23.2622 Z0.2605
G1 X42.9701 Y-23.2856 Z0.2602
G1 X42.9701 Y-23.2974 Z0.2600
G1 X42.9701 Y-23.3208 Z0.2595
G1 X42.9701 Y-23.3325 Z0.2593
G1 X42.9701 Y-23.3560 Z0.2587
G1 X42.9701 Y-23.3794 Z0.2581
G1 X42.9701 Y-23.4029 Z0.2574
G1 X42.9701 Y-23.4146 Z0.2570
G1 X42.9701 Y-23.4380 Z0.2562
G1 X42.9701 Y-23.4497 Z0.2558
G1 X42.9701 Y-23.4732 Z0.2548
G1 X42.9701 Y-23.4966 Z0.2538
G1 X42.9701 Y-23.5083 Z0.2533
G1 X42.9701 Y-23.5318 Z0.2522
G1 X42.9701 Y-23.5435 Z0.2516
G1 X42.9701 Y-23.5669 Z0.2503
G1 X42.9701 Y-23.5904 Z0.2490
G1 X42.9701 Y-23.6138 Z0.2476
G1 X42.9701 Y-23.6255 Z0.2469
G1 X42.9701 Y-23.6490 Z0.2454
G1 X42.9701 Y-23.6607 Z0.2446
G1 X42.9701 Y-23.6841 Z0.2430
G1 X42.9701 Y-23.7076 Z0.2413
G1 X42.9701 Y-23.7310 Z0.2395
G1 X42.9701 Y-23.7427 Z0.2386
G1 X42.9701 Y-23.7545 Z0.2377
G1 X42.9701 Y-23.7779 Z0.2358
G1 X42.9701 Y-23.8013 Z0.2338
G1 X42.9701 Y-23.8248 Z0.2317
G1 X42.9701 Y-23.8365 Z0.2306
G1 X42.9701 Y-23.8599 Z0.2284
G1 X42.9701 Y-23.8717 Z0.2273
G1 X42.9701 Y-23.8951 Z0.2250
G1 X42.9701 Y-23.9185 Z0.2226
G1 X42.9701 Y-23.9420 Z0.2202
G1 X42.9701 Y-23.9537 Z0.2189
G1 X42.9701 Y-23.9771 Z0.2163
G1 X42.9701 Y-23.9889 Z0.2150
G1 X42.9701 Y-24.0123 Z0.2123
G1 X42.9701 Y-24.0357 Z0.2095
G1 X42.9701 Y-24.0592 Z0.2067
G1 X42.9701 Y-24.0709 Z0.2053
G1 X42.9701 Y-24.0944 Z0.2023
G1 X42.9701 Y-24.1061 Z0.2008
G1 X42.9701 Y-24.1295 Z0.1977
G1 X42.9701 Y-24.1530 Z0.1945
G1 X42.9701 Y-24.1764 Z0.1913
G1 X42.9701 Y-24.1881 Z0.1897
G1 X42.9701 Y-24.2130 Z0.1861
G1 X42.9701 Y-24.2262 Z0.1842
G1 X42.9701 Y-24.2525 Z0.1803
G1 X42.9701 Y-24.2788 Z0.1762
G1 X42.9701 Y-24.3052 Z0.1721
G1 X42.9701 Y-24.3315 Z0.1679
G1 X42.9701 Y-24.3578 Z0.1636
G1 X42.9701 Y-24.3710 Z0.1614
G1 X42.9701 Y-24.3842 Z0.1592
G1 X42.9701 Y-24.3973 Z0.1570
G1 X42.9701 Y-24.4105 Z0.1547
G1 X42.9701 Y-24.4240 Z0.1531
G1 X42.9701 Y-24.4376 Z0.1530
G1 X42.9701 Y-24.4511 Z0.1543
G1 X42.9701 Y-24.4644 Z0.1572
G1 X42.9701 Y-24.4774 Z0.1614
G1 X42.9701 Y-24.4897 Z0.1671
G1 X42.9701 Y-24.5014 Z0.1740
G1 X42.9701 Y-24.5123 Z0.1822
G1 X42.9701 Y-24.5222 Z0.1915
G1 X42.9701 Y-24.5311 Z0.2019
G1 X42.9701 Y-24.5387 Z0.2131
G1 X42.9701 Y-24.5451 Z0.2251
G1 X42.9701 Y-24.5502 Z0.2377
G1 X42.9701 Y-24.5539 Z0.2508
G1 X42.9701 Y-24.5561 Z0.2643
G1 X42.9701 Y-24.5568 Z0.2778
G0 Z0.3111
G0 X42.9701 Y-24.5568 
G0 Z0.3861
G0 X42.8051 Y-21.0744 
G1 X42.8051 Y-21.0750 Z0.3738 F25.
G1 X42.8051 Y-21.0768 Z0.3617
G1 X42.8051 Y-21.0798 Z0.3498
G1 X42.8051 Y-21.0839 Z0.3382
G1 X42.8051 Y-21.0892 Z0.3271
G1 X42.8051 Y-21.0955 Z0.3166
G1 X42.8051 Y-21.1028 Z0.3068
G1 X42.8051 Y-21.1110 Z0.2977
G1 X42.8051 Y-21.1201 Z0.2894
G1 X42.8051 Y-21.1300 Z0.2821
G1 X42.8051 Y-21.1405 Z0.2758
G1 X42.8051 Y-21.1516 Z0.2706
G1 X42.8051 Y-21.1631 Z0.2664
G1 X42.8051 Y-21.1750 Z0.2635
G1 X42.8051 Y-21.1872 Z0.2617
G1 X42.8051 Y-21.1994 Z0.2611
G1 X42.8051 Y-23.1684 Z0.2611 F50.
G1 X42.8051 Y-23.2036 Z0.2610
G1 X42.8051 Y-23.2153 Z0.2609
G1 X42.8051 Y-23.2388 Z0.2607
G1 X42.8051 Y-23.2622 Z0.2605
G1 X42.8051 Y-23.2856 Z0.2602
G1 X42.8051 Y-23.2974 Z0.2600
G1 X42.8051 Y-23.3208 Z0.2595
G1 X42.8051 Y-23.3325 Z0.2593
G1 X42.8051 Y-23.3560 Z0.2587
G1 X42.8051 Y-23.3794 Z0.2581
G1 X42.8051 Y-23.4029 Z0.2574
G1 X42.8051 Y-23.4146 Z0.2570
G1 X42.8051 Y-23.4380 Z0.2562
G1 X42.8051 Y-23.4497 Z0.2558
G1 X42.8051 Y-23.4732 Z0.2548
G1 X42.8051 Y-23.4966 Z0.2538
G1 X42.8051 Y-23.5083 Z0.2533
G1 X42.8051 Y-23.5318 Z0.2522
G1 X42.8051 Y-23.5435 Z0.2516
G1 X42.8051 Y-23.5669 Z0.2503
G1 X42.8051 Y-23.5904 Z0.2490
G1 X42.8051 Y-23.6138 Z0.2476
G1 X42.8051 Y-23.6255 Z0.2469
G1 X42.8051 Y-23.6490 Z0.2454
G1 X42.8051 Y-23.6607 Z0.2446
G1 X42.8051 Y-23.6841 Z0.2430
G1 X42.8051 Y-23.7076 Z0.2413
G1 X42.8051 Y-23.7310 Z0.2395
G1 X42.8051 Y-23.7427 Z0.2386
G1 X42.8051 Y-23.7545 Z0.2377
G1 X42.8051 Y-23.7779 Z0.2358
G1 X42.8051 Y-23.8013 Z0.2338
G1 X42.8051 Y-23.8248 Z0.2317
G1 X42.8051 Y-23.8365 Z0.2306
G1 X42.8051 Y-23.8599 Z0.2284
G1 X42.8051 Y-23.8717 Z0.2273
G1 X42.8051 Y-23.8951 Z0.2250
G1 X42.8051 Y-23.9185 Z0.2226
G1 X42.8051 Y-23.9420 Z0.2202
G1 X42.8051 Y-23.9537 Z0.2189
G1 X42.8051 Y-23.9771 Z0.2163
G1 X42.8051 Y-23.9889 Z0.2150
G1 X42.8051 Y-24.0123 Z0.2123
G1 X42.8051 Y-24.0357 Z0.2095
G1 X42.8051 Y-24.0592 Z0.2067
G1 X42.8051 Y-24.0709 Z0.2053
G1 X42.8051 Y-24.0944 Z0.2023
G1 X42.8051 Y-24.1061 Z0.2008
G1 X42.8051 Y-24.1295 Z0.1977
G1 X42.8051 Y-24.1530 Z0.1945
G1 X42.8051 Y-24.1764 Z0.1913
G1 X42.8051 Y-24.1881 Z0.1897
G1 X42.8051 Y-24.2131 Z0.1861
G1 X42.8051 Y-24.2264 Z0.1841
G1 X42.8051 Y-24.2530 Z0.1802
G1 X42.8051 Y-24.2795 Z0.1761
G1 X42.8051 Y-24.3061 Z0.1720
G1 X42.8051 Y-24.3327 Z0.1677
G1 X42.8051 Y-24.3659 Z0.1623
G1 X42.8051 Y-24.3858 Z0.1589
G1 X42.8051 Y-24.3991 Z0.1566
G1 X42.8051 Y-24.4124 Z0.1543
G1 X42.8051 Y-24.4259 Z0.1528
G1 X42.8051 Y-24.4395 Z0.1527
G1 X42.8051 Y-24.4530 Z0.1540
G1 X42.8051 Y-24.4663 Z0.1569
G1 X42.8051 Y-24.4792 Z0.1611
G1 X42.8051 Y-24.4916 Z0.1668
G1 X42.8051 Y-24.5033 Z0.1737
G1 X42.8051 Y-24.5142 Z0.1819
G1 X42.8051 Y-24.5241 Z0.1912
G1 X42.8051 Y-24.5329 Z0.2015
G1 X42.8051 Y-24.5406 Z0.2128
G1 X42.8051 Y-24.5470 Z0.2248
G1 X42.8051 Y-24.5521 Z0.2374
G1 X42.8051 Y-24.5557 Z0.2505
G1 X42.8051 Y-24.5579 Z0.2639
G1 X42.8051 Y-24.5587 Z0.2775
G0 Z0.3111
G0 X42.8051 Y-24.5587 
G0 Z0.3861
G0 X42.6401 Y-21.0744 
G1 X42.6401 Y-21.0750 Z0.3738 F25.
G1 X42.6401 Y-21.0768 Z0.3617
G1 X42.6401 Y-21.0798 Z0.3498
G1 X42.6401 Y-21.0839 Z0.3382
G1 X42.6401 Y-21.0892 Z0.3271
G1 X42.6401 Y-21.0955 Z0.3166
G1 X42.6401 Y-21.1028 Z0.3068
G1 X42.6401 Y-21.1110 Z0.2977
G1 X42.6401 Y-21.1201 Z0.2894
G1 X42.6401 Y-21.1300 Z0.2821
G1 X42.6401 Y-21.1405 Z0.2758
G1 X42.6401 Y-21.1516 Z0.2706
G1 X42.6401 Y-21.1631 Z0.2664
G1 X42.6401 Y-21.1750 Z0.2635
G1 X42.6401 Y-21.1872 Z0.2617
G1 X42.6401 Y-21.1994 Z0.2611
G1 X42.6401 Y-23.1684 Z0.2611 F50.
G1 X42.6401 Y-23.2036 Z0.2610
G1 X42.6401 Y-23.2153 Z0.2609
G1 X42.6401 Y-23.2388 Z0.2607
G1 X42.6401 Y-23.2622 Z0.2605
G1 X42.6401 Y-23.2856 Z0.2602
G1 X42.6401 Y-23.2974 Z0.2600
G1 X42.6401 Y-23.3208 Z0.2595
G1 X42.6401 Y-23.3325 Z0.2593
G1 X42.6401 Y-23.3560 Z0.2587
G1 X42.6401 Y-23.3794 Z0.2581
G1 X42.6401 Y-23.4029 Z0.2574
G1 X42.6401 Y-23.4146 Z0.2570
G1 X42.6401 Y-23.4380 Z0.2562
G1 X42.6401 Y-23.4497 Z0.2558
G1 X42.6401 Y-23.4732 Z0.2548
G1 X42.6401 Y-23.4966 Z0.2538
G1 X42.6401 Y-23.5083 Z0.2533
G1 X42.6401 Y-23.5318 Z0.2522
G1 X42.6401 Y-23.5435 Z0.2516
G1 X42.6401 Y-23.5669 Z0.2503
G1 X42.6401 Y-23.5904 Z0.2490
G1 X42.6401 Y-23.6138 Z0.2476
G1 X42.6401 Y-23.6255 Z0.2469
G1 X42.6401 Y-23.6490 Z0.2454
G1 X42.6401 Y-23.6607 Z0.2446
G1 X42.6401 Y-23.6841 Z0.2430
G1 X42.6401 Y-23.7076 Z0.2413
G1 X42.6401 Y-23.7310 Z0.2395
G1 X42.6401 Y-23.7427 Z0.2386
G1 X42.6401 Y-23.7545 Z0.2377
G1 X42.6401 Y-23.7779 Z0.2358
G1 X42.6401 Y-23.8013 Z0.2338
G1 X42.6401 Y-23.8248 Z0.2317
G1 X42.6401 Y-23.8365 Z0.2306
G1 X42.6401 Y-23.8599 Z0.2284
G1 X42.6401 Y-23.8717 Z0.2273
G1 X42.6401 Y-23.8951 Z0.2250
G1 X42.6401 Y-23.9185 Z0.2226
G1 X42.6401 Y-23.9420 Z0.2202
G1 X42.6401 Y-23.9537 Z0.2189
G1 X42.6401 Y-23.9771 Z0.2163
G1 X42.6401 Y-23.9889 Z0.2150
G1 X42.6401 Y-24.0123 Z0.2123
G1 X42.6401 Y-24.0357 Z0.2095
G1 X42.6401 Y-24.0592 Z0.2067
G1 X42.6401 Y-24.0709 Z0.2053
G1 X42.6401 Y-24.0944 Z0.2023
G1 X42.6401 Y-24.1061 Z0.2008
G1 X42.6401 Y-24.1295 Z0.1977
G1 X42.6401 Y-24.1530 Z0.1945
G1 X42.6401 Y-24.1764 Z0.1913
G1 X42.6401 Y-24.1881 Z0.1897
G1 X42.6401 Y-24.2132 Z0.1861
G1 X42.6401 Y-24.2266 Z0.1841
G1 X42.6401 Y-24.2534 Z0.1801
G1 X42.6401 Y-24.2802 Z0.1760
G1 X42.6401 Y-24.3070 Z0.1718
G1 X42.6401 Y-24.3338 Z0.1675
G1 X42.6401 Y-24.3606 Z0.1631
G1 X42.6401 Y-24.3941 Z0.1575
G1 X42.6401 Y-24.4142 Z0.1540
G1 X42.6401 Y-24.4277 Z0.1524
G1 X42.6401 Y-24.4413 Z0.1523
G1 X42.6401 Y-24.4549 Z0.1537
G1 X42.6401 Y-24.4682 Z0.1565
G1 X42.6401 Y-24.4811 Z0.1608
G1 X42.6401 Y-24.4935 Z0.1664
G1 X42.6401 Y-24.5052 Z0.1734
G1 X42.6401 Y-24.5160 Z0.1816
G1 X42.6401 Y-24.5259 Z0.1909
G1 X42.6401 Y-24.5348 Z0.2012
G1 X42.6401 Y-24.5425 Z0.2125
G1 X42.6401 Y-24.5489 Z0.2245
G1 X42.6401 Y-24.5539 Z0.2371
G1 X42.6401 Y-24.5576 Z0.2502
G1 X42.6401 Y-24.5598 Z0.2636
G1 X42.6401 Y-24.5605 Z0.2772
G0 Z0.3111
G0 X42.6401 Y-24.5605 
G0 Z0.3861
G0 X42.4751 Y-21.0744 
G1 X42.4751 Y-21.0750 Z0.3738 F25.
G1 X42.4751 Y-21.0768 Z0.3617
G1 X42.4751 Y-21.0798 Z0.3498
G1 X42.4751 Y-21.0839 Z0.3382
G1 X42.4751 Y-21.0892 Z0.3271
G1 X42.4751 Y-21.0955 Z0.3166
G1 X42.4751 Y-21.1028 Z0.3068
G1 X42.4751 Y-21.1110 Z0.2977
G1 X42.4751 Y-21.1201 Z0.2894
G1 X42.4751 Y-21.1300 Z0.2821
G1 X42.4751 Y-21.1405 Z0.2758
G1 X42.4751 Y-21.1516 Z0.2706
G1 X42.4751 Y-21.1631 Z0.2664
G1 X42.4751 Y-21.1750 Z0.2635
G1 X42.4751 Y-21.1872 Z0.2617
G1 X42.4751 Y-21.1994 Z0.2611
G1 X42.4751 Y-23.1684 Z0.2611 F50.
G1 X42.4751 Y-23.2036 Z0.2610
G1 X42.4751 Y-23.2153 Z0.2609
G1 X42.4751 Y-23.2388 Z0.2607
G1 X42.4751 Y-23.2622 Z0.2605
G1 X42.4751 Y-23.2856 Z0.2602
G1 X42.4751 Y-23.2974 Z0.2600
G1 X42.4751 Y-23.3208 Z0.2595
G1 X42.4751 Y-23.3325 Z0.2593
G1 X42.4751 Y-23.3560 Z0.2587
G1 X42.4751 Y-23.3794 Z0.2581
G1 X42.4751 Y-23.4029 Z0.2574
G1 X42.4751 Y-23.4146 Z0.2570
G1 X42.4751 Y-23.4380 Z0.2562
G1 X42.4751 Y-23.4497 Z0.2558
G1 X42.4751 Y-23.4732 Z0.2548
G1 X42.4751 Y-23.4966 Z0.2538
G1 X42.4751 Y-23.5083 Z0.2533
G1 X42.4751 Y-23.5318 Z0.2522
G1 X42.4751 Y-23.5435 Z0.2516
G1 X42.4751 Y-23.5669 Z0.2503
G1 X42.4751 Y-23.5904 Z0.2490
G1 X42.4751 Y-23.6138 Z0.2476
G1 X42.4751 Y-23.6255 Z0.2469
G1 X42.4751 Y-23.6490 Z0.2454
G1 X42.4751 Y-23.6607 Z0.2446
G1 X42.4751 Y-23.6841 Z0.2430
G1 X42.4751 Y-23.7076 Z0.2413
G1 X42.4751 Y-23.7310 Z0.2395
G1 X42.4751 Y-23.7427 Z0.2386
G1 X42.4751 Y-23.7545 Z0.2377
G1 X42.4751 Y-23.7779 Z0.2358
G1 X42.4751 Y-23.8013 Z0.2338
G1 X42.4751 Y-23.8248 Z0.2317
G1 X42.4751 Y-23.8365 Z0.2306
G1 X42.4751 Y-23.8599 Z0.2284
G1 X42.4751 Y-23.8717 Z0.2273
G1 X42.4751 Y-23.8951 Z0.2250
G1 X42.4751 Y-23.9185 Z0.2226
G1 X42.4751 Y-23.9420 Z0.2202
G1 X42.4751 Y-23.9537 Z0.2189
G1 X42.4751 Y-23.9771 Z0.2163
G1 X42.4751 Y-23.9889 Z0.2150
G1 X42.4751 Y-24.0123 Z0.2123
G1 X42.4751 Y-24.0357 Z0.2095
G1 X42.4751 Y-24.0592 Z0.2067
G1 X42.4751 Y-24.0709 Z0.2053
G1 X42.4751 Y-24.0944 Z0.2023
G1 X42.4751 Y-24.1061 Z0.2008
G1 X42.4751 Y-24.1295 Z0.1977
G1 X42.4751 Y-24.1530 Z0.1945
G1 X42.4751 Y-24.1764 Z0.1913
G1 X42.4751 Y-24.1881 Z0.1897
G1 X42.4751 Y-24.2133 Z0.1860
G1 X42.4751 Y-24.2269 Z0.1841
G1 X42.4751 Y-24.2471 Z0.1811
G1 X42.4751 Y-24.2809 Z0.1759
G1 X42.4751 Y-24.3080 Z0.1717
G1 X42.4751 Y-24.3350 Z0.1674
G1 X42.4751 Y-24.3620 Z0.1629
G1 X42.4751 Y-24.3891 Z0.1584
G1 X42.4751 Y-24.4161 Z0.1537
G1 X42.4751 Y-24.4296 Z0.1521
G1 X42.4751 Y-24.4432 Z0.1520
G1 X42.4751 Y-24.4567 Z0.1534
G1 X42.4751 Y-24.4700 Z0.1562
G1 X42.4751 Y-24.4829 Z0.1605
G1 X42.4751 Y-24.4953 Z0.1662
G1 X42.4751 Y-24.5070 Z0.1731
G1 X42.4751 Y-24.5178 Z0.1813
G1 X42.4751 Y-24.5278 Z0.1906
G1 X42.4751 Y-24.5366 Z0.2009
G1 X42.4751 Y-24.5442 Z0.2122
G1 X42.4751 Y-24.5506 Z0.2242
G1 X42.4751 Y-24.5557 Z0.2368
G1 X42.4751 Y-24.5594 Z0.2499
G1 X42.4751 Y-24.5616 Z0.2633
G1 X42.4751 Y-24.5623 Z0.2769
G0 Z0.3111
G0 X42.4751 Y-24.5623 
G0 Z0.3861
G0 X42.3101 Y-21.0744 
G1 X42.3101 Y-21.0750 Z0.3738 F25.
G1 X42.3101 Y-21.0768 Z0.3617
G1 X42.3101 Y-21.0798 Z0.3498
G1 X42.3101 Y-21.0839 Z0.3382
G1 X42.3101 Y-21.0892 Z0.3271
G1 X42.3101 Y-21.0955 Z0.3166
G1 X42.3101 Y-21.1028 Z0.3068
G1 X42.3101 Y-21.1110 Z0.2977
G1 X42.3101 Y-21.1201 Z0.2894
G1 X42.3101 Y-21.1300 Z0.2821
G1 X42.3101 Y-21.1405 Z0.2758
G1 X42.3101 Y-21.1516 Z0.2706
G1 X42.3101 Y-21.1631 Z0.2664
G1 X42.3101 Y-21.1750 Z0.2635
G1 X42.3101 Y-21.1872 Z0.2617
G1 X42.3101 Y-21.1994 Z0.2611
G1 X42.3101 Y-23.1684 Z0.2611 F50.
G1 X42.3101 Y-23.2036 Z0.2610
G1 X42.3101 Y-23.2153 Z0.2609
G1 X42.3101 Y-23.2388 Z0.2607
G1 X42.3101 Y-23.2622 Z0.2605
G1 X42.3101 Y-23.2856 Z0.2602
G1 X42.3101 Y-23.2974 Z0.2600
G1 X42.3101 Y-23.3208 Z0.2595
G1 X42.3101 Y-23.3325 Z0.2593
G1 X42.3101 Y-23.3560 Z0.2587
G1 X42.3101 Y-23.3794 Z0.2581
G1 X42.3101 Y-23.4029 Z0.2574
G1 X42.3101 Y-23.4146 Z0.2570
G1 X42.3101 Y-23.4380 Z0.2562
G1 X42.3101 Y-23.4497 Z0.2558
G1 X42.3101 Y-23.4732 Z0.2548
G1 X42.3101 Y-23.4966 Z0.2538
G1 X42.3101 Y-23.5083 Z0.2533
G1 X42.3101 Y-23.5318 Z0.2522
G1 X42.3101 Y-23.5435 Z0.2516
G1 X42.3101 Y-23.5669 Z0.2503
G1 X42.3101 Y-23.5904 Z0.2490
G1 X42.3101 Y-23.6138 Z0.2476
G1 X42.3101 Y-23.6255 Z0.2469
G1 X42.3101 Y-23.6490 Z0.2454
G1 X42.3101 Y-23.6607 Z0.2446
G1 X42.3101 Y-23.6841 Z0.2430
G1 X42.3101 Y-23.7076 Z0.2413
G1 X42.3101 Y-23.7310 Z0.2395
G1 X42.3101 Y-23.7427 Z0.2386
G1 X42.3101 Y-23.7545 Z0.2377
G1 X42.3101 Y-23.7779 Z0.2358
G1 X42.3101 Y-23.8013 Z0.2338
G1 X42.3101 Y-23.8248 Z0.2317
G1 X42.3101 Y-23.8365 Z0.2306
G1 X42.3101 Y-23.8599 Z0.2284
G1 X42.3101 Y-23.8717 Z0.2273
G1 X42.3101 Y-23.8951 Z0.2250
G1 X42.3101 Y-23.9185 Z0.2226
G1 X42.3101 Y-23.9420 Z0.2202
G1 X42.3101 Y-23.9537 Z0.2189
G1 X42.3101 Y-23.9771 Z0.2163
G1 X42.3101 Y-23.9889 Z0.2150
G1 X42.3101 Y-24.0123 Z0.2123
G1 X42.3101 Y-24.0357 Z0.2095
G1 X42.3101 Y-24.0592 Z0.2067
G1 X42.3101 Y-24.0709 Z0.2053
G1 X42.3101 Y-24.0944 Z0.2023
G1 X42.3101 Y-24.1061 Z0.2008
G1 X42.3101 Y-24.1295 Z0.1977
G1 X42.3101 Y-24.1530 Z0.1945
G1 X42.3101 Y-24.1764 Z0.1913
G1 X42.3101 Y-24.1881 Z0.1897
G1 X42.3101 Y-24.2135 Z0.1860
G1 X42.3101 Y-24.2271 Z0.1840
G1 X42.3101 Y-24.2475 Z0.1810
G1 X42.3101 Y-24.2816 Z0.1758
G1 X42.3101 Y-24.3089 Z0.1715
G1 X42.3101 Y-24.3362 Z0.1672
G1 X42.3101 Y-24.3634 Z0.1627
G1 X42.3101 Y-24.3907 Z0.1581
G1 X42.3101 Y-24.4180 Z0.1534
G1 X42.3101 Y-24.4315 Z0.1518
G1 X42.3101 Y-24.4451 Z0.1517
G1 X42.3101 Y-24.4586 Z0.1531
G1 X42.3101 Y-24.4719 Z0.1559
G1 X42.3101 Y-24.4848 Z0.1602
G1 X42.3101 Y-24.4972 Z0.1658
G1 X42.3101 Y-24.5089 Z0.1728
G1 X42.3101 Y-24.5197 Z0.1810
G1 X42.3101 Y-24.5296 Z0.1903
G1 X42.3101 Y-24.5385 Z0.2006
G1 X42.3101 Y-24.5461 Z0.2118
G1 X42.3101 Y-24.5525 Z0.2238
G1 X42.3101 Y-24.5576 Z0.2365
G1 X42.3101 Y-24.5613 Z0.2496
G1 X42.3101 Y-24.5635 Z0.2630
G1 X42.3101 Y-24.5642 Z0.2766
G0 Z0.3111
G0 X42.3101 Y-24.5642 
G0 Z0.3861
G0 X42.1451 Y-21.0744 
G1 X42.1451 Y-21.0750 Z0.3738 F25.
G1 X42.1451 Y-21.0768 Z0.3617
G1 X42.1451 Y-21.0798 Z0.3498
G1 X42.1451 Y-21.0839 Z0.3382
G1 X42.1451 Y-21.0892 Z0.3271
G1 X42.1451 Y-21.0955 Z0.3166
G1 X42.1451 Y-21.1028 Z0.3068
G1 X42.1451 Y-21.1110 Z0.2977
G1 X42.1451 Y-21.1201 Z0.2894
G1 X42.1451 Y-21.1300 Z0.2821
G1 X42.1451 Y-21.1405 Z0.2758
G1 X42.1451 Y-21.1516 Z0.2706
G1 X42.1451 Y-21.1631 Z0.2664
G1 X42.1451 Y-21.1750 Z0.2635
G1 X42.1451 Y-21.1872 Z0.2617
G1 X42.1451 Y-21.1994 Z0.2611
G1 X42.1451 Y-23.1684 Z0.2611 F50.
G1 X42.1451 Y-23.2036 Z0.2610
G1 X42.1451 Y-23.2153 Z0.2609
G1 X42.1451 Y-23.2388 Z0.2607
G1 X42.1451 Y-23.2622 Z0.2605
G1 X42.1451 Y-23.2856 Z0.2602
G1 X42.1451 Y-23.2974 Z0.2600
G1 X42.1451 Y-23.3208 Z0.2595
G1 X42.1451 Y-23.3325 Z0.2593
G1 X42.1451 Y-23.3560 Z0.2587
G1 X42.1451 Y-23.3794 Z0.2581
G1 X42.1451 Y-23.4029 Z0.2574
G1 X42.1451 Y-23.4146 Z0.2570
G1 X42.1451 Y-23.4380 Z0.2562
G1 X42.1451 Y-23.4497 Z0.2558
G1 X42.1451 Y-23.4732 Z0.2548
G1 X42.1451 Y-23.4966 Z0.2538
G1 X42.1451 Y-23.5083 Z0.2533
G1 X42.1451 Y-23.5318 Z0.2522
G1 X42.1451 Y-23.5435 Z0.2516
G1 X42.1451 Y-23.5669 Z0.2503
G1 X42.1451 Y-23.5904 Z0.2490
G1 X42.1451 Y-23.6138 Z0.2476
G1 X42.1451 Y-23.6255 Z0.2469
G1 X42.1451 Y-23.6490 Z0.2454
G1 X42.1451 Y-23.6607 Z0.2446
G1 X42.1451 Y-23.6841 Z0.2430
G1 X42.1451 Y-23.7076 Z0.2413
G1 X42.1451 Y-23.7310 Z0.2395
G1 X42.1451 Y-23.7427 Z0.2386
G1 X42.1451 Y-23.7545 Z0.2377
G1 X42.1451 Y-23.7779 Z0.2358
G1 X42.1451 Y-23.8013 Z0.2338
G1 X42.1451 Y-23.8248 Z0.2317
G1 X42.1451 Y-23.8365 Z0.2306
G1 X42.1451 Y-23.8599 Z0.2284
G1 X42.1451 Y-23.8717 Z0.2273
G1 X42.1451 Y-23.8951 Z0.2250
G1 X42.1451 Y-23.9185 Z0.2226
G1 X42.1451 Y-23.9420 Z0.2202
G1 X42.1451 Y-23.9537 Z0.2189
G1 X42.1451 Y-23.9771 Z0.2163
G1 X42.1451 Y-23.9889 Z0.2150
G1 X42.1451 Y-24.0123 Z0.2123
G1 X42.1451 Y-24.0357 Z0.2095
G1 X42.1451 Y-24.0592 Z0.2067
G1 X42.1451 Y-24.0709 Z0.2053
G1 X42.1451 Y-24.0944 Z0.2023
G1 X42.1451 Y-24.1061 Z0.2008
G1 X42.1451 Y-24.1295 Z0.1977
G1 X42.1451 Y-24.1530 Z0.1945
G1 X42.1451 Y-24.1764 Z0.1913
G1 X42.1451 Y-24.1881 Z0.1897
G1 X42.1451 Y-24.2136 Z0.1860
G1 X42.1451 Y-24.2273 Z0.1840
G1 X42.1451 Y-24.2480 Z0.1809
G1 X42.1451 Y-24.2823 Z0.1757
G1 X42.1451 Y-24.3098 Z0.1714
G1 X42.1451 Y-24.3373 Z0.1670
G1 X42.1451 Y-24.3648 Z0.1624
G1 X42.1451 Y-24.3923 Z0.1578
G1 X42.1451 Y-24.4198 Z0.1531
G1 X42.1451 Y-24.4333 Z0.1515
G1 X42.1451 Y-24.4469 Z0.1514
G1 X42.1451 Y-24.4605 Z0.1527
G1 X42.1451 Y-24.4738 Z0.1556
G1 X42.1451 Y-24.4867 Z0.1598
G1 X42.1451 Y-24.4991 Z0.1655
G1 X42.1451 Y-24.5108 Z0.1724
G1 X42.1451 Y-24.5216 Z0.1806
G1 X42.1451 Y-24.5315 Z0.1899
G1 X42.1451 Y-24.5404 Z0.2003
G1 X42.1451 Y-24.5480 Z0.2115
G1 X42.1451 Y-24.5544 Z0.2235
G1 X42.1451 Y-24.5595 Z0.2361
G1 X42.1451 Y-24.5632 Z0.2492
G1 X42.1451 Y-24.5654 Z0.2627
G1 X42.1451 Y-24.5661 Z0.2762
G0 Z0.3111
G0 X42.1451 Y-24.5661 
G0 Z0.3861
G0 X41.9801 Y-21.0744 
G1 X41.9801 Y-21.0750 Z0.3738 F25.
G1 X41.9801 Y-21.0768 Z0.3617
G1 X41.9801 Y-21.0798 Z0.3498
G1 X41.9801 Y-21.0839 Z0.3382
G1 X41.9801 Y-21.0892 Z0.3271
G1 X41.9801 Y-21.0955 Z0.3166
G1 X41.9801 Y-21.1028 Z0.3068
G1 X41.9801 Y-21.1110 Z0.2977
G1 X41.9801 Y-21.1201 Z0.2894
G1 X41.9801 Y-21.1300 Z0.2821
G1 X41.9801 Y-21.1405 Z0.2758
G1 X41.9801 Y-21.1516 Z0.2706
G1 X41.9801 Y-21.1631 Z0.2664
G1 X41.9801 Y-21.1750 Z0.2635
G1 X41.9801 Y-21.1872 Z0.2617
G1 X41.9801 Y-21.1994 Z0.2611
G1 X41.9801 Y-23.1684 Z0.2611 F50.
G1 X41.9801 Y-23.2036 Z0.2610
G1 X41.9801 Y-23.2153 Z0.2609
G1 X41.9801 Y-23.2388 Z0.2607
G1 X41.9801 Y-23.2622 Z0.2605
G1 X41.9801 Y-23.2856 Z0.2602
G1 X41.9801 Y-23.2974 Z0.2600
G1 X41.9801 Y-23.3208 Z0.2595
G1 X41.9801 Y-23.3325 Z0.2593
G1 X41.9801 Y-23.3560 Z0.2587
G1 X41.9801 Y-23.3794 Z0.2581
G1 X41.9801 Y-23.4029 Z0.2574
G1 X41.9801 Y-23.4146 Z0.2570
G1 X41.9801 Y-23.4380 Z0.2562
G1 X41.9801 Y-23.4497 Z0.2558
G1 X41.9801 Y-23.4732 Z0.2548
G1 X41.9801 Y-23.4966 Z0.2538
G1 X41.9801 Y-23.5083 Z0.2533
G1 X41.9801 Y-23.5318 Z0.2522
G1 X41.9801 Y-23.5435 Z0.2516
G1 X41.9801 Y-23.5669 Z0.2503
G1 X41.9801 Y-23.5904 Z0.2490
G1 X41.9801 Y-23.6138 Z0.2476
G1 X41.9801 Y-23.6255 Z0.2469
G1 X41.9801 Y-23.6490 Z0.2454
G1 X41.9801 Y-23.6607 Z0.2446
G1 X41.9801 Y-23.6841 Z0.2430
G1 X41.9801 Y-23.7076 Z0.2413
G1 X41.9801 Y-23.7310 Z0.2395
G1 X41.9801 Y-23.7427 Z0.2386
G1 X41.9801 Y-23.7545 Z0.2377
G1 X41.9801 Y-23.7779 Z0.2358
G1 X41.9801 Y-23.8013 Z0.2338
G1 X41.9801 Y-23.8248 Z0.2317
G1 X41.9801 Y-23.8365 Z0.2306
G1 X41.9801 Y-23.8599 Z0.2284
G1 X41.9801 Y-23.8717 Z0.2273
G1 X41.9801 Y-23.8951 Z0.2250
G1 X41.9801 Y-23.9185 Z0.2226
G1 X41.9801 Y-23.9420 Z0.2202
G1 X41.9801 Y-23.9537 Z0.2189
G1 X41.9801 Y-23.9771 Z0.2163
G1 X41.9801 Y-23.9889 Z0.2150
G1 X41.9801 Y-24.0123 Z0.2123
G1 X41.9801 Y-24.0357 Z0.2095
G1 X41.9801 Y-24.0592 Z0.2067
G1 X41.9801 Y-24.0709 Z0.2053
G1 X41.9801 Y-24.0944 Z0.2023
G1 X41.9801 Y-24.1061 Z0.2008
G1 X41.9801 Y-24.1295 Z0.1977
G1 X41.9801 Y-24.1530 Z0.1945
G1 X41.9801 Y-24.1764 Z0.1913
G1 X41.9801 Y-24.1881 Z0.1897
G1 X41.9801 Y-24.2137 Z0.1860
G1 X41.9801 Y-24.2276 Z0.1840
G1 X41.9801 Y-24.2484 Z0.1809
G1 X41.9801 Y-24.2761 Z0.1767
G1 X41.9801 Y-24.2830 Z0.1756
G1 X41.9801 Y-24.3108 Z0.1712
G1 X41.9801 Y-24.3385 Z0.1668
G1 X41.9801 Y-24.3662 Z0.1622
G1 X41.9801 Y-24.3940 Z0.1575
G1 X41.9801 Y-24.4217 Z0.1527
G1 X41.9801 Y-24.4352 Z0.1511
G1 X41.9801 Y-24.4488 Z0.1510
G1 X41.9801 Y-24.4623 Z0.1524
G1 X41.9801 Y-24.4757 Z0.1552
G1 X41.9801 Y-24.4886 Z0.1595
G1 X41.9801 Y-24.5009 Z0.1651
G1 X41.9801 Y-24.5126 Z0.1721
