( MOP:  02-radius-r12-AnyScale-final-start-NOMIRROR-01a )
( FILE: G:\Shared drives\AlloyProjectFiles\Customer CAD files\Alloy-Standard-Builds-CAM\Fingerboards-in\02-radius-r12-AnyScale-final-start-NOMIRROR-01.nc)
G90
(  BEGIN TOOL LIST )
(  TOOL 3 - Downcut PT750 - DESC: 0.7500 DIA, 2 FLUTE,  CARBIDE MAT )
(  ENDOF TOOL LIST )
( 02-radius-r12-AnyScale-final-start-NOMIRROR-01a)
T03
S11000
M3
G0 Z3.0000
G0 X25.1250 Y-22.7982 
G1 X25.1250 Y-22.7982 Z0.6100 F75.
G1 X25.1250 Y-22.7982 Z0.5100 F30.
G1 X25.1262 Y-22.7982 Z0.4855
G1 X25.1298 Y-22.7982 Z0.4612
G1 X25.1358 Y-22.7982 Z0.4374
G1 X25.1440 Y-22.7982 Z0.4143
G1 X25.1545 Y-22.7982 Z0.3922
G1 X25.1671 Y-22.7982 Z0.3711
G1 X25.1818 Y-22.7982 Z0.3514
G1 X25.1982 Y-22.7982 Z0.3332
G1 X25.2164 Y-22.7982 Z0.3167
G1 X25.2361 Y-22.7982 Z0.3021
G1 X25.2572 Y-22.7982 Z0.2895
G1 X25.2793 Y-22.7982 Z0.2790
G1 X25.3024 Y-22.7982 Z0.2708
G1 X25.3262 Y-22.7982 Z0.2648
G1 X25.3505 Y-22.7982 Z0.2612
G1 X25.3750 Y-22.7982 Z0.2600
G1 X47.3686 Y-22.7982 Z0.2600 F60.
G1 X47.3931 Y-22.7982 Z0.2612
G1 X47.4174 Y-22.7982 Z0.2648
G1 X47.4412 Y-22.7982 Z0.2708
G1 X47.4643 Y-22.7982 Z0.2790
G1 X47.4865 Y-22.7982 Z0.2895
G1 X47.5075 Y-22.7982 Z0.3021
G1 X47.5272 Y-22.7982 Z0.3167
G1 X47.5454 Y-22.7982 Z0.3332
G1 X47.5619 Y-22.7982 Z0.3514
G1 X47.5765 Y-22.7982 Z0.3711
G1 X47.5891 Y-22.7982 Z0.3922
G1 X47.5996 Y-22.7982 Z0.4143
G1 X47.6079 Y-22.7982 Z0.4374
G1 X47.6138 Y-22.7982 Z0.4612
G1 X47.6174 Y-22.7982 Z0.4855
G1 X47.6186 Y-22.7982 Z0.5100
G1 X47.6186 Y-22.7982 Z0.6100 F75.
G0 Z3.0000
G0 X47.6186 Y-22.7982 
( 02-radius-r12-AnyScale-final-start-NOMIRROR-01b)
S14000
G0 Z3.0000
G0 X47.2601 Y-22.8494 
G1 X47.2601 Y-22.8494 Z0.3826 F110.
G1 X47.2601 Y-22.8500 Z0.3703 F25.
G1 X47.2601 Y-22.8518 Z0.3582
G1 X47.2601 Y-22.8548 Z0.3463
G1 X47.2601 Y-22.8589 Z0.3347
G1 X47.2601 Y-22.8642 Z0.3236
G1 X47.2601 Y-22.8705 Z0.3131
G1 X47.2601 Y-22.8778 Z0.3033
G1 X47.2601 Y-22.8860 Z0.2942
G1 X47.2601 Y-22.8951 Z0.2859
G1 X47.2601 Y-22.9050 Z0.2786
G1 X47.2601 Y-22.9155 Z0.2723
G1 X47.2601 Y-22.9266 Z0.2671
G1 X47.2601 Y-22.9381 Z0.2629
G1 X47.2601 Y-22.9500 Z0.2600
G1 X47.2601 Y-22.9622 Z0.2582
G1 X47.2601 Y-22.9744 Z0.2576
G1 X47.2601 Y-23.1657 Z0.2575 F50.
G1 X47.2601 Y-23.2135 Z0.2575
G1 X47.2601 Y-23.2494 Z0.2573
G1 X47.2601 Y-23.2853 Z0.2570
G1 X47.2601 Y-23.3092 Z0.2568
G1 X47.2601 Y-23.3331 Z0.2565
G1 X47.2601 Y-23.3570 Z0.2561
G1 X47.2601 Y-23.3689 Z0.2559
G1 X47.2601 Y-23.4048 Z0.2553
G1 X47.2601 Y-23.4407 Z0.2546
G1 X47.2601 Y-23.4765 Z0.2537
G1 X47.2601 Y-23.5004 Z0.2531
G1 X47.2601 Y-23.5243 Z0.2524
G1 X47.2601 Y-23.5602 Z0.2513
G1 X47.2601 Y-23.5961 Z0.2501
G1 X47.2601 Y-23.6319 Z0.2488
G1 X47.2601 Y-23.6439 Z0.2483
G1 X47.2601 Y-23.6678 Z0.2474
G1 X47.2601 Y-23.6917 Z0.2463
G1 X47.2601 Y-23.7156 Z0.2453
G1 X47.2601 Y-23.7515 Z0.2436
G1 X47.2601 Y-23.7874 Z0.2418
G1 X47.2601 Y-23.8232 Z0.2399
G1 X47.2601 Y-23.8352 Z0.2393
G1 X47.2601 Y-23.8591 Z0.2379
G1 X47.2601 Y-23.8830 Z0.2365
G1 X47.2601 Y-23.9069 Z0.2351
G1 X47.2601 Y-23.9428 Z0.2329
G1 X47.2601 Y-23.9786 Z0.2305
G1 X47.2601 Y-24.0025 Z0.2289
G1 X47.2601 Y-24.0264 Z0.2272
G1 X47.2601 Y-24.0504 Z0.2255
G1 X47.2601 Y-24.0743 Z0.2237
G1 X47.2601 Y-24.0982 Z0.2219
G1 X47.2601 Y-24.1221 Z0.2200
G1 X47.2601 Y-24.1371 Z0.2188
G1 X47.2601 Y-24.1671 Z0.2163
G1 X47.2601 Y-24.1820 Z0.2151
G1 X47.2601 Y-24.2120 Z0.2125
G1 X47.2601 Y-24.2420 Z0.2099
G1 X47.2601 Y-24.2720 Z0.2072
G1 X47.2601 Y-24.2870 Z0.2058
G1 X47.2601 Y-24.3020 Z0.2044
G1 X47.2601 Y-24.3320 Z0.2015
G1 X47.2601 Y-24.3619 Z0.1986
G1 X47.2601 Y-24.3749 Z0.1980
G1 X47.2601 Y-24.3880 Z0.1987
G1 X47.2601 Y-24.4008 Z0.2008
G1 X47.2601 Y-24.4134 Z0.2043
G1 X47.2601 Y-24.4255 Z0.2090
G1 X47.2601 Y-24.4371 Z0.2150
G1 X47.2601 Y-24.4480 Z0.2221
G1 X47.2601 Y-24.4581 Z0.2304
G1 X47.2601 Y-24.4673 Z0.2396
G1 X47.2601 Y-24.4754 Z0.2498
G1 X47.2601 Y-24.4825 Z0.2607
G1 X47.2601 Y-24.4884 Z0.2723
G1 X47.2601 Y-24.4931 Z0.2845
G1 X47.2601 Y-24.4964 Z0.2971
G1 X47.2601 Y-24.4984 Z0.3100
G1 X47.2601 Y-24.4991 Z0.3230
G0 Z0.3826
G0 X47.0951 Y-22.8494 
G1 X47.0951 Y-22.8500 Z0.3703 F25.
G1 X47.0951 Y-22.8518 Z0.3582
G1 X47.0951 Y-22.8548 Z0.3463
G1 X47.0951 Y-22.8589 Z0.3347
G1 X47.0951 Y-22.8642 Z0.3236
G1 X47.0951 Y-22.8705 Z0.3131
G1 X47.0951 Y-22.8778 Z0.3033
G1 X47.0951 Y-22.8860 Z0.2942
G1 X47.0951 Y-22.8951 Z0.2859
G1 X47.0951 Y-22.9050 Z0.2786
G1 X47.0951 Y-22.9155 Z0.2723
G1 X47.0951 Y-22.9266 Z0.2671
G1 X47.0951 Y-22.9381 Z0.2629
G1 X47.0951 Y-22.9500 Z0.2600
G1 X47.0951 Y-22.9622 Z0.2582
G1 X47.0951 Y-22.9744 Z0.2576
G1 X47.0951 Y-23.1657 Z0.2575 F50.
G1 X47.0951 Y-23.2135 Z0.2575
G1 X47.0951 Y-23.2494 Z0.2573
G1 X47.0951 Y-23.2853 Z0.2570
G1 X47.0951 Y-23.3092 Z0.2568
G1 X47.0951 Y-23.3331 Z0.2565
G1 X47.0951 Y-23.3570 Z0.2561
G1 X47.0951 Y-23.3689 Z0.2559
G1 X47.0951 Y-23.4048 Z0.2553
G1 X47.0951 Y-23.4407 Z0.2546
G1 X47.0951 Y-23.4765 Z0.2537
G1 X47.0951 Y-23.5004 Z0.2531
G1 X47.0951 Y-23.5243 Z0.2524
G1 X47.0951 Y-23.5602 Z0.2513
G1 X47.0951 Y-23.5961 Z0.2501
G1 X47.0951 Y-23.6319 Z0.2488
G1 X47.0951 Y-23.6439 Z0.2483
G1 X47.0951 Y-23.6678 Z0.2474
G1 X47.0951 Y-23.6917 Z0.2463
G1 X47.0951 Y-23.7156 Z0.2453
G1 X47.0951 Y-23.7515 Z0.2436
G1 X47.0951 Y-23.7874 Z0.2418
G1 X47.0951 Y-23.8232 Z0.2399
G1 X47.0951 Y-23.8352 Z0.2393
G1 X47.0951 Y-23.8591 Z0.2379
G1 X47.0951 Y-23.8830 Z0.2365
G1 X47.0951 Y-23.9069 Z0.2351
G1 X47.0951 Y-23.9428 Z0.2329
G1 X47.0951 Y-23.9786 Z0.2305
G1 X47.0951 Y-24.0025 Z0.2289
G1 X47.0951 Y-24.0264 Z0.2272
G1 X47.0951 Y-24.0504 Z0.2255
G1 X47.0951 Y-24.0743 Z0.2237
G1 X47.0951 Y-24.0982 Z0.2219
G1 X47.0951 Y-24.1221 Z0.2200
G1 X47.0951 Y-24.1372 Z0.2188
G1 X47.0951 Y-24.1673 Z0.2163
G1 X47.0951 Y-24.1824 Z0.2150
G1 X47.0951 Y-24.2126 Z0.2125
G1 X47.0951 Y-24.2428 Z0.2098
G1 X47.0951 Y-24.2729 Z0.2071
G1 X47.0951 Y-24.2880 Z0.2057
G1 X47.0951 Y-24.3182 Z0.2028
G1 X47.0951 Y-24.3333 Z0.2014
G1 X47.0951 Y-24.3635 Z0.1984
G1 X47.0951 Y-24.3765 Z0.1978
G1 X47.0951 Y-24.3895 Z0.1986
G1 X47.0951 Y-24.4023 Z0.2007
G1 X47.0951 Y-24.4149 Z0.2041
G1 X47.0951 Y-24.4270 Z0.2089
G1 X47.0951 Y-24.4386 Z0.2148
G1 X47.0951 Y-24.4495 Z0.2220
G1 X47.0951 Y-24.4596 Z0.2302
G1 X47.0951 Y-24.4688 Z0.2395
G1 X47.0951 Y-24.4770 Z0.2496
G1 X47.0951 Y-24.4840 Z0.2606
G1 X47.0951 Y-24.4899 Z0.2722
G1 X47.0951 Y-24.4946 Z0.2843
G1 X47.0951 Y-24.4979 Z0.2969
G1 X47.0951 Y-24.5000 Z0.3098
G1 X47.0951 Y-24.5007 Z0.3228
G0 Z0.3826
G0 X46.9301 Y-22.8494 
G1 X46.9301 Y-22.8500 Z0.3703 F25.
G1 X46.9301 Y-22.8518 Z0.3582
G1 X46.9301 Y-22.8548 Z0.3463
G1 X46.9301 Y-22.8589 Z0.3347
G1 X46.9301 Y-22.8642 Z0.3236
G1 X46.9301 Y-22.8705 Z0.3131
G1 X46.9301 Y-22.8778 Z0.3033
G1 X46.9301 Y-22.8860 Z0.2942
G1 X46.9301 Y-22.8951 Z0.2859
G1 X46.9301 Y-22.9050 Z0.2786
G1 X46.9301 Y-22.9155 Z0.2723
G1 X46.9301 Y-22.9266 Z0.2671
G1 X46.9301 Y-22.9381 Z0.2629
G1 X46.9301 Y-22.9500 Z0.2600
G1 X46.9301 Y-22.9622 Z0.2582
G1 X46.9301 Y-22.9744 Z0.2576
G1 X46.9301 Y-23.1657 Z0.2575 F50.
G1 X46.9301 Y-23.2135 Z0.2575
G1 X46.9301 Y-23.2494 Z0.2573
G1 X46.9301 Y-23.2853 Z0.2570
G1 X46.9301 Y-23.3092 Z0.2568
G1 X46.9301 Y-23.3331 Z0.2565
G1 X46.9301 Y-23.3570 Z0.2561
G1 X46.9301 Y-23.3689 Z0.2559
G1 X46.9301 Y-23.4048 Z0.2553
G1 X46.9301 Y-23.4407 Z0.2546
G1 X46.9301 Y-23.4765 Z0.2537
G1 X46.9301 Y-23.5004 Z0.2531
G1 X46.9301 Y-23.5243 Z0.2524
G1 X46.9301 Y-23.5602 Z0.2513
G1 X46.9301 Y-23.5961 Z0.2501
G1 X46.9301 Y-23.6319 Z0.2488
G1 X46.9301 Y-23.6439 Z0.2483
G1 X46.9301 Y-23.6678 Z0.2474
G1 X46.9301 Y-23.6917 Z0.2463
G1 X46.9301 Y-23.7156 Z0.2453
G1 X46.9301 Y-23.7515 Z0.2436
G1 X46.9301 Y-23.7874 Z0.2418
G1 X46.9301 Y-23.8232 Z0.2399
G1 X46.9301 Y-23.8352 Z0.2393
G1 X46.9301 Y-23.8591 Z0.2379
G1 X46.9301 Y-23.8830 Z0.2365
G1 X46.9301 Y-23.9069 Z0.2351
G1 X46.9301 Y-23.9428 Z0.2329
G1 X46.9301 Y-23.9786 Z0.2305
G1 X46.9301 Y-24.0025 Z0.2289
G1 X46.9301 Y-24.0264 Z0.2272
G1 X46.9301 Y-24.0504 Z0.2255
G1 X46.9301 Y-24.0743 Z0.2237
G1 X46.9301 Y-24.0982 Z0.2219
G1 X46.9301 Y-24.1221 Z0.2200
G1 X46.9301 Y-24.1373 Z0.2188
G1 X46.9301 Y-24.1676 Z0.2163
G1 X46.9301 Y-24.1828 Z0.2150
G1 X46.9301 Y-24.2132 Z0.2124
G1 X46.9301 Y-24.2435 Z0.2097
G1 X46.9301 Y-24.2739 Z0.2070
G1 X46.9301 Y-24.2891 Z0.2056
G1 X46.9301 Y-24.3194 Z0.2027
G1 X46.9301 Y-24.3346 Z0.2012
G1 X46.9301 Y-24.3650 Z0.1983
G1 X46.9301 Y-24.3780 Z0.1977
G1 X46.9301 Y-24.3910 Z0.1984
G1 X46.9301 Y-24.4039 Z0.2005
G1 X46.9301 Y-24.4164 Z0.2040
G1 X46.9301 Y-24.4286 Z0.2087
G1 X46.9301 Y-24.4402 Z0.2147
G1 X46.9301 Y-24.4511 Z0.2218
G1 X46.9301 Y-24.4612 Z0.2301
G1 X46.9301 Y-24.4703 Z0.2393
G1 X46.9301 Y-24.4785 Z0.2494
G1 X46.9301 Y-24.4856 Z0.2604
G1 X46.9301 Y-24.4915 Z0.2720
G1 X46.9301 Y-24.4961 Z0.2842
G1 X46.9301 Y-24.4995 Z0.2968
G1 X46.9301 Y-24.5015 Z0.3096
G1 X46.9301 Y-24.5022 Z0.3227
G0 Z0.3826
G0 X46.7651 Y-22.8494 
G1 X46.7651 Y-22.8500 Z0.3703 F25.
G1 X46.7651 Y-22.8518 Z0.3582
G1 X46.7651 Y-22.8548 Z0.3463
G1 X46.7651 Y-22.8589 Z0.3347
G1 X46.7651 Y-22.8642 Z0.3236
G1 X46.7651 Y-22.8705 Z0.3131
G1 X46.7651 Y-22.8778 Z0.3033
G1 X46.7651 Y-22.8860 Z0.2942
G1 X46.7651 Y-22.8951 Z0.2859
G1 X46.7651 Y-22.9050 Z0.2786
G1 X46.7651 Y-22.9155 Z0.2723
G1 X46.7651 Y-22.9266 Z0.2671
G1 X46.7651 Y-22.9381 Z0.2629
G1 X46.7651 Y-22.9500 Z0.2600
G1 X46.7651 Y-22.9622 Z0.2582
G1 X46.7651 Y-22.9744 Z0.2576
G1 X46.7651 Y-23.1657 Z0.2575 F50.
G1 X46.7651 Y-23.2135 Z0.2575
G1 X46.7651 Y-23.2494 Z0.2573
G1 X46.7651 Y-23.2853 Z0.2570
G1 X46.7651 Y-23.3092 Z0.2568
G1 X46.7651 Y-23.3331 Z0.2565
G1 X46.7651 Y-23.3570 Z0.2561
G1 X46.7651 Y-23.3689 Z0.2559
G1 X46.7651 Y-23.4048 Z0.2553
G1 X46.7651 Y-23.4407 Z0.2546
G1 X46.7651 Y-23.4765 Z0.2537
G1 X46.7651 Y-23.5004 Z0.2531
G1 X46.7651 Y-23.5243 Z0.2524
G1 X46.7651 Y-23.5602 Z0.2513
G1 X46.7651 Y-23.5961 Z0.2501
G1 X46.7651 Y-23.6319 Z0.2488
G1 X46.7651 Y-23.6439 Z0.2483
G1 X46.7651 Y-23.6678 Z0.2474
G1 X46.7651 Y-23.6917 Z0.2463
G1 X46.7651 Y-23.7156 Z0.2453
G1 X46.7651 Y-23.7515 Z0.2436
G1 X46.7651 Y-23.7874 Z0.2418
G1 X46.7651 Y-23.8232 Z0.2399
G1 X46.7651 Y-23.8352 Z0.2393
G1 X46.7651 Y-23.8591 Z0.2379
G1 X46.7651 Y-23.8830 Z0.2365
G1 X46.7651 Y-23.9069 Z0.2351
G1 X46.7651 Y-23.9428 Z0.2329
G1 X46.7651 Y-23.9786 Z0.2305
G1 X46.7651 Y-24.0025 Z0.2289
G1 X46.7651 Y-24.0264 Z0.2272
G1 X46.7651 Y-24.0504 Z0.2255
G1 X46.7651 Y-24.0743 Z0.2237
G1 X46.7651 Y-24.0982 Z0.2219
G1 X46.7651 Y-24.1221 Z0.2200
G1 X46.7651 Y-24.1374 Z0.2188
G1 X46.7651 Y-24.1679 Z0.2163
G1 X46.7651 Y-24.1832 Z0.2150
G1 X46.7651 Y-24.2137 Z0.2124
G1 X46.7651 Y-24.2443 Z0.2097
G1 X46.7651 Y-24.2748 Z0.2069
G1 X46.7651 Y-24.2901 Z0.2055
G1 X46.7651 Y-24.3207 Z0.2026
G1 X46.7651 Y-24.3360 Z0.2011
G1 X46.7651 Y-24.3665 Z0.1981
G1 X46.7651 Y-24.3795 Z0.1975
G1 X46.7651 Y-24.3925 Z0.1983
G1 X46.7651 Y-24.4054 Z0.2004
G1 X46.7651 Y-24.4180 Z0.2038
G1 X46.7651 Y-24.4301 Z0.2085
G1 X46.7651 Y-24.4417 Z0.2145
G1 X46.7651 Y-24.4526 Z0.2217
G1 X46.7651 Y-24.4627 Z0.2299
G1 X46.7651 Y-24.4719 Z0.2391
G1 X46.7651 Y-24.4800 Z0.2493
G1 X46.7651 Y-24.4871 Z0.2602
G1 X46.7651 Y-24.4930 Z0.2719
G1 X46.7651 Y-24.4977 Z0.2840
G1 X46.7651 Y-24.5010 Z0.2966
G1 X46.7651 Y-24.5031 Z0.3095
G1 X46.7651 Y-24.5037 Z0.3225
G0 Z0.3826
G0 X46.6001 Y-22.8494 
G1 X46.6001 Y-22.8500 Z0.3703 F25.
G1 X46.6001 Y-22.8518 Z0.3582
G1 X46.6001 Y-22.8548 Z0.3463
G1 X46.6001 Y-22.8589 Z0.3347
G1 X46.6001 Y-22.8642 Z0.3236
G1 X46.6001 Y-22.8705 Z0.3131
G1 X46.6001 Y-22.8778 Z0.3033
G1 X46.6001 Y-22.8860 Z0.2942
G1 X46.6001 Y-22.8951 Z0.2859
G1 X46.6001 Y-22.9050 Z0.2786
G1 X46.6001 Y-22.9155 Z0.2723
G1 X46.6001 Y-22.9266 Z0.2671
G1 X46.6001 Y-22.9381 Z0.2629
G1 X46.6001 Y-22.9500 Z0.2600
G1 X46.6001 Y-22.9622 Z0.2582
G1 X46.6001 Y-22.9744 Z0.2576
G1 X46.6001 Y-23.1657 Z0.2575 F50.
G1 X46.6001 Y-23.2135 Z0.2575
G1 X46.6001 Y-23.2494 Z0.2573
G1 X46.6001 Y-23.2853 Z0.2570
G1 X46.6001 Y-23.3092 Z0.2568
G1 X46.6001 Y-23.3331 Z0.2565
G1 X46.6001 Y-23.3570 Z0.2561
G1 X46.6001 Y-23.3689 Z0.2559
G1 X46.6001 Y-23.4048 Z0.2553
G1 X46.6001 Y-23.4407 Z0.2546
G1 X46.6001 Y-23.4765 Z0.2537
G1 X46.6001 Y-23.5004 Z0.2531
G1 X46.6001 Y-23.5243 Z0.2524
G1 X46.6001 Y-23.5602 Z0.2513
G1 X46.6001 Y-23.5961 Z0.2501
G1 X46.6001 Y-23.6319 Z0.2488
G1 X46.6001 Y-23.6439 Z0.2483
G1 X46.6001 Y-23.6678 Z0.2474
G1 X46.6001 Y-23.6917 Z0.2463
G1 X46.6001 Y-23.7156 Z0.2453
G1 X46.6001 Y-23.7515 Z0.2436
G1 X46.6001 Y-23.7874 Z0.2418
G1 X46.6001 Y-23.8232 Z0.2399
G1 X46.6001 Y-23.8352 Z0.2393
G1 X46.6001 Y-23.8591 Z0.2379
G1 X46.6001 Y-23.8830 Z0.2365
G1 X46.6001 Y-23.9069 Z0.2351
G1 X46.6001 Y-23.9428 Z0.2329
G1 X46.6001 Y-23.9786 Z0.2305
G1 X46.6001 Y-24.0025 Z0.2289
G1 X46.6001 Y-24.0264 Z0.2272
G1 X46.6001 Y-24.0504 Z0.2255
G1 X46.6001 Y-24.0743 Z0.2237
G1 X46.6001 Y-24.0982 Z0.2219
G1 X46.6001 Y-24.1221 Z0.2200
G1 X46.6001 Y-24.1375 Z0.2188
G1 X46.6001 Y-24.1682 Z0.2162
G1 X46.6001 Y-24.1836 Z0.2150
G1 X46.6001 Y-24.2143 Z0.2123
G1 X46.6001 Y-24.2451 Z0.2096
G1 X46.6001 Y-24.2758 Z0.2068
G1 X46.6001 Y-24.2912 Z0.2054
G1 X46.6001 Y-24.3219 Z0.2025
G1 X46.6001 Y-24.3373 Z0.2010
G1 X46.6001 Y-24.3680 Z0.1979
G1 X46.6001 Y-24.3810 Z0.1973
G1 X46.6001 Y-24.3941 Z0.1981
G1 X46.6001 Y-24.4069 Z0.2002
G1 X46.6001 Y-24.4195 Z0.2037
G1 X46.6001 Y-24.4316 Z0.2084
G1 X46.6001 Y-24.4432 Z0.2143
G1 X46.6001 Y-24.4541 Z0.2215
G1 X46.6001 Y-24.4642 Z0.2297
G1 X46.6001 Y-24.4734 Z0.2390
G1 X46.6001 Y-24.4816 Z0.2491
G1 X46.6001 Y-24.4887 Z0.2601
G1 X46.6001 Y-24.4946 Z0.2717
G1 X46.6001 Y-24.4992 Z0.2839
G1 X46.6001 Y-24.5026 Z0.2965
G1 X46.6001 Y-24.5046 Z0.3093
G1 X46.6001 Y-24.5053 Z0.3223
G0 Z0.3826
G0 X46.4351 Y-22.8494 
G1 X46.4351 Y-22.8500 Z0.3703 F25.
G1 X46.4351 Y-22.8518 Z0.3582
G1 X46.4351 Y-22.8548 Z0.3463
G1 X46.4351 Y-22.8589 Z0.3347
G1 X46.4351 Y-22.8642 Z0.3236
G1 X46.4351 Y-22.8705 Z0.3131
G1 X46.4351 Y-22.8778 Z0.3033
G1 X46.4351 Y-22.8860 Z0.2942
G1 X46.4351 Y-22.8951 Z0.2859
G1 X46.4351 Y-22.9050 Z0.2786
G1 X46.4351 Y-22.9155 Z0.2723
G1 X46.4351 Y-22.9266 Z0.2671
G1 X46.4351 Y-22.9381 Z0.2629
G1 X46.4351 Y-22.9500 Z0.2600
G1 X46.4351 Y-22.9622 Z0.2582
G1 X46.4351 Y-22.9744 Z0.2576
G1 X46.4351 Y-23.1657 Z0.2575 F50.
G1 X46.4351 Y-23.2135 Z0.2575
G1 X46.4351 Y-23.2494 Z0.2573
G1 X46.4351 Y-23.2853 Z0.2570
G1 X46.4351 Y-23.3092 Z0.2568
G1 X46.4351 Y-23.3331 Z0.2565
G1 X46.4351 Y-23.3570 Z0.2561
G1 X46.4351 Y-23.3689 Z0.2559
G1 X46.4351 Y-23.4048 Z0.2553
G1 X46.4351 Y-23.4407 Z0.2546
G1 X46.4351 Y-23.4765 Z0.2537
G1 X46.4351 Y-23.5004 Z0.2531
G1 X46.4351 Y-23.5243 Z0.2524
G1 X46.4351 Y-23.5602 Z0.2513
G1 X46.4351 Y-23.5961 Z0.2501
G1 X46.4351 Y-23.6319 Z0.2488
G1 X46.4351 Y-23.6439 Z0.2483
G1 X46.4351 Y-23.6678 Z0.2474
G1 X46.4351 Y-23.6917 Z0.2463
G1 X46.4351 Y-23.7156 Z0.2453
G1 X46.4351 Y-23.7515 Z0.2436
G1 X46.4351 Y-23.7874 Z0.2418
G1 X46.4351 Y-23.8232 Z0.2399
G1 X46.4351 Y-23.8352 Z0.2393
G1 X46.4351 Y-23.8591 Z0.2379
G1 X46.4351 Y-23.8830 Z0.2365
G1 X46.4351 Y-23.9069 Z0.2351
G1 X46.4351 Y-23.9428 Z0.2329
G1 X46.4351 Y-23.9786 Z0.2305
G1 X46.4351 Y-24.0025 Z0.2289
G1 X46.4351 Y-24.0264 Z0.2272
G1 X46.4351 Y-24.0504 Z0.2255
G1 X46.4351 Y-24.0743 Z0.2237
G1 X46.4351 Y-24.0982 Z0.2219
G1 X46.4351 Y-24.1221 Z0.2200
G1 X46.4351 Y-24.1375 Z0.2188
G1 X46.4351 Y-24.1685 Z0.2162
G1 X46.4351 Y-24.1839 Z0.2149
G1 X46.4351 Y-24.2149 Z0.2123
G1 X46.4351 Y-24.2458 Z0.2095
G1 X46.4351 Y-24.2767 Z0.2067
G1 X46.4351 Y-24.2922 Z0.2053
G1 X46.4351 Y-24.3231 Z0.2024
G1 X46.4351 Y-24.3386 Z0.2008
G1 X46.4351 Y-24.3695 Z0.1978
G1 X46.4351 Y-24.3826 Z0.1972
G1 X46.4351 Y-24.3956 Z0.1979
G1 X46.4351 Y-24.4084 Z0.2001
G1 X46.4351 Y-24.4210 Z0.2035
G1 X46.4351 Y-24.4332 Z0.2082
G1 X46.4351 Y-24.4448 Z0.2142
G1 X46.4351 Y-24.4557 Z0.2213
G1 X46.4351 Y-24.4658 Z0.2296
G1 X46.4351 Y-24.4749 Z0.2388
G1 X46.4351 Y-24.4831 Z0.2490
G1 X46.4351 Y-24.4902 Z0.2599
G1 X46.4351 Y-24.4961 Z0.2715
G1 X46.4351 Y-24.5007 Z0.2837
G1 X46.4351 Y-24.5041 Z0.2963
G1 X46.4351 Y-24.5061 Z0.3092
G1 X46.4351 Y-24.5068 Z0.3222
G0 Z0.3826
G0 X46.2701 Y-22.8494 
G1 X46.2701 Y-22.8500 Z0.3703 F25.
G1 X46.2701 Y-22.8518 Z0.3582
G1 X46.2701 Y-22.8548 Z0.3463
G1 X46.2701 Y-22.8589 Z0.3347
G1 X46.2701 Y-22.8642 Z0.3236
G1 X46.2701 Y-22.8705 Z0.3131
G1 X46.2701 Y-22.8778 Z0.3033
G1 X46.2701 Y-22.8860 Z0.2942
G1 X46.2701 Y-22.8951 Z0.2859
G1 X46.2701 Y-22.9050 Z0.2786
G1 X46.2701 Y-22.9155 Z0.2723
G1 X46.2701 Y-22.9266 Z0.2671
G1 X46.2701 Y-22.9381 Z0.2629
G1 X46.2701 Y-22.9500 Z0.2600
G1 X46.2701 Y-22.9622 Z0.2582
G1 X46.2701 Y-22.9744 Z0.2576
G1 X46.2701 Y-23.1657 Z0.2575 F50.
G1 X46.2701 Y-23.2135 Z0.2575
G1 X46.2701 Y-23.2494 Z0.2573
G1 X46.2701 Y-23.2853 Z0.2570
G1 X46.2701 Y-23.3092 Z0.2568
G1 X46.2701 Y-23.3331 Z0.2565
G1 X46.2701 Y-23.3570 Z0.2561
G1 X46.2701 Y-23.3689 Z0.2559
G1 X46.2701 Y-23.4048 Z0.2553
G1 X46.2701 Y-23.4407 Z0.2546
G1 X46.2701 Y-23.4765 Z0.2537
G1 X46.2701 Y-23.5004 Z0.2531
G1 X46.2701 Y-23.5243 Z0.2524
G1 X46.2701 Y-23.5602 Z0.2513
G1 X46.2701 Y-23.5961 Z0.2501
G1 X46.2701 Y-23.6319 Z0.2488
G1 X46.2701 Y-23.6439 Z0.2483
G1 X46.2701 Y-23.6678 Z0.2474
G1 X46.2701 Y-23.6917 Z0.2463
G1 X46.2701 Y-23.7156 Z0.2453
G1 X46.2701 Y-23.7515 Z0.2436
G1 X46.2701 Y-23.7874 Z0.2418
G1 X46.2701 Y-23.8232 Z0.2399
G1 X46.2701 Y-23.8352 Z0.2393
G1 X46.2701 Y-23.8591 Z0.2379
G1 X46.2701 Y-23.8830 Z0.2365
G1 X46.2701 Y-23.9069 Z0.2351
G1 X46.2701 Y-23.9428 Z0.2329
G1 X46.2701 Y-23.9786 Z0.2305
G1 X46.2701 Y-24.0025 Z0.2289
G1 X46.2701 Y-24.0264 Z0.2272
G1 X46.2701 Y-24.0504 Z0.2255
G1 X46.2701 Y-24.0743 Z0.2237
G1 X46.2701 Y-24.0982 Z0.2219
G1 X46.2701 Y-24.1221 Z0.2200
G1 X46.2701 Y-24.1376 Z0.2187
G1 X46.2701 Y-24.1688 Z0.2162
G1 X46.2701 Y-24.1843 Z0.2149
G1 X46.2701 Y-24.2155 Z0.2122
G1 X46.2701 Y-24.2466 Z0.2095
G1 X46.2701 Y-24.2777 Z0.2066
G1 X46.2701 Y-24.2933 Z0.2052
G1 X46.2701 Y-24.3244 Z0.2022
G1 X46.2701 Y-24.3399 Z0.2007
G1 X46.2701 Y-24.3711 Z0.1976
G1 X46.2701 Y-24.3841 Z0.1970
G1 X46.2701 Y-24.3971 Z0.1978
G1 X46.2701 Y-24.4100 Z0.1999
G1 X46.2701 Y-24.4225 Z0.2033
G1 X46.2701 Y-24.4347 Z0.2081
G1 X46.2701 Y-24.4463 Z0.2140
G1 X46.2701 Y-24.4572 Z0.2212
G1 X46.2701 Y-24.4673 Z0.2294
G1 X46.2701 Y-24.4765 Z0.2386
G1 X46.2701 Y-24.4847 Z0.2488
G1 X46.2701 Y-24.4917 Z0.2597
G1 X46.2701 Y-24.4976 Z0.2714
G1 X46.2701 Y-24.5023 Z0.2835
G1 X46.2701 Y-24.5057 Z0.2961
G1 X46.2701 Y-24.5077 Z0.3090
G1 X46.2701 Y-24.5084 Z0.3220
G0 Z0.3826
G0 X46.1051 Y-22.8494 
G1 X46.1051 Y-22.8500 Z0.3703 F25.
G1 X46.1051 Y-22.8518 Z0.3582
G1 X46.1051 Y-22.8548 Z0.3463
G1 X46.1051 Y-22.8589 Z0.3347
G1 X46.1051 Y-22.8642 Z0.3236
G1 X46.1051 Y-22.8705 Z0.3131
G1 X46.1051 Y-22.8778 Z0.3033
G1 X46.1051 Y-22.8860 Z0.2942
G1 X46.1051 Y-22.8951 Z0.2859
G1 X46.1051 Y-22.9050 Z0.2786
G1 X46.1051 Y-22.9155 Z0.2723
G1 X46.1051 Y-22.9266 Z0.2671
G1 X46.1051 Y-22.9381 Z0.2629
G1 X46.1051 Y-22.9500 Z0.2600
G1 X46.1051 Y-22.9622 Z0.2582
G1 X46.1051 Y-22.9744 Z0.2576
G1 X46.1051 Y-23.1657 Z0.2575 F50.
G1 X46.1051 Y-23.2135 Z0.2575
G1 X46.1051 Y-23.2494 Z0.2573
G1 X46.1051 Y-23.2853 Z0.2570
G1 X46.1051 Y-23.3092 Z0.2568
G1 X46.1051 Y-23.3331 Z0.2565
G1 X46.1051 Y-23.3570 Z0.2561
G1 X46.1051 Y-23.3689 Z0.2559
G1 X46.1051 Y-23.4048 Z0.2553
G1 X46.1051 Y-23.4407 Z0.2546
G1 X46.1051 Y-23.4765 Z0.2537
G1 X46.1051 Y-23.5004 Z0.2531
G1 X46.1051 Y-23.5243 Z0.2524
G1 X46.1051 Y-23.5602 Z0.2513
G1 X46.1051 Y-23.5961 Z0.2501
G1 X46.1051 Y-23.6319 Z0.2488
G1 X46.1051 Y-23.6439 Z0.2483
G1 X46.1051 Y-23.6678 Z0.2474
G1 X46.1051 Y-23.6917 Z0.2463
G1 X46.1051 Y-23.7156 Z0.2453
G1 X46.1051 Y-23.7515 Z0.2436
G1 X46.1051 Y-23.7874 Z0.2418
G1 X46.1051 Y-23.8232 Z0.2399
G1 X46.1051 Y-23.8352 Z0.2393
G1 X46.1051 Y-23.8591 Z0.2379
G1 X46.1051 Y-23.8830 Z0.2365
G1 X46.1051 Y-23.9069 Z0.2351
G1 X46.1051 Y-23.9428 Z0.2329
G1 X46.1051 Y-23.9786 Z0.2305
G1 X46.1051 Y-24.0025 Z0.2289
G1 X46.1051 Y-24.0264 Z0.2272
G1 X46.1051 Y-24.0504 Z0.2255
G1 X46.1051 Y-24.0743 Z0.2237
G1 X46.1051 Y-24.0982 Z0.2219
G1 X46.1051 Y-24.1221 Z0.2200
G1 X46.1051 Y-24.1377 Z0.2187
G1 X46.1051 Y-24.1691 Z0.2162
G1 X46.1051 Y-24.1847 Z0.2149
G1 X46.1051 Y-24.2160 Z0.2122
G1 X46.1051 Y-24.2473 Z0.2094
G1 X46.1051 Y-24.2787 Z0.2065
G1 X46.1051 Y-24.2943 Z0.2051
G1 X46.1051 Y-24.3256 Z0.2021
G1 X46.1051 Y-24.3569 Z0.1990
G1 X46.1051 Y-24.3726 Z0.1975
G1 X46.1051 Y-24.3856 Z0.1969
G1 X46.1051 Y-24.3986 Z0.1976
G1 X46.1051 Y-24.4115 Z0.1997
G1 X46.1051 Y-24.4241 Z0.2031
G1 X46.1051 Y-24.4363 Z0.2079
G1 X46.1051 Y-24.4479 Z0.2138
G1 X46.1051 Y-24.4588 Z0.2210
G1 X46.1051 Y-24.4689 Z0.2292
G1 X46.1051 Y-24.4781 Z0.2384
G1 X46.1051 Y-24.4863 Z0.2486
G1 X46.1051 Y-24.4934 Z0.2595
G1 X46.1051 Y-24.4993 Z0.2712
G1 X46.1051 Y-24.5039 Z0.2834
G1 X46.1051 Y-24.5073 Z0.2960
G1 X46.1051 Y-24.5093 Z0.3088
G1 X46.1051 Y-24.5100 Z0.3219
G0 Z0.3826
G0 X45.9401 Y-22.8494 
G1 X45.9401 Y-22.8500 Z0.3703 F25.
G1 X45.9401 Y-22.8518 Z0.3582
G1 X45.9401 Y-22.8548 Z0.3463
G1 X45.9401 Y-22.8589 Z0.3347
G1 X45.9401 Y-22.8642 Z0.3236
G1 X45.9401 Y-22.8705 Z0.3131
G1 X45.9401 Y-22.8778 Z0.3033
G1 X45.9401 Y-22.8860 Z0.2942
G1 X45.9401 Y-22.8951 Z0.2859
G1 X45.9401 Y-22.9050 Z0.2786
G1 X45.9401 Y-22.9155 Z0.2723
G1 X45.9401 Y-22.9266 Z0.2671
G1 X45.9401 Y-22.9381 Z0.2629
G1 X45.9401 Y-22.9500 Z0.2600
G1 X45.9401 Y-22.9622 Z0.2582
G1 X45.9401 Y-22.9744 Z0.2576
G1 X45.9401 Y-23.1657 Z0.2575 F50.
G1 X45.9401 Y-23.2135 Z0.2575
G1 X45.9401 Y-23.2494 Z0.2573
G1 X45.9401 Y-23.2853 Z0.2570
G1 X45.9401 Y-23.3092 Z0.2568
G1 X45.9401 Y-23.3331 Z0.2565
G1 X45.9401 Y-23.3570 Z0.2561
G1 X45.9401 Y-23.3689 Z0.2559
G1 X45.9401 Y-23.4048 Z0.2553
G1 X45.9401 Y-23.4407 Z0.2546
G1 X45.9401 Y-23.4765 Z0.2537
G1 X45.9401 Y-23.5004 Z0.2531
G1 X45.9401 Y-23.5243 Z0.2524
G1 X45.9401 Y-23.5602 Z0.2513
G1 X45.9401 Y-23.5961 Z0.2501
G1 X45.9401 Y-23.6319 Z0.2488
G1 X45.9401 Y-23.6439 Z0.2483
G1 X45.9401 Y-23.6678 Z0.2474
G1 X45.9401 Y-23.6917 Z0.2463
G1 X45.9401 Y-23.7156 Z0.2453
G1 X45.9401 Y-23.7515 Z0.2436
G1 X45.9401 Y-23.7874 Z0.2418
G1 X45.9401 Y-23.8232 Z0.2399
G1 X45.9401 Y-23.8352 Z0.2393
G1 X45.9401 Y-23.8591 Z0.2379
G1 X45.9401 Y-23.8830 Z0.2365
G1 X45.9401 Y-23.9069 Z0.2351
G1 X45.9401 Y-23.9428 Z0.2329
G1 X45.9401 Y-23.9786 Z0.2305
G1 X45.9401 Y-24.0025 Z0.2289
G1 X45.9401 Y-24.0264 Z0.2272
G1 X45.9401 Y-24.0504 Z0.2255
G1 X45.9401 Y-24.0743 Z0.2237
G1 X45.9401 Y-24.0982 Z0.2219
G1 X45.9401 Y-24.1221 Z0.2200
G1 X45.9401 Y-24.1378 Z0.2187
G1 X45.9401 Y-24.1693 Z0.2162
G1 X45.9401 Y-24.1851 Z0.2148
G1 X45.9401 Y-24.2166 Z0.2121
G1 X45.9401 Y-24.2481 Z0.2093
G1 X45.9401 Y-24.2796 Z0.2065
G1 X45.9401 Y-24.3111 Z0.2035
G1 X45.9401 Y-24.3269 Z0.2020
G1 X45.9401 Y-24.3584 Z0.1989
G1 X45.9401 Y-24.3741 Z0.1973
G1 X45.9401 Y-24.3872 Z0.1967
G1 X45.9401 Y-24.4002 Z0.1974
G1 X45.9401 Y-24.4131 Z0.1995
G1 X45.9401 Y-24.4256 Z0.2030
G1 X45.9401 Y-24.4378 Z0.2077
G1 X45.9401 Y-24.4494 Z0.2136
G1 X45.9401 Y-24.4603 Z0.2208
G1 X45.9401 Y-24.4704 Z0.2290
G1 X45.9401 Y-24.4796 Z0.2383
G1 X45.9401 Y-24.4878 Z0.2484
G1 X45.9401 Y-24.4949 Z0.2594
G1 X45.9401 Y-24.5008 Z0.2710
G1 X45.9401 Y-24.5055 Z0.2832
G1 X45.9401 Y-24.5089 Z0.2958
G1 X45.9401 Y-24.5109 Z0.3087
G1 X45.9401 Y-24.5116 Z0.3217
G0 Z0.3826
G0 X45.7751 Y-22.8494 
G1 X45.7751 Y-22.8500 Z0.3703 F25.
G1 X45.7751 Y-22.8518 Z0.3582
G1 X45.7751 Y-22.8548 Z0.3463
G1 X45.7751 Y-22.8589 Z0.3347
G1 X45.7751 Y-22.8642 Z0.3236
G1 X45.7751 Y-22.8705 Z0.3131
G1 X45.7751 Y-22.8778 Z0.3033
G1 X45.7751 Y-22.8860 Z0.2942
G1 X45.7751 Y-22.8951 Z0.2859
G1 X45.7751 Y-22.9050 Z0.2786
G1 X45.7751 Y-22.9155 Z0.2723
G1 X45.7751 Y-22.9266 Z0.2671
G1 X45.7751 Y-22.9381 Z0.2629
G1 X45.7751 Y-22.9500 Z0.2600
G1 X45.7751 Y-22.9622 Z0.2582
G1 X45.7751 Y-22.9744 Z0.2576
G1 X45.7751 Y-23.1657 Z0.2575 F50.
G1 X45.7751 Y-23.2135 Z0.2575
G1 X45.7751 Y-23.2494 Z0.2573
G1 X45.7751 Y-23.2853 Z0.2570
G1 X45.7751 Y-23.3092 Z0.2568
G1 X45.7751 Y-23.3331 Z0.2565
G1 X45.7751 Y-23.3570 Z0.2561
G1 X45.7751 Y-23.3689 Z0.2559
G1 X45.7751 Y-23.4048 Z0.2553
G1 X45.7751 Y-23.4407 Z0.2546
G1 X45.7751 Y-23.4765 Z0.2537
G1 X45.7751 Y-23.5004 Z0.2531
G1 X45.7751 Y-23.5243 Z0.2524
G1 X45.7751 Y-23.5602 Z0.2513
G1 X45.7751 Y-23.5961 Z0.2501
G1 X45.7751 Y-23.6319 Z0.2488
G1 X45.7751 Y-23.6439 Z0.2483
G1 X45.7751 Y-23.6678 Z0.2474
G1 X45.7751 Y-23.6917 Z0.2463
G1 X45.7751 Y-23.7156 Z0.2453
G1 X45.7751 Y-23.7515 Z0.2436
G1 X45.7751 Y-23.7874 Z0.2418
G1 X45.7751 Y-23.8232 Z0.2399
G1 X45.7751 Y-23.8352 Z0.2393
G1 X45.7751 Y-23.8591 Z0.2379
G1 X45.7751 Y-23.8830 Z0.2365
G1 X45.7751 Y-23.9069 Z0.2351
G1 X45.7751 Y-23.9428 Z0.2329
G1 X45.7751 Y-23.9786 Z0.2305
G1 X45.7751 Y-24.0025 Z0.2289
G1 X45.7751 Y-24.0264 Z0.2272
G1 X45.7751 Y-24.0504 Z0.2255
G1 X45.7751 Y-24.0743 Z0.2237
G1 X45.7751 Y-24.0982 Z0.2219
G1 X45.7751 Y-24.1221 Z0.2200
G1 X45.7751 Y-24.1379 Z0.2187
G1 X45.7751 Y-24.1696 Z0.2161
G1 X45.7751 Y-24.1855 Z0.2148
G1 X45.7751 Y-24.2172 Z0.2121
G1 X45.7751 Y-24.2489 Z0.2093
G1 X45.7751 Y-24.2806 Z0.2064
G1 X45.7751 Y-24.3123 Z0.2034
G1 X45.7751 Y-24.3281 Z0.2019
G1 X45.7751 Y-24.3598 Z0.1988
G1 X45.7751 Y-24.3756 Z0.1972
G1 X45.7751 Y-24.3887 Z0.1966
G1 X45.7751 Y-24.4017 Z0.1973
G1 X45.7751 Y-24.4146 Z0.1994
G1 X45.7751 Y-24.4272 Z0.2028
G1 X45.7751 Y-24.4393 Z0.2075
G1 X45.7751 Y-24.4509 Z0.2135
G1 X45.7751 Y-24.4619 Z0.2206
G1 X45.7751 Y-24.4720 Z0.2288
G1 X45.7751 Y-24.4812 Z0.2381
G1 X45.7751 Y-24.4894 Z0.2483
G1 X45.7751 Y-24.4965 Z0.2592
G1 X45.7751 Y-24.5024 Z0.2708
G1 X45.7751 Y-24.5071 Z0.2830
G1 X45.7751 Y-24.5104 Z0.2956
G1 X45.7751 Y-24.5125 Z0.3085
G1 X45.7751 Y-24.5131 Z0.3215
G0 Z0.3826
G0 X45.6101 Y-22.8494 
G1 X45.6101 Y-22.8500 Z0.3703 F25.
G1 X45.6101 Y-22.8518 Z0.3582
G1 X45.6101 Y-22.8548 Z0.3463
G1 X45.6101 Y-22.8589 Z0.3347
G1 X45.6101 Y-22.8642 Z0.3236
G1 X45.6101 Y-22.8705 Z0.3131
G1 X45.6101 Y-22.8778 Z0.3033
G1 X45.6101 Y-22.8860 Z0.2942
G1 X45.6101 Y-22.8951 Z0.2859
G1 X45.6101 Y-22.9050 Z0.2786
G1 X45.6101 Y-22.9155 Z0.2723
G1 X45.6101 Y-22.9266 Z0.2671
G1 X45.6101 Y-22.9381 Z0.2629
G1 X45.6101 Y-22.9500 Z0.2600
G1 X45.6101 Y-22.9622 Z0.2582
G1 X45.6101 Y-22.9744 Z0.2576
G1 X45.6101 Y-23.1657 Z0.2575 F50.
G1 X45.6101 Y-23.2135 Z0.2575
G1 X45.6101 Y-23.2494 Z0.2573
G1 X45.6101 Y-23.2853 Z0.2570
G1 X45.6101 Y-23.3092 Z0.2568
G1 X45.6101 Y-23.3331 Z0.2565
G1 X45.6101 Y-23.3570 Z0.2561
G1 X45.6101 Y-23.3689 Z0.2559
G1 X45.6101 Y-23.4048 Z0.2553
G1 X45.6101 Y-23.4407 Z0.2546
G1 X45.6101 Y-23.4765 Z0.2537
G1 X45.6101 Y-23.5004 Z0.2531
G1 X45.6101 Y-23.5243 Z0.2524
G1 X45.6101 Y-23.5602 Z0.2513
G1 X45.6101 Y-23.5961 Z0.2501
G1 X45.6101 Y-23.6319 Z0.2488
G1 X45.6101 Y-23.6439 Z0.2483
G1 X45.6101 Y-23.6678 Z0.2474
G1 X45.6101 Y-23.6917 Z0.2463
G1 X45.6101 Y-23.7156 Z0.2453
G1 X45.6101 Y-23.7515 Z0.2436
G1 X45.6101 Y-23.7874 Z0.2418
G1 X45.6101 Y-23.8232 Z0.2399
G1 X45.6101 Y-23.8352 Z0.2393
G1 X45.6101 Y-23.8591 Z0.2379
G1 X45.6101 Y-23.8830 Z0.2365
G1 X45.6101 Y-23.9069 Z0.2351
G1 X45.6101 Y-23.9428 Z0.2329
G1 X45.6101 Y-23.9786 Z0.2305
G1 X45.6101 Y-24.0025 Z0.2289
G1 X45.6101 Y-24.0264 Z0.2272
G1 X45.6101 Y-24.0504 Z0.2255
G1 X45.6101 Y-24.0743 Z0.2237
G1 X45.6101 Y-24.0982 Z0.2219
G1 X45.6101 Y-24.1221 Z0.2200
G1 X45.6101 Y-24.1380 Z0.2187
G1 X45.6101 Y-24.1699 Z0.2161
G1 X45.6101 Y-24.1859 Z0.2148
G1 X45.6101 Y-24.2177 Z0.2120
G1 X45.6101 Y-24.2496 Z0.2092
G1 X45.6101 Y-24.2815 Z0.2063
G1 X45.6101 Y-24.3134 Z0.2033
G1 X45.6101 Y-24.3293 Z0.2018
G1 X45.6101 Y-24.3612 Z0.1986
G1 X45.6101 Y-24.3772 Z0.1970
G1 X45.6101 Y-24.3902 Z0.1964
G1 X45.6101 Y-24.4032 Z0.1971
G1 X45.6101 Y-24.4161 Z0.1992
G1 X45.6101 Y-24.4287 Z0.2026
G1 X45.6101 Y-24.4409 Z0.2073
G1 X45.6101 Y-24.4525 Z0.2133
G1 X45.6101 Y-24.4634 Z0.2204
G1 X45.6101 Y-24.4735 Z0.2287
G1 X45.6101 Y-24.4827 Z0.2379
G1 X45.6101 Y-24.4909 Z0.2481
G1 X45.6101 Y-24.4980 Z0.2590
G1 X45.6101 Y-24.5039 Z0.2707
G1 X45.6101 Y-24.5086 Z0.2829
G1 X45.6101 Y-24.5120 Z0.2955
G1 X45.6101 Y-24.5140 Z0.3084
G1 X45.6101 Y-24.5147 Z0.3214
G0 Z0.3826
G0 X45.4451 Y-22.8494 
G1 X45.4451 Y-22.8500 Z0.3703 F25.
G1 X45.4451 Y-22.8518 Z0.3582
G1 X45.4451 Y-22.8548 Z0.3463
G1 X45.4451 Y-22.8589 Z0.3347
G1 X45.4451 Y-22.8642 Z0.3236
G1 X45.4451 Y-22.8705 Z0.3131
G1 X45.4451 Y-22.8778 Z0.3033
G1 X45.4451 Y-22.8860 Z0.2942
G1 X45.4451 Y-22.8951 Z0.2859
G1 X45.4451 Y-22.9050 Z0.2786
G1 X45.4451 Y-22.9155 Z0.2723
G1 X45.4451 Y-22.9266 Z0.2671
G1 X45.4451 Y-22.9381 Z0.2629
G1 X45.4451 Y-22.9500 Z0.2600
G1 X45.4451 Y-22.9622 Z0.2582
G1 X45.4451 Y-22.9744 Z0.2576
G1 X45.4451 Y-23.1657 Z0.2575 F50.
G1 X45.4451 Y-23.2135 Z0.2575
G1 X45.4451 Y-23.2494 Z0.2573
G1 X45.4451 Y-23.2853 Z0.2570
G1 X45.4451 Y-23.3092 Z0.2568
G1 X45.4451 Y-23.3331 Z0.2565
G1 X45.4451 Y-23.3570 Z0.2561
G1 X45.4451 Y-23.3689 Z0.2559
G1 X45.4451 Y-23.4048 Z0.2553
G1 X45.4451 Y-23.4407 Z0.2546
G1 X45.4451 Y-23.4765 Z0.2537
G1 X45.4451 Y-23.5004 Z0.2531
G1 X45.4451 Y-23.5243 Z0.2524
G1 X45.4451 Y-23.5602 Z0.2513
G1 X45.4451 Y-23.5961 Z0.2501
G1 X45.4451 Y-23.6319 Z0.2488
G1 X45.4451 Y-23.6439 Z0.2483
G1 X45.4451 Y-23.6678 Z0.2474
G1 X45.4451 Y-23.6917 Z0.2463
G1 X45.4451 Y-23.7156 Z0.2453
G1 X45.4451 Y-23.7515 Z0.2436
G1 X45.4451 Y-23.7874 Z0.2418
G1 X45.4451 Y-23.8232 Z0.2399
G1 X45.4451 Y-23.8352 Z0.2393
G1 X45.4451 Y-23.8591 Z0.2379
G1 X45.4451 Y-23.8830 Z0.2365
G1 X45.4451 Y-23.9069 Z0.2351
G1 X45.4451 Y-23.9428 Z0.2329
G1 X45.4451 Y-23.9786 Z0.2305
G1 X45.4451 Y-24.0025 Z0.2289
G1 X45.4451 Y-24.0264 Z0.2272
G1 X45.4451 Y-24.0504 Z0.2255
G1 X45.4451 Y-24.0743 Z0.2237
G1 X45.4451 Y-24.0982 Z0.2219
G1 X45.4451 Y-24.1221 Z0.2200
G1 X45.4451 Y-24.1381 Z0.2187
G1 X45.4451 Y-24.1702 Z0.2161
G1 X45.4451 Y-24.1862 Z0.2147
G1 X45.4451 Y-24.2183 Z0.2120
G1 X45.4451 Y-24.2504 Z0.2091
G1 X45.4451 Y-24.2825 Z0.2062
G1 X45.4451 Y-24.3145 Z0.2032
G1 X45.4451 Y-24.3306 Z0.2016
G1 X45.4451 Y-24.3627 Z0.1985
G1 X45.4451 Y-24.3787 Z0.1969
G1 X45.4451 Y-24.3917 Z0.1962
G1 X45.4451 Y-24.4048 Z0.1970
G1 X45.4451 Y-24.4176 Z0.1991
G1 X45.4451 Y-24.4302 Z0.2025
G1 X45.4451 Y-24.4424 Z0.2072
G1 X45.4451 Y-24.4540 Z0.2131
G1 X45.4451 Y-24.4650 Z0.2203
G1 X45.4451 Y-24.4751 Z0.2285
G1 X45.4451 Y-24.4843 Z0.2378
G1 X45.4451 Y-24.4925 Z0.2479
G1 X45.4451 Y-24.4996 Z0.2589
G1 X45.4451 Y-24.5055 Z0.2705
G1 X45.4451 Y-24.5102 Z0.2827
G1 X45.4451 Y-24.5135 Z0.2953
G1 X45.4451 Y-24.5156 Z0.3082
G1 X45.4451 Y-24.5163 Z0.3212
G0 Z0.3826
G0 X45.2801 Y-22.8494 
G1 X45.2801 Y-22.8500 Z0.3703 F25.
G1 X45.2801 Y-22.8518 Z0.3582
G1 X45.2801 Y-22.8548 Z0.3463
G1 X45.2801 Y-22.8589 Z0.3347
G1 X45.2801 Y-22.8642 Z0.3236
G1 X45.2801 Y-22.8705 Z0.3131
G1 X45.2801 Y-22.8778 Z0.3033
G1 X45.2801 Y-22.8860 Z0.2942
G1 X45.2801 Y-22.8951 Z0.2859
G1 X45.2801 Y-22.9050 Z0.2786
G1 X45.2801 Y-22.9155 Z0.2723
G1 X45.2801 Y-22.9266 Z0.2671
G1 X45.2801 Y-22.9381 Z0.2629
G1 X45.2801 Y-22.9500 Z0.2600
G1 X45.2801 Y-22.9622 Z0.2582
G1 X45.2801 Y-22.9744 Z0.2576
G1 X45.2801 Y-23.1657 Z0.2575 F50.
G1 X45.2801 Y-23.2135 Z0.2575
G1 X45.2801 Y-23.2494 Z0.2573
G1 X45.2801 Y-23.2853 Z0.2570
G1 X45.2801 Y-23.3092 Z0.2568
G1 X45.2801 Y-23.3331 Z0.2565
G1 X45.2801 Y-23.3570 Z0.2561
G1 X45.2801 Y-23.3689 Z0.2559
G1 X45.2801 Y-23.4048 Z0.2553
G1 X45.2801 Y-23.4407 Z0.2546
G1 X45.2801 Y-23.4765 Z0.2537
G1 X45.2801 Y-23.5004 Z0.2531
G1 X45.2801 Y-23.5243 Z0.2524
G1 X45.2801 Y-23.5602 Z0.2513
G1 X45.2801 Y-23.5961 Z0.2501
G1 X45.2801 Y-23.6319 Z0.2488
G1 X45.2801 Y-23.6439 Z0.2483
G1 X45.2801 Y-23.6678 Z0.2474
G1 X45.2801 Y-23.6917 Z0.2463
G1 X45.2801 Y-23.7156 Z0.2453
G1 X45.2801 Y-23.7515 Z0.2436
G1 X45.2801 Y-23.7874 Z0.2418
G1 X45.2801 Y-23.8232 Z0.2399
G1 X45.2801 Y-23.8352 Z0.2393
G1 X45.2801 Y-23.8591 Z0.2379
G1 X45.2801 Y-23.8830 Z0.2365
G1 X45.2801 Y-23.9069 Z0.2351
G1 X45.2801 Y-23.9428 Z0.2329
G1 X45.2801 Y-23.9786 Z0.2305
G1 X45.2801 Y-24.0025 Z0.2289
G1 X45.2801 Y-24.0264 Z0.2272
G1 X45.2801 Y-24.0504 Z0.2255
G1 X45.2801 Y-24.0743 Z0.2237
G1 X45.2801 Y-24.0982 Z0.2219
G1 X45.2801 Y-24.1221 Z0.2200
G1 X45.2801 Y-24.1382 Z0.2187
G1 X45.2801 Y-24.1705 Z0.2161
G1 X45.2801 Y-24.2108 Z0.2126
G1 X45.2801 Y-24.2511 Z0.2091
G1 X45.2801 Y-24.2834 Z0.2061
G1 X45.2801 Y-24.3157 Z0.2031
G1 X45.2801 Y-24.3318 Z0.2015
G1 X45.2801 Y-24.3641 Z0.1983
G1 X45.2801 Y-24.3802 Z0.1967
G1 X45.2801 Y-24.3933 Z0.1961
G1 X45.2801 Y-24.4063 Z0.1968
G1 X45.2801 Y-24.4192 Z0.1989
G1 X45.2801 Y-24.4318 Z0.2023
G1 X45.2801 Y-24.4439 Z0.2070
G1 X45.2801 Y-24.4556 Z0.2130
G1 X45.2801 Y-24.4665 Z0.2201
G1 X45.2801 Y-24.4766 Z0.2283
G1 X45.2801 Y-24.4858 Z0.2376
G1 X45.2801 Y-24.4940 Z0.2477
G1 X45.2801 Y-24.5011 Z0.2587
G1 X45.2801 Y-24.5070 Z0.2703
G1 X45.2801 Y-24.5117 Z0.2825
G1 X45.2801 Y-24.5151 Z0.2951
G1 X45.2801 Y-24.5171 Z0.3080
G1 X45.2801 Y-24.5178 Z0.3211
G0 Z0.3826
G0 X45.1151 Y-22.8494 
G1 X45.1151 Y-22.8500 Z0.3703 F25.
G1 X45.1151 Y-22.8518 Z0.3582
G1 X45.1151 Y-22.8548 Z0.3463
G1 X45.1151 Y-22.8589 Z0.3347
G1 X45.1151 Y-22.8642 Z0.3236
G1 X45.1151 Y-22.8705 Z0.3131
G1 X45.1151 Y-22.8778 Z0.3033
G1 X45.1151 Y-22.8860 Z0.2942
G1 X45.1151 Y-22.8951 Z0.2859
G1 X45.1151 Y-22.9050 Z0.2786
G1 X45.1151 Y-22.9155 Z0.2723
G1 X45.1151 Y-22.9266 Z0.2671
G1 X45.1151 Y-22.9381 Z0.2629
G1 X45.1151 Y-22.9500 Z0.2600
G1 X45.1151 Y-22.9622 Z0.2582
G1 X45.1151 Y-22.9744 Z0.2576
G1 X45.1151 Y-23.1657 Z0.2575 F50.
G1 X45.1151 Y-23.2135 Z0.2575
G1 X45.1151 Y-23.2494 Z0.2573
G1 X45.1151 Y-23.2853 Z0.2570
G1 X45.1151 Y-23.3092 Z0.2568
G1 X45.1151 Y-23.3331 Z0.2565
G1 X45.1151 Y-23.3570 Z0.2561
G1 X45.1151 Y-23.3689 Z0.2559
G1 X45.1151 Y-23.4048 Z0.2553
G1 X45.1151 Y-23.4407 Z0.2546
G1 X45.1151 Y-23.4765 Z0.2537
G1 X45.1151 Y-23.5004 Z0.2531
G1 X45.1151 Y-23.5243 Z0.2524
G1 X45.1151 Y-23.5602 Z0.2513
G1 X45.1151 Y-23.5961 Z0.2501
G1 X45.1151 Y-23.6319 Z0.2488
G1 X45.1151 Y-23.6439 Z0.2483
G1 X45.1151 Y-23.6678 Z0.2474
G1 X45.1151 Y-23.6917 Z0.2463
G1 X45.1151 Y-23.7156 Z0.2453
G1 X45.1151 Y-23.7515 Z0.2436
G1 X45.1151 Y-23.7874 Z0.2418
G1 X45.1151 Y-23.8232 Z0.2399
G1 X45.1151 Y-23.8352 Z0.2393
G1 X45.1151 Y-23.8591 Z0.2379
G1 X45.1151 Y-23.8830 Z0.2365
G1 X45.1151 Y-23.9069 Z0.2351
G1 X45.1151 Y-23.9428 Z0.2329
G1 X45.1151 Y-23.9786 Z0.2305
G1 X45.1151 Y-24.0025 Z0.2289
G1 X45.1151 Y-24.0264 Z0.2272
G1 X45.1151 Y-24.0504 Z0.2255
G1 X45.1151 Y-24.0743 Z0.2237
G1 X45.1151 Y-24.0982 Z0.2219
G1 X45.1151 Y-24.1221 Z0.2200
G1 X45.1151 Y-24.1383 Z0.2187
G1 X45.1151 Y-24.1708 Z0.2160
G1 X45.1151 Y-24.2032 Z0.2133
G1 X45.1151 Y-24.2195 Z0.2119
G1 X45.1151 Y-24.2519 Z0.2090
G1 X45.1151 Y-24.2844 Z0.2060
G1 X45.1151 Y-24.3168 Z0.2030
G1 X45.1151 Y-24.3331 Z0.2014
G1 X45.1151 Y-24.3655 Z0.1982
G1 X45.1151 Y-24.3817 Z0.1966
G1 X45.1151 Y-24.3948 Z0.1959
G1 X45.1151 Y-24.4078 Z0.1967
G1 X45.1151 Y-24.4207 Z0.1987
G1 X45.1151 Y-24.4333 Z0.2022
G1 X45.1151 Y-24.4455 Z0.2069
G1 X45.1151 Y-24.4571 Z0.2128
G1 X45.1151 Y-24.4680 Z0.2200
G1 X45.1151 Y-24.4781 Z0.2282
G1 X45.1151 Y-24.4874 Z0.2374
G1 X45.1151 Y-24.4956 Z0.2476
G1 X45.1151 Y-24.5027 Z0.2586
G1 X45.1151 Y-24.5086 Z0.2702
G1 X45.1151 Y-24.5132 Z0.2824
G1 X45.1151 Y-24.5166 Z0.2950
G1 X45.1151 Y-24.5186 Z0.3079
G1 X45.1151 Y-24.5193 Z0.3209
G0 Z0.3826
G0 X44.9501 Y-22.8494 
G1 X44.9501 Y-22.8500 Z0.3703 F25.
G1 X44.9501 Y-22.8518 Z0.3582
G1 X44.9501 Y-22.8548 Z0.3463
G1 X44.9501 Y-22.8589 Z0.3347
G1 X44.9501 Y-22.8642 Z0.3236
G1 X44.9501 Y-22.8705 Z0.3131
G1 X44.9501 Y-22.8778 Z0.3033
G1 X44.9501 Y-22.8860 Z0.2942
G1 X44.9501 Y-22.8951 Z0.2859
G1 X44.9501 Y-22.9050 Z0.2786
G1 X44.9501 Y-22.9155 Z0.2723
G1 X44.9501 Y-22.9266 Z0.2671
G1 X44.9501 Y-22.9381 Z0.2629
G1 X44.9501 Y-22.9500 Z0.2600
G1 X44.9501 Y-22.9622 Z0.2582
G1 X44.9501 Y-22.9744 Z0.2576
G1 X44.9501 Y-23.1657 Z0.2575 F50.
G1 X44.9501 Y-23.2135 Z0.2575
G1 X44.9501 Y-23.2494 Z0.2573
G1 X44.9501 Y-23.2853 Z0.2570
G1 X44.9501 Y-23.3092 Z0.2568
G1 X44.9501 Y-23.3331 Z0.2565
G1 X44.9501 Y-23.3570 Z0.2561
G1 X44.9501 Y-23.3689 Z0.2559
G1 X44.9501 Y-23.4048 Z0.2553
G1 X44.9501 Y-23.4407 Z0.2546
G1 X44.9501 Y-23.4765 Z0.2537
G1 X44.9501 Y-23.5004 Z0.2531
G1 X44.9501 Y-23.5243 Z0.2524
G1 X44.9501 Y-23.5602 Z0.2513
G1 X44.9501 Y-23.5961 Z0.2501
G1 X44.9501 Y-23.6319 Z0.2488
G1 X44.9501 Y-23.6439 Z0.2483
G1 X44.9501 Y-23.6678 Z0.2474
G1 X44.9501 Y-23.6917 Z0.2463
G1 X44.9501 Y-23.7156 Z0.2453
G1 X44.9501 Y-23.7515 Z0.2436
G1 X44.9501 Y-23.7874 Z0.2418
G1 X44.9501 Y-23.8232 Z0.2399
G1 X44.9501 Y-23.8352 Z0.2393
G1 X44.9501 Y-23.8591 Z0.2379
G1 X44.9501 Y-23.8830 Z0.2365
G1 X44.9501 Y-23.9069 Z0.2351
G1 X44.9501 Y-23.9428 Z0.2329
G1 X44.9501 Y-23.9786 Z0.2305
G1 X44.9501 Y-24.0025 Z0.2289
G1 X44.9501 Y-24.0264 Z0.2272
G1 X44.9501 Y-24.0504 Z0.2255
G1 X44.9501 Y-24.0743 Z0.2237
G1 X44.9501 Y-24.0982 Z0.2219
G1 X44.9501 Y-24.1221 Z0.2200
G1 X44.9501 Y-24.1384 Z0.2187
G1 X44.9501 Y-24.1711 Z0.2160
G1 X44.9501 Y-24.2037 Z0.2132
G1 X44.9501 Y-24.2200 Z0.2118
G1 X44.9501 Y-24.2527 Z0.2089
G1 X44.9501 Y-24.2853 Z0.2059
G1 X44.9501 Y-24.3180 Z0.2028
G1 X44.9501 Y-24.3506 Z0.1997
G1 X44.9501 Y-24.3669 Z0.1981
G1 X44.9501 Y-24.3833 Z0.1964
G1 X44.9501 Y-24.3963 Z0.1958
G1 X44.9501 Y-24.4093 Z0.1965
G1 X44.9501 Y-24.4222 Z0.1986
G1 X44.9501 Y-24.4348 Z0.2020
G1 X44.9501 Y-24.4470 Z0.2067
G1 X44.9501 Y-24.4586 Z0.2127
G1 X44.9501 Y-24.4695 Z0.2198
G1 X44.9501 Y-24.4797 Z0.2280
G1 X44.9501 Y-24.4889 Z0.2373
G1 X44.9501 Y-24.4971 Z0.2474
G1 X44.9501 Y-24.5042 Z0.2584
G1 X44.9501 Y-24.5101 Z0.2700
G1 X44.9501 Y-24.5148 Z0.2822
G1 X44.9501 Y-24.5181 Z0.2948
G1 X44.9501 Y-24.5202 Z0.3077
G1 X44.9501 Y-24.5209 Z0.3208
G0 Z0.3826
G0 X44.7851 Y-22.8494 
G1 X44.7851 Y-22.8500 Z0.3703 F25.
G1 X44.7851 Y-22.8518 Z0.3582
G1 X44.7851 Y-22.8548 Z0.3463
G1 X44.7851 Y-22.8589 Z0.3347
G1 X44.7851 Y-22.8642 Z0.3236
G1 X44.7851 Y-22.8705 Z0.3131
G1 X44.7851 Y-22.8778 Z0.3033
G1 X44.7851 Y-22.8860 Z0.2942
G1 X44.7851 Y-22.8951 Z0.2859
G1 X44.7851 Y-22.9050 Z0.2786
G1 X44.7851 Y-22.9155 Z0.2723
G1 X44.7851 Y-22.9266 Z0.2671
G1 X44.7851 Y-22.9381 Z0.2629
G1 X44.7851 Y-22.9500 Z0.2600
G1 X44.7851 Y-22.9622 Z0.2582
G1 X44.7851 Y-22.9744 Z0.2576
G1 X44.7851 Y-23.1657 Z0.2575 F50.
G1 X44.7851 Y-23.2135 Z0.2575
G1 X44.7851 Y-23.2494 Z0.2573
G1 X44.7851 Y-23.2853 Z0.2570
G1 X44.7851 Y-23.3092 Z0.2568
G1 X44.7851 Y-23.3331 Z0.2565
G1 X44.7851 Y-23.3570 Z0.2561
G1 X44.7851 Y-23.3689 Z0.2559
G1 X44.7851 Y-23.4048 Z0.2553
G1 X44.7851 Y-23.4407 Z0.2546
G1 X44.7851 Y-23.4765 Z0.2537
G1 X44.7851 Y-23.5004 Z0.2531
G1 X44.7851 Y-23.5243 Z0.2524
G1 X44.7851 Y-23.5602 Z0.2513
G1 X44.7851 Y-23.5961 Z0.2501
G1 X44.7851 Y-23.6319 Z0.2488
G1 X44.7851 Y-23.6439 Z0.2483
G1 X44.7851 Y-23.6678 Z0.2474
G1 X44.7851 Y-23.6917 Z0.2463
G1 X44.7851 Y-23.7156 Z0.2453
G1 X44.7851 Y-23.7515 Z0.2436
G1 X44.7851 Y-23.7874 Z0.2418
G1 X44.7851 Y-23.8232 Z0.2399
G1 X44.7851 Y-23.8352 Z0.2393
G1 X44.7851 Y-23.8591 Z0.2379
G1 X44.7851 Y-23.8830 Z0.2365
G1 X44.7851 Y-23.9069 Z0.2351
G1 X44.7851 Y-23.9428 Z0.2329
G1 X44.7851 Y-23.9786 Z0.2305
G1 X44.7851 Y-24.0025 Z0.2289
G1 X44.7851 Y-24.0264 Z0.2272
G1 X44.7851 Y-24.0504 Z0.2255
G1 X44.7851 Y-24.0743 Z0.2237
G1 X44.7851 Y-24.0982 Z0.2219
G1 X44.7851 Y-24.1221 Z0.2200
G1 X44.7851 Y-24.1385 Z0.2187
G1 X44.7851 Y-24.1713 Z0.2160
G1 X44.7851 Y-24.2042 Z0.2132
G1 X44.7851 Y-24.2206 Z0.2118
G1 X44.7851 Y-24.2534 Z0.2089
G1 X44.7851 Y-24.2863 Z0.2058
G1 X44.7851 Y-24.3191 Z0.2027
G1 X44.7851 Y-24.3519 Z0.1995
G1 X44.7851 Y-24.3684 Z0.1979
G1 X44.7851 Y-24.3848 Z0.1963
G1 X44.7851 Y-24.3978 Z0.1956
G1 X44.7851 Y-24.4109 Z0.1963
G1 X44.7851 Y-24.4237 Z0.1984
G1 X44.7851 Y-24.4363 Z0.2018
G1 X44.7851 Y-24.4485 Z0.2066
G1 X44.7851 Y-24.4601 Z0.2125
G1 X44.7851 Y-24.4711 Z0.2196
G1 X44.7851 Y-24.4812 Z0.2279
G1 X44.7851 Y-24.4904 Z0.2371
G1 X44.7851 Y-24.4986 Z0.2473
G1 X44.7851 Y-24.5057 Z0.2582
G1 X44.7851 Y-24.5116 Z0.2699
G1 X44.7851 Y-24.5163 Z0.2821
G1 X44.7851 Y-24.5197 Z0.2947
G1 X44.7851 Y-24.5217 Z0.3076
G1 X44.7851 Y-24.5224 Z0.3206
G0 Z0.3826
G0 X44.6201 Y-22.8494 
G1 X44.6201 Y-22.8500 Z0.3703 F25.
G1 X44.6201 Y-22.8518 Z0.3582
G1 X44.6201 Y-22.8548 Z0.3463
G1 X44.6201 Y-22.8589 Z0.3347
G1 X44.6201 Y-22.8642 Z0.3236
G1 X44.6201 Y-22.8705 Z0.3131
G1 X44.6201 Y-22.8778 Z0.3033
G1 X44.6201 Y-22.8860 Z0.2942
G1 X44.6201 Y-22.8951 Z0.2859
G1 X44.6201 Y-22.9050 Z0.2786
G1 X44.6201 Y-22.9155 Z0.2723
G1 X44.6201 Y-22.9266 Z0.2671
G1 X44.6201 Y-22.9381 Z0.2629
G1 X44.6201 Y-22.9500 Z0.2600
G1 X44.6201 Y-22.9622 Z0.2582
G1 X44.6201 Y-22.9744 Z0.2576
G1 X44.6201 Y-23.1657 Z0.2575 F50.
G1 X44.6201 Y-23.2135 Z0.2575
G1 X44.6201 Y-23.2494 Z0.2573
G1 X44.6201 Y-23.2853 Z0.2570
G1 X44.6201 Y-23.3092 Z0.2568
G1 X44.6201 Y-23.3331 Z0.2565
G1 X44.6201 Y-23.3570 Z0.2561
G1 X44.6201 Y-23.3689 Z0.2559
G1 X44.6201 Y-23.4048 Z0.2553
G1 X44.6201 Y-23.4407 Z0.2546
G1 X44.6201 Y-23.4765 Z0.2537
G1 X44.6201 Y-23.5004 Z0.2531
G1 X44.6201 Y-23.5243 Z0.2524
G1 X44.6201 Y-23.5602 Z0.2513
G1 X44.6201 Y-23.5961 Z0.2501
G1 X44.6201 Y-23.6319 Z0.2488
G1 X44.6201 Y-23.6439 Z0.2483
G1 X44.6201 Y-23.6678 Z0.2474
G1 X44.6201 Y-23.6917 Z0.2463
G1 X44.6201 Y-23.7156 Z0.2453
G1 X44.6201 Y-23.7515 Z0.2436
G1 X44.6201 Y-23.7874 Z0.2418
G1 X44.6201 Y-23.8232 Z0.2399
G1 X44.6201 Y-23.8352 Z0.2393
G1 X44.6201 Y-23.8591 Z0.2379
G1 X44.6201 Y-23.8830 Z0.2365
G1 X44.6201 Y-23.9069 Z0.2351
G1 X44.6201 Y-23.9428 Z0.2329
G1 X44.6201 Y-23.9786 Z0.2305
G1 X44.6201 Y-24.0025 Z0.2289
G1 X44.6201 Y-24.0264 Z0.2272
G1 X44.6201 Y-24.0504 Z0.2255
G1 X44.6201 Y-24.0743 Z0.2237
G1 X44.6201 Y-24.0982 Z0.2219
G1 X44.6201 Y-24.1221 Z0.2200
G1 X44.6201 Y-24.1386 Z0.2187
G1 X44.6201 Y-24.1716 Z0.2160
G1 X44.6201 Y-24.2047 Z0.2132
G1 X44.6201 Y-24.2212 Z0.2117
G1 X44.6201 Y-24.2542 Z0.2088
G1 X44.6201 Y-24.2872 Z0.2058
G1 X44.6201 Y-24.3203 Z0.2026
G1 X44.6201 Y-24.3533 Z0.1994
G1 X44.6201 Y-24.3698 Z0.1978
G1 X44.6201 Y-24.3863 Z0.1961
G1 X44.6201 Y-24.3993 Z0.1955
G1 X44.6201 Y-24.4124 Z0.1962
G1 X44.6201 Y-24.4253 Z0.1983
G1 X44.6201 Y-24.4379 Z0.2017
G1 X44.6201 Y-24.4500 Z0.2064
G1 X44.6201 Y-24.4617 Z0.2124
G1 X44.6201 Y-24.4726 Z0.2195
G1 X44.6201 Y-24.4827 Z0.2277
G1 X44.6201 Y-24.4919 Z0.2370
G1 X44.6201 Y-24.5001 Z0.2471
G1 X44.6201 Y-24.5072 Z0.2581
G1 X44.6201 Y-24.5131 Z0.2697
G1 X44.6201 Y-24.5178 Z0.2819
G1 X44.6201 Y-24.5212 Z0.2945
G1 X44.6201 Y-24.5232 Z0.3074
G1 X44.6201 Y-24.5239 Z0.3205
G0 Z0.3826
G0 X44.4551 Y-22.8494 
G1 X44.4551 Y-22.8500 Z0.3703 F25.
G1 X44.4551 Y-22.8518 Z0.3582
G1 X44.4551 Y-22.8548 Z0.3463
G1 X44.4551 Y-22.8589 Z0.3347
G1 X44.4551 Y-22.8642 Z0.3236
G1 X44.4551 Y-22.8705 Z0.3131
G1 X44.4551 Y-22.8778 Z0.3033
G1 X44.4551 Y-22.8860 Z0.2942
G1 X44.4551 Y-22.8951 Z0.2859
G1 X44.4551 Y-22.9050 Z0.2786
G1 X44.4551 Y-22.9155 Z0.2723
G1 X44.4551 Y-22.9266 Z0.2671
G1 X44.4551 Y-22.9381 Z0.2629
G1 X44.4551 Y-22.9500 Z0.2600
G1 X44.4551 Y-22.9622 Z0.2582
G1 X44.4551 Y-22.9744 Z0.2576
G1 X44.4551 Y-23.1657 Z0.2575 F50.
G1 X44.4551 Y-23.2135 Z0.2575
G1 X44.4551 Y-23.2494 Z0.2573
G1 X44.4551 Y-23.2853 Z0.2570
G1 X44.4551 Y-23.3092 Z0.2568
G1 X44.4551 Y-23.3331 Z0.2565
G1 X44.4551 Y-23.3570 Z0.2561
G1 X44.4551 Y-23.3689 Z0.2559
G1 X44.4551 Y-23.4048 Z0.2553
G1 X44.4551 Y-23.4407 Z0.2546
G1 X44.4551 Y-23.4765 Z0.2537
G1 X44.4551 Y-23.5004 Z0.2531
G1 X44.4551 Y-23.5243 Z0.2524
G1 X44.4551 Y-23.5602 Z0.2513
G1 X44.4551 Y-23.5961 Z0.2501
G1 X44.4551 Y-23.6319 Z0.2488
G1 X44.4551 Y-23.6439 Z0.2483
G1 X44.4551 Y-23.6678 Z0.2474
G1 X44.4551 Y-23.6917 Z0.2463
G1 X44.4551 Y-23.7156 Z0.2453
G1 X44.4551 Y-23.7515 Z0.2436
G1 X44.4551 Y-23.7874 Z0.2418
G1 X44.4551 Y-23.8232 Z0.2399
G1 X44.4551 Y-23.8352 Z0.2393
G1 X44.4551 Y-23.8591 Z0.2379
G1 X44.4551 Y-23.8830 Z0.2365
G1 X44.4551 Y-23.9069 Z0.2351
G1 X44.4551 Y-23.9428 Z0.2329
G1 X44.4551 Y-23.9786 Z0.2305
G1 X44.4551 Y-24.0025 Z0.2289
G1 X44.4551 Y-24.0264 Z0.2272
G1 X44.4551 Y-24.0504 Z0.2255
G1 X44.4551 Y-24.0743 Z0.2237
G1 X44.4551 Y-24.0982 Z0.2219
G1 X44.4551 Y-24.1221 Z0.2200
G1 X44.4551 Y-24.1387 Z0.2187
G1 X44.4551 Y-24.1719 Z0.2159
G1 X44.4551 Y-24.2051 Z0.2131
G1 X44.4551 Y-24.2217 Z0.2117
G1 X44.4551 Y-24.2550 Z0.2087
G1 X44.4551 Y-24.2882 Z0.2057
G1 X44.4551 Y-24.3214 Z0.2025
G1 X44.4551 Y-24.3546 Z0.1993
G1 X44.4551 Y-24.3712 Z0.1976
G1 X44.4551 Y-24.3878 Z0.1959
G1 X44.4551 Y-24.4009 Z0.1953
G1 X44.4551 Y-24.4139 Z0.1960
G1 X44.4551 Y-24.4268 Z0.1981
G1 X44.4551 Y-24.4394 Z0.2015
G1 X44.4551 Y-24.4516 Z0.2062
G1 X44.4551 Y-24.4632 Z0.2122
G1 X44.4551 Y-24.4741 Z0.2193
G1 X44.4551 Y-24.4842 Z0.2276
G1 X44.4551 Y-24.4935 Z0.2368
G1 X44.4551 Y-24.5017 Z0.2470
G1 X44.4551 Y-24.5088 Z0.2579
G1 X44.4551 Y-24.5147 Z0.2696
G1 X44.4551 Y-24.5193 Z0.2818
G1 X44.4551 Y-24.5227 Z0.2944
G1 X44.4551 Y-24.5247 Z0.3073
G1 X44.4551 Y-24.5254 Z0.3203
G0 Z0.3826
G0 X44.2901 Y-22.8494 
G1 X44.2901 Y-22.8500 Z0.3703 F25.
G1 X44.2901 Y-22.8518 Z0.3582
G1 X44.2901 Y-22.8548 Z0.3463
G1 X44.2901 Y-22.8589 Z0.3347
G1 X44.2901 Y-22.8642 Z0.3236
G1 X44.2901 Y-22.8705 Z0.3131
G1 X44.2901 Y-22.8778 Z0.3033
G1 X44.2901 Y-22.8860 Z0.2942
G1 X44.2901 Y-22.8951 Z0.2859
G1 X44.2901 Y-22.9050 Z0.2786
G1 X44.2901 Y-22.9155 Z0.2723
G1 X44.2901 Y-22.9266 Z0.2671
G1 X44.2901 Y-22.9381 Z0.2629
G1 X44.2901 Y-22.9500 Z0.2600
G1 X44.2901 Y-22.9622 Z0.2582
G1 X44.2901 Y-22.9744 Z0.2576
G1 X44.2901 Y-23.1657 Z0.2575 F50.
G1 X44.2901 Y-23.2135 Z0.2575
G1 X44.2901 Y-23.2494 Z0.2573
G1 X44.2901 Y-23.2853 Z0.2570
G1 X44.2901 Y-23.3092 Z0.2568
G1 X44.2901 Y-23.3331 Z0.2565
G1 X44.2901 Y-23.3570 Z0.2561
G1 X44.2901 Y-23.3689 Z0.2559
G1 X44.2901 Y-23.4048 Z0.2553
G1 X44.2901 Y-23.4407 Z0.2546
G1 X44.2901 Y-23.4765 Z0.2537
G1 X44.2901 Y-23.5004 Z0.2531
G1 X44.2901 Y-23.5243 Z0.2524
G1 X44.2901 Y-23.5602 Z0.2513
G1 X44.2901 Y-23.5961 Z0.2501
G1 X44.2901 Y-23.6319 Z0.2488
G1 X44.2901 Y-23.6439 Z0.2483
G1 X44.2901 Y-23.6678 Z0.2474
G1 X44.2901 Y-23.6917 Z0.2463
G1 X44.2901 Y-23.7156 Z0.2453
G1 X44.2901 Y-23.7515 Z0.2436
G1 X44.2901 Y-23.7874 Z0.2418
G1 X44.2901 Y-23.8232 Z0.2399
G1 X44.2901 Y-23.8352 Z0.2393
G1 X44.2901 Y-23.8591 Z0.2379
G1 X44.2901 Y-23.8830 Z0.2365
G1 X44.2901 Y-23.9069 Z0.2351
G1 X44.2901 Y-23.9428 Z0.2329
G1 X44.2901 Y-23.9786 Z0.2305
G1 X44.2901 Y-24.0025 Z0.2289
G1 X44.2901 Y-24.0264 Z0.2272
G1 X44.2901 Y-24.0504 Z0.2255
G1 X44.2901 Y-24.0743 Z0.2237
G1 X44.2901 Y-24.0982 Z0.2219
G1 X44.2901 Y-24.1221 Z0.2200
G1 X44.2901 Y-24.1388 Z0.2187
G1 X44.2901 Y-24.1722 Z0.2159
G1 X44.2901 Y-24.2056 Z0.2131
G1 X44.2901 Y-24.2223 Z0.2116
G1 X44.2901 Y-24.2557 Z0.2086
G1 X44.2901 Y-24.2891 Z0.2056
G1 X44.2901 Y-24.3225 Z0.2024
G1 X44.2901 Y-24.3559 Z0.1991
G1 X44.2901 Y-24.3894 Z0.1958
G1 X44.2901 Y-24.4024 Z0.1952
G1 X44.2901 Y-24.4154 Z0.1959
G1 X44.2901 Y-24.4283 Z0.1980
G1 X44.2901 Y-24.4409 Z0.2014
G1 X44.2901 Y-24.4531 Z0.2061
G1 X44.2901 Y-24.4647 Z0.2121
G1 X44.2901 Y-24.4756 Z0.2192
G1 X44.2901 Y-24.4857 Z0.2275
G1 X44.2901 Y-24.4949 Z0.2367
G1 X44.2901 Y-24.5031 Z0.2469
G1 X44.2901 Y-24.5102 Z0.2578
G1 X44.2901 Y-24.5161 Z0.2694
G1 X44.2901 Y-24.5208 Z0.2816
G1 X44.2901 Y-24.5241 Z0.2942
G1 X44.2901 Y-24.5262 Z0.3071
G1 X44.2901 Y-24.5269 Z0.3202
G0 Z0.3826
G0 X44.1251 Y-22.8494 
G1 X44.1251 Y-22.8500 Z0.3703 F25.
G1 X44.1251 Y-22.8518 Z0.3582
G1 X44.1251 Y-22.8548 Z0.3463
G1 X44.1251 Y-22.8589 Z0.3347
G1 X44.1251 Y-22.8642 Z0.3236
G1 X44.1251 Y-22.8705 Z0.3131
G1 X44.1251 Y-22.8778 Z0.3033
G1 X44.1251 Y-22.8860 Z0.2942
G1 X44.1251 Y-22.8951 Z0.2859
G1 X44.1251 Y-22.9050 Z0.2786
G1 X44.1251 Y-22.9155 Z0.2723
G1 X44.1251 Y-22.9266 Z0.2671
G1 X44.1251 Y-22.9381 Z0.2629
G1 X44.1251 Y-22.9500 Z0.2600
G1 X44.1251 Y-22.9622 Z0.2582
G1 X44.1251 Y-22.9744 Z0.2576
G1 X44.1251 Y-23.1657 Z0.2575 F50.
G1 X44.1251 Y-23.2135 Z0.2575
G1 X44.1251 Y-23.2494 Z0.2573
G1 X44.1251 Y-23.2853 Z0.2570
G1 X44.1251 Y-23.3092 Z0.2568
G1 X44.1251 Y-23.3331 Z0.2565
G1 X44.1251 Y-23.3570 Z0.2561
G1 X44.1251 Y-23.3689 Z0.2559
G1 X44.1251 Y-23.4048 Z0.2553
G1 X44.1251 Y-23.4407 Z0.2546
G1 X44.1251 Y-23.4765 Z0.2537
G1 X44.1251 Y-23.5004 Z0.2531
G1 X44.1251 Y-23.5243 Z0.2524
G1 X44.1251 Y-23.5602 Z0.2513
G1 X44.1251 Y-23.5961 Z0.2501
G1 X44.1251 Y-23.6319 Z0.2488
G1 X44.1251 Y-23.6439 Z0.2483
G1 X44.1251 Y-23.6678 Z0.2474
G1 X44.1251 Y-23.6917 Z0.2463
G1 X44.1251 Y-23.7156 Z0.2453
G1 X44.1251 Y-23.7515 Z0.2436
G1 X44.1251 Y-23.7874 Z0.2418
G1 X44.1251 Y-23.8232 Z0.2399
G1 X44.1251 Y-23.8352 Z0.2393
G1 X44.1251 Y-23.8591 Z0.2379
G1 X44.1251 Y-23.8830 Z0.2365
G1 X44.1251 Y-23.9069 Z0.2351
G1 X44.1251 Y-23.9428 Z0.2329
G1 X44.1251 Y-23.9786 Z0.2305
G1 X44.1251 Y-24.0025 Z0.2289
G1 X44.1251 Y-24.0264 Z0.2272
G1 X44.1251 Y-24.0504 Z0.2255
G1 X44.1251 Y-24.0743 Z0.2237
G1 X44.1251 Y-24.0982 Z0.2219
G1 X44.1251 Y-24.1221 Z0.2200
G1 X44.1251 Y-24.1389 Z0.2186
G1 X44.1251 Y-24.1725 Z0.2159
G1 X44.1251 Y-24.2061 Z0.2130
G1 X44.1251 Y-24.2229 Z0.2116
G1 X44.1251 Y-24.2565 Z0.2086
G1 X44.1251 Y-24.2901 Z0.2055
G1 X44.1251 Y-24.3237 Z0.2023
G1 X44.1251 Y-24.3573 Z0.1990
G1 X44.1251 Y-24.3909 Z0.1956
G1 X44.1251 Y-24.4039 Z0.1950
G1 X44.1251 Y-24.4169 Z0.1957
G1 X44.1251 Y-24.4298 Z0.1978
G1 X44.1251 Y-24.4424 Z0.2013
G1 X44.1251 Y-24.4546 Z0.2060
G1 X44.1251 Y-24.4662 Z0.2119
G1 X44.1251 Y-24.4771 Z0.2191
G1 X44.1251 Y-24.4872 Z0.2273
G1 X44.1251 Y-24.4964 Z0.2365
G1 X44.1251 Y-24.5046 Z0.2467
G1 X44.1251 Y-24.5117 Z0.2577
G1 X44.1251 Y-24.5176 Z0.2693
G1 X44.1251 Y-24.5223 Z0.2815
G1 X44.1251 Y-24.5257 Z0.2941
G1 X44.1251 Y-24.5277 Z0.3070
G1 X44.1251 Y-24.5284 Z0.3200
G0 Z0.3826
G0 X43.9601 Y-22.8494 
G1 X43.9601 Y-22.8500 Z0.3703 F25.
G1 X43.9601 Y-22.8518 Z0.3582
G1 X43.9601 Y-22.8548 Z0.3463
G1 X43.9601 Y-22.8589 Z0.3347
G1 X43.9601 Y-22.8642 Z0.3236
G1 X43.9601 Y-22.8705 Z0.3131
G1 X43.9601 Y-22.8778 Z0.3033
G1 X43.9601 Y-22.8860 Z0.2942
G1 X43.9601 Y-22.8951 Z0.2859
G1 X43.9601 Y-22.9050 Z0.2786
G1 X43.9601 Y-22.9155 Z0.2723
G1 X43.9601 Y-22.9266 Z0.2671
G1 X43.9601 Y-22.9381 Z0.2629
G1 X43.9601 Y-22.9500 Z0.2600
G1 X43.9601 Y-22.9622 Z0.2582
G1 X43.9601 Y-22.9744 Z0.2576
G1 X43.9601 Y-23.1657 Z0.2575 F50.
G1 X43.9601 Y-23.2135 Z0.2575
G1 X43.9601 Y-23.2494 Z0.2573
G1 X43.9601 Y-23.2853 Z0.2570
G1 X43.9601 Y-23.3092 Z0.2568
G1 X43.9601 Y-23.3331 Z0.2565
G1 X43.9601 Y-23.3570 Z0.2561
G1 X43.9601 Y-23.3689 Z0.2559
G1 X43.9601 Y-23.4048 Z0.2553
G1 X43.9601 Y-23.4407 Z0.2546
G1 X43.9601 Y-23.4765 Z0.2537
G1 X43.9601 Y-23.5004 Z0.2531
G1 X43.9601 Y-23.5243 Z0.2524
G1 X43.9601 Y-23.5602 Z0.2513
G1 X43.9601 Y-23.5961 Z0.2501
G1 X43.9601 Y-23.6319 Z0.2488
G1 X43.9601 Y-23.6439 Z0.2483
G1 X43.9601 Y-23.6678 Z0.2474
G1 X43.9601 Y-23.6917 Z0.2463
G1 X43.9601 Y-23.7156 Z0.2453
G1 X43.9601 Y-23.7515 Z0.2436
G1 X43.9601 Y-23.7874 Z0.2418
G1 X43.9601 Y-23.8232 Z0.2399
G1 X43.9601 Y-23.8352 Z0.2393
G1 X43.9601 Y-23.8591 Z0.2379
G1 X43.9601 Y-23.8830 Z0.2365
G1 X43.9601 Y-23.9069 Z0.2351
G1 X43.9601 Y-23.9428 Z0.2329
G1 X43.9601 Y-23.9786 Z0.2305
G1 X43.9601 Y-24.0025 Z0.2289
G1 X43.9601 Y-24.0264 Z0.2272
G1 X43.9601 Y-24.0504 Z0.2255
G1 X43.9601 Y-24.0743 Z0.2237
G1 X43.9601 Y-24.0982 Z0.2219
G1 X43.9601 Y-24.1221 Z0.2200
G1 X43.9601 Y-24.1390 Z0.2186
G1 X43.9601 Y-24.1728 Z0.2159
G1 X43.9601 Y-24.2066 Z0.2130
G1 X43.9601 Y-24.2235 Z0.2115
G1 X43.9601 Y-24.2488 Z0.2093
G1 X43.9601 Y-24.2910 Z0.2054
G1 X43.9601 Y-24.3248 Z0.2022
G1 X43.9601 Y-24.3586 Z0.1989
G1 X43.9601 Y-24.3924 Z0.1955
G1 X43.9601 Y-24.4054 Z0.1949
G1 X43.9601 Y-24.4185 Z0.1956
G1 X43.9601 Y-24.4313 Z0.1977
G1 X43.9601 Y-24.4439 Z0.2011
G1 X43.9601 Y-24.4561 Z0.2058
G1 X43.9601 Y-24.4677 Z0.2118
G1 X43.9601 Y-24.4787 Z0.2189
G1 X43.9601 Y-24.4888 Z0.2271
G1 X43.9601 Y-24.4980 Z0.2364
G1 X43.9601 Y-24.5062 Z0.2465
G1 X43.9601 Y-24.5133 Z0.2575
G1 X43.9601 Y-24.5192 Z0.2691
G1 X43.9601 Y-24.5238 Z0.2813
G1 X43.9601 Y-24.5272 Z0.2939
G1 X43.9601 Y-24.5293 Z0.3068
G1 X43.9601 Y-24.5299 Z0.3198
G0 Z0.3826
G0 X43.7951 Y-22.8494 
G1 X43.7951 Y-22.8500 Z0.3703 F25.
G1 X43.7951 Y-22.8518 Z0.3582
G1 X43.7951 Y-22.8548 Z0.3463
G1 X43.7951 Y-22.8589 Z0.3347
G1 X43.7951 Y-22.8642 Z0.3236
G1 X43.7951 Y-22.8705 Z0.3131
G1 X43.7951 Y-22.8778 Z0.3033
G1 X43.7951 Y-22.8860 Z0.2942
G1 X43.7951 Y-22.8951 Z0.2859
G1 X43.7951 Y-22.9050 Z0.2786
G1 X43.7951 Y-22.9155 Z0.2723
G1 X43.7951 Y-22.9266 Z0.2671
G1 X43.7951 Y-22.9381 Z0.2629
G1 X43.7951 Y-22.9500 Z0.2600
G1 X43.7951 Y-22.9622 Z0.2582
G1 X43.7951 Y-22.9744 Z0.2576
G1 X43.7951 Y-23.1657 Z0.2575 F50.
G1 X43.7951 Y-23.2135 Z0.2575
G1 X43.7951 Y-23.2494 Z0.2573
G1 X43.7951 Y-23.2853 Z0.2570
G1 X43.7951 Y-23.3092 Z0.2568
G1 X43.7951 Y-23.3331 Z0.2565
G1 X43.7951 Y-23.3570 Z0.2561
G1 X43.7951 Y-23.3689 Z0.2559
G1 X43.7951 Y-23.4048 Z0.2553
G1 X43.7951 Y-23.4407 Z0.2546
G1 X43.7951 Y-23.4765 Z0.2537
G1 X43.7951 Y-23.5004 Z0.2531
G1 X43.7951 Y-23.5243 Z0.2524
G1 X43.7951 Y-23.5602 Z0.2513
G1 X43.7951 Y-23.5961 Z0.2501
G1 X43.7951 Y-23.6319 Z0.2488
G1 X43.7951 Y-23.6439 Z0.2483
G1 X43.7951 Y-23.6678 Z0.2474
G1 X43.7951 Y-23.6917 Z0.2463
G1 X43.7951 Y-23.7156 Z0.2453
G1 X43.7951 Y-23.7515 Z0.2436
G1 X43.7951 Y-23.7874 Z0.2418
G1 X43.7951 Y-23.8232 Z0.2399
G1 X43.7951 Y-23.8352 Z0.2393
G1 X43.7951 Y-23.8591 Z0.2379
G1 X43.7951 Y-23.8830 Z0.2365
G1 X43.7951 Y-23.9069 Z0.2351
G1 X43.7951 Y-23.9428 Z0.2329
G1 X43.7951 Y-23.9786 Z0.2305
G1 X43.7951 Y-24.0025 Z0.2289
G1 X43.7951 Y-24.0264 Z0.2272
G1 X43.7951 Y-24.0504 Z0.2255
G1 X43.7951 Y-24.0743 Z0.2237
G1 X43.7951 Y-24.0982 Z0.2219
G1 X43.7951 Y-24.1221 Z0.2200
G1 X43.7951 Y-24.1391 Z0.2186
G1 X43.7951 Y-24.1731 Z0.2158
G1 X43.7951 Y-24.2070 Z0.2130
G1 X43.7951 Y-24.2240 Z0.2115
G1 X43.7951 Y-24.2495 Z0.2092
G1 X43.7951 Y-24.2920 Z0.2053
G1 X43.7951 Y-24.3260 Z0.2021
G1 X43.7951 Y-24.3599 Z0.1988
G1 X43.7951 Y-24.3939 Z0.1953
G1 X43.7951 Y-24.4070 Z0.1947
G1 X43.7951 Y-24.4200 Z0.1954
G1 X43.7951 Y-24.4329 Z0.1975
G1 X43.7951 Y-24.4455 Z0.2009
G1 X43.7951 Y-24.4576 Z0.2056
G1 X43.7951 Y-24.4693 Z0.2116
G1 X43.7951 Y-24.4802 Z0.2187
G1 X43.7951 Y-24.4903 Z0.2270
G1 X43.7951 Y-24.4995 Z0.2362
G1 X43.7951 Y-24.5077 Z0.2464
G1 X43.7951 Y-24.5148 Z0.2573
G1 X43.7951 Y-24.5207 Z0.2690
G1 X43.7951 Y-24.5254 Z0.2812
G1 X43.7951 Y-24.5288 Z0.2938
G1 X43.7951 Y-24.5308 Z0.3067
G1 X43.7951 Y-24.5315 Z0.3197
G0 Z0.3826
G0 X43.6301 Y-22.8494 
G1 X43.6301 Y-22.8500 Z0.3703 F25.
G1 X43.6301 Y-22.8518 Z0.3582
G1 X43.6301 Y-22.8548 Z0.3463
G1 X43.6301 Y-22.8589 Z0.3347
G1 X43.6301 Y-22.8642 Z0.3236
G1 X43.6301 Y-22.8705 Z0.3131
G1 X43.6301 Y-22.8778 Z0.3033
G1 X43.6301 Y-22.8860 Z0.2942
G1 X43.6301 Y-22.8951 Z0.2859
G1 X43.6301 Y-22.9050 Z0.2786
G1 X43.6301 Y-22.9155 Z0.2723
G1 X43.6301 Y-22.9266 Z0.2671
G1 X43.6301 Y-22.9381 Z0.2629
G1 X43.6301 Y-22.9500 Z0.2600
G1 X43.6301 Y-22.9622 Z0.2582
G1 X43.6301 Y-22.9744 Z0.2576
G1 X43.6301 Y-23.1657 Z0.2575 F50.
G1 X43.6301 Y-23.2135 Z0.2575
G1 X43.6301 Y-23.2494 Z0.2573
G1 X43.6301 Y-23.2853 Z0.2570
G1 X43.6301 Y-23.3092 Z0.2568
G1 X43.6301 Y-23.3331 Z0.2565
G1 X43.6301 Y-23.3570 Z0.2561
G1 X43.6301 Y-23.3689 Z0.2559
G1 X43.6301 Y-23.4048 Z0.2553
G1 X43.6301 Y-23.4407 Z0.2546
G1 X43.6301 Y-23.4765 Z0.2537
G1 X43.6301 Y-23.5004 Z0.2531
G1 X43.6301 Y-23.5243 Z0.2524
G1 X43.6301 Y-23.5602 Z0.2513
G1 X43.6301 Y-23.5961 Z0.2501
G1 X43.6301 Y-23.6319 Z0.2488
G1 X43.6301 Y-23.6439 Z0.2483
G1 X43.6301 Y-23.6678 Z0.2474
G1 X43.6301 Y-23.6917 Z0.2463
G1 X43.6301 Y-23.7156 Z0.2453
G1 X43.6301 Y-23.7515 Z0.2436
G1 X43.6301 Y-23.7874 Z0.2418
G1 X43.6301 Y-23.8232 Z0.2399
G1 X43.6301 Y-23.8352 Z0.2393
G1 X43.6301 Y-23.8591 Z0.2379
G1 X43.6301 Y-23.8830 Z0.2365
G1 X43.6301 Y-23.9069 Z0.2351
G1 X43.6301 Y-23.9428 Z0.2329
G1 X43.6301 Y-23.9786 Z0.2305
G1 X43.6301 Y-24.0025 Z0.2289
G1 X43.6301 Y-24.0264 Z0.2272
G1 X43.6301 Y-24.0504 Z0.2255
G1 X43.6301 Y-24.0743 Z0.2237
G1 X43.6301 Y-24.0982 Z0.2219
G1 X43.6301 Y-24.1221 Z0.2200
G1 X43.6301 Y-24.1392 Z0.2186
G1 X43.6301 Y-24.1733 Z0.2158
G1 X43.6301 Y-24.2075 Z0.2129
G1 X43.6301 Y-24.2246 Z0.2114
G1 X43.6301 Y-24.2417 Z0.2099
G1 X43.6301 Y-24.2588 Z0.2084
G1 X43.6301 Y-24.2929 Z0.2052
G1 X43.6301 Y-24.3271 Z0.2020
G1 X43.6301 Y-24.3613 Z0.1986
G1 X43.6301 Y-24.3954 Z0.1952
G1 X43.6301 Y-24.4085 Z0.1945
G1 X43.6301 Y-24.4215 Z0.1953
G1 X43.6301 Y-24.4344 Z0.1974
G1 X43.6301 Y-24.4470 Z0.2008
G1 X43.6301 Y-24.4592 Z0.2055
G1 X43.6301 Y-24.4708 Z0.2114
G1 X43.6301 Y-24.4817 Z0.2186
G1 X43.6301 Y-24.4918 Z0.2268
G1 X43.6301 Y-24.5011 Z0.2361
G1 X43.6301 Y-24.5092 Z0.2462
G1 X43.6301 Y-24.5163 Z0.2572
G1 X43.6301 Y-24.5223 Z0.2688
G1 X43.6301 Y-24.5269 Z0.2810
G1 X43.6301 Y-24.5303 Z0.2936
G1 X43.6301 Y-24.5323 Z0.3065
G1 X43.6301 Y-24.5330 Z0.3195
G0 Z0.3826
G0 X43.4651 Y-22.8494 
G1 X43.4651 Y-22.8500 Z0.3703 F25.
G1 X43.4651 Y-22.8518 Z0.3582
G1 X43.4651 Y-22.8548 Z0.3463
G1 X43.4651 Y-22.8589 Z0.3347
G1 X43.4651 Y-22.8642 Z0.3236
G1 X43.4651 Y-22.8705 Z0.3131
G1 X43.4651 Y-22.8778 Z0.3033
G1 X43.4651 Y-22.8860 Z0.2942
G1 X43.4651 Y-22.8951 Z0.2859
G1 X43.4651 Y-22.9050 Z0.2786
G1 X43.4651 Y-22.9155 Z0.2723
G1 X43.4651 Y-22.9266 Z0.2671
G1 X43.4651 Y-22.9381 Z0.2629
G1 X43.4651 Y-22.9500 Z0.2600
G1 X43.4651 Y-22.9622 Z0.2582
G1 X43.4651 Y-22.9744 Z0.2576
G1 X43.4651 Y-23.1657 Z0.2575 F50.
G1 X43.4651 Y-23.2135 Z0.2575
G1 X43.4651 Y-23.2494 Z0.2573
G1 X43.4651 Y-23.2853 Z0.2570
G1 X43.4651 Y-23.3092 Z0.2568
G1 X43.4651 Y-23.3331 Z0.2565
G1 X43.4651 Y-23.3570 Z0.2561
G1 X43.4651 Y-23.3689 Z0.2559
G1 X43.4651 Y-23.4048 Z0.2553
G1 X43.4651 Y-23.4407 Z0.2546
G1 X43.4651 Y-23.4765 Z0.2537
G1 X43.4651 Y-23.5004 Z0.2531
G1 X43.4651 Y-23.5243 Z0.2524
G1 X43.4651 Y-23.5602 Z0.2513
G1 X43.4651 Y-23.5961 Z0.2501
G1 X43.4651 Y-23.6319 Z0.2488
G1 X43.4651 Y-23.6439 Z0.2483
G1 X43.4651 Y-23.6678 Z0.2474
G1 X43.4651 Y-23.6917 Z0.2463
G1 X43.4651 Y-23.7156 Z0.2453
G1 X43.4651 Y-23.7515 Z0.2436
G1 X43.4651 Y-23.7874 Z0.2418
G1 X43.4651 Y-23.8232 Z0.2399
G1 X43.4651 Y-23.8352 Z0.2393
G1 X43.4651 Y-23.8591 Z0.2379
G1 X43.4651 Y-23.8830 Z0.2365
G1 X43.4651 Y-23.9069 Z0.2351
G1 X43.4651 Y-23.9428 Z0.2329
G1 X43.4651 Y-23.9786 Z0.2305
G1 X43.4651 Y-24.0025 Z0.2289
G1 X43.4651 Y-24.0264 Z0.2272
G1 X43.4651 Y-24.0504 Z0.2255
G1 X43.4651 Y-24.0743 Z0.2237
G1 X43.4651 Y-24.0982 Z0.2219
G1 X43.4651 Y-24.1221 Z0.2200
G1 X43.4651 Y-24.1393 Z0.2186
G1 X43.4651 Y-24.1736 Z0.2158
G1 X43.4651 Y-24.2080 Z0.2129
G1 X43.4651 Y-24.2423 Z0.2098
G1 X43.4651 Y-24.2595 Z0.2083
G1 X43.4651 Y-24.2939 Z0.2051
G1 X43.4651 Y-24.3282 Z0.2019
G1 X43.4651 Y-24.3626 Z0.1985
G1 X43.4651 Y-24.3970 Z0.1950
G1 X43.4651 Y-24.4100 Z0.1944
G1 X43.4651 Y-24.4230 Z0.1951
G1 X43.4651 Y-24.4359 Z0.1972
G1 X43.4651 Y-24.4485 Z0.2006
G1 X43.4651 Y-24.4607 Z0.2053
G1 X43.4651 Y-24.4723 Z0.2113
G1 X43.4651 Y-24.4832 Z0.2184
G1 X43.4651 Y-24.4934 Z0.2267
G1 X43.4651 Y-24.5026 Z0.2359
G1 X43.4651 Y-24.5108 Z0.2461
G1 X43.4651 Y-24.5179 Z0.2570
G1 X43.4651 Y-24.5238 Z0.2687
G1 X43.4651 Y-24.5285 Z0.2808
G1 X43.4651 Y-24.5318 Z0.2935
G1 X43.4651 Y-24.5339 Z0.3063
G1 X43.4651 Y-24.5346 Z0.3194
G0 Z0.3826
G0 X43.3001 Y-22.8494 
G1 X43.3001 Y-22.8500 Z0.3703 F25.
G1 X43.3001 Y-22.8518 Z0.3582
G1 X43.3001 Y-22.8548 Z0.3463
G1 X43.3001 Y-22.8589 Z0.3347
G1 X43.3001 Y-22.8642 Z0.3236
G1 X43.3001 Y-22.8705 Z0.3131
G1 X43.3001 Y-22.8778 Z0.3033
G1 X43.3001 Y-22.8860 Z0.2942
G1 X43.3001 Y-22.8951 Z0.2859
G1 X43.3001 Y-22.9050 Z0.2786
G1 X43.3001 Y-22.9155 Z0.2723
G1 X43.3001 Y-22.9266 Z0.2671
G1 X43.3001 Y-22.9381 Z0.2629
G1 X43.3001 Y-22.9500 Z0.2600
G1 X43.3001 Y-22.9622 Z0.2582
G1 X43.3001 Y-22.9744 Z0.2576
G1 X43.3001 Y-23.1657 Z0.2575 F50.
G1 X43.3001 Y-23.2135 Z0.2575
G1 X43.3001 Y-23.2494 Z0.2573
G1 X43.3001 Y-23.2853 Z0.2570
G1 X43.3001 Y-23.3092 Z0.2568
G1 X43.3001 Y-23.3331 Z0.2565
G1 X43.3001 Y-23.3570 Z0.2561
G1 X43.3001 Y-23.3689 Z0.2559
G1 X43.3001 Y-23.4048 Z0.2553
G1 X43.3001 Y-23.4407 Z0.2546
G1 X43.3001 Y-23.4765 Z0.2537
G1 X43.3001 Y-23.5004 Z0.2531
G1 X43.3001 Y-23.5243 Z0.2524
G1 X43.3001 Y-23.5602 Z0.2513
G1 X43.3001 Y-23.5961 Z0.2501
G1 X43.3001 Y-23.6319 Z0.2488
G1 X43.3001 Y-23.6439 Z0.2483
G1 X43.3001 Y-23.6678 Z0.2474
G1 X43.3001 Y-23.6917 Z0.2463
G1 X43.3001 Y-23.7156 Z0.2453
G1 X43.3001 Y-23.7515 Z0.2436
G1 X43.3001 Y-23.7874 Z0.2418
G1 X43.3001 Y-23.8232 Z0.2399
G1 X43.3001 Y-23.8352 Z0.2393
G1 X43.3001 Y-23.8591 Z0.2379
G1 X43.3001 Y-23.8830 Z0.2365
G1 X43.3001 Y-23.9069 Z0.2351
G1 X43.3001 Y-23.9428 Z0.2329
G1 X43.3001 Y-23.9786 Z0.2305
G1 X43.3001 Y-24.0025 Z0.2289
G1 X43.3001 Y-24.0264 Z0.2272
G1 X43.3001 Y-24.0504 Z0.2255
G1 X43.3001 Y-24.0743 Z0.2237
G1 X43.3001 Y-24.0982 Z0.2219
G1 X43.3001 Y-24.1221 Z0.2200
G1 X43.3001 Y-24.1394 Z0.2186
G1 X43.3001 Y-24.1739 Z0.2158
G1 X43.3001 Y-24.2085 Z0.2128
G1 X43.3001 Y-24.2430 Z0.2098
G1 X43.3001 Y-24.2603 Z0.2082
G1 X43.3001 Y-24.2948 Z0.2050
G1 X43.3001 Y-24.3294 Z0.2017
G1 X43.3001 Y-24.3639 Z0.1984
G1 X43.3001 Y-24.3985 Z0.1949
G1 X43.3001 Y-24.4115 Z0.1942
G1 X43.3001 Y-24.4246 Z0.1950
G1 X43.3001 Y-24.4375 Z0.1970
G1 X43.3001 Y-24.4501 Z0.2005
G1 X43.3001 Y-24.4622 Z0.2052
G1 X43.3001 Y-24.4738 Z0.2111
G1 X43.3001 Y-24.4848 Z0.2183
G1 X43.3001 Y-24.4949 Z0.2265
G1 X43.3001 Y-24.5041 Z0.2357
G1 X43.3001 Y-24.5123 Z0.2459
G1 X43.3001 Y-24.5194 Z0.2569
G1 X43.3001 Y-24.5253 Z0.2685
G1 X43.3001 Y-24.5300 Z0.2807
G1 X43.3001 Y-24.5334 Z0.2933
G1 X43.3001 Y-24.5354 Z0.3062
G1 X43.3001 Y-24.5361 Z0.3192
G0 Z0.3826
G0 X43.1351 Y-22.8494 
G1 X43.1351 Y-22.8500 Z0.3703 F25.
G1 X43.1351 Y-22.8518 Z0.3582
G1 X43.1351 Y-22.8548 Z0.3463
G1 X43.1351 Y-22.8589 Z0.3347
G1 X43.1351 Y-22.8642 Z0.3236
G1 X43.1351 Y-22.8705 Z0.3131
G1 X43.1351 Y-22.8778 Z0.3033
G1 X43.1351 Y-22.8860 Z0.2942
G1 X43.1351 Y-22.8951 Z0.2859
G1 X43.1351 Y-22.9050 Z0.2786
G1 X43.1351 Y-22.9155 Z0.2723
G1 X43.1351 Y-22.9266 Z0.2671
G1 X43.1351 Y-22.9381 Z0.2629
G1 X43.1351 Y-22.9500 Z0.2600
G1 X43.1351 Y-22.9622 Z0.2582
G1 X43.1351 Y-22.9744 Z0.2576
G1 X43.1351 Y-23.1657 Z0.2575 F50.
G1 X43.1351 Y-23.2135 Z0.2575
G1 X43.1351 Y-23.2494 Z0.2573
G1 X43.1351 Y-23.2853 Z0.2570
G1 X43.1351 Y-23.3092 Z0.2568
G1 X43.1351 Y-23.3331 Z0.2565
G1 X43.1351 Y-23.3570 Z0.2561
G1 X43.1351 Y-23.3689 Z0.2559
G1 X43.1351 Y-23.4048 Z0.2553
G1 X43.1351 Y-23.4407 Z0.2546
G1 X43.1351 Y-23.4765 Z0.2537
G1 X43.1351 Y-23.5004 Z0.2531
G1 X43.1351 Y-23.5243 Z0.2524
G1 X43.1351 Y-23.5602 Z0.2513
G1 X43.1351 Y-23.5961 Z0.2501
G1 X43.1351 Y-23.6319 Z0.2488
G1 X43.1351 Y-23.6439 Z0.2483
G1 X43.1351 Y-23.6678 Z0.2474
G1 X43.1351 Y-23.6917 Z0.2463
G1 X43.1351 Y-23.7156 Z0.2453
G1 X43.1351 Y-23.7515 Z0.2436
G1 X43.1351 Y-23.7874 Z0.2418
G1 X43.1351 Y-23.8232 Z0.2399
G1 X43.1351 Y-23.8352 Z0.2393
G1 X43.1351 Y-23.8591 Z0.2379
G1 X43.1351 Y-23.8830 Z0.2365
G1 X43.1351 Y-23.9069 Z0.2351
G1 X43.1351 Y-23.9428 Z0.2329
G1 X43.1351 Y-23.9786 Z0.2305
G1 X43.1351 Y-24.0025 Z0.2289
G1 X43.1351 Y-24.0264 Z0.2272
G1 X43.1351 Y-24.0504 Z0.2255
G1 X43.1351 Y-24.0743 Z0.2237
G1 X43.1351 Y-24.0982 Z0.2219
G1 X43.1351 Y-24.1221 Z0.2200
G1 X43.1351 Y-24.1395 Z0.2186
G1 X43.1351 Y-24.1742 Z0.2157
G1 X43.1351 Y-24.2089 Z0.2128
G1 X43.1351 Y-24.2437 Z0.2097
G1 X43.1351 Y-24.2611 Z0.2082
G1 X43.1351 Y-24.2871 Z0.2058
G1 X43.1351 Y-24.3305 Z0.2016
G1 X43.1351 Y-24.3653 Z0.1982
G1 X43.1351 Y-24.4000 Z0.1947
G1 X43.1351 Y-24.4131 Z0.1941
G1 X43.1351 Y-24.4261 Z0.1948
G1 X43.1351 Y-24.4390 Z0.1969
G1 X43.1351 Y-24.4516 Z0.2003
G1 X43.1351 Y-24.4638 Z0.2050
G1 X43.1351 Y-24.4754 Z0.2110
G1 X43.1351 Y-24.4863 Z0.2181
G1 X43.1351 Y-24.4964 Z0.2263
G1 X43.1351 Y-24.5056 Z0.2356
G1 X43.1351 Y-24.5138 Z0.2457
G1 X43.1351 Y-24.5209 Z0.2567
G1 X43.1351 Y-24.5269 Z0.2683
G1 X43.1351 Y-24.5315 Z0.2805
G1 X43.1351 Y-24.5349 Z0.2931
G1 X43.1351 Y-24.5369 Z0.3060
G1 X43.1351 Y-24.5376 Z0.3191
G0 Z0.3826
G0 X42.9701 Y-22.8494 
G1 X42.9701 Y-22.8500 Z0.3703 F25.
G1 X42.9701 Y-22.8518 Z0.3582
G1 X42.9701 Y-22.8548 Z0.3463
G1 X42.9701 Y-22.8589 Z0.3347
G1 X42.9701 Y-22.8642 Z0.3236
G1 X42.9701 Y-22.8705 Z0.3131
G1 X42.9701 Y-22.8778 Z0.3033
G1 X42.9701 Y-22.8860 Z0.2942
G1 X42.9701 Y-22.8951 Z0.2859
G1 X42.9701 Y-22.9050 Z0.2786
G1 X42.9701 Y-22.9155 Z0.2723
G1 X42.9701 Y-22.9266 Z0.2671
G1 X42.9701 Y-22.9381 Z0.2629
G1 X42.9701 Y-22.9500 Z0.2600
G1 X42.9701 Y-22.9622 Z0.2582
G1 X42.9701 Y-22.9744 Z0.2576
G1 X42.9701 Y-23.1657 Z0.2575 F50.
G1 X42.9701 Y-23.2135 Z0.2575
G1 X42.9701 Y-23.2494 Z0.2573
G1 X42.9701 Y-23.2853 Z0.2570
G1 X42.9701 Y-23.3092 Z0.2568
G1 X42.9701 Y-23.3331 Z0.2565
G1 X42.9701 Y-23.3570 Z0.2561
G1 X42.9701 Y-23.3689 Z0.2559
G1 X42.9701 Y-23.4048 Z0.2553
G1 X42.9701 Y-23.4407 Z0.2546
G1 X42.9701 Y-23.4765 Z0.2537
G1 X42.9701 Y-23.5004 Z0.2531
G1 X42.9701 Y-23.5243 Z0.2524
G1 X42.9701 Y-23.5602 Z0.2513
G1 X42.9701 Y-23.5961 Z0.2501
G1 X42.9701 Y-23.6319 Z0.2488
G1 X42.9701 Y-23.6439 Z0.2483
G1 X42.9701 Y-23.6678 Z0.2474
G1 X42.9701 Y-23.6917 Z0.2463
G1 X42.9701 Y-23.7156 Z0.2453
G1 X42.9701 Y-23.7515 Z0.2436
G1 X42.9701 Y-23.7874 Z0.2418
G1 X42.9701 Y-23.8232 Z0.2399
G1 X42.9701 Y-23.8352 Z0.2393
G1 X42.9701 Y-23.8591 Z0.2379
G1 X42.9701 Y-23.8830 Z0.2365
G1 X42.9701 Y-23.9069 Z0.2351
G1 X42.9701 Y-23.9428 Z0.2329
G1 X42.9701 Y-23.9786 Z0.2305
G1 X42.9701 Y-24.0025 Z0.2289
G1 X42.9701 Y-24.0264 Z0.2272
G1 X42.9701 Y-24.0504 Z0.2255
G1 X42.9701 Y-24.0743 Z0.2237
G1 X42.9701 Y-24.0982 Z0.2219
G1 X42.9701 Y-24.1221 Z0.2200
G1 X42.9701 Y-24.1395 Z0.2186
G1 X42.9701 Y-24.1745 Z0.2157
G1 X42.9701 Y-24.2094 Z0.2128
G1 X42.9701 Y-24.2443 Z0.2097
G1 X42.9701 Y-24.2618 Z0.2081
G1 X42.9701 Y-24.2880 Z0.2057
G1 X42.9701 Y-24.3317 Z0.2015
G1 X42.9701 Y-24.3666 Z0.1981
G1 X42.9701 Y-24.4015 Z0.1946
G1 X42.9701 Y-24.4146 Z0.1939
G1 X42.9701 Y-24.4276 Z0.1946
G1 X42.9701 Y-24.4405 Z0.1967
G1 X42.9701 Y-24.4531 Z0.2001
G1 X42.9701 Y-24.4653 Z0.2049
G1 X42.9701 Y-24.4769 Z0.2108
G1 X42.9701 Y-24.4878 Z0.2179
G1 X42.9701 Y-24.4980 Z0.2262
G1 X42.9701 Y-24.5072 Z0.2354
G1 X42.9701 Y-24.5154 Z0.2456
G1 X42.9701 Y-24.5225 Z0.2565
G1 X42.9701 Y-24.5284 Z0.2682
G1 X42.9701 Y-24.5330 Z0.2804
G1 X42.9701 Y-24.5364 Z0.2930
G1 X42.9701 Y-24.5385 Z0.3059
G1 X42.9701 Y-24.5391 Z0.3189
G0 Z0.3826
G0 X42.8051 Y-22.8494 
G1 X42.8051 Y-22.8500 Z0.3703 F25.
G1 X42.8051 Y-22.8518 Z0.3582
G1 X42.8051 Y-22.8548 Z0.3463
G1 X42.8051 Y-22.8589 Z0.3347
G1 X42.8051 Y-22.8642 Z0.3236
G1 X42.8051 Y-22.8705 Z0.3131
G1 X42.8051 Y-22.8778 Z0.3033
G1 X42.8051 Y-22.8860 Z0.2942
G1 X42.8051 Y-22.8951 Z0.2859
G1 X42.8051 Y-22.9050 Z0.2786
G1 X42.8051 Y-22.9155 Z0.2723
G1 X42.8051 Y-22.9266 Z0.2671
G1 X42.8051 Y-22.9381 Z0.2629
G1 X42.8051 Y-22.9500 Z0.2600
G1 X42.8051 Y-22.9622 Z0.2582
G1 X42.8051 Y-22.9744 Z0.2576
G1 X42.8051 Y-23.1657 Z0.2575 F50.
G1 X42.8051 Y-23.2135 Z0.2575
G1 X42.8051 Y-23.2494 Z0.2573
G1 X42.8051 Y-23.2853 Z0.2570
G1 X42.8051 Y-23.3092 Z0.2568
G1 X42.8051 Y-23.3331 Z0.2565
G1 X42.8051 Y-23.3570 Z0.2561
G1 X42.8051 Y-23.3689 Z0.2559
G1 X42.8051 Y-23.4048 Z0.2553
G1 X42.8051 Y-23.4407 Z0.2546
G1 X42.8051 Y-23.4765 Z0.2537
G1 X42.8051 Y-23.5004 Z0.2531
G1 X42.8051 Y-23.5243 Z0.2524
G1 X42.8051 Y-23.5602 Z0.2513
G1 X42.8051 Y-23.5961 Z0.2501
G1 X42.8051 Y-23.6319 Z0.2488
G1 X42.8051 Y-23.6439 Z0.2483
G1 X42.8051 Y-23.6678 Z0.2474
G1 X42.8051 Y-23.6917 Z0.2463
G1 X42.8051 Y-23.7156 Z0.2453
G1 X42.8051 Y-23.7515 Z0.2436
G1 X42.8051 Y-23.7874 Z0.2418
G1 X42.8051 Y-23.8232 Z0.2399
G1 X42.8051 Y-23.8352 Z0.2393
G1 X42.8051 Y-23.8591 Z0.2379
G1 X42.8051 Y-23.8830 Z0.2365
G1 X42.8051 Y-23.9069 Z0.2351
G1 X42.8051 Y-23.9428 Z0.2329
G1 X42.8051 Y-23.9786 Z0.2305
G1 X42.8051 Y-24.0025 Z0.2289
G1 X42.8051 Y-24.0264 Z0.2272
G1 X42.8051 Y-24.0504 Z0.2255
G1 X42.8051 Y-24.0743 Z0.2237
G1 X42.8051 Y-24.0982 Z0.2219
G1 X42.8051 Y-24.1221 Z0.2200
G1 X42.8051 Y-24.1396 Z0.2186
G1 X42.8051 Y-24.1748 Z0.2157
G1 X42.8051 Y-24.2099 Z0.2127
G1 X42.8051 Y-24.2450 Z0.2096
G1 X42.8051 Y-24.2626 Z0.2080
G1 X42.8051 Y-24.2801 Z0.2064
G1 X42.8051 Y-24.2977 Z0.2048
G1 X42.8051 Y-24.3328 Z0.2014
G1 X42.8051 Y-24.3679 Z0.1980
G1 X42.8051 Y-24.4031 Z0.1944
G1 X42.8051 Y-24.4161 Z0.1938
G1 X42.8051 Y-24.4291 Z0.1945
G1 X42.8051 Y-24.4420 Z0.1966
G1 X42.8051 Y-24.4546 Z0.2000
G1 X42.8051 Y-24.4668 Z0.2047
G1 X42.8051 Y-24.4784 Z0.2107
G1 X42.8051 Y-24.4894 Z0.2178
G1 X42.8051 Y-24.4995 Z0.2260
G1 X42.8051 Y-24.5087 Z0.2353
G1 X42.8051 Y-24.5169 Z0.2454
G1 X42.8051 Y-24.5240 Z0.2564
G1 X42.8051 Y-24.5299 Z0.2680
G1 X42.8051 Y-24.5346 Z0.2802
G1 X42.8051 Y-24.5380 Z0.2928
G1 X42.8051 Y-24.5400 Z0.3057
G1 X42.8051 Y-24.5407 Z0.3188
G0 Z0.3826
G0 X42.6401 Y-22.8494 
G1 X42.6401 Y-22.8500 Z0.3703 F25.
G1 X42.6401 Y-22.8518 Z0.3582
G1 X42.6401 Y-22.8548 Z0.3463
G1 X42.6401 Y-22.8589 Z0.3347
G1 X42.6401 Y-22.8642 Z0.3236
G1 X42.6401 Y-22.8705 Z0.3131
G1 X42.6401 Y-22.8778 Z0.3033
G1 X42.6401 Y-22.8860 Z0.2942
G1 X42.6401 Y-22.8951 Z0.2859
G1 X42.6401 Y-22.9050 Z0.2786
G1 X42.6401 Y-22.9155 Z0.2723
G1 X42.6401 Y-22.9266 Z0.2671
G1 X42.6401 Y-22.9381 Z0.2629
G1 X42.6401 Y-22.9500 Z0.2600
G1 X42.6401 Y-22.9622 Z0.2582
G1 X42.6401 Y-22.9744 Z0.2576
G1 X42.6401 Y-23.1657 Z0.2575 F50.
G1 X42.6401 Y-23.2135 Z0.2575
G1 X42.6401 Y-23.2494 Z0.2573
G1 X42.6401 Y-23.2853 Z0.2570
G1 X42.6401 Y-23.3092 Z0.2568
G1 X42.6401 Y-23.3331 Z0.2565
G1 X42.6401 Y-23.3570 Z0.2561
G1 X42.6401 Y-23.3689 Z0.2559
G1 X42.6401 Y-23.4048 Z0.2553
G1 X42.6401 Y-23.4407 Z0.2546
G1 X42.6401 Y-23.4765 Z0.2537
G1 X42.6401 Y-23.5004 Z0.2531
G1 X42.6401 Y-23.5243 Z0.2524
G1 X42.6401 Y-23.5602 Z0.2513
G1 X42.6401 Y-23.5961 Z0.2501
G1 X42.6401 Y-23.6319 Z0.2488
G1 X42.6401 Y-23.6439 Z0.2483
G1 X42.6401 Y-23.6678 Z0.2474
G1 X42.6401 Y-23.6917 Z0.2463
G1 X42.6401 Y-23.7156 Z0.2453
G1 X42.6401 Y-23.7515 Z0.2436
G1 X42.6401 Y-23.7874 Z0.2418
G1 X42.6401 Y-23.8232 Z0.2399
G1 X42.6401 Y-23.8352 Z0.2393
G1 X42.6401 Y-23.8591 Z0.2379
G1 X42.6401 Y-23.8830 Z0.2365
G1 X42.6401 Y-23.9069 Z0.2351
G1 X42.6401 Y-23.9428 Z0.2329
G1 X42.6401 Y-23.9786 Z0.2305
G1 X42.6401 Y-24.0025 Z0.2289
G1 X42.6401 Y-24.0264 Z0.2272
G1 X42.6401 Y-24.0504 Z0.2255
G1 X42.6401 Y-24.0743 Z0.2237
G1 X42.6401 Y-24.0982 Z0.2219
G1 X42.6401 Y-24.1221 Z0.2200
G1 X42.6401 Y-24.1397 Z0.2186
G1 X42.6401 Y-24.1751 Z0.2157
G1 X42.6401 Y-24.2104 Z0.2127
G1 X42.6401 Y-24.2457 Z0.2096
G1 X42.6401 Y-24.2633 Z0.2079
G1 X42.6401 Y-24.2810 Z0.2063
G1 X42.6401 Y-24.2986 Z0.2047
G1 X42.6401 Y-24.3251 Z0.2022
G1 X42.6401 Y-24.3693 Z0.1978
G1 X42.6401 Y-24.4046 Z0.1942
G1 X42.6401 Y-24.4176 Z0.1936
G1 X42.6401 Y-24.4307 Z0.1943
G1 X42.6401 Y-24.4436 Z0.1964
G1 X42.6401 Y-24.4562 Z0.1998
G1 X42.6401 Y-24.4683 Z0.2045
G1 X42.6401 Y-24.4800 Z0.2105
G1 X42.6401 Y-24.4909 Z0.2176
G1 X42.6401 Y-24.5010 Z0.2259
G1 X42.6401 Y-24.5102 Z0.2351
G1 X42.6401 Y-24.5184 Z0.2453
G1 X42.6401 Y-24.5255 Z0.2562
G1 X42.6401 Y-24.5314 Z0.2679
G1 X42.6401 Y-24.5361 Z0.2800
G1 X42.6401 Y-24.5395 Z0.2927
G1 X42.6401 Y-24.5415 Z0.3056
G1 X42.6401 Y-24.5422 Z0.3186
G0 Z0.3826
G0 X42.4751 Y-22.8494 
G1 X42.4751 Y-22.8500 Z0.3703 F25.
G1 X42.4751 Y-22.8518 Z0.3582
G1 X42.4751 Y-22.8548 Z0.3463
G1 X42.4751 Y-22.8589 Z0.3347
G1 X42.4751 Y-22.8642 Z0.3236
G1 X42.4751 Y-22.8705 Z0.3131
G1 X42.4751 Y-22.8778 Z0.3033
G1 X42.4751 Y-22.8860 Z0.2942
G1 X42.4751 Y-22.8951 Z0.2859
G1 X42.4751 Y-22.9050 Z0.2786
G1 X42.4751 Y-22.9155 Z0.2723
G1 X42.4751 Y-22.9266 Z0.2671
G1 X42.4751 Y-22.9381 Z0.2629
G1 X42.4751 Y-22.9500 Z0.2600
G1 X42.4751 Y-22.9622 Z0.2582
G1 X42.4751 Y-22.9744 Z0.2576
G1 X42.4751 Y-23.1657 Z0.2575 F50.
G1 X42.4751 Y-23.2135 Z0.2575
G1 X42.4751 Y-23.2494 Z0.2573
G1 X42.4751 Y-23.2853 Z0.2570
G1 X42.4751 Y-23.3092 Z0.2568
G1 X42.4751 Y-23.3331 Z0.2565
G1 X42.4751 Y-23.3570 Z0.2561
G1 X42.4751 Y-23.3689 Z0.2559
G1 X42.4751 Y-23.4048 Z0.2553
G1 X42.4751 Y-23.4407 Z0.2546
G1 X42.4751 Y-23.4765 Z0.2537
G1 X42.4751 Y-23.5004 Z0.2531
G1 X42.4751 Y-23.5243 Z0.2524
G1 X42.4751 Y-23.5602 Z0.2513
G1 X42.4751 Y-23.5961 Z0.2501
G1 X42.4751 Y-23.6319 Z0.2488
G1 X42.4751 Y-23.6439 Z0.2483
G1 X42.4751 Y-23.6678 Z0.2474
G1 X42.4751 Y-23.6917 Z0.2463
G1 X42.4751 Y-23.7156 Z0.2453
G1 X42.4751 Y-23.7515 Z0.2436
G1 X42.4751 Y-23.7874 Z0.2418
G1 X42.4751 Y-23.8232 Z0.2399
G1 X42.4751 Y-23.8352 Z0.2393
G1 X42.4751 Y-23.8591 Z0.2379
G1 X42.4751 Y-23.8830 Z0.2365
G1 X42.4751 Y-23.9069 Z0.2351
G1 X42.4751 Y-23.9428 Z0.2329
G1 X42.4751 Y-23.9786 Z0.2305
G1 X42.4751 Y-24.0025 Z0.2289
G1 X42.4751 Y-24.0264 Z0.2272
G1 X42.4751 Y-24.0504 Z0.2255
G1 X42.4751 Y-24.0743 Z0.2237
G1 X42.4751 Y-24.0982 Z0.2219
G1 X42.4751 Y-24.1221 Z0.2200
G1 X42.4751 Y-24.1398 Z0.2186
G1 X42.4751 Y-24.1753 Z0.2157
G1 X42.4751 Y-24.2108 Z0.2126
G1 X42.4751 Y-24.2463 Z0.2095
G1 X42.4751 Y-24.2818 Z0.2063
G1 X42.4751 Y-24.2996 Z0.2046
G1 X42.4751 Y-24.3262 Z0.2021
G1 X42.4751 Y-24.3706 Z0.1977
G1 X42.4751 Y-24.4061 Z0.1941
G1 X42.4751 Y-24.4192 Z0.1934
G1 X42.4751 Y-24.4322 Z0.1942
G1 X42.4751 Y-24.4451 Z0.1962
G1 X42.4751 Y-24.4577 Z0.1997
G1 X42.4751 Y-24.4699 Z0.2044
G1 X42.4751 Y-24.4815 Z0.2103
G1 X42.4751 Y-24.4924 Z0.2175
G1 X42.4751 Y-24.5026 Z0.2257
G1 X42.4751 Y-24.5118 Z0.2349
G1 X42.4751 Y-24.5200 Z0.2451
G1 X42.4751 Y-24.5271 Z0.2561
G1 X42.4751 Y-24.5330 Z0.2677
G1 X42.4751 Y-24.5377 Z0.2799
G1 X42.4751 Y-24.5410 Z0.2925
G1 X42.4751 Y-24.5431 Z0.3054
G1 X42.4751 Y-24.5438 Z0.3184
G0 Z0.3826
G0 X42.3101 Y-22.8494 
G1 X42.3101 Y-22.8500 Z0.3703 F25.
G1 X42.3101 Y-22.8518 Z0.3582
G1 X42.3101 Y-22.8548 Z0.3463
G1 X42.3101 Y-22.8589 Z0.3347
G1 X42.3101 Y-22.8642 Z0.3236
G1 X42.3101 Y-22.8705 Z0.3131
G1 X42.3101 Y-22.8778 Z0.3033
G1 X42.3101 Y-22.8860 Z0.2942
G1 X42.3101 Y-22.8951 Z0.2859
G1 X42.3101 Y-22.9050 Z0.2786
G1 X42.3101 Y-22.9155 Z0.2723
G1 X42.3101 Y-22.9266 Z0.2671
G1 X42.3101 Y-22.9381 Z0.2629
G1 X42.3101 Y-22.9500 Z0.2600
G1 X42.3101 Y-22.9622 Z0.2582
G1 X42.3101 Y-22.9744 Z0.2576
G1 X42.3101 Y-23.1657 Z0.2575 F50.
G1 X42.3101 Y-23.2135 Z0.2575
G1 X42.3101 Y-23.2494 Z0.2573
G1 X42.3101 Y-23.2853 Z0.2570
G1 X42.3101 Y-23.3092 Z0.2568
G1 X42.3101 Y-23.3331 Z0.2565
G1 X42.3101 Y-23.3570 Z0.2561
G1 X42.3101 Y-23.3689 Z0.2559
G1 X42.3101 Y-23.4048 Z0.2553
G1 X42.3101 Y-23.4407 Z0.2546
G1 X42.3101 Y-23.4765 Z0.2537
G1 X42.3101 Y-23.5004 Z0.2531
G1 X42.3101 Y-23.5243 Z0.2524
G1 X42.3101 Y-23.5602 Z0.2513
G1 X42.3101 Y-23.5961 Z0.2501
G1 X42.3101 Y-23.6319 Z0.2488
G1 X42.3101 Y-23.6439 Z0.2483
G1 X42.3101 Y-23.6678 Z0.2474
G1 X42.3101 Y-23.6917 Z0.2463
G1 X42.3101 Y-23.7156 Z0.2453
G1 X42.3101 Y-23.7515 Z0.2436
G1 X42.3101 Y-23.7874 Z0.2418
G1 X42.3101 Y-23.8232 Z0.2399
G1 X42.3101 Y-23.8352 Z0.2393
G1 X42.3101 Y-23.8591 Z0.2379
G1 X42.3101 Y-23.8830 Z0.2365
G1 X42.3101 Y-23.9069 Z0.2351
G1 X42.3101 Y-23.9428 Z0.2329
G1 X42.3101 Y-23.9786 Z0.2305
G1 X42.3101 Y-24.0025 Z0.2289
G1 X42.3101 Y-24.0264 Z0.2272
G1 X42.3101 Y-24.0504 Z0.2255
G1 X42.3101 Y-24.0743 Z0.2237
G1 X42.3101 Y-24.0982 Z0.2219
G1 X42.3101 Y-24.1221 Z0.2200
G1 X42.3101 Y-24.1399 Z0.2186
G1 X42.3101 Y-24.1578 Z0.2171
G1 X42.3101 Y-24.1756 Z0.2156
G1 X42.3101 Y-24.2113 Z0.2126
G1 X42.3101 Y-24.2470 Z0.2094
G1 X42.3101 Y-24.2827 Z0.2062
G1 X42.3101 Y-24.3006 Z0.2045
G1 X42.3101 Y-24.3184 Z0.2028
G1 X42.3101 Y-24.3362 Z0.2011
G1 X42.3101 Y-24.3630 Z0.1985
G1 X42.3101 Y-24.3719 Z0.1976
G1 X42.3101 Y-24.4076 Z0.1939
G1 X42.3101 Y-24.4207 Z0.1933
G1 X42.3101 Y-24.4337 Z0.1940
G1 X42.3101 Y-24.4466 Z0.1961
G1 X42.3101 Y-24.4592 Z0.1995
G1 X42.3101 Y-24.4714 Z0.2042
G1 X42.3101 Y-24.4830 Z0.2102
G1 X42.3101 Y-24.4940 Z0.2173
G1 X42.3101 Y-24.5041 Z0.2255
G1 X42.3101 Y-24.5133 Z0.2348
G1 X42.3101 Y-24.5215 Z0.2449
G1 X42.3101 Y-24.5286 Z0.2559
G1 X42.3101 Y-24.5345 Z0.2675
G1 X42.3101 Y-24.5392 Z0.2797
G1 X42.3101 Y-24.5426 Z0.2923
G1 X42.3101 Y-24.5446 Z0.3052
G1 X42.3101 Y-24.5453 Z0.3183
G0 Z0.3826
G0 X42.1451 Y-22.8494 
G1 X42.1451 Y-22.8500 Z0.3703 F25.
G1 X42.1451 Y-22.8518 Z0.3582
G1 X42.1451 Y-22.8548 Z0.3463
G1 X42.1451 Y-22.8589 Z0.3347
G1 X42.1451 Y-22.8642 Z0.3236
G1 X42.1451 Y-22.8705 Z0.3131
G1 X42.1451 Y-22.8778 Z0.3033
G1 X42.1451 Y-22.8860 Z0.2942
G1 X42.1451 Y-22.8951 Z0.2859
G1 X42.1451 Y-22.9050 Z0.2786
G1 X42.1451 Y-22.9155 Z0.2723
G1 X42.1451 Y-22.9266 Z0.2671
G1 X42.1451 Y-22.9381 Z0.2629
G1 X42.1451 Y-22.9500 Z0.2600
G1 X42.1451 Y-22.9622 Z0.2582
G1 X42.1451 Y-22.9744 Z0.2576
G1 X42.1451 Y-23.1657 Z0.2575 F50.
G1 X42.1451 Y-23.2135 Z0.2575
G1 X42.1451 Y-23.2494 Z0.2573
G1 X42.1451 Y-23.2853 Z0.2570
G1 X42.1451 Y-23.3092 Z0.2568
G1 X42.1451 Y-23.3331 Z0.2565
G1 X42.1451 Y-23.3570 Z0.2561
G1 X42.1451 Y-23.3689 Z0.2559
G1 X42.1451 Y-23.4048 Z0.2553
G1 X42.1451 Y-23.4407 Z0.2546
G1 X42.1451 Y-23.4765 Z0.2537
G1 X42.1451 Y-23.5004 Z0.2531
G1 X42.1451 Y-23.5243 Z0.2524
G1 X42.1451 Y-23.5602 Z0.2513
G1 X42.1451 Y-23.5961 Z0.2501
G1 X42.1451 Y-23.6319 Z0.2488
G1 X42.1451 Y-23.6439 Z0.2483
G1 X42.1451 Y-23.6678 Z0.2474
G1 X42.1451 Y-23.6917 Z0.2463
G1 X42.1451 Y-23.7156 Z0.2453
G1 X42.1451 Y-23.7515 Z0.2436
G1 X42.1451 Y-23.7874 Z0.2418
G1 X42.1451 Y-23.8232 Z0.2399
G1 X42.1451 Y-23.8352 Z0.2393
G1 X42.1451 Y-23.8591 Z0.2379
G1 X42.1451 Y-23.8830 Z0.2365
G1 X42.1451 Y-23.9069 Z0.2351
G1 X42.1451 Y-23.9428 Z0.2329
G1 X42.1451 Y-23.9786 Z0.2305
G1 X42.1451 Y-24.0025 Z0.2289
G1 X42.1451 Y-24.0264 Z0.2272
G1 X42.1451 Y-24.0504 Z0.2255
G1 X42.1451 Y-24.0743 Z0.2237
G1 X42.1451 Y-24.0982 Z0.2219
G1 X42.1451 Y-24.1221 Z0.2200
G1 X42.1451 Y-24.1400 Z0.2186
G1 X42.1451 Y-24.1580 Z0.2171
G1 X42.1451 Y-24.1759 Z0.2156
G1 X42.1451 Y-24.2118 Z0.2125
G1 X42.1451 Y-24.2477 Z0.2094
G1 X42.1451 Y-24.2836 Z0.2061
G1 X42.1451 Y-24.3015 Z0.2044
G1 X42.1451 Y-24.3194 Z0.2027
G1 X42.1451 Y-24.3374 Z0.2010
G1 X42.1451 Y-24.3643 Z0.1983
G1 X42.1451 Y-24.4092 Z0.1938
G1 X42.1451 Y-24.4222 Z0.1931
G1 X42.1451 Y-24.4352 Z0.1938
G1 X42.1451 Y-24.4481 Z0.1959
G1 X42.1451 Y-24.4607 Z0.1993
G1 X42.1451 Y-24.4729 Z0.2040
G1 X42.1451 Y-24.4845 Z0.2100
G1 X42.1451 Y-24.4955 Z0.2171
G1 X42.1451 Y-24.5056 Z0.2254
G1 X42.1451 Y-24.5148 Z0.2346
G1 X42.1451 Y-24.5230 Z0.2448
G1 X42.1451 Y-24.5301 Z0.2557
G1 X42.1451 Y-24.5360 Z0.2674
G1 X42.1451 Y-24.5407 Z0.2796
G1 X42.1451 Y-24.5441 Z0.2922
G1 X42.1451 Y-24.5461 Z0.3051
G1 X42.1451 Y-24.5468 Z0.3181
G0 Z0.3826
G0 X41.9801 Y-22.8494 
G1 X41.9801 Y-22.8500 Z0.3703 F25.
G1 X41.9801 Y-22.8518 Z0.3582
G1 X41.9801 Y-22.8548 Z0.3463
G1 X41.9801 Y-22.8589 Z0.3347
G1 X41.9801 Y-22.8642 Z0.3236
G1 X41.9801 Y-22.8705 Z0.3131
G1 X41.9801 Y-22.8778 Z0.3033
G1 X41.9801 Y-22.8860 Z0.2942
G1 X41.9801 Y-22.8951 Z0.2859
G1 X41.9801 Y-22.9050 Z0.2786
G1 X41.9801 Y-22.9155 Z0.2723
G1 X41.9801 Y-22.9266 Z0.2671
G1 X41.9801 Y-22.9381 Z0.2629
G1 X41.9801 Y-22.9500 Z0.2600
G1 X41.9801 Y-22.9622 Z0.2582
G1 X41.9801 Y-22.9744 Z0.2576
G1 X41.9801 Y-23.1657 Z0.2575 F50.
G1 X41.9801 Y-23.2135 Z0.2575
G1 X41.9801 Y-23.2494 Z0.2573
G1 X41.9801 Y-23.2853 Z0.2570
G1 X41.9801 Y-23.3092 Z0.2568
G1 X41.9801 Y-23.3331 Z0.2565
G1 X41.9801 Y-23.3570 Z0.2561
G1 X41.9801 Y-23.3689 Z0.2559
G1 X41.9801 Y-23.4048 Z0.2553
G1 X41.9801 Y-23.4407 Z0.2546
G1 X41.9801 Y-23.4765 Z0.2537
G1 X41.9801 Y-23.5004 Z0.2531
G1 X41.9801 Y-23.5243 Z0.2524
G1 X41.9801 Y-23.5602 Z0.2513
G1 X41.9801 Y-23.5961 Z0.2501
G1 X41.9801 Y-23.6319 Z0.2488
G1 X41.9801 Y-23.6439 Z0.2483
G1 X41.9801 Y-23.6678 Z0.2474
G1 X41.9801 Y-23.6917 Z0.2463
G1 X41.9801 Y-23.7156 Z0.2453
G1 X41.9801 Y-23.7515 Z0.2436
G1 X41.9801 Y-23.7874 Z0.2418
G1 X41.9801 Y-23.8232 Z0.2399
G1 X41.9801 Y-23.8352 Z0.2393
G1 X41.9801 Y-23.8591 Z0.2379
G1 X41.9801 Y-23.8830 Z0.2365
G1 X41.9801 Y-23.9069 Z0.2351
G1 X41.9801 Y-23.9428 Z0.2329
G1 X41.9801 Y-23.9786 Z0.2305
G1 X41.9801 Y-24.0025 Z0.2289
G1 X41.9801 Y-24.0264 Z0.2272
G1 X41.9801 Y-24.0504 Z0.2255
G1 X41.9801 Y-24.0743 Z0.2237
G1 X41.9801 Y-24.0982 Z0.2219
G1 X41.9801 Y-24.1221 Z0.2200
G1 X41.9801 Y-24.1401 Z0.2185
G1 X41.9801 Y-24.1582 Z0.2171
G1 X41.9801 Y-24.1762 Z0.2156
G1 X41.9801 Y-24.2123 Z0.2125
G1 X41.9801 Y-24.2483 Z0.2093
G1 X41.9801 Y-24.2844 Z0.2060
G1 X41.9801 Y-24.3205 Z0.2026
G1 X41.9801 Y-24.3385 Z0.2009
G1 X41.9801 Y-24.3566 Z0.1991
G1 X41.9801 Y-24.3746 Z0.1973
G1 X41.9801 Y-24.4017 Z0.1945
G1 X41.9801 Y-24.4107 Z0.1936
G1 X41.9801 Y-24.4237 Z0.1929
G1 X41.9801 Y-24.4368 Z0.1936
G1 X41.9801 Y-24.4497 Z0.1957
G1 X41.9801 Y-24.4624 Z0.1991
G1 X41.9801 Y-24.4746 Z0.2038
G1 X41.9801 Y-24.4862 Z0.2097
G1 X41.9801 Y-24.4972 Z0.2168
G1 X41.9801 Y-24.5073 Z0.2251
G1 X41.9801 Y-24.5166 Z0.2343
G1 X41.9801 Y-24.5248 Z0.2445
G1 X41.9801 Y-24.5319 Z0.2554
G1 X41.9801 Y-24.5379 Z0.2671
G1 X41.9801 Y-24.5425 Z0.2793
G1 X41.9801 Y-24.5459 Z0.2919
G1 X41.9801 Y-24.5480 Z0.3049
G1 X41.9801 Y-24.5487 Z0.3179
G0 Z0.3826
G0 X41.8151 Y-22.8494 
G1 X41.8151 Y-22.8500 Z0.3703 F25.
G1 X41.8151 Y-22.8518 Z0.3582
G1 X41.8151 Y-22.8548 Z0.3463
G1 X41.8151 Y-22.8589 Z0.3347
G1 X41.8151 Y-22.8642 Z0.3236
G1 X41.8151 Y-22.8705 Z0.3131
G1 X41.8151 Y-22.8778 Z0.3033
G1 X41.8151 Y-22.8860 Z0.2942
G1 X41.8151 Y-22.8951 Z0.2859
G1 X41.8151 Y-22.9050 Z0.2786
G1 X41.8151 Y-22.9155 Z0.2723
G1 X41.8151 Y-22.9266 Z0.2671
G1 X41.8151 Y-22.9381 Z0.2629
G1 X41.8151 Y-22.9500 Z0.2600
G1 X41.8151 Y-22.9622 Z0.2582
G1 X41.8151 Y-22.9744 Z0.2576
G1 X41.8151 Y-23.1657 Z0.2575 F50.
G1 X41.8151 Y-23.2135 Z0.2575
G1 X41.8151 Y-23.2494 Z0.2573
G1 X41.8151 Y-23.2853 Z0.2570
G1 X41.8151 Y-23.3092 Z0.2568
G1 X41.8151 Y-23.3331 Z0.2565
G1 X41.8151 Y-23.3570 Z0.2561
G1 X41.8151 Y-23.3689 Z0.2559
G1 X41.8151 Y-23.4048 Z0.2553
G1 X41.8151 Y-23.4407 Z0.2546
G1 X41.8151 Y-23.4765 Z0.2537
G1 X41.8151 Y-23.5004 Z0.2531
G1 X41.8151 Y-23.5243 Z0.2524
G1 X41.8151 Y-23.5602 Z0.2513
G1 X41.8151 Y-23.5961 Z0.2501
G1 X41.8151 Y-23.6319 Z0.2488
G1 X41.8151 Y-23.6439 Z0.2483
G1 X41.8151 Y-23.6678 Z0.2474
G1 X41.8151 Y-23.6917 Z0.2463
G1 X41.8151 Y-23.7156 Z0.2453
G1 X41.8151 Y-23.7515 Z0.2436
G1 X41.8151 Y-23.7874 Z0.2418
G1 X41.8151 Y-23.8232 Z0.2399
G1 X41.8151 Y-23.8352 Z0.2393
G1 X41.8151 Y-23.8591 Z0.2379
G1 X41.8151 Y-23.8830 Z0.2365
G1 X41.8151 Y-23.9069 Z0.2351
G1 X41.8151 Y-23.9428 Z0.2329
G1 X41.8151 Y-23.9786 Z0.2305
G1 X41.8151 Y-24.0025 Z0.2289
G1 X41.8151 Y-24.0264 Z0.2272
G1 X41.8151 Y-24.0504 Z0.2255
G1 X41.8151 Y-24.0743 Z0.2237
G1 X41.8151 Y-24.0982 Z0.2219
G1 X41.8151 Y-24.1221 Z0.2200
G1 X41.8151 Y-24.1402 Z0.2185
G1 X41.8151 Y-24.1583 Z0.2171
G1 X41.8151 Y-24.1765 Z0.2156
G1 X41.8151 Y-24.2127 Z0.2125
G1 X41.8151 Y-24.2490 Z0.2093
G1 X41.8151 Y-24.2853 Z0.2059
G1 X41.8151 Y-24.3215 Z0.2025
G1 X41.8151 Y-24.3397 Z0.2007
G1 X41.8151 Y-24.3578 Z0.1990
G1 X41.8151 Y-24.3759 Z0.1971
G1 X41.8151 Y-24.4031 Z0.1944
G1 X41.8151 Y-24.4122 Z0.1934
G1 X41.8151 Y-24.4253 Z0.1928
G1 X41.8151 Y-24.4383 Z0.1935
G1 X41.8151 Y-24.4512 Z0.1955
G1 X41.8151 Y-24.4639 Z0.1989
G1 X41.8151 Y-24.4761 Z0.2036
G1 X41.8151 Y-24.4877 Z0.2095
G1 X41.8151 Y-24.4987 Z0.2167
G1 X41.8151 Y-24.5089 Z0.2249
G1 X41.8151 Y-24.5181 Z0.2341
G1 X41.8151 Y-24.5263 Z0.2443
G1 X41.8151 Y-24.5335 Z0.2553
G1 X41.8151 Y-24.5394 Z0.2669
G1 X41.8151 Y-24.5441 Z0.2792
G1 X41.8151 Y-24.5475 Z0.2918
G1 X41.8151 Y-24.5495 Z0.3047
G1 X41.8151 Y-24.5502 Z0.3178
G0 Z0.3826
G0 X41.6501 Y-22.8494 
G1 X41.6501 Y-22.8500 Z0.3703 F25.
G1 X41.6501 Y-22.8518 Z0.3582
G1 X41.6501 Y-22.8548 Z0.3463
G1 X41.6501 Y-22.8589 Z0.3347
G1 X41.6501 Y-22.8642 Z0.3236
G1 X41.6501 Y-22.8705 Z0.3131
G1 X41.6501 Y-22.8778 Z0.3033
G1 X41.6501 Y-22.8860 Z0.2942
G1 X41.6501 Y-22.8951 Z0.2859
G1 X41.6501 Y-22.9050 Z0.2786
G1 X41.6501 Y-22.9155 Z0.2723
G1 X41.6501 Y-22.9266 Z0.2671
G1 X41.6501 Y-22.9381 Z0.2629
G1 X41.6501 Y-22.9500 Z0.2600
G1 X41.6501 Y-22.9622 Z0.2582
G1 X41.6501 Y-22.9744 Z0.2576
G1 X41.6501 Y-23.1657 Z0.2575 F50.
G1 X41.6501 Y-23.2135 Z0.2575
G1 X41.6501 Y-23.2494 Z0.2573
G1 X41.6501 Y-23.2853 Z0.2570
G1 X41.6501 Y-23.3092 Z0.2568
G1 X41.6501 Y-23.3331 Z0.2565
G1 X41.6501 Y-23.3570 Z0.2561
G1 X41.6501 Y-23.3689 Z0.2559
G1 X41.6501 Y-23.4048 Z0.2553
G1 X41.6501 Y-23.4407 Z0.2546
G1 X41.6501 Y-23.4765 Z0.2537
G1 X41.6501 Y-23.5004 Z0.2531
G1 X41.6501 Y-23.5243 Z0.2524
G1 X41.6501 Y-23.5602 Z0.2513
G1 X41.6501 Y-23.5961 Z0.2501
G1 X41.6501 Y-23.6319 Z0.2488
G1 X41.6501 Y-23.6439 Z0.2483
G1 X41.6501 Y-23.6678 Z0.2474
G1 X41.6501 Y-23.6917 Z0.2463
G1 X41.6501 Y-23.7156 Z0.2453
G1 X41.6501 Y-23.7515 Z0.2436
G1 X41.6501 Y-23.7874 Z0.2418
G1 X41.6501 Y-23.8232 Z0.2399
G1 X41.6501 Y-23.8352 Z0.2393
G1 X41.6501 Y-23.8591 Z0.2379
G1 X41.6501 Y-23.8830 Z0.2365
G1 X41.6501 Y-23.9069 Z0.2351
G1 X41.6501 Y-23.9428 Z0.2329
G1 X41.6501 Y-23.9786 Z0.2305
G1 X41.6501 Y-24.0025 Z0.2289
G1 X41.6501 Y-24.0264 Z0.2272
G1 X41.6501 Y-24.0504 Z0.2255
G1 X41.6501 Y-24.0743 Z0.2237
G1 X41.6501 Y-24.0982 Z0.2219
G1 X41.6501 Y-24.1221 Z0.2200
G1 X41.6501 Y-24.1403 Z0.2185
G1 X41.6501 Y-24.1585 Z0.2170
G1 X41.6501 Y-24.1768 Z0.2155
G1 X41.6501 Y-24.2132 Z0.2124
G1 X41.6501 Y-24.2497 Z0.2092
G1 X41.6501 Y-24.2861 Z0.2059
G1 X41.6501 Y-24.3226 Z0.2024
G1 X41.6501 Y-24.3590 Z0.1988
G1 X41.6501 Y-24.3773 Z0.1970
G1 X41.6501 Y-24.3955 Z0.1952
G1 X41.6501 Y-24.4137 Z0.1933
G1 X41.6501 Y-24.4268 Z0.1926
G1 X41.6501 Y-24.4398 Z0.1933
G1 X41.6501 Y-24.4527 Z0.1954
G1 X41.6501 Y-24.4654 Z0.1988
G1 X41.6501 Y-24.4776 Z0.2035
G1 X41.6501 Y-24.4892 Z0.2094
G1 X41.6501 Y-24.5002 Z0.2166
G1 X41.6501 Y-24.5103 Z0.2248
G1 X41.6501 Y-24.5195 Z0.2340
G1 X41.6501 Y-24.5278 Z0.2442
G1 X41.6501 Y-24.5349 Z0.2552
G1 X41.6501 Y-24.5408 Z0.2668
G1 X41.6501 Y-24.5455 Z0.2790
G1 X41.6501 Y-24.5489 Z0.2917
G1 X41.6501 Y-24.5509 Z0.3046
G1 X41.6501 Y-24.5516 Z0.3176
G0 Z0.3826
G0 X41.4851 Y-22.8494 
G1 X41.4851 Y-22.8500 Z0.3703 F25.
G1 X41.4851 Y-22.8518 Z0.3582
G1 X41.4851 Y-22.8548 Z0.3463
G1 X41.4851 Y-22.8589 Z0.3347
G1 X41.4851 Y-22.8642 Z0.3236
G1 X41.4851 Y-22.8705 Z0.3131
G1 X41.4851 Y-22.8778 Z0.3033
G1 X41.4851 Y-22.8860 Z0.2942
G1 X41.4851 Y-22.8951 Z0.2859
G1 X41.4851 Y-22.9050 Z0.2786
G1 X41.4851 Y-22.9155 Z0.2723
G1 X41.4851 Y-22.9266 Z0.2671
G1 X41.4851 Y-22.9381 Z0.2629
G1 X41.4851 Y-22.9500 Z0.2600
G1 X41.4851 Y-22.9622 Z0.2582
G1 X41.4851 Y-22.9744 Z0.2576
G1 X41.4851 Y-23.1657 Z0.2575 F50.
G1 X41.4851 Y-23.2135 Z0.2575
G1 X41.4851 Y-23.2494 Z0.2573
G1 X41.4851 Y-23.2853 Z0.2570
G1 X41.4851 Y-23.3092 Z0.2568
G1 X41.4851 Y-23.3331 Z0.2565
G1 X41.4851 Y-23.3570 Z0.2561
G1 X41.4851 Y-23.3689 Z0.2559
G1 X41.4851 Y-23.4048 Z0.2553
G1 X41.4851 Y-23.4407 Z0.2546
G1 X41.4851 Y-23.4765 Z0.2537
G1 X41.4851 Y-23.5004 Z0.2531
G1 X41.4851 Y-23.5243 Z0.2524
G1 X41.4851 Y-23.5602 Z0.2513
G1 X41.4851 Y-23.5961 Z0.2501
G1 X41.4851 Y-23.6319 Z0.2488
G1 X41.4851 Y-23.6439 Z0.2483
G1 X41.4851 Y-23.6678 Z0.2474
G1 X41.4851 Y-23.6917 Z0.2463
G1 X41.4851 Y-23.7156 Z0.2453
G1 X41.4851 Y-23.7515 Z0.2436
G1 X41.4851 Y-23.7874 Z0.2418
G1 X41.4851 Y-23.8232 Z0.2399
G1 X41.4851 Y-23.8352 Z0.2393
G1 X41.4851 Y-23.8591 Z0.2379
G1 X41.4851 Y-23.8830 Z0.2365
G1 X41.4851 Y-23.9069 Z0.2351
G1 X41.4851 Y-23.9428 Z0.2329
G1 X41.4851 Y-23.9786 Z0.2305
G1 X41.4851 Y-24.0025 Z0.2289
G1 X41.4851 Y-24.0264 Z0.2272
G1 X41.4851 Y-24.0504 Z0.2255
G1 X41.4851 Y-24.0743 Z0.2237
G1 X41.4851 Y-24.0982 Z0.2219
G1 X41.4851 Y-24.1221 Z0.2200
G1 X41.4851 Y-24.1404 Z0.2185
G1 X41.4851 Y-24.1587 Z0.2170
G1 X41.4851 Y-24.1771 Z0.2155
G1 X41.4851 Y-24.2137 Z0.2124
G1 X41.4851 Y-24.2503 Z0.2091
G1 X41.4851 Y-24.2870 Z0.2058
G1 X41.4851 Y-24.3236 Z0.2023
G1 X41.4851 Y-24.3603 Z0.1987
G1 X41.4851 Y-24.3786 Z0.1969
G1 X41.4851 Y-24.3969 Z0.1950
G1 X41.4851 Y-24.4153 Z0.1931
G1 X41.4851 Y-24.4283 Z0.1925
G1 X41.4851 Y-24.4414 Z0.1932
G1 X41.4851 Y-24.4543 Z0.1952
G1 X41.4851 Y-24.4669 Z0.1986
G1 X41.4851 Y-24.4791 Z0.2033
G1 X41.4851 Y-24.4907 Z0.2093
G1 X41.4851 Y-24.5017 Z0.2164
G1 X41.4851 Y-24.5118 Z0.2246
G1 X41.4851 Y-24.5211 Z0.2339
G1 X41.4851 Y-24.5293 Z0.2440
G1 X41.4851 Y-24.5364 Z0.2550
G1 X41.4851 Y-24.5423 Z0.2667
G1 X41.4851 Y-24.5470 Z0.2789
G1 X41.4851 Y-24.5504 Z0.2915
G1 X41.4851 Y-24.5525 Z0.3044
G1 X41.4851 Y-24.5531 Z0.3175
G0 Z0.3826
G0 X41.3201 Y-22.8494 
G1 X41.3201 Y-22.8500 Z0.3703 F25.
G1 X41.3201 Y-22.8518 Z0.3582
G1 X41.3201 Y-22.8548 Z0.3463
G1 X41.3201 Y-22.8589 Z0.3347
G1 X41.3201 Y-22.8642 Z0.3236
G1 X41.3201 Y-22.8705 Z0.3131
G1 X41.3201 Y-22.8778 Z0.3033
G1 X41.3201 Y-22.8860 Z0.2942
G1 X41.3201 Y-22.8951 Z0.2859
G1 X41.3201 Y-22.9050 Z0.2786
G1 X41.3201 Y-22.9155 Z0.2723
G1 X41.3201 Y-22.9266 Z0.2671
G1 X41.3201 Y-22.9381 Z0.2629
G1 X41.3201 Y-22.9500 Z0.2600
G1 X41.3201 Y-22.9622 Z0.2582
G1 X41.3201 Y-22.9744 Z0.2576
G1 X41.3201 Y-23.1657 Z0.2575 F50.
G1 X41.3201 Y-23.2135 Z0.2575
G1 X41.3201 Y-23.2494 Z0.2573
G1 X41.3201 Y-23.2853 Z0.2570
G1 X41.3201 Y-23.3092 Z0.2568
G1 X41.3201 Y-23.3331 Z0.2565
G1 X41.3201 Y-23.3570 Z0.2561
G1 X41.3201 Y-23.3689 Z0.2559
G1 X41.3201 Y-23.4048 Z0.2553
G1 X41.3201 Y-23.4407 Z0.2546
G1 X41.3201 Y-23.4765 Z0.2537
G1 X41.3201 Y-23.5004 Z0.2531
G1 X41.3201 Y-23.5243 Z0.2524
G1 X41.3201 Y-23.5602 Z0.2513
G1 X41.3201 Y-23.5961 Z0.2501
G1 X41.3201 Y-23.6319 Z0.2488
G1 X41.3201 Y-23.6439 Z0.2483
G1 X41.3201 Y-23.6678 Z0.2474
G1 X41.3201 Y-23.6917 Z0.2463
G1 X41.3201 Y-23.7156 Z0.2453
G1 X41.3201 Y-23.7515 Z0.2436
G1 X41.3201 Y-23.7874 Z0.2418
G1 X41.3201 Y-23.8232 Z0.2399
G1 X41.3201 Y-23.8352 Z0.2393
G1 X41.3201 Y-23.8591 Z0.2379
G1 X41.3201 Y-23.8830 Z0.2365
G1 X41.3201 Y-23.9069 Z0.2351
G1 X41.3201 Y-23.9428 Z0.2329
G1 X41.3201 Y-23.9786 Z0.2305
G1 X41.3201 Y-24.0025 Z0.2289
G1 X41.3201 Y-24.0264 Z0.2272
G1 X41.3201 Y-24.0504 Z0.2255
G1 X41.3201 Y-24.0743 Z0.2237
G1 X41.3201 Y-24.0982 Z0.2219
G1 X41.3201 Y-24.1221 Z0.2200
G1 X41.3201 Y-24.1405 Z0.2185
G1 X41.3201 Y-24.1589 Z0.2170
G1 X41.3201 Y-24.1773 Z0.2155
G1 X41.3201 Y-24.1958 Z0.2139
G1 X41.3201 Y-24.2142 Z0.2123
G1 X41.3201 Y-24.2510 Z0.2091
G1 X41.3201 Y-24.2878 Z0.2057
G1 X41.3201 Y-24.3247 Z0.2022
G1 X41.3201 Y-24.3615 Z0.1986
G1 X41.3201 Y-24.3984 Z0.1949
G1 X41.3201 Y-24.4168 Z0.1930
G1 X41.3201 Y-24.4298 Z0.1923
G1 X41.3201 Y-24.4429 Z0.1930
G1 X41.3201 Y-24.4558 Z0.1951
G1 X41.3201 Y-24.4684 Z0.1984
G1 X41.3201 Y-24.4806 Z0.2031
G1 X41.3201 Y-24.4923 Z0.2091
G1 X41.3201 Y-24.5032 Z0.2162
G1 X41.3201 Y-24.5134 Z0.2245
G1 X41.3201 Y-24.5226 Z0.2337
G1 X41.3201 Y-24.5308 Z0.2439
G1 X41.3201 Y-24.5380 Z0.2548
G1 X41.3201 Y-24.5439 Z0.2665
G1 X41.3201 Y-24.5486 Z0.2787
G1 X41.3201 Y-24.5520 Z0.2913
G1 X41.3201 Y-24.5540 Z0.3042
G1 X41.3201 Y-24.5547 Z0.3173
G0 Z0.3826
G0 X41.1551 Y-22.8494 
G1 X41.1551 Y-22.8500 Z0.3703 F25.
G1 X41.1551 Y-22.8518 Z0.3582
G1 X41.1551 Y-22.8548 Z0.3463
G1 X41.1551 Y-22.8589 Z0.3347
G1 X41.1551 Y-22.8642 Z0.3236
G1 X41.1551 Y-22.8705 Z0.3131
G1 X41.1551 Y-22.8778 Z0.3033
G1 X41.1551 Y-22.8860 Z0.2942
G1 X41.1551 Y-22.8951 Z0.2859
G1 X41.1551 Y-22.9050 Z0.2786
G1 X41.1551 Y-22.9155 Z0.2723
G1 X41.1551 Y-22.9266 Z0.2671
G1 X41.1551 Y-22.9381 Z0.2629
G1 X41.1551 Y-22.9500 Z0.2600
G1 X41.1551 Y-22.9622 Z0.2582
G1 X41.1551 Y-22.9744 Z0.2576
G1 X41.1551 Y-23.1657 Z0.2575 F50.
G1 X41.1551 Y-23.2135 Z0.2575
G1 X41.1551 Y-23.2494 Z0.2573
G1 X41.1551 Y-23.2853 Z0.2570
G1 X41.1551 Y-23.3092 Z0.2568
G1 X41.1551 Y-23.3331 Z0.2565
G1 X41.1551 Y-23.3570 Z0.2561
G1 X41.1551 Y-23.3689 Z0.2559
G1 X41.1551 Y-23.4048 Z0.2553
G1 X41.1551 Y-23.4407 Z0.2546
G1 X41.1551 Y-23.4765 Z0.2537
G1 X41.1551 Y-23.5004 Z0.2531
G1 X41.1551 Y-23.5243 Z0.2524
G1 X41.1551 Y-23.5602 Z0.2513
G1 X41.1551 Y-23.5961 Z0.2501
G1 X41.1551 Y-23.6319 Z0.2488
G1 X41.1551 Y-23.6439 Z0.2483
G1 X41.1551 Y-23.6678 Z0.2474
G1 X41.1551 Y-23.6917 Z0.2463
G1 X41.1551 Y-23.7156 Z0.2453
G1 X41.1551 Y-23.7515 Z0.2436
G1 X41.1551 Y-23.7874 Z0.2418
G1 X41.1551 Y-23.8232 Z0.2399
G1 X41.1551 Y-23.8352 Z0.2393
G1 X41.1551 Y-23.8591 Z0.2379
G1 X41.1551 Y-23.8830 Z0.2365
G1 X41.1551 Y-23.9069 Z0.2351
G1 X41.1551 Y-23.9428 Z0.2329
G1 X41.1551 Y-23.9786 Z0.2305
G1 X41.1551 Y-24.0025 Z0.2289
G1 X41.1551 Y-24.0264 Z0.2272
G1 X41.1551 Y-24.0504 Z0.2255
G1 X41.1551 Y-24.0743 Z0.2237
G1 X41.1551 Y-24.0982 Z0.2219
G1 X41.1551 Y-24.1221 Z0.2200
G1 X41.1551 Y-24.1406 Z0.2185
G1 X41.1551 Y-24.1591 Z0.2170
G1 X41.1551 Y-24.1776 Z0.2155
G1 X41.1551 Y-24.1961 Z0.2139
G1 X41.1551 Y-24.2147 Z0.2123
G1 X41.1551 Y-24.2517 Z0.2090
G1 X41.1551 Y-24.2887 Z0.2056
G1 X41.1551 Y-24.3257 Z0.2021
G1 X41.1551 Y-24.3628 Z0.1985
G1 X41.1551 Y-24.3998 Z0.1947
G1 X41.1551 Y-24.4183 Z0.1928
G1 X41.1551 Y-24.4314 Z0.1921
G1 X41.1551 Y-24.4444 Z0.1928
G1 X41.1551 Y-24.4573 Z0.1949
G1 X41.1551 Y-24.4700 Z0.1983
G1 X41.1551 Y-24.4822 Z0.2030
G1 X41.1551 Y-24.4938 Z0.2089
G1 X41.1551 Y-24.5048 Z0.2160
G1 X41.1551 Y-24.5149 Z0.2243
G1 X41.1551 Y-24.5242 Z0.2335
G1 X41.1551 Y-24.5324 Z0.2437
G1 X41.1551 Y-24.5395 Z0.2547
G1 X41.1551 Y-24.5454 Z0.2663
G1 X41.1551 Y-24.5501 Z0.2785
G1 X41.1551 Y-24.5535 Z0.2912
G1 X41.1551 Y-24.5556 Z0.3041
G1 X41.1551 Y-24.5562 Z0.3171
G0 Z0.3826
G0 X40.9901 Y-22.8494 
G1 X40.9901 Y-22.8500 Z0.3703 F25.
G1 X40.9901 Y-22.8518 Z0.3582
G1 X40.9901 Y-22.8548 Z0.3463
G1 X40.9901 Y-22.8589 Z0.3347
G1 X40.9901 Y-22.8642 Z0.3236
G1 X40.9901 Y-22.8705 Z0.3131
G1 X40.9901 Y-22.8778 Z0.3033
G1 X40.9901 Y-22.8860 Z0.2942
G1 X40.9901 Y-22.8951 Z0.2859
G1 X40.9901 Y-22.9050 Z0.2786
G1 X40.9901 Y-22.9155 Z0.2723
G1 X40.9901 Y-22.9266 Z0.2671
G1 X40.9901 Y-22.9381 Z0.2629
G1 X40.9901 Y-22.9500 Z0.2600
G1 X40.9901 Y-22.9622 Z0.2582
G1 X40.9901 Y-22.9744 Z0.2576
G1 X40.9901 Y-23.1657 Z0.2575 F50.
G1 X40.9901 Y-23.2135 Z0.2575
G1 X40.9901 Y-23.2494 Z0.2573
G1 X40.9901 Y-23.2853 Z0.2570
G1 X40.9901 Y-23.3092 Z0.2568
G1 X40.9901 Y-23.3331 Z0.2565
G1 X40.9901 Y-23.3570 Z0.2561
G1 X40.9901 Y-23.3689 Z0.2559
G1 X40.9901 Y-23.4048 Z0.2553
G1 X40.9901 Y-23.4407 Z0.2546
G1 X40.9901 Y-23.4765 Z0.2537
G1 X40.9901 Y-23.5004 Z0.2531
G1 X40.9901 Y-23.5243 Z0.2524
G1 X40.9901 Y-23.5602 Z0.2513
G1 X40.9901 Y-23.5961 Z0.2501
G1 X40.9901 Y-23.6319 Z0.2488
G1 X40.9901 Y-23.6439 Z0.2483
G1 X40.9901 Y-23.6678 Z0.2474
G1 X40.9901 Y-23.6917 Z0.2463
G1 X40.9901 Y-23.7156 Z0.2453
G1 X40.9901 Y-23.7515 Z0.2436
G1 X40.9901 Y-23.7874 Z0.2418
G1 X40.9901 Y-23.8232 Z0.2399
G1 X40.9901 Y-23.8352 Z0.2393
G1 X40.9901 Y-23.8591 Z0.2379
G1 X40.9901 Y-23.8830 Z0.2365
G1 X40.9901 Y-23.9069 Z0.2351
G1 X40.9901 Y-23.9428 Z0.2329
G1 X40.9901 Y-23.9786 Z0.2305
G1 X40.9901 Y-24.0025 Z0.2289
G1 X40.9901 Y-24.0264 Z0.2272
G1 X40.9901 Y-24.0504 Z0.2255
G1 X40.9901 Y-24.0743 Z0.2237
G1 X40.9901 Y-24.0982 Z0.2219
G1 X40.9901 Y-24.1221 Z0.2200
G1 X40.9901 Y-24.1407 Z0.2185
G1 X40.9901 Y-24.1593 Z0.2170
G1 X40.9901 Y-24.1779 Z0.2154
G1 X40.9901 Y-24.1965 Z0.2138
G1 X40.9901 Y-24.2151 Z0.2123
G1 X40.9901 Y-24.2337 Z0.2106
G1 X40.9901 Y-24.2523 Z0.2090
G1 X40.9901 Y-24.2896 Z0.2055
G1 X40.9901 Y-24.3268 Z0.2020
G1 X40.9901 Y-24.3640 Z0.1984
G1 X40.9901 Y-24.4012 Z0.1946
G1 X40.9901 Y-24.4198 Z0.1926
G1 X40.9901 Y-24.4329 Z0.1920
G1 X40.9901 Y-24.4459 Z0.1927
G1 X40.9901 Y-24.4589 Z0.1947
G1 X40.9901 Y-24.4715 Z0.1981
G1 X40.9901 Y-24.4837 Z0.2028
G1 X40.9901 Y-24.4953 Z0.2087
G1 X40.9901 Y-24.5063 Z0.2159
G1 X40.9901 Y-24.5165 Z0.2241
G1 X40.9901 Y-24.5257 Z0.2334
G1 X40.9901 Y-24.5339 Z0.2435
G1 X40.9901 Y-24.5411 Z0.2545
G1 X40.9901 Y-24.5470 Z0.2661
G1 X40.9901 Y-24.5517 Z0.2784
G1 X40.9901 Y-24.5551 Z0.2910
G1 X40.9901 Y-24.5571 Z0.3039
G1 X40.9901 Y-24.5578 Z0.3170
G0 Z0.3826
G0 X40.8251 Y-22.8494 
G1 X40.8251 Y-22.8500 Z0.3703 F25.
G1 X40.8251 Y-22.8518 Z0.3582
G1 X40.8251 Y-22.8548 Z0.3463
G1 X40.8251 Y-22.8589 Z0.3347
G1 X40.8251 Y-22.8642 Z0.3236
G1 X40.8251 Y-22.8705 Z0.3131
G1 X40.8251 Y-22.8778 Z0.3033
G1 X40.8251 Y-22.8860 Z0.2942
G1 X40.8251 Y-22.8951 Z0.2859
G1 X40.8251 Y-22.9050 Z0.2786
G1 X40.8251 Y-22.9155 Z0.2723
G1 X40.8251 Y-22.9266 Z0.2671
G1 X40.8251 Y-22.9381 Z0.2629
G1 X40.8251 Y-22.9500 Z0.2600
G1 X40.8251 Y-22.9622 Z0.2582
G1 X40.8251 Y-22.9744 Z0.2576
G1 X40.8251 Y-23.1657 Z0.2575 F50.
G1 X40.8251 Y-23.2135 Z0.2575
G1 X40.8251 Y-23.2494 Z0.2573
G1 X40.8251 Y-23.2853 Z0.2570
G1 X40.8251 Y-23.3092 Z0.2568
G1 X40.8251 Y-23.3331 Z0.2565
G1 X40.8251 Y-23.3570 Z0.2561
G1 X40.8251 Y-23.3689 Z0.2559
G1 X40.8251 Y-23.4048 Z0.2553
G1 X40.8251 Y-23.4407 Z0.2546
G1 X40.8251 Y-23.4765 Z0.2537
G1 X40.8251 Y-23.5004 Z0.2531
G1 X40.8251 Y-23.5243 Z0.2524
G1 X40.8251 Y-23.5602 Z0.2513
G1 X40.8251 Y-23.5961 Z0.2501
G1 X40.8251 Y-23.6319 Z0.2488
G1 X40.8251 Y-23.6439 Z0.2483
G1 X40.8251 Y-23.6678 Z0.2474
G1 X40.8251 Y-23.6917 Z0.2463
G1 X40.8251 Y-23.7156 Z0.2453
G1 X40.8251 Y-23.7515 Z0.2436
G1 X40.8251 Y-23.7874 Z0.2418
G1 X40.8251 Y-23.8232 Z0.2399
G1 X40.8251 Y-23.8352 Z0.2393
G1 X40.8251 Y-23.8591 Z0.2379
G1 X40.8251 Y-23.8830 Z0.2365
G1 X40.8251 Y-23.9069 Z0.2351
G1 X40.8251 Y-23.9428 Z0.2329
G1 X40.8251 Y-23.9786 Z0.2305
G1 X40.8251 Y-24.0025 Z0.2289
G1 X40.8251 Y-24.0264 Z0.2272
G1 X40.8251 Y-24.0504 Z0.2255
G1 X40.8251 Y-24.0743 Z0.2237
G1 X40.8251 Y-24.0982 Z0.2219
G1 X40.8251 Y-24.1221 Z0.2200
G1 X40.8251 Y-24.1408 Z0.2185
G1 X40.8251 Y-24.1595 Z0.2170
G1 X40.8251 Y-24.1782 Z0.2154
G1 X40.8251 Y-24.1969 Z0.2138
G1 X40.8251 Y-24.2156 Z0.2122
G1 X40.8251 Y-24.2343 Z0.2106
G1 X40.8251 Y-24.2530 Z0.2089
G1 X40.8251 Y-24.2717 Z0.2072
G1 X40.8251 Y-24.2904 Z0.2055
G1 X40.8251 Y-24.3278 Z0.2019
G1 X40.8251 Y-24.3652 Z0.1982
G1 X40.8251 Y-24.4026 Z0.1944
G1 X40.8251 Y-24.4213 Z0.1925
G1 X40.8251 Y-24.4344 Z0.1918
G1 X40.8251 Y-24.4475 Z0.1925
G1 X40.8251 Y-24.4604 Z0.1946
G1 X40.8251 Y-24.4730 Z0.1979
G1 X40.8251 Y-24.4852 Z0.2026
G1 X40.8251 Y-24.4969 Z0.2086
G1 X40.8251 Y-24.5078 Z0.2157
G1 X40.8251 Y-24.5180 Z0.2239
G1 X40.8251 Y-24.5273 Z0.2332
G1 X40.8251 Y-24.5355 Z0.2434
G1 X40.8251 Y-24.5426 Z0.2543
G1 X40.8251 Y-24.5485 Z0.2660
G1 X40.8251 Y-24.5532 Z0.2782
G1 X40.8251 Y-24.5566 Z0.2908
G1 X40.8251 Y-24.5587 Z0.3037
G1 X40.8251 Y-24.5593 Z0.3168
G0 Z0.3826
G0 X40.6601 Y-22.8494 
G1 X40.6601 Y-22.8500 Z0.3703 F25.
G1 X40.6601 Y-22.8518 Z0.3582
G1 X40.6601 Y-22.8548 Z0.3463
G1 X40.6601 Y-22.8589 Z0.3347
G1 X40.6601 Y-22.8642 Z0.3236
G1 X40.6601 Y-22.8705 Z0.3131
G1 X40.6601 Y-22.8778 Z0.3033
G1 X40.6601 Y-22.8860 Z0.2942
G1 X40.6601 Y-22.8951 Z0.2859
G1 X40.6601 Y-22.9050 Z0.2786
G1 X40.6601 Y-22.9155 Z0.2723
G1 X40.6601 Y-22.9266 Z0.2671
G1 X40.6601 Y-22.9381 Z0.2629
G1 X40.6601 Y-22.9500 Z0.2600
G1 X40.6601 Y-22.9622 Z0.2582
G1 X40.6601 Y-22.9744 Z0.2576
G1 X40.6601 Y-23.1657 Z0.2575 F50.
G1 X40.6601 Y-23.2135 Z0.2575
G1 X40.6601 Y-23.2494 Z0.2573
G1 X40.6601 Y-23.2853 Z0.2570
G1 X40.6601 Y-23.3092 Z0.2568
G1 X40.6601 Y-23.3331 Z0.2565
G1 X40.6601 Y-23.3570 Z0.2561
