( MOP:  02-radius-r12Wolnick-AnyScale-final-start-NOMIRROR-01a )
( FILE: G:\Shared drives\AlloyProjectFiles\Customer CAD files\Alloy-Standard-Builds-CAM\Fingerboards-in\02-radius-r12Wolnick-AnyScale-final-start-NOMIRROR-01.nc)
G90
(  BEGIN TOOL LIST )
(  TOOL 3 - Downcut PT750 - DESC: 0.7500 DIA, 2 FLUTE,  CARBIDE MAT )
(  ENDOF TOOL LIST )
( 02-radius-r12Wolnick-AnyScale-final-start-NOMIRROR-01a)
T03
S14000
M3
G0 Z3.0000
G0 X25.3750 Y-22.7982 
G1 X25.3750 Y-22.7982 Z0.2640 F75.
G1 X47.3686 Y-22.7982 Z0.2312 F80.
G0 Z3.0000
G0 X47.3686 Y-22.7982 
( 02-radius-r12Wolnick-AnyScale-final-start-NOMIRROR-01b)
G0 Z3.0000
G0 X47.2601 Y-23.0750 
G1 X47.2601 Y-23.0750 Z0.3564 F110.
G1 X47.2601 Y-23.0756 Z0.3442 F25.
G1 X47.2601 Y-23.0774 Z0.3321
G1 X47.2601 Y-23.0804 Z0.3203
G1 X47.2601 Y-23.0845 Z0.3087
G1 X47.2601 Y-23.0897 Z0.2977
G1 X47.2601 Y-23.0960 Z0.2872
G1 X47.2601 Y-23.1033 Z0.2773
G1 X47.2601 Y-23.1114 Z0.2683
G1 X47.2601 Y-23.1205 Z0.2600
G1 X47.2601 Y-23.1303 Z0.2527
G1 X47.2601 Y-23.1408 Z0.2464
G1 X47.2601 Y-23.1518 Z0.2411
G1 X47.2601 Y-23.1633 Z0.2370
G1 X47.2601 Y-23.1751 Z0.2339
G1 X47.2601 Y-23.1872 Z0.2321
G1 X47.2601 Y-23.1994 Z0.2314
G1 X47.2601 Y-23.2405 Z0.2312 F50.
G1 X47.2601 Y-23.2855 Z0.2309
G1 X47.2601 Y-23.3254 Z0.2304
G1 X47.2601 Y-23.3650 Z0.2298
G1 X47.2601 Y-23.4031 Z0.2292
G1 X47.2601 Y-23.4426 Z0.2283
G1 X47.2601 Y-23.4807 Z0.2274
G1 X47.2601 Y-23.5203 Z0.2263
G1 X47.2601 Y-23.5584 Z0.2252
G1 X47.2601 Y-23.5965 Z0.2239
G1 X47.2601 Y-23.6360 Z0.2224
G1 X47.2601 Y-23.6741 Z0.2209
G1 X47.2601 Y-23.7122 Z0.2193
G1 X47.2601 Y-23.7503 Z0.2175
G1 X47.2601 Y-23.7884 Z0.2156
G1 X47.2601 Y-23.8279 Z0.2135
G1 X47.2601 Y-23.8660 Z0.2113
G1 X47.2601 Y-23.9041 Z0.2091
G1 X47.2601 Y-23.9422 Z0.2067
G1 X47.2601 Y-23.9803 Z0.2042
G1 X47.2601 Y-24.0199 Z0.2015
G1 X47.2601 Y-24.0579 Z0.1987
G1 X47.2601 Y-24.0960 Z0.1958
G1 X47.2601 Y-24.1341 Z0.1928
G1 X47.2601 Y-24.1722 Z0.1897
G1 X47.2601 Y-24.2103 Z0.1865
G1 X47.2601 Y-24.2484 Z0.1831
G1 X47.2601 Y-24.2865 Z0.1796
G1 X47.2601 Y-24.3258 Z0.1759
G1 X47.2601 Y-24.3619 Z0.1723
G1 X47.2601 Y-24.3749 Z0.1717
G1 X47.2601 Y-24.3880 Z0.1725
G1 X47.2601 Y-24.4008 Z0.1746
G1 X47.2601 Y-24.4134 Z0.1781
G1 X47.2601 Y-24.4255 Z0.1828
G1 X47.2601 Y-24.4371 Z0.1888
G1 X47.2601 Y-24.4480 Z0.1959
G1 X47.2601 Y-24.4581 Z0.2041
G1 X47.2601 Y-24.4673 Z0.2134
G1 X47.2601 Y-24.4754 Z0.2235
G1 X47.2601 Y-24.4825 Z0.2345
G1 X47.2601 Y-24.4884 Z0.2461
G1 X47.2601 Y-24.4931 Z0.2583
G1 X47.2601 Y-24.4964 Z0.2709
G1 X47.2601 Y-24.4984 Z0.2837
G1 X47.2601 Y-24.4991 Z0.2967
G0 Z0.3567
G0 X47.0951 Y-23.0750 
G1 X47.0951 Y-23.0756 Z0.3445 F25.
G1 X47.0951 Y-23.0774 Z0.3324
G1 X47.0951 Y-23.0804 Z0.3205
G1 X47.0951 Y-23.0845 Z0.3090
G1 X47.0951 Y-23.0897 Z0.2979
G1 X47.0951 Y-23.0960 Z0.2874
G1 X47.0951 Y-23.1033 Z0.2776
G1 X47.0951 Y-23.1114 Z0.2685
G1 X47.0951 Y-23.1205 Z0.2603
G1 X47.0951 Y-23.1303 Z0.2530
G1 X47.0951 Y-23.1408 Z0.2466
G1 X47.0951 Y-23.1518 Z0.2414
G1 X47.0951 Y-23.1633 Z0.2372
G1 X47.0951 Y-23.1751 Z0.2342
G1 X47.0951 Y-23.1872 Z0.2323
G1 X47.0951 Y-23.1994 Z0.2317
G1 X47.0951 Y-23.2405 Z0.2315 F50.
G1 X47.0951 Y-23.2855 Z0.2311
G1 X47.0951 Y-23.3254 Z0.2307
G1 X47.0951 Y-23.3650 Z0.2301
G1 X47.0951 Y-23.4031 Z0.2294
G1 X47.0951 Y-23.4426 Z0.2286
G1 X47.0951 Y-23.4807 Z0.2277
G1 X47.0951 Y-23.5203 Z0.2266
G1 X47.0951 Y-23.5584 Z0.2254
G1 X47.0951 Y-23.5965 Z0.2241
G1 X47.0951 Y-23.6360 Z0.2227
G1 X47.0951 Y-23.6741 Z0.2212
G1 X47.0951 Y-23.7122 Z0.2195
G1 X47.0951 Y-23.7503 Z0.2177
G1 X47.0951 Y-23.7884 Z0.2158
G1 X47.0951 Y-23.8279 Z0.2137
G1 X47.0951 Y-23.8660 Z0.2116
G1 X47.0951 Y-23.9041 Z0.2093
G1 X47.0951 Y-23.9422 Z0.2069
G1 X47.0951 Y-23.9803 Z0.2044
G1 X47.0951 Y-24.0199 Z0.2017
G1 X47.0951 Y-24.0579 Z0.1989
G1 X47.0951 Y-24.0960 Z0.1961
G1 X47.0951 Y-24.1341 Z0.1931
G1 X47.0951 Y-24.1722 Z0.1899
G1 X47.0951 Y-24.2103 Z0.1867
G1 X47.0951 Y-24.2484 Z0.1833
G1 X47.0951 Y-24.2865 Z0.1799
G1 X47.0951 Y-24.3246 Z0.1762
G1 X47.0951 Y-24.3635 Z0.1724
G1 X47.0951 Y-24.3765 Z0.1718
G1 X47.0951 Y-24.3895 Z0.1726
G1 X47.0951 Y-24.4023 Z0.1747
G1 X47.0951 Y-24.4149 Z0.1782
G1 X47.0951 Y-24.4270 Z0.1829
G1 X47.0951 Y-24.4386 Z0.1889
G1 X47.0951 Y-24.4495 Z0.1960
G1 X47.0951 Y-24.4596 Z0.2042
G1 X47.0951 Y-24.4688 Z0.2135
G1 X47.0951 Y-24.4770 Z0.2236
G1 X47.0951 Y-24.4840 Z0.2346
G1 X47.0951 Y-24.4899 Z0.2462
G1 X47.0951 Y-24.4946 Z0.2584
G1 X47.0951 Y-24.4979 Z0.2710
G1 X47.0951 Y-24.5000 Z0.2838
G1 X47.0951 Y-24.5007 Z0.2968
G0 Z0.3569
G0 X46.9301 Y-23.0750 
G1 X46.9301 Y-23.0756 Z0.3447 F25.
G1 X46.9301 Y-23.0774 Z0.3326
G1 X46.9301 Y-23.0804 Z0.3208
G1 X46.9301 Y-23.0845 Z0.3092
G1 X46.9301 Y-23.0897 Z0.2982
G1 X46.9301 Y-23.0960 Z0.2877
G1 X46.9301 Y-23.1033 Z0.2778
G1 X46.9301 Y-23.1114 Z0.2688
G1 X46.9301 Y-23.1205 Z0.2605
G1 X46.9301 Y-23.1303 Z0.2532
G1 X46.9301 Y-23.1408 Z0.2469
G1 X46.9301 Y-23.1518 Z0.2416
G1 X46.9301 Y-23.1633 Z0.2375
G1 X46.9301 Y-23.1751 Z0.2344
G1 X46.9301 Y-23.1872 Z0.2326
G1 X46.9301 Y-23.1994 Z0.2319
G1 X46.9301 Y-23.2405 Z0.2317 F50.
G1 X46.9301 Y-23.2855 Z0.2314
G1 X46.9301 Y-23.3254 Z0.2309
G1 X46.9301 Y-23.3650 Z0.2303
G1 X46.9301 Y-23.4031 Z0.2297
G1 X46.9301 Y-23.4426 Z0.2288
G1 X46.9301 Y-23.4807 Z0.2279
G1 X46.9301 Y-23.5203 Z0.2268
G1 X46.9301 Y-23.5584 Z0.2257
G1 X46.9301 Y-23.5965 Z0.2244
G1 X46.9301 Y-23.6360 Z0.2229
G1 X46.9301 Y-23.6741 Z0.2214
G1 X46.9301 Y-23.7122 Z0.2197
G1 X46.9301 Y-23.7503 Z0.2180
G1 X46.9301 Y-23.7884 Z0.2161
G1 X46.9301 Y-23.8279 Z0.2140
G1 X46.9301 Y-23.8660 Z0.2118
G1 X46.9301 Y-23.9041 Z0.2096
G1 X46.9301 Y-23.9422 Z0.2072
G1 X46.9301 Y-23.9803 Z0.2047
G1 X46.9301 Y-24.0199 Z0.2019
G1 X46.9301 Y-24.0579 Z0.1992
G1 X46.9301 Y-24.0960 Z0.1963
G1 X46.9301 Y-24.1341 Z0.1933
G1 X46.9301 Y-24.1722 Z0.1902
G1 X46.9301 Y-24.2103 Z0.1870
G1 X46.9301 Y-24.2484 Z0.1836
G1 X46.9301 Y-24.2865 Z0.1801
G1 X46.9301 Y-24.3246 Z0.1765
G1 X46.9301 Y-24.3650 Z0.1725
G1 X46.9301 Y-24.3780 Z0.1719
G1 X46.9301 Y-24.3910 Z0.1727
G1 X46.9301 Y-24.4039 Z0.1748
G1 X46.9301 Y-24.4164 Z0.1782
G1 X46.9301 Y-24.4286 Z0.1830
G1 X46.9301 Y-24.4402 Z0.1889
G1 X46.9301 Y-24.4511 Z0.1961
G1 X46.9301 Y-24.4612 Z0.2043
G1 X46.9301 Y-24.4703 Z0.2136
G1 X46.9301 Y-24.4785 Z0.2237
G1 X46.9301 Y-24.4856 Z0.2347
G1 X46.9301 Y-24.4915 Z0.2463
G1 X46.9301 Y-24.4961 Z0.2584
G1 X46.9301 Y-24.4995 Z0.2710
G1 X46.9301 Y-24.5015 Z0.2839
G1 X46.9301 Y-24.5022 Z0.2969
G0 Z0.3572
G0 X46.7651 Y-23.0750 
G1 X46.7651 Y-23.0756 Z0.3450 F25.
G1 X46.7651 Y-23.0774 Z0.3329
G1 X46.7651 Y-23.0804 Z0.3210
G1 X46.7651 Y-23.0845 Z0.3095
G1 X46.7651 Y-23.0897 Z0.2984
G1 X46.7651 Y-23.0960 Z0.2879
G1 X46.7651 Y-23.1033 Z0.2781
G1 X46.7651 Y-23.1114 Z0.2690
G1 X46.7651 Y-23.1205 Z0.2608
G1 X46.7651 Y-23.1303 Z0.2535
G1 X46.7651 Y-23.1408 Z0.2471
G1 X46.7651 Y-23.1518 Z0.2419
G1 X46.7651 Y-23.1633 Z0.2377
G1 X46.7651 Y-23.1751 Z0.2347
G1 X46.7651 Y-23.1872 Z0.2328
G1 X46.7651 Y-23.1994 Z0.2322
G1 X46.7651 Y-23.2405 Z0.2320 F50.
G1 X46.7651 Y-23.2855 Z0.2316
G1 X46.7651 Y-23.3254 Z0.2312
G1 X46.7651 Y-23.3650 Z0.2306
G1 X46.7651 Y-23.4031 Z0.2299
G1 X46.7651 Y-23.4426 Z0.2291
G1 X46.7651 Y-23.4807 Z0.2282
G1 X46.7651 Y-23.5203 Z0.2271
G1 X46.7651 Y-23.5584 Z0.2259
G1 X46.7651 Y-23.5965 Z0.2246
G1 X46.7651 Y-23.6360 Z0.2232
G1 X46.7651 Y-23.6741 Z0.2216
G1 X46.7651 Y-23.7122 Z0.2200
G1 X46.7651 Y-23.7503 Z0.2182
G1 X46.7651 Y-23.7884 Z0.2163
G1 X46.7651 Y-23.8279 Z0.2142
G1 X46.7651 Y-23.8660 Z0.2121
G1 X46.7651 Y-23.9041 Z0.2098
G1 X46.7651 Y-23.9422 Z0.2074
G1 X46.7651 Y-23.9803 Z0.2049
G1 X46.7651 Y-24.0199 Z0.2022
G1 X46.7651 Y-24.0579 Z0.1994
G1 X46.7651 Y-24.0960 Z0.1966
G1 X46.7651 Y-24.1341 Z0.1936
G1 X46.7651 Y-24.1722 Z0.1904
G1 X46.7651 Y-24.2103 Z0.1872
G1 X46.7651 Y-24.2484 Z0.1838
G1 X46.7651 Y-24.2865 Z0.1803
G1 X46.7651 Y-24.3246 Z0.1767
G1 X46.7651 Y-24.3665 Z0.1726
G1 X46.7651 Y-24.3795 Z0.1720
G1 X46.7651 Y-24.3925 Z0.1728
G1 X46.7651 Y-24.4054 Z0.1749
G1 X46.7651 Y-24.4180 Z0.1783
G1 X46.7651 Y-24.4301 Z0.1831
G1 X46.7651 Y-24.4417 Z0.1890
G1 X46.7651 Y-24.4526 Z0.1962
G1 X46.7651 Y-24.4627 Z0.2044
G1 X46.7651 Y-24.4719 Z0.2136
G1 X46.7651 Y-24.4800 Z0.2238
G1 X46.7651 Y-24.4871 Z0.2347
G1 X46.7651 Y-24.4930 Z0.2464
G1 X46.7651 Y-24.4977 Z0.2585
G1 X46.7651 Y-24.5010 Z0.2711
G1 X46.7651 Y-24.5031 Z0.2840
G1 X46.7651 Y-24.5037 Z0.2970
G0 Z0.3574
G0 X46.6001 Y-23.0750 
G1 X46.6001 Y-23.0756 Z0.3452 F25.
G1 X46.6001 Y-23.0774 Z0.3331
G1 X46.6001 Y-23.0804 Z0.3212
G1 X46.6001 Y-23.0845 Z0.3097
G1 X46.6001 Y-23.0897 Z0.2987
G1 X46.6001 Y-23.0960 Z0.2882
G1 X46.6001 Y-23.1033 Z0.2783
G1 X46.6001 Y-23.1114 Z0.2693
G1 X46.6001 Y-23.1205 Z0.2610
G1 X46.6001 Y-23.1303 Z0.2537
G1 X46.6001 Y-23.1408 Z0.2474
G1 X46.6001 Y-23.1518 Z0.2421
G1 X46.6001 Y-23.1633 Z0.2380
G1 X46.6001 Y-23.1751 Z0.2349
G1 X46.6001 Y-23.1872 Z0.2331
G1 X46.6001 Y-23.1994 Z0.2324
G1 X46.6001 Y-23.2405 Z0.2322 F50.
G1 X46.6001 Y-23.2855 Z0.2319
G1 X46.6001 Y-23.3254 Z0.2314
G1 X46.6001 Y-23.3650 Z0.2308
G1 X46.6001 Y-23.4031 Z0.2302
G1 X46.6001 Y-23.4426 Z0.2293
G1 X46.6001 Y-23.4807 Z0.2284
G1 X46.6001 Y-23.5203 Z0.2273
G1 X46.6001 Y-23.5584 Z0.2262
G1 X46.6001 Y-23.5965 Z0.2249
G1 X46.6001 Y-23.6360 Z0.2234
G1 X46.6001 Y-23.6741 Z0.2219
G1 X46.6001 Y-23.7122 Z0.2202
G1 X46.6001 Y-23.7503 Z0.2185
G1 X46.6001 Y-23.7884 Z0.2166
G1 X46.6001 Y-23.8279 Z0.2145
G1 X46.6001 Y-23.8660 Z0.2123
G1 X46.6001 Y-23.9041 Z0.2101
G1 X46.6001 Y-23.9422 Z0.2077
G1 X46.6001 Y-23.9803 Z0.2052
G1 X46.6001 Y-24.0199 Z0.2024
G1 X46.6001 Y-24.0579 Z0.1997
G1 X46.6001 Y-24.0960 Z0.1968
G1 X46.6001 Y-24.1341 Z0.1938
G1 X46.6001 Y-24.1722 Z0.1907
G1 X46.6001 Y-24.2103 Z0.1874
G1 X46.6001 Y-24.2484 Z0.1841
G1 X46.6001 Y-24.2865 Z0.1806
G1 X46.6001 Y-24.3246 Z0.1770
G1 X46.6001 Y-24.3680 Z0.1727
G1 X46.6001 Y-24.3810 Z0.1721
G1 X46.6001 Y-24.3941 Z0.1729
G1 X46.6001 Y-24.4069 Z0.1750
G1 X46.6001 Y-24.4195 Z0.1784
G1 X46.6001 Y-24.4316 Z0.1831
G1 X46.6001 Y-24.4432 Z0.1891
G1 X46.6001 Y-24.4541 Z0.1963
G1 X46.6001 Y-24.4642 Z0.2045
G1 X46.6001 Y-24.4734 Z0.2137
G1 X46.6001 Y-24.4816 Z0.2239
G1 X46.6001 Y-24.4886 Z0.2348
G1 X46.6001 Y-24.4945 Z0.2465
G1 X46.6001 Y-24.4992 Z0.2586
G1 X46.6001 Y-24.5026 Z0.2712
G1 X46.6001 Y-24.5046 Z0.2841
G1 X46.6001 Y-24.5053 Z0.2971
G0 Z0.3577
G0 X46.4351 Y-23.0750 
G1 X46.4351 Y-23.0756 Z0.3455 F25.
G1 X46.4351 Y-23.0774 Z0.3334
G1 X46.4351 Y-23.0804 Z0.3215
G1 X46.4351 Y-23.0845 Z0.3100
G1 X46.4351 Y-23.0897 Z0.2989
G1 X46.4351 Y-23.0960 Z0.2884
G1 X46.4351 Y-23.1033 Z0.2786
G1 X46.4351 Y-23.1114 Z0.2695
G1 X46.4351 Y-23.1205 Z0.2613
G1 X46.4351 Y-23.1303 Z0.2540
G1 X46.4351 Y-23.1408 Z0.2476
G1 X46.4351 Y-23.1518 Z0.2424
G1 X46.4351 Y-23.1633 Z0.2382
G1 X46.4351 Y-23.1751 Z0.2352
G1 X46.4351 Y-23.1872 Z0.2333
G1 X46.4351 Y-23.1994 Z0.2327
G1 X46.4351 Y-23.2405 Z0.2325 F50.
G1 X46.4351 Y-23.2855 Z0.2321
G1 X46.4351 Y-23.3254 Z0.2317
G1 X46.4351 Y-23.3650 Z0.2311
G1 X46.4351 Y-23.4031 Z0.2304
G1 X46.4351 Y-23.4426 Z0.2296
G1 X46.4351 Y-23.4807 Z0.2287
G1 X46.4351 Y-23.5203 Z0.2276
G1 X46.4351 Y-23.5584 Z0.2264
G1 X46.4351 Y-23.5965 Z0.2251
G1 X46.4351 Y-23.6360 Z0.2237
G1 X46.4351 Y-23.6741 Z0.2221
G1 X46.4351 Y-23.7122 Z0.2205
G1 X46.4351 Y-23.7503 Z0.2187
G1 X46.4351 Y-23.7884 Z0.2168
G1 X46.4351 Y-23.8279 Z0.2147
G1 X46.4351 Y-23.8660 Z0.2126
G1 X46.4351 Y-23.9041 Z0.2103
G1 X46.4351 Y-23.9422 Z0.2079
G1 X46.4351 Y-23.9803 Z0.2054
G1 X46.4351 Y-24.0199 Z0.2027
G1 X46.4351 Y-24.0579 Z0.1999
G1 X46.4351 Y-24.0960 Z0.1971
G1 X46.4351 Y-24.1341 Z0.1941
G1 X46.4351 Y-24.1722 Z0.1909
G1 X46.4351 Y-24.2103 Z0.1877
G1 X46.4351 Y-24.2484 Z0.1843
G1 X46.4351 Y-24.2865 Z0.1808
G1 X46.4351 Y-24.3260 Z0.1771
G1 X46.4351 Y-24.3639 Z0.1734
G1 X46.4351 Y-24.3695 Z0.1728
G1 X46.4351 Y-24.3826 Z0.1722
G1 X46.4351 Y-24.3956 Z0.1729
G1 X46.4351 Y-24.4085 Z0.1750
G1 X46.4351 Y-24.4211 Z0.1784
G1 X46.4351 Y-24.4333 Z0.1831
G1 X46.4351 Y-24.4449 Z0.1891
G1 X46.4351 Y-24.4558 Z0.1962
G1 X46.4351 Y-24.4660 Z0.2044
G1 X46.4351 Y-24.4752 Z0.2137
G1 X46.4351 Y-24.4834 Z0.2238
G1 X46.4351 Y-24.4905 Z0.2348
G1 X46.4351 Y-24.4964 Z0.2464
G1 X46.4351 Y-24.5011 Z0.2586
G1 X46.4351 Y-24.5044 Z0.2712
G1 X46.4351 Y-24.5065 Z0.2841
G1 X46.4351 Y-24.5071 Z0.2972
G0 Z0.3579
G0 X46.2701 Y-23.0750 
G1 X46.2701 Y-23.0756 Z0.3457 F25.
G1 X46.2701 Y-23.0774 Z0.3336
G1 X46.2701 Y-23.0804 Z0.3217
G1 X46.2701 Y-23.0845 Z0.3102
G1 X46.2701 Y-23.0897 Z0.2992
G1 X46.2701 Y-23.0960 Z0.2887
G1 X46.2701 Y-23.1033 Z0.2788
G1 X46.2701 Y-23.1114 Z0.2697
G1 X46.2701 Y-23.1205 Z0.2615
G1 X46.2701 Y-23.1303 Z0.2542
G1 X46.2701 Y-23.1408 Z0.2479
G1 X46.2701 Y-23.1518 Z0.2426
G1 X46.2701 Y-23.1633 Z0.2384
G1 X46.2701 Y-23.1751 Z0.2354
G1 X46.2701 Y-23.1872 Z0.2336
G1 X46.2701 Y-23.1994 Z0.2329
G1 X46.2701 Y-23.2405 Z0.2327 F50.
G1 X46.2701 Y-23.2855 Z0.2324
G1 X46.2701 Y-23.3254 Z0.2319
G1 X46.2701 Y-23.3650 Z0.2313
G1 X46.2701 Y-23.4031 Z0.2307
G1 X46.2701 Y-23.4426 Z0.2298
G1 X46.2701 Y-23.4807 Z0.2289
G1 X46.2701 Y-23.5203 Z0.2278
G1 X46.2701 Y-23.5584 Z0.2267
G1 X46.2701 Y-23.5965 Z0.2254
G1 X46.2701 Y-23.6360 Z0.2239
G1 X46.2701 Y-23.6741 Z0.2224
G1 X46.2701 Y-23.7122 Z0.2207
G1 X46.2701 Y-23.7503 Z0.2190
G1 X46.2701 Y-23.7884 Z0.2171
G1 X46.2701 Y-23.8279 Z0.2150
G1 X46.2701 Y-23.8660 Z0.2128
G1 X46.2701 Y-23.9041 Z0.2106
G1 X46.2701 Y-23.9422 Z0.2082
G1 X46.2701 Y-23.9803 Z0.2057
G1 X46.2701 Y-24.0199 Z0.2029
G1 X46.2701 Y-24.0579 Z0.2002
G1 X46.2701 Y-24.0960 Z0.1973
G1 X46.2701 Y-24.1341 Z0.1943
G1 X46.2701 Y-24.1722 Z0.1912
G1 X46.2701 Y-24.2103 Z0.1879
G1 X46.2701 Y-24.2484 Z0.1846
G1 X46.2701 Y-24.2865 Z0.1811
G1 X46.2701 Y-24.3260 Z0.1773
G1 X46.2701 Y-24.3638 Z0.1736
G1 X46.2701 Y-24.3711 Z0.1729
G1 X46.2701 Y-24.3841 Z0.1723
G1 X46.2701 Y-24.3971 Z0.1730
G1 X46.2701 Y-24.4100 Z0.1751
G1 X46.2701 Y-24.4226 Z0.1785
G1 X46.2701 Y-24.4348 Z0.1832
G1 X46.2701 Y-24.4464 Z0.1892
G1 X46.2701 Y-24.4574 Z0.1963
G1 X46.2701 Y-24.4675 Z0.2045
G1 X46.2701 Y-24.4767 Z0.2138
G1 X46.2701 Y-24.4849 Z0.2239
G1 X46.2701 Y-24.4920 Z0.2349
G1 X46.2701 Y-24.4979 Z0.2465
G1 X46.2701 Y-24.5026 Z0.2587
G1 X46.2701 Y-24.5059 Z0.2713
G1 X46.2701 Y-24.5080 Z0.2842
G1 X46.2701 Y-24.5087 Z0.2973
G0 Z0.3582
G0 X46.1051 Y-23.0750 
G1 X46.1051 Y-23.0756 Z0.3460 F25.
G1 X46.1051 Y-23.0774 Z0.3339
G1 X46.1051 Y-23.0804 Z0.3220
G1 X46.1051 Y-23.0845 Z0.3105
G1 X46.1051 Y-23.0897 Z0.2994
G1 X46.1051 Y-23.0960 Z0.2889
G1 X46.1051 Y-23.1033 Z0.2791
G1 X46.1051 Y-23.1114 Z0.2700
G1 X46.1051 Y-23.1205 Z0.2618
G1 X46.1051 Y-23.1303 Z0.2544
G1 X46.1051 Y-23.1408 Z0.2481
G1 X46.1051 Y-23.1518 Z0.2429
G1 X46.1051 Y-23.1633 Z0.2387
G1 X46.1051 Y-23.1751 Z0.2357
G1 X46.1051 Y-23.1872 Z0.2338
G1 X46.1051 Y-23.1994 Z0.2332
G1 X46.1051 Y-23.2405 Z0.2330 F50.
G1 X46.1051 Y-23.2855 Z0.2326
G1 X46.1051 Y-23.3254 Z0.2321
G1 X46.1051 Y-23.3650 Z0.2316
G1 X46.1051 Y-23.4031 Z0.2309
G1 X46.1051 Y-23.4426 Z0.2301
G1 X46.1051 Y-23.4807 Z0.2292
G1 X46.1051 Y-23.5203 Z0.2281
G1 X46.1051 Y-23.5584 Z0.2269
G1 X46.1051 Y-23.5965 Z0.2256
G1 X46.1051 Y-23.6360 Z0.2242
G1 X46.1051 Y-23.6741 Z0.2226
G1 X46.1051 Y-23.7122 Z0.2210
G1 X46.1051 Y-23.7503 Z0.2192
G1 X46.1051 Y-23.7884 Z0.2173
G1 X46.1051 Y-23.8279 Z0.2152
G1 X46.1051 Y-23.8660 Z0.2131
G1 X46.1051 Y-23.9041 Z0.2108
G1 X46.1051 Y-23.9422 Z0.2084
G1 X46.1051 Y-23.9803 Z0.2059
G1 X46.1051 Y-24.0199 Z0.2032
G1 X46.1051 Y-24.0579 Z0.2004
G1 X46.1051 Y-24.0960 Z0.1975
G1 X46.1051 Y-24.1341 Z0.1945
G1 X46.1051 Y-24.1722 Z0.1914
G1 X46.1051 Y-24.2103 Z0.1882
G1 X46.1051 Y-24.2484 Z0.1848
G1 X46.1051 Y-24.2865 Z0.1813
G1 X46.1051 Y-24.3261 Z0.1776
G1 X46.1051 Y-24.3636 Z0.1739
G1 X46.1051 Y-24.3726 Z0.1730
G1 X46.1051 Y-24.3856 Z0.1723
G1 X46.1051 Y-24.3987 Z0.1731
G1 X46.1051 Y-24.4116 Z0.1752
G1 X46.1051 Y-24.4242 Z0.1786
G1 X46.1051 Y-24.4363 Z0.1833
G1 X46.1051 Y-24.4479 Z0.1892
G1 X46.1051 Y-24.4589 Z0.1964
G1 X46.1051 Y-24.4690 Z0.2046
G1 X46.1051 Y-24.4782 Z0.2139
G1 X46.1051 Y-24.4864 Z0.2240
G1 X46.1051 Y-24.4935 Z0.2350
G1 X46.1051 Y-24.4994 Z0.2466
G1 X46.1051 Y-24.5041 Z0.2588
G1 X46.1051 Y-24.5075 Z0.2714
G1 X46.1051 Y-24.5095 Z0.2843
G1 X46.1051 Y-24.5102 Z0.2973
G0 Z0.3584
G0 X45.9401 Y-23.0750 
G1 X45.9401 Y-23.0756 Z0.3462 F25.
G1 X45.9401 Y-23.0774 Z0.3341
G1 X45.9401 Y-23.0804 Z0.3222
G1 X45.9401 Y-23.0845 Z0.3107
G1 X45.9401 Y-23.0897 Z0.2997
G1 X45.9401 Y-23.0960 Z0.2892
G1 X45.9401 Y-23.1033 Z0.2793
G1 X45.9401 Y-23.1114 Z0.2702
G1 X45.9401 Y-23.1205 Z0.2620
G1 X45.9401 Y-23.1303 Z0.2547
G1 X45.9401 Y-23.1408 Z0.2484
G1 X45.9401 Y-23.1518 Z0.2431
G1 X45.9401 Y-23.1633 Z0.2389
G1 X45.9401 Y-23.1751 Z0.2359
G1 X45.9401 Y-23.1872 Z0.2341
G1 X45.9401 Y-23.1994 Z0.2334
G1 X45.9401 Y-23.2405 Z0.2332 F50.
G1 X45.9401 Y-23.2855 Z0.2328
G1 X45.9401 Y-23.3254 Z0.2324
G1 X45.9401 Y-23.3650 Z0.2318
G1 X45.9401 Y-23.4031 Z0.2311
G1 X45.9401 Y-23.4426 Z0.2303
G1 X45.9401 Y-23.4807 Z0.2294
G1 X45.9401 Y-23.5203 Z0.2283
G1 X45.9401 Y-23.5584 Z0.2272
G1 X45.9401 Y-23.5965 Z0.2259
G1 X45.9401 Y-23.6360 Z0.2244
G1 X45.9401 Y-23.6741 Z0.2229
G1 X45.9401 Y-23.7122 Z0.2212
G1 X45.9401 Y-23.7503 Z0.2195
G1 X45.9401 Y-23.7884 Z0.2176
G1 X45.9401 Y-23.8279 Z0.2155
G1 X45.9401 Y-23.8660 Z0.2133
G1 X45.9401 Y-23.9041 Z0.2111
G1 X45.9401 Y-23.9422 Z0.2087
G1 X45.9401 Y-23.9803 Z0.2062
G1 X45.9401 Y-24.0199 Z0.2034
G1 X45.9401 Y-24.0579 Z0.2007
G1 X45.9401 Y-24.0960 Z0.1978
G1 X45.9401 Y-24.1341 Z0.1948
G1 X45.9401 Y-24.1722 Z0.1917
G1 X45.9401 Y-24.2103 Z0.1884
G1 X45.9401 Y-24.2484 Z0.1851
G1 X45.9401 Y-24.2865 Z0.1816
G1 X45.9401 Y-24.3261 Z0.1778
G1 X45.9401 Y-24.3633 Z0.1742
G1 X45.9401 Y-24.3741 Z0.1731
G1 X45.9401 Y-24.3872 Z0.1724
G1 X45.9401 Y-24.4002 Z0.1732
G1 X45.9401 Y-24.4131 Z0.1753
G1 X45.9401 Y-24.4257 Z0.1787
G1 X45.9401 Y-24.4379 Z0.1834
G1 X45.9401 Y-24.4495 Z0.1893
G1 X45.9401 Y-24.4604 Z0.1965
G1 X45.9401 Y-24.4705 Z0.2047
G1 X45.9401 Y-24.4797 Z0.2140
G1 X45.9401 Y-24.4879 Z0.2241
G1 X45.9401 Y-24.4950 Z0.2351
G1 X45.9401 Y-24.5010 Z0.2467
G1 X45.9401 Y-24.5056 Z0.2589
G1 X45.9401 Y-24.5090 Z0.2715
G1 X45.9401 Y-24.5110 Z0.2844
G1 X45.9401 Y-24.5117 Z0.2974
G0 Z0.3587
G0 X45.7751 Y-23.0750 
G1 X45.7751 Y-23.0756 Z0.3464 F25.
G1 X45.7751 Y-23.0774 Z0.3343
G1 X45.7751 Y-23.0804 Z0.3225
G1 X45.7751 Y-23.0845 Z0.3110
G1 X45.7751 Y-23.0897 Z0.2999
G1 X45.7751 Y-23.0960 Z0.2894
G1 X45.7751 Y-23.1033 Z0.2796
G1 X45.7751 Y-23.1114 Z0.2705
G1 X45.7751 Y-23.1205 Z0.2623
G1 X45.7751 Y-23.1303 Z0.2549
G1 X45.7751 Y-23.1408 Z0.2486
G1 X45.7751 Y-23.1518 Z0.2434
G1 X45.7751 Y-23.1633 Z0.2392
G1 X45.7751 Y-23.1751 Z0.2362
G1 X45.7751 Y-23.1872 Z0.2343
G1 X45.7751 Y-23.1994 Z0.2337
G1 X45.7751 Y-23.2405 Z0.2335 F50.
G1 X45.7751 Y-23.2855 Z0.2331
G1 X45.7751 Y-23.3254 Z0.2326
G1 X45.7751 Y-23.3650 Z0.2321
G1 X45.7751 Y-23.4031 Z0.2314
G1 X45.7751 Y-23.4426 Z0.2306
G1 X45.7751 Y-23.4807 Z0.2297
G1 X45.7751 Y-23.5203 Z0.2286
G1 X45.7751 Y-23.5584 Z0.2274
G1 X45.7751 Y-23.5965 Z0.2261
G1 X45.7751 Y-23.6360 Z0.2247
G1 X45.7751 Y-23.6741 Z0.2231
G1 X45.7751 Y-23.7122 Z0.2215
G1 X45.7751 Y-23.7503 Z0.2197
G1 X45.7751 Y-23.7884 Z0.2178
G1 X45.7751 Y-23.8279 Z0.2157
G1 X45.7751 Y-23.8660 Z0.2136
G1 X45.7751 Y-23.9041 Z0.2113
G1 X45.7751 Y-23.9422 Z0.2089
G1 X45.7751 Y-23.9803 Z0.2064
G1 X45.7751 Y-24.0199 Z0.2037
G1 X45.7751 Y-24.0579 Z0.2009
G1 X45.7751 Y-24.0960 Z0.1980
G1 X45.7751 Y-24.1341 Z0.1950
G1 X45.7751 Y-24.1722 Z0.1919
G1 X45.7751 Y-24.2103 Z0.1887
G1 X45.7751 Y-24.2484 Z0.1853
G1 X45.7751 Y-24.2865 Z0.1818
G1 X45.7751 Y-24.3262 Z0.1781
G1 X45.7751 Y-24.3645 Z0.1743
G1 X45.7751 Y-24.3756 Z0.1732
G1 X45.7751 Y-24.3887 Z0.1725
G1 X45.7751 Y-24.4017 Z0.1733
G1 X45.7751 Y-24.4146 Z0.1753
G1 X45.7751 Y-24.4272 Z0.1788
G1 X45.7751 Y-24.4394 Z0.1835
G1 X45.7751 Y-24.4510 Z0.1894
G1 X45.7751 Y-24.4619 Z0.1966
G1 X45.7751 Y-24.4721 Z0.2048
G1 X45.7751 Y-24.4813 Z0.2140
G1 X45.7751 Y-24.4895 Z0.2242
G1 X45.7751 Y-24.4966 Z0.2352
G1 X45.7751 Y-24.5025 Z0.2468
G1 X45.7751 Y-24.5071 Z0.2590
G1 X45.7751 Y-24.5105 Z0.2716
G1 X45.7751 Y-24.5126 Z0.2845
G1 X45.7751 Y-24.5132 Z0.2975
G0 Z0.3589
G0 X45.6101 Y-23.0750 
G1 X45.6101 Y-23.0756 Z0.3467 F25.
G1 X45.6101 Y-23.0774 Z0.3346
G1 X45.6101 Y-23.0804 Z0.3227
G1 X45.6101 Y-23.0845 Z0.3112
G1 X45.6101 Y-23.0897 Z0.3001
G1 X45.6101 Y-23.0960 Z0.2897
G1 X45.6101 Y-23.1033 Z0.2798
G1 X45.6101 Y-23.1114 Z0.2707
G1 X45.6101 Y-23.1205 Z0.2625
G1 X45.6101 Y-23.1303 Z0.2552
G1 X45.6101 Y-23.1408 Z0.2489
G1 X45.6101 Y-23.1518 Z0.2436
G1 X45.6101 Y-23.1633 Z0.2394
G1 X45.6101 Y-23.1751 Z0.2364
G1 X45.6101 Y-23.1872 Z0.2346
G1 X45.6101 Y-23.1994 Z0.2339
G1 X45.6101 Y-23.2405 Z0.2337 F50.
G1 X45.6101 Y-23.2855 Z0.2333
G1 X45.6101 Y-23.3254 Z0.2329
G1 X45.6101 Y-23.3650 Z0.2323
G1 X45.6101 Y-23.4031 Z0.2316
G1 X45.6101 Y-23.4426 Z0.2308
G1 X45.6101 Y-23.4807 Z0.2299
G1 X45.6101 Y-23.5203 Z0.2288
G1 X45.6101 Y-23.5584 Z0.2277
G1 X45.6101 Y-23.5965 Z0.2264
G1 X45.6101 Y-23.6360 Z0.2249
G1 X45.6101 Y-23.6741 Z0.2234
G1 X45.6101 Y-23.7122 Z0.2217
G1 X45.6101 Y-23.7503 Z0.2199
G1 X45.6101 Y-23.7884 Z0.2181
G1 X45.6101 Y-23.8279 Z0.2160
G1 X45.6101 Y-23.8660 Z0.2138
G1 X45.6101 Y-23.9041 Z0.2115
G1 X45.6101 Y-23.9422 Z0.2092
G1 X45.6101 Y-23.9803 Z0.2067
G1 X45.6101 Y-24.0199 Z0.2039
G1 X45.6101 Y-24.0579 Z0.2012
G1 X45.6101 Y-24.0960 Z0.1983
G1 X45.6101 Y-24.1341 Z0.1953
G1 X45.6101 Y-24.1722 Z0.1922
G1 X45.6101 Y-24.2103 Z0.1889
G1 X45.6101 Y-24.2484 Z0.1856
G1 X45.6101 Y-24.2865 Z0.1821
G1 X45.6101 Y-24.3262 Z0.1783
G1 X45.6101 Y-24.3640 Z0.1746
G1 X45.6101 Y-24.3772 Z0.1733
G1 X45.6101 Y-24.3902 Z0.1726
G1 X45.6101 Y-24.4032 Z0.1734
G1 X45.6101 Y-24.4161 Z0.1754
G1 X45.6101 Y-24.4287 Z0.1789
G1 X45.6101 Y-24.4409 Z0.1836
G1 X45.6101 Y-24.4525 Z0.1895
G1 X45.6101 Y-24.4634 Z0.1967
G1 X45.6101 Y-24.4736 Z0.2049
G1 X45.6101 Y-24.4828 Z0.2141
G1 X45.6101 Y-24.4910 Z0.2243
G1 X45.6101 Y-24.4981 Z0.2353
G1 X45.6101 Y-24.5040 Z0.2469
G1 X45.6101 Y-24.5087 Z0.2591
G1 X45.6101 Y-24.5120 Z0.2717
G1 X45.6101 Y-24.5141 Z0.2846
G1 X45.6101 Y-24.5148 Z0.2976
G0 Z0.3592
G0 X45.4451 Y-23.0750 
G1 X45.4451 Y-23.0756 Z0.3469 F25.
G1 X45.4451 Y-23.0774 Z0.3348
G1 X45.4451 Y-23.0804 Z0.3230
G1 X45.4451 Y-23.0845 Z0.3115
G1 X45.4451 Y-23.0897 Z0.3004
G1 X45.4451 Y-23.0960 Z0.2899
G1 X45.4451 Y-23.1033 Z0.2801
G1 X45.4451 Y-23.1114 Z0.2710
G1 X45.4451 Y-23.1205 Z0.2627
G1 X45.4451 Y-23.1303 Z0.2554
G1 X45.4451 Y-23.1408 Z0.2491
G1 X45.4451 Y-23.1518 Z0.2438
G1 X45.4451 Y-23.1633 Z0.2397
G1 X45.4451 Y-23.1751 Z0.2367
G1 X45.4451 Y-23.1872 Z0.2348
G1 X45.4451 Y-23.1994 Z0.2342
G1 X45.4451 Y-23.2405 Z0.2339 F50.
G1 X45.4451 Y-23.2855 Z0.2336
G1 X45.4451 Y-23.3254 Z0.2331
G1 X45.4451 Y-23.3650 Z0.2326
G1 X45.4451 Y-23.4031 Z0.2319
G1 X45.4451 Y-23.4426 Z0.2311
G1 X45.4451 Y-23.4807 Z0.2301
G1 X45.4451 Y-23.5203 Z0.2291
G1 X45.4451 Y-23.5584 Z0.2279
G1 X45.4451 Y-23.5965 Z0.2266
G1 X45.4451 Y-23.6360 Z0.2251
G1 X45.4451 Y-23.6741 Z0.2236
G1 X45.4451 Y-23.7122 Z0.2220
G1 X45.4451 Y-23.7503 Z0.2202
G1 X45.4451 Y-23.7884 Z0.2183
G1 X45.4451 Y-23.8279 Z0.2162
G1 X45.4451 Y-23.8660 Z0.2141
G1 X45.4451 Y-23.9041 Z0.2118
G1 X45.4451 Y-23.9422 Z0.2094
G1 X45.4451 Y-23.9803 Z0.2069
G1 X45.4451 Y-24.0199 Z0.2042
G1 X45.4451 Y-24.0579 Z0.2014
G1 X45.4451 Y-24.0960 Z0.1985
G1 X45.4451 Y-24.1341 Z0.1955
G1 X45.4451 Y-24.1722 Z0.1924
G1 X45.4451 Y-24.2103 Z0.1892
G1 X45.4451 Y-24.2484 Z0.1858
G1 X45.4451 Y-24.2865 Z0.1823
G1 X45.4451 Y-24.3263 Z0.1785
G1 X45.4451 Y-24.3635 Z0.1749
G1 X45.4451 Y-24.3787 Z0.1734
G1 X45.4451 Y-24.3917 Z0.1727
G1 X45.4451 Y-24.4048 Z0.1734
G1 X45.4451 Y-24.4176 Z0.1755
G1 X45.4451 Y-24.4302 Z0.1789
G1 X45.4451 Y-24.4424 Z0.1837
G1 X45.4451 Y-24.4540 Z0.1896
G1 X45.4451 Y-24.4650 Z0.1967
G1 X45.4451 Y-24.4751 Z0.2050
G1 X45.4451 Y-24.4843 Z0.2142
G1 X45.4451 Y-24.4925 Z0.2244
G1 X45.4451 Y-24.4996 Z0.2353
G1 X45.4451 Y-24.5055 Z0.2470
G1 X45.4451 Y-24.5102 Z0.2592
G1 X45.4451 Y-24.5136 Z0.2718
G1 X45.4451 Y-24.5156 Z0.2847
G1 X45.4451 Y-24.5163 Z0.2977
G0 Z0.3594
G0 X45.2801 Y-23.0750 
G1 X45.2801 Y-23.0756 Z0.3472 F25.
G1 X45.2801 Y-23.0774 Z0.3351
G1 X45.2801 Y-23.0804 Z0.3232
G1 X45.2801 Y-23.0845 Z0.3117
G1 X45.2801 Y-23.0897 Z0.3006
G1 X45.2801 Y-23.0960 Z0.2901
G1 X45.2801 Y-23.1033 Z0.2803
G1 X45.2801 Y-23.1114 Z0.2712
G1 X45.2801 Y-23.1205 Z0.2630
G1 X45.2801 Y-23.1303 Z0.2557
G1 X45.2801 Y-23.1408 Z0.2494
G1 X45.2801 Y-23.1518 Z0.2441
G1 X45.2801 Y-23.1633 Z0.2399
G1 X45.2801 Y-23.1751 Z0.2369
G1 X45.2801 Y-23.1872 Z0.2351
G1 X45.2801 Y-23.1994 Z0.2344
G1 X45.2801 Y-23.2405 Z0.2342 F50.
G1 X45.2801 Y-23.2855 Z0.2338
G1 X45.2801 Y-23.3254 Z0.2334
G1 X45.2801 Y-23.3650 Z0.2328
G1 X45.2801 Y-23.4031 Z0.2321
G1 X45.2801 Y-23.4426 Z0.2313
G1 X45.2801 Y-23.4807 Z0.2304
G1 X45.2801 Y-23.5203 Z0.2293
G1 X45.2801 Y-23.5584 Z0.2281
G1 X45.2801 Y-23.5965 Z0.2269
G1 X45.2801 Y-23.6360 Z0.2254
G1 X45.2801 Y-23.6741 Z0.2239
G1 X45.2801 Y-23.7122 Z0.2222
G1 X45.2801 Y-23.7503 Z0.2204
G1 X45.2801 Y-23.7884 Z0.2185
G1 X45.2801 Y-23.8279 Z0.2164
G1 X45.2801 Y-23.8660 Z0.2143
G1 X45.2801 Y-23.9041 Z0.2120
G1 X45.2801 Y-23.9422 Z0.2097
G1 X45.2801 Y-23.9803 Z0.2071
G1 X45.2801 Y-24.0199 Z0.2044
G1 X45.2801 Y-24.0579 Z0.2017
G1 X45.2801 Y-24.0960 Z0.1988
G1 X45.2801 Y-24.1341 Z0.1958
G1 X45.2801 Y-24.1722 Z0.1927
G1 X45.2801 Y-24.2103 Z0.1894
G1 X45.2801 Y-24.2484 Z0.1861
G1 X45.2801 Y-24.2865 Z0.1826
G1 X45.2801 Y-24.3255 Z0.1789
G1 X45.2801 Y-24.3637 Z0.1751
G1 X45.2801 Y-24.3802 Z0.1734
G1 X45.2801 Y-24.3933 Z0.1728
G1 X45.2801 Y-24.4063 Z0.1735
G1 X45.2801 Y-24.4192 Z0.1756
G1 X45.2801 Y-24.4318 Z0.1790
G1 X45.2801 Y-24.4439 Z0.1838
G1 X45.2801 Y-24.4556 Z0.1897
G1 X45.2801 Y-24.4665 Z0.1968
G1 X45.2801 Y-24.4766 Z0.2051
G1 X45.2801 Y-24.4858 Z0.2143
G1 X45.2801 Y-24.4940 Z0.2245
G1 X45.2801 Y-24.5011 Z0.2354
G1 X45.2801 Y-24.5070 Z0.2471
G1 X45.2801 Y-24.5117 Z0.2593
G1 X45.2801 Y-24.5151 Z0.2719
G1 X45.2801 Y-24.5171 Z0.2848
G1 X45.2801 Y-24.5178 Z0.2978
G0 Z0.3596
G0 X45.1151 Y-23.0750 
G1 X45.1151 Y-23.0756 Z0.3474 F25.
G1 X45.1151 Y-23.0774 Z0.3353
G1 X45.1151 Y-23.0804 Z0.3235
G1 X45.1151 Y-23.0845 Z0.3120
G1 X45.1151 Y-23.0897 Z0.3009
G1 X45.1151 Y-23.0960 Z0.2904
G1 X45.1151 Y-23.1033 Z0.2806
G1 X45.1151 Y-23.1114 Z0.2715
G1 X45.1151 Y-23.1205 Z0.2632
G1 X45.1151 Y-23.1303 Z0.2559
G1 X45.1151 Y-23.1408 Z0.2496
G1 X45.1151 Y-23.1518 Z0.2443
G1 X45.1151 Y-23.1633 Z0.2402
G1 X45.1151 Y-23.1751 Z0.2372
G1 X45.1151 Y-23.1872 Z0.2353
G1 X45.1151 Y-23.1994 Z0.2346
G1 X45.1151 Y-23.2405 Z0.2344 F50.
G1 X45.1151 Y-23.2855 Z0.2341
G1 X45.1151 Y-23.3254 Z0.2336
G1 X45.1151 Y-23.3650 Z0.2331
G1 X45.1151 Y-23.4031 Z0.2324
G1 X45.1151 Y-23.4426 Z0.2316
G1 X45.1151 Y-23.4807 Z0.2306
G1 X45.1151 Y-23.5203 Z0.2296
G1 X45.1151 Y-23.5584 Z0.2284
G1 X45.1151 Y-23.5965 Z0.2271
G1 X45.1151 Y-23.6360 Z0.2256
G1 X45.1151 Y-23.6741 Z0.2241
G1 X45.1151 Y-23.7122 Z0.2225
G1 X45.1151 Y-23.7503 Z0.2207
G1 X45.1151 Y-23.7884 Z0.2188
G1 X45.1151 Y-23.8279 Z0.2167
G1 X45.1151 Y-23.8660 Z0.2146
G1 X45.1151 Y-23.9041 Z0.2123
G1 X45.1151 Y-23.9422 Z0.2099
G1 X45.1151 Y-23.9803 Z0.2074
G1 X45.1151 Y-24.0199 Z0.2047
G1 X45.1151 Y-24.0579 Z0.2019
G1 X45.1151 Y-24.0960 Z0.1990
G1 X45.1151 Y-24.1341 Z0.1960
G1 X45.1151 Y-24.1722 Z0.1929
G1 X45.1151 Y-24.2103 Z0.1897
G1 X45.1151 Y-24.2484 Z0.1863
G1 X45.1151 Y-24.2865 Z0.1828
G1 X45.1151 Y-24.3255 Z0.1791
G1 X45.1151 Y-24.3639 Z0.1753
G1 X45.1151 Y-24.3817 Z0.1735
G1 X45.1151 Y-24.3948 Z0.1729
G1 X45.1151 Y-24.4078 Z0.1736
G1 X45.1151 Y-24.4207 Z0.1757
G1 X45.1151 Y-24.4333 Z0.1791
G1 X45.1151 Y-24.4455 Z0.1838
G1 X45.1151 Y-24.4571 Z0.1898
G1 X45.1151 Y-24.4680 Z0.1969
G1 X45.1151 Y-24.4781 Z0.2052
G1 X45.1151 Y-24.4874 Z0.2144
G1 X45.1151 Y-24.4956 Z0.2246
G1 X45.1151 Y-24.5027 Z0.2355
G1 X45.1151 Y-24.5086 Z0.2472
G1 X45.1151 Y-24.5132 Z0.2594
G1 X45.1151 Y-24.5166 Z0.2720
G1 X45.1151 Y-24.5186 Z0.2849
G1 X45.1151 Y-24.5193 Z0.2979
G0 Z0.3599
G0 X44.9501 Y-23.0750 
G1 X44.9501 Y-23.0756 Z0.3477 F25.
G1 X44.9501 Y-23.0774 Z0.3356
G1 X44.9501 Y-23.0804 Z0.3237
G1 X44.9501 Y-23.0845 Z0.3122
G1 X44.9501 Y-23.0897 Z0.3011
G1 X44.9501 Y-23.0960 Z0.2906
G1 X44.9501 Y-23.1033 Z0.2808
G1 X44.9501 Y-23.1114 Z0.2717
G1 X44.9501 Y-23.1205 Z0.2635
G1 X44.9501 Y-23.1303 Z0.2562
G1 X44.9501 Y-23.1408 Z0.2499
G1 X44.9501 Y-23.1518 Z0.2446
G1 X44.9501 Y-23.1633 Z0.2404
G1 X44.9501 Y-23.1751 Z0.2374
G1 X44.9501 Y-23.1872 Z0.2356
G1 X44.9501 Y-23.1994 Z0.2349
G1 X44.9501 Y-23.2405 Z0.2347 F50.
G1 X44.9501 Y-23.2855 Z0.2343
G1 X44.9501 Y-23.3254 Z0.2339
G1 X44.9501 Y-23.3650 Z0.2333
G1 X44.9501 Y-23.4031 Z0.2326
G1 X44.9501 Y-23.4426 Z0.2318
G1 X44.9501 Y-23.4807 Z0.2309
G1 X44.9501 Y-23.5203 Z0.2298
G1 X44.9501 Y-23.5584 Z0.2286
G1 X44.9501 Y-23.5965 Z0.2274
G1 X44.9501 Y-23.6360 Z0.2259
G1 X44.9501 Y-23.6741 Z0.2244
G1 X44.9501 Y-23.7122 Z0.2227
G1 X44.9501 Y-23.7503 Z0.2209
G1 X44.9501 Y-23.7884 Z0.2190
G1 X44.9501 Y-23.8279 Z0.2169
G1 X44.9501 Y-23.8660 Z0.2148
G1 X44.9501 Y-23.9041 Z0.2125
G1 X44.9501 Y-23.9422 Z0.2101
G1 X44.9501 Y-23.9803 Z0.2076
G1 X44.9501 Y-24.0199 Z0.2049
G1 X44.9501 Y-24.0579 Z0.2022
G1 X44.9501 Y-24.0960 Z0.1993
G1 X44.9501 Y-24.1341 Z0.1963
G1 X44.9501 Y-24.1722 Z0.1932
G1 X44.9501 Y-24.2103 Z0.1899
G1 X44.9501 Y-24.2484 Z0.1865
G1 X44.9501 Y-24.2865 Z0.1831
G1 X44.9501 Y-24.3255 Z0.1794
G1 X44.9501 Y-24.3631 Z0.1757
G1 X44.9501 Y-24.3833 Z0.1736
G1 X44.9501 Y-24.3963 Z0.1730
G1 X44.9501 Y-24.4093 Z0.1737
G1 X44.9501 Y-24.4222 Z0.1758
G1 X44.9501 Y-24.4348 Z0.1792
G1 X44.9501 Y-24.4470 Z0.1839
G1 X44.9501 Y-24.4586 Z0.1899
G1 X44.9501 Y-24.4695 Z0.1970
G1 X44.9501 Y-24.4797 Z0.2053
G1 X44.9501 Y-24.4889 Z0.2145
G1 X44.9501 Y-24.4971 Z0.2247
G1 X44.9501 Y-24.5042 Z0.2356
G1 X44.9501 Y-24.5101 Z0.2473
G1 X44.9501 Y-24.5148 Z0.2595
G1 X44.9501 Y-24.5181 Z0.2721
G1 X44.9501 Y-24.5202 Z0.2850
G1 X44.9501 Y-24.5209 Z0.2980
G0 Z0.3601
G0 X44.7851 Y-23.0750 
G1 X44.7851 Y-23.0756 Z0.3479 F25.
G1 X44.7851 Y-23.0774 Z0.3358
G1 X44.7851 Y-23.0804 Z0.3240
G1 X44.7851 Y-23.0845 Z0.3124
G1 X44.7851 Y-23.0897 Z0.3014
G1 X44.7851 Y-23.0960 Z0.2909
G1 X44.7851 Y-23.1033 Z0.2810
G1 X44.7851 Y-23.1114 Z0.2720
G1 X44.7851 Y-23.1205 Z0.2637
G1 X44.7851 Y-23.1303 Z0.2564
G1 X44.7851 Y-23.1408 Z0.2501
G1 X44.7851 Y-23.1518 Z0.2448
G1 X44.7851 Y-23.1633 Z0.2407
G1 X44.7851 Y-23.1751 Z0.2376
G1 X44.7851 Y-23.1872 Z0.2358
G1 X44.7851 Y-23.1994 Z0.2351
G1 X44.7851 Y-23.2405 Z0.2349 F50.
G1 X44.7851 Y-23.2855 Z0.2346
G1 X44.7851 Y-23.3254 Z0.2341
G1 X44.7851 Y-23.3650 Z0.2335
G1 X44.7851 Y-23.4031 Z0.2329
G1 X44.7851 Y-23.4426 Z0.2320
G1 X44.7851 Y-23.4807 Z0.2311
G1 X44.7851 Y-23.5203 Z0.2300
G1 X44.7851 Y-23.5584 Z0.2289
G1 X44.7851 Y-23.5965 Z0.2276
G1 X44.7851 Y-23.6360 Z0.2261
G1 X44.7851 Y-23.6741 Z0.2246
G1 X44.7851 Y-23.7122 Z0.2230
G1 X44.7851 Y-23.7503 Z0.2212
G1 X44.7851 Y-23.7884 Z0.2193
G1 X44.7851 Y-23.8279 Z0.2172
G1 X44.7851 Y-23.8660 Z0.2150
G1 X44.7851 Y-23.9041 Z0.2128
G1 X44.7851 Y-23.9422 Z0.2104
G1 X44.7851 Y-23.9803 Z0.2079
G1 X44.7851 Y-24.0199 Z0.2052
G1 X44.7851 Y-24.0579 Z0.2024
G1 X44.7851 Y-24.0960 Z0.1995
G1 X44.7851 Y-24.1341 Z0.1965
G1 X44.7851 Y-24.1722 Z0.1934
G1 X44.7851 Y-24.2103 Z0.1902
G1 X44.7851 Y-24.2484 Z0.1868
G1 X44.7851 Y-24.2865 Z0.1833
G1 X44.7851 Y-24.3255 Z0.1796
G1 X44.7851 Y-24.3641 Z0.1758
G1 X44.7851 Y-24.3848 Z0.1737
G1 X44.7851 Y-24.3978 Z0.1731
G1 X44.7851 Y-24.4109 Z0.1738
G1 X44.7851 Y-24.4237 Z0.1759
G1 X44.7851 Y-24.4363 Z0.1793
G1 X44.7851 Y-24.4485 Z0.1840
G1 X44.7851 Y-24.4601 Z0.1900
G1 X44.7851 Y-24.4711 Z0.1971
G1 X44.7851 Y-24.4812 Z0.2054
G1 X44.7851 Y-24.4904 Z0.2146
G1 X44.7851 Y-24.4986 Z0.2248
G1 X44.7851 Y-24.5057 Z0.2357
G1 X44.7851 Y-24.5116 Z0.2474
G1 X44.7851 Y-24.5163 Z0.2595
G1 X44.7851 Y-24.5197 Z0.2722
G1 X44.7851 Y-24.5217 Z0.2851
G1 X44.7851 Y-24.5224 Z0.2981
G0 Z0.3604
G0 X44.6201 Y-23.0750 
G1 X44.6201 Y-23.0756 Z0.3482 F25.
G1 X44.6201 Y-23.0774 Z0.3361
G1 X44.6201 Y-23.0804 Z0.3242
G1 X44.6201 Y-23.0845 Z0.3127
G1 X44.6201 Y-23.0897 Z0.3016
G1 X44.6201 Y-23.0960 Z0.2911
G1 X44.6201 Y-23.1033 Z0.2813
G1 X44.6201 Y-23.1114 Z0.2722
G1 X44.6201 Y-23.1205 Z0.2640
G1 X44.6201 Y-23.1303 Z0.2567
G1 X44.6201 Y-23.1408 Z0.2503
G1 X44.6201 Y-23.1518 Z0.2451
G1 X44.6201 Y-23.1633 Z0.2409
G1 X44.6201 Y-23.1751 Z0.2379
G1 X44.6201 Y-23.1872 Z0.2360
G1 X44.6201 Y-23.1994 Z0.2354
G1 X44.6201 Y-23.2405 Z0.2352 F50.
G1 X44.6201 Y-23.2855 Z0.2348
G1 X44.6201 Y-23.3254 Z0.2344
G1 X44.6201 Y-23.3650 Z0.2338
G1 X44.6201 Y-23.4031 Z0.2331
G1 X44.6201 Y-23.4426 Z0.2323
G1 X44.6201 Y-23.4807 Z0.2314
G1 X44.6201 Y-23.5203 Z0.2303
G1 X44.6201 Y-23.5584 Z0.2291
G1 X44.6201 Y-23.5965 Z0.2278
G1 X44.6201 Y-23.6360 Z0.2264
G1 X44.6201 Y-23.6741 Z0.2249
G1 X44.6201 Y-23.7122 Z0.2232
G1 X44.6201 Y-23.7503 Z0.2214
G1 X44.6201 Y-23.7884 Z0.2195
G1 X44.6201 Y-23.8279 Z0.2174
G1 X44.6201 Y-23.8660 Z0.2153
G1 X44.6201 Y-23.9041 Z0.2130
G1 X44.6201 Y-23.9422 Z0.2106
G1 X44.6201 Y-23.9803 Z0.2081
G1 X44.6201 Y-24.0199 Z0.2054
G1 X44.6201 Y-24.0579 Z0.2026
G1 X44.6201 Y-24.0960 Z0.1998
G1 X44.6201 Y-24.1341 Z0.1968
G1 X44.6201 Y-24.1722 Z0.1936
G1 X44.6201 Y-24.2103 Z0.1904
G1 X44.6201 Y-24.2484 Z0.1870
G1 X44.6201 Y-24.2865 Z0.1836
G1 X44.6201 Y-24.3255 Z0.1798
G1 X44.6201 Y-24.3632 Z0.1762
G1 X44.6201 Y-24.3863 Z0.1738
G1 X44.6201 Y-24.3993 Z0.1732
G1 X44.6201 Y-24.4124 Z0.1739
G1 X44.6201 Y-24.4253 Z0.1760
G1 X44.6201 Y-24.4379 Z0.1794
G1 X44.6201 Y-24.4500 Z0.1841
G1 X44.6201 Y-24.4617 Z0.1901
G1 X44.6201 Y-24.4726 Z0.1972
G1 X44.6201 Y-24.4827 Z0.2054
G1 X44.6201 Y-24.4919 Z0.2147
G1 X44.6201 Y-24.5001 Z0.2249
G1 X44.6201 Y-24.5072 Z0.2358
G1 X44.6201 Y-24.5131 Z0.2474
G1 X44.6201 Y-24.5178 Z0.2596
G1 X44.6201 Y-24.5212 Z0.2722
G1 X44.6201 Y-24.5232 Z0.2851
G1 X44.6201 Y-24.5239 Z0.2982
G0 Z0.3606
G0 X44.4551 Y-23.0750 
G1 X44.4551 Y-23.0756 Z0.3484 F25.
G1 X44.4551 Y-23.0774 Z0.3363
G1 X44.4551 Y-23.0804 Z0.3245
G1 X44.4551 Y-23.0845 Z0.3129
G1 X44.4551 Y-23.0897 Z0.3019
G1 X44.4551 Y-23.0960 Z0.2914
G1 X44.4551 Y-23.1033 Z0.2815
G1 X44.4551 Y-23.1114 Z0.2725
G1 X44.4551 Y-23.1205 Z0.2642
G1 X44.4551 Y-23.1303 Z0.2569
G1 X44.4551 Y-23.1408 Z0.2506
G1 X44.4551 Y-23.1518 Z0.2453
G1 X44.4551 Y-23.1633 Z0.2412
G1 X44.4551 Y-23.1751 Z0.2381
G1 X44.4551 Y-23.1872 Z0.2363
G1 X44.4551 Y-23.1994 Z0.2356
G1 X44.4551 Y-23.2405 Z0.2354 F50.
G1 X44.4551 Y-23.2855 Z0.2351
G1 X44.4551 Y-23.3254 Z0.2346
G1 X44.4551 Y-23.3650 Z0.2340
G1 X44.4551 Y-23.4031 Z0.2334
G1 X44.4551 Y-23.4426 Z0.2325
G1 X44.4551 Y-23.4807 Z0.2316
G1 X44.4551 Y-23.5203 Z0.2305
G1 X44.4551 Y-23.5584 Z0.2294
G1 X44.4551 Y-23.5965 Z0.2281
G1 X44.4551 Y-23.6360 Z0.2266
G1 X44.4551 Y-23.6741 Z0.2251
G1 X44.4551 Y-23.7122 Z0.2234
G1 X44.4551 Y-23.7503 Z0.2217
G1 X44.4551 Y-23.7884 Z0.2198
G1 X44.4551 Y-23.8279 Z0.2177
G1 X44.4551 Y-23.8660 Z0.2155
G1 X44.4551 Y-23.9041 Z0.2133
G1 X44.4551 Y-23.9422 Z0.2109
G1 X44.4551 Y-23.9803 Z0.2084
G1 X44.4551 Y-24.0199 Z0.2056
G1 X44.4551 Y-24.0579 Z0.2029
G1 X44.4551 Y-24.0960 Z0.2000
G1 X44.4551 Y-24.1341 Z0.1970
G1 X44.4551 Y-24.1722 Z0.1939
G1 X44.4551 Y-24.2103 Z0.1907
G1 X44.4551 Y-24.2484 Z0.1873
G1 X44.4551 Y-24.2865 Z0.1838
G1 X44.4551 Y-24.3256 Z0.1801
G1 X44.4551 Y-24.3641 Z0.1763
G1 X44.4551 Y-24.3878 Z0.1739
G1 X44.4551 Y-24.4009 Z0.1733
G1 X44.4551 Y-24.4139 Z0.1740
G1 X44.4551 Y-24.4268 Z0.1761
G1 X44.4551 Y-24.4394 Z0.1795
G1 X44.4551 Y-24.4516 Z0.1842
G1 X44.4551 Y-24.4632 Z0.1902
G1 X44.4551 Y-24.4741 Z0.1973
G1 X44.4551 Y-24.4842 Z0.2055
G1 X44.4551 Y-24.4935 Z0.2148
G1 X44.4551 Y-24.5017 Z0.2249
G1 X44.4551 Y-24.5088 Z0.2359
G1 X44.4551 Y-24.5147 Z0.2475
G1 X44.4551 Y-24.5193 Z0.2597
G1 X44.4551 Y-24.5227 Z0.2723
G1 X44.4551 Y-24.5247 Z0.2852
G1 X44.4551 Y-24.5254 Z0.2983
G0 Z0.3609
G0 X44.2901 Y-23.0750 
G1 X44.2901 Y-23.0756 Z0.3487 F25.
G1 X44.2901 Y-23.0774 Z0.3366
G1 X44.2901 Y-23.0804 Z0.3247
G1 X44.2901 Y-23.0845 Z0.3132
G1 X44.2901 Y-23.0897 Z0.3021
G1 X44.2901 Y-23.0960 Z0.2916
G1 X44.2901 Y-23.1033 Z0.2818
G1 X44.2901 Y-23.1114 Z0.2727
G1 X44.2901 Y-23.1205 Z0.2645
G1 X44.2901 Y-23.1303 Z0.2572
G1 X44.2901 Y-23.1408 Z0.2508
G1 X44.2901 Y-23.1518 Z0.2456
G1 X44.2901 Y-23.1633 Z0.2414
G1 X44.2901 Y-23.1751 Z0.2384
G1 X44.2901 Y-23.1872 Z0.2365
G1 X44.2901 Y-23.1994 Z0.2359
G1 X44.2901 Y-23.2405 Z0.2357 F50.
G1 X44.2901 Y-23.2855 Z0.2353
G1 X44.2901 Y-23.3254 Z0.2349
G1 X44.2901 Y-23.3650 Z0.2343
G1 X44.2901 Y-23.4031 Z0.2336
G1 X44.2901 Y-23.4426 Z0.2328
G1 X44.2901 Y-23.4807 Z0.2319
G1 X44.2901 Y-23.5203 Z0.2308
G1 X44.2901 Y-23.5584 Z0.2296
G1 X44.2901 Y-23.5965 Z0.2283
G1 X44.2901 Y-23.6360 Z0.2269
G1 X44.2901 Y-23.6741 Z0.2253
G1 X44.2901 Y-23.7122 Z0.2237
G1 X44.2901 Y-23.7503 Z0.2219
G1 X44.2901 Y-23.7884 Z0.2200
G1 X44.2901 Y-23.8279 Z0.2179
G1 X44.2901 Y-23.8660 Z0.2158
G1 X44.2901 Y-23.9041 Z0.2135
G1 X44.2901 Y-23.9422 Z0.2111
G1 X44.2901 Y-23.9803 Z0.2086
G1 X44.2901 Y-24.0199 Z0.2059
G1 X44.2901 Y-24.0579 Z0.2031
G1 X44.2901 Y-24.0960 Z0.2003
G1 X44.2901 Y-24.1341 Z0.1973
G1 X44.2901 Y-24.1722 Z0.1941
G1 X44.2901 Y-24.2103 Z0.1909
G1 X44.2901 Y-24.2484 Z0.1875
G1 X44.2901 Y-24.2865 Z0.1840
G1 X44.2901 Y-24.3256 Z0.1803
G1 X44.2901 Y-24.3630 Z0.1767
G1 X44.2901 Y-24.3894 Z0.1740
G1 X44.2901 Y-24.4024 Z0.1734
G1 X44.2901 Y-24.4154 Z0.1741
G1 X44.2901 Y-24.4283 Z0.1762
G1 X44.2901 Y-24.4409 Z0.1796
G1 X44.2901 Y-24.4531 Z0.1843
G1 X44.2901 Y-24.4647 Z0.1903
G1 X44.2901 Y-24.4756 Z0.1974
G1 X44.2901 Y-24.4858 Z0.2056
G1 X44.2901 Y-24.4950 Z0.2149
G1 X44.2901 Y-24.5032 Z0.2250
G1 X44.2901 Y-24.5103 Z0.2360
G1 X44.2901 Y-24.5162 Z0.2476
G1 X44.2901 Y-24.5209 Z0.2598
G1 X44.2901 Y-24.5242 Z0.2724
G1 X44.2901 Y-24.5263 Z0.2853
G1 X44.2901 Y-24.5269 Z0.2984
G0 Z0.3611
G0 X44.1251 Y-23.0750 
G1 X44.1251 Y-23.0756 Z0.3489 F25.
G1 X44.1251 Y-23.0774 Z0.3368
G1 X44.1251 Y-23.0804 Z0.3249
G1 X44.1251 Y-23.0845 Z0.3134
G1 X44.1251 Y-23.0897 Z0.3024
G1 X44.1251 Y-23.0960 Z0.2919
G1 X44.1251 Y-23.1033 Z0.2820
G1 X44.1251 Y-23.1114 Z0.2730
G1 X44.1251 Y-23.1205 Z0.2647
G1 X44.1251 Y-23.1303 Z0.2574
G1 X44.1251 Y-23.1408 Z0.2511
G1 X44.1251 Y-23.1518 Z0.2458
G1 X44.1251 Y-23.1633 Z0.2417
G1 X44.1251 Y-23.1751 Z0.2386
G1 X44.1251 Y-23.1872 Z0.2368
G1 X44.1251 Y-23.1994 Z0.2361
G1 X44.1251 Y-23.2405 Z0.2359 F50.
G1 X44.1251 Y-23.2855 Z0.2356
G1 X44.1251 Y-23.3254 Z0.2351
G1 X44.1251 Y-23.3650 Z0.2345
G1 X44.1251 Y-23.4031 Z0.2339
G1 X44.1251 Y-23.4426 Z0.2330
G1 X44.1251 Y-23.4807 Z0.2321
G1 X44.1251 Y-23.5203 Z0.2310
G1 X44.1251 Y-23.5584 Z0.2299
G1 X44.1251 Y-23.5965 Z0.2286
G1 X44.1251 Y-23.6360 Z0.2271
G1 X44.1251 Y-23.6741 Z0.2256
G1 X44.1251 Y-23.7122 Z0.2239
G1 X44.1251 Y-23.7503 Z0.2222
G1 X44.1251 Y-23.7884 Z0.2203
G1 X44.1251 Y-23.8279 Z0.2182
G1 X44.1251 Y-23.8660 Z0.2160
G1 X44.1251 Y-23.9041 Z0.2138
G1 X44.1251 Y-23.9422 Z0.2114
G1 X44.1251 Y-23.9803 Z0.2089
G1 X44.1251 Y-24.0199 Z0.2061
G1 X44.1251 Y-24.0579 Z0.2034
G1 X44.1251 Y-24.0960 Z0.2005
G1 X44.1251 Y-24.1341 Z0.1975
G1 X44.1251 Y-24.1722 Z0.1944
G1 X44.1251 Y-24.2103 Z0.1911
G1 X44.1251 Y-24.2484 Z0.1878
G1 X44.1251 Y-24.2865 Z0.1843
G1 X44.1251 Y-24.3256 Z0.1806
G1 X44.1251 Y-24.3639 Z0.1768
G1 X44.1251 Y-24.3909 Z0.1741
G1 X44.1251 Y-24.4039 Z0.1735
G1 X44.1251 Y-24.4170 Z0.1742
G1 X44.1251 Y-24.4298 Z0.1763
G1 X44.1251 Y-24.4424 Z0.1797
G1 X44.1251 Y-24.4546 Z0.1844
G1 X44.1251 Y-24.4662 Z0.1904
G1 X44.1251 Y-24.4772 Z0.1975
G1 X44.1251 Y-24.4873 Z0.2057
G1 X44.1251 Y-24.4965 Z0.2150
G1 X44.1251 Y-24.5047 Z0.2251
G1 X44.1251 Y-24.5118 Z0.2361
G1 X44.1251 Y-24.5177 Z0.2477
G1 X44.1251 Y-24.5224 Z0.2599
G1 X44.1251 Y-24.5258 Z0.2725
G1 X44.1251 Y-24.5278 Z0.2854
G1 X44.1251 Y-24.5285 Z0.2985
G0 Z0.3614
G0 X43.9601 Y-23.0750 
G1 X43.9601 Y-23.0756 Z0.3492 F25.
G1 X43.9601 Y-23.0774 Z0.3371
G1 X43.9601 Y-23.0804 Z0.3252
G1 X43.9601 Y-23.0845 Z0.3137
G1 X43.9601 Y-23.0897 Z0.3026
G1 X43.9601 Y-23.0960 Z0.2921
G1 X43.9601 Y-23.1033 Z0.2823
G1 X43.9601 Y-23.1114 Z0.2732
G1 X43.9601 Y-23.1205 Z0.2650
G1 X43.9601 Y-23.1303 Z0.2577
G1 X43.9601 Y-23.1408 Z0.2513
G1 X43.9601 Y-23.1518 Z0.2461
G1 X43.9601 Y-23.1633 Z0.2419
G1 X43.9601 Y-23.1751 Z0.2389
G1 X43.9601 Y-23.1872 Z0.2370
G1 X43.9601 Y-23.1994 Z0.2364
G1 X43.9601 Y-23.2405 Z0.2362 F50.
G1 X43.9601 Y-23.2855 Z0.2358
G1 X43.9601 Y-23.3254 Z0.2354
G1 X43.9601 Y-23.3650 Z0.2348
G1 X43.9601 Y-23.4031 Z0.2341
G1 X43.9601 Y-23.4426 Z0.2333
G1 X43.9601 Y-23.4807 Z0.2324
G1 X43.9601 Y-23.5203 Z0.2313
G1 X43.9601 Y-23.5584 Z0.2301
G1 X43.9601 Y-23.5965 Z0.2288
G1 X43.9601 Y-23.6360 Z0.2274
G1 X43.9601 Y-23.6741 Z0.2258
G1 X43.9601 Y-23.7122 Z0.2242
G1 X43.9601 Y-23.7503 Z0.2224
G1 X43.9601 Y-23.7884 Z0.2205
G1 X43.9601 Y-23.8279 Z0.2184
G1 X43.9601 Y-23.8660 Z0.2163
G1 X43.9601 Y-23.9041 Z0.2140
G1 X43.9601 Y-23.9422 Z0.2116
G1 X43.9601 Y-23.9803 Z0.2091
G1 X43.9601 Y-24.0199 Z0.2064
G1 X43.9601 Y-24.0579 Z0.2036
G1 X43.9601 Y-24.0960 Z0.2008
G1 X43.9601 Y-24.1341 Z0.1978
G1 X43.9601 Y-24.1722 Z0.1946
G1 X43.9601 Y-24.2103 Z0.1914
G1 X43.9601 Y-24.2484 Z0.1880
G1 X43.9601 Y-24.2865 Z0.1845
G1 X43.9601 Y-24.3256 Z0.1808
G1 X43.9601 Y-24.3638 Z0.1771
G1 X43.9601 Y-24.3924 Z0.1742
G1 X43.9601 Y-24.4054 Z0.1735
G1 X43.9601 Y-24.4185 Z0.1743
G1 X43.9601 Y-24.4314 Z0.1764
G1 X43.9601 Y-24.4440 Z0.1798
G1 X43.9601 Y-24.4561 Z0.1845
G1 X43.9601 Y-24.4678 Z0.1904
G1 X43.9601 Y-24.4787 Z0.1976
G1 X43.9601 Y-24.4888 Z0.2058
G1 X43.9601 Y-24.4980 Z0.2151
G1 X43.9601 Y-24.5062 Z0.2252
G1 X43.9601 Y-24.5133 Z0.2362
G1 X43.9601 Y-24.5192 Z0.2478
G1 X43.9601 Y-24.5239 Z0.2600
G1 X43.9601 Y-24.5273 Z0.2726
G1 X43.9601 Y-24.5293 Z0.2855
G1 X43.9601 Y-24.5300 Z0.2985
G0 Z0.3616
G0 X43.7951 Y-23.0750 
G1 X43.7951 Y-23.0756 Z0.3494 F25.
G1 X43.7951 Y-23.0774 Z0.3373
G1 X43.7951 Y-23.0804 Z0.3254
G1 X43.7951 Y-23.0845 Z0.3139
G1 X43.7951 Y-23.0897 Z0.3029
G1 X43.7951 Y-23.0960 Z0.2924
G1 X43.7951 Y-23.1033 Z0.2825
G1 X43.7951 Y-23.1114 Z0.2734
G1 X43.7951 Y-23.1205 Z0.2652
G1 X43.7951 Y-23.1303 Z0.2579
G1 X43.7951 Y-23.1408 Z0.2516
G1 X43.7951 Y-23.1518 Z0.2463
G1 X43.7951 Y-23.1633 Z0.2421
G1 X43.7951 Y-23.1751 Z0.2391
G1 X43.7951 Y-23.1872 Z0.2373
G1 X43.7951 Y-23.1994 Z0.2366
G1 X43.7951 Y-23.2405 Z0.2364 F50.
G1 X43.7951 Y-23.2855 Z0.2361
G1 X43.7951 Y-23.3254 Z0.2356
G1 X43.7951 Y-23.3650 Z0.2350
G1 X43.7951 Y-23.4031 Z0.2344
G1 X43.7951 Y-23.4426 Z0.2335
G1 X43.7951 Y-23.4807 Z0.2326
G1 X43.7951 Y-23.5203 Z0.2315
G1 X43.7951 Y-23.5584 Z0.2304
G1 X43.7951 Y-23.5965 Z0.2291
G1 X43.7951 Y-23.6360 Z0.2276
G1 X43.7951 Y-23.6741 Z0.2261
G1 X43.7951 Y-23.7122 Z0.2244
G1 X43.7951 Y-23.7503 Z0.2227
G1 X43.7951 Y-23.7884 Z0.2208
G1 X43.7951 Y-23.8279 Z0.2187
G1 X43.7951 Y-23.8660 Z0.2165
G1 X43.7951 Y-23.9041 Z0.2143
G1 X43.7951 Y-23.9422 Z0.2119
G1 X43.7951 Y-23.9803 Z0.2094
G1 X43.7951 Y-24.0199 Z0.2066
G1 X43.7951 Y-24.0579 Z0.2039
G1 X43.7951 Y-24.0960 Z0.2010
G1 X43.7951 Y-24.1341 Z0.1980
G1 X43.7951 Y-24.1722 Z0.1949
G1 X43.7951 Y-24.2103 Z0.1916
G1 X43.7951 Y-24.2484 Z0.1883
G1 X43.7951 Y-24.2865 Z0.1848
G1 X43.7951 Y-24.3257 Z0.1811
G1 X43.7951 Y-24.3636 Z0.1773
G1 X43.7951 Y-24.3939 Z0.1743
G1 X43.7951 Y-24.4070 Z0.1736
G1 X43.7951 Y-24.4200 Z0.1744
G1 X43.7951 Y-24.4329 Z0.1765
G1 X43.7951 Y-24.4455 Z0.1799
G1 X43.7951 Y-24.4577 Z0.1846
G1 X43.7951 Y-24.4693 Z0.1905
G1 X43.7951 Y-24.4802 Z0.1977
G1 X43.7951 Y-24.4903 Z0.2059
G1 X43.7951 Y-24.4995 Z0.2152
G1 X43.7951 Y-24.5077 Z0.2253
G1 X43.7951 Y-24.5148 Z0.2363
G1 X43.7951 Y-24.5208 Z0.2479
G1 X43.7951 Y-24.5254 Z0.2601
G1 X43.7951 Y-24.5288 Z0.2727
G1 X43.7951 Y-24.5308 Z0.2856
G1 X43.7951 Y-24.5315 Z0.2986
G0 Z0.3619
G0 X43.6301 Y-23.0750 
G1 X43.6301 Y-23.0756 Z0.3497 F25.
G1 X43.6301 Y-23.0774 Z0.3376
G1 X43.6301 Y-23.0804 Z0.3257
G1 X43.6301 Y-23.0845 Z0.3142
G1 X43.6301 Y-23.0897 Z0.3031
G1 X43.6301 Y-23.0960 Z0.2926
G1 X43.6301 Y-23.1033 Z0.2828
G1 X43.6301 Y-23.1114 Z0.2737
G1 X43.6301 Y-23.1205 Z0.2655
G1 X43.6301 Y-23.1303 Z0.2581
G1 X43.6301 Y-23.1408 Z0.2518
G1 X43.6301 Y-23.1518 Z0.2466
G1 X43.6301 Y-23.1633 Z0.2424
G1 X43.6301 Y-23.1751 Z0.2394
G1 X43.6301 Y-23.1872 Z0.2375
G1 X43.6301 Y-23.1994 Z0.2369
G1 X43.6301 Y-23.2405 Z0.2367 F50.
G1 X43.6301 Y-23.2855 Z0.2363
G1 X43.6301 Y-23.3254 Z0.2358
G1 X43.6301 Y-23.3650 Z0.2353
G1 X43.6301 Y-23.4031 Z0.2346
G1 X43.6301 Y-23.4426 Z0.2338
G1 X43.6301 Y-23.4807 Z0.2329
G1 X43.6301 Y-23.5203 Z0.2318
G1 X43.6301 Y-23.5584 Z0.2306
G1 X43.6301 Y-23.5965 Z0.2293
G1 X43.6301 Y-23.6360 Z0.2279
G1 X43.6301 Y-23.6741 Z0.2263
G1 X43.6301 Y-23.7122 Z0.2247
G1 X43.6301 Y-23.7503 Z0.2229
G1 X43.6301 Y-23.7884 Z0.2210
G1 X43.6301 Y-23.8279 Z0.2189
G1 X43.6301 Y-23.8660 Z0.2168
G1 X43.6301 Y-23.9041 Z0.2145
G1 X43.6301 Y-23.9422 Z0.2121
G1 X43.6301 Y-23.9803 Z0.2096
G1 X43.6301 Y-24.0199 Z0.2069
G1 X43.6301 Y-24.0579 Z0.2041
G1 X43.6301 Y-24.0960 Z0.2012
G1 X43.6301 Y-24.1341 Z0.1982
G1 X43.6301 Y-24.1722 Z0.1951
G1 X43.6301 Y-24.2103 Z0.1919
G1 X43.6301 Y-24.2484 Z0.1885
G1 X43.6301 Y-24.2865 Z0.1850
G1 X43.6301 Y-24.3257 Z0.1813
G1 X43.6301 Y-24.3644 Z0.1775
G1 X43.6301 Y-24.3954 Z0.1744
G1 X43.6301 Y-24.4085 Z0.1737
G1 X43.6301 Y-24.4215 Z0.1745
G1 X43.6301 Y-24.4344 Z0.1765
G1 X43.6301 Y-24.4470 Z0.1800
G1 X43.6301 Y-24.4592 Z0.1847
G1 X43.6301 Y-24.4708 Z0.1906
G1 X43.6301 Y-24.4817 Z0.1978
G1 X43.6301 Y-24.4919 Z0.2060
G1 X43.6301 Y-24.5011 Z0.2152
G1 X43.6301 Y-24.5093 Z0.2254
G1 X43.6301 Y-24.5164 Z0.2364
G1 X43.6301 Y-24.5223 Z0.2480
G1 X43.6301 Y-24.5269 Z0.2602
G1 X43.6301 Y-24.5303 Z0.2728
G1 X43.6301 Y-24.5324 Z0.2857
G1 X43.6301 Y-24.5330 Z0.2987
G0 Z0.3621
G0 X43.4651 Y-23.0750 
G1 X43.4651 Y-23.0756 Z0.3499 F25.
G1 X43.4651 Y-23.0774 Z0.3378
G1 X43.4651 Y-23.0804 Z0.3259
G1 X43.4651 Y-23.0845 Z0.3144
G1 X43.4651 Y-23.0897 Z0.3034
G1 X43.4651 Y-23.0960 Z0.2929
G1 X43.4651 Y-23.1033 Z0.2830
G1 X43.4651 Y-23.1114 Z0.2739
G1 X43.4651 Y-23.1205 Z0.2657
G1 X43.4651 Y-23.1303 Z0.2584
G1 X43.4651 Y-23.1408 Z0.2521
G1 X43.4651 Y-23.1518 Z0.2468
G1 X43.4651 Y-23.1633 Z0.2426
G1 X43.4651 Y-23.1751 Z0.2396
G1 X43.4651 Y-23.1872 Z0.2378
G1 X43.4651 Y-23.1994 Z0.2371
G1 X43.4651 Y-23.2405 Z0.2369 F50.
G1 X43.4651 Y-23.2855 Z0.2365
G1 X43.4651 Y-23.3254 Z0.2361
G1 X43.4651 Y-23.3650 Z0.2355
G1 X43.4651 Y-23.4031 Z0.2348
G1 X43.4651 Y-23.4426 Z0.2340
G1 X43.4651 Y-23.4807 Z0.2331
G1 X43.4651 Y-23.5203 Z0.2320
G1 X43.4651 Y-23.5584 Z0.2309
G1 X43.4651 Y-23.5965 Z0.2296
G1 X43.4651 Y-23.6360 Z0.2281
G1 X43.4651 Y-23.6741 Z0.2266
G1 X43.4651 Y-23.7122 Z0.2249
G1 X43.4651 Y-23.7503 Z0.2232
G1 X43.4651 Y-23.7884 Z0.2213
G1 X43.4651 Y-23.8279 Z0.2192
G1 X43.4651 Y-23.8660 Z0.2170
G1 X43.4651 Y-23.9041 Z0.2148
G1 X43.4651 Y-23.9422 Z0.2124
G1 X43.4651 Y-23.9803 Z0.2099
G1 X43.4651 Y-24.0199 Z0.2071
G1 X43.4651 Y-24.0579 Z0.2044
G1 X43.4651 Y-24.0960 Z0.2015
G1 X43.4651 Y-24.1341 Z0.1985
G1 X43.4651 Y-24.1722 Z0.1954
G1 X43.4651 Y-24.2103 Z0.1921
G1 X43.4651 Y-24.2484 Z0.1888
G1 X43.4651 Y-24.2865 Z0.1853
G1 X43.4651 Y-24.3257 Z0.1816
G1 X43.4651 Y-24.3630 Z0.1779
G1 X43.4651 Y-24.3970 Z0.1745
G1 X43.4651 Y-24.4100 Z0.1738
G1 X43.4651 Y-24.4230 Z0.1746
G1 X43.4651 Y-24.4359 Z0.1766
G1 X43.4651 Y-24.4485 Z0.1801
G1 X43.4651 Y-24.4607 Z0.1848
G1 X43.4651 Y-24.4723 Z0.1907
G1 X43.4651 Y-24.4833 Z0.1979
G1 X43.4651 Y-24.4934 Z0.2061
G1 X43.4651 Y-24.5026 Z0.2153
G1 X43.4651 Y-24.5108 Z0.2255
G1 X43.4651 Y-24.5179 Z0.2365
G1 X43.4651 Y-24.5238 Z0.2481
G1 X43.4651 Y-24.5285 Z0.2603
G1 X43.4651 Y-24.5318 Z0.2729
G1 X43.4651 Y-24.5339 Z0.2858
G1 X43.4651 Y-24.5346 Z0.2988
G0 Z0.3624
G0 X43.3001 Y-23.0750 
G1 X43.3001 Y-23.0756 Z0.3501 F25.
G1 X43.3001 Y-23.0774 Z0.3380
G1 X43.3001 Y-23.0804 Z0.3262
G1 X43.3001 Y-23.0845 Z0.3147
G1 X43.3001 Y-23.0897 Z0.3036
G1 X43.3001 Y-23.0960 Z0.2931
G1 X43.3001 Y-23.1033 Z0.2833
G1 X43.3001 Y-23.1114 Z0.2742
G1 X43.3001 Y-23.1205 Z0.2660
G1 X43.3001 Y-23.1303 Z0.2586
G1 X43.3001 Y-23.1408 Z0.2523
G1 X43.3001 Y-23.1518 Z0.2471
G1 X43.3001 Y-23.1633 Z0.2429
G1 X43.3001 Y-23.1751 Z0.2399
G1 X43.3001 Y-23.1872 Z0.2380
G1 X43.3001 Y-23.1994 Z0.2374
G1 X43.3001 Y-23.2405 Z0.2372 F50.
G1 X43.3001 Y-23.2855 Z0.2368
G1 X43.3001 Y-23.3254 Z0.2363
G1 X43.3001 Y-23.3650 Z0.2358
G1 X43.3001 Y-23.4031 Z0.2351
G1 X43.3001 Y-23.4426 Z0.2343
G1 X43.3001 Y-23.4807 Z0.2334
G1 X43.3001 Y-23.5203 Z0.2323
G1 X43.3001 Y-23.5584 Z0.2311
G1 X43.3001 Y-23.5965 Z0.2298
G1 X43.3001 Y-23.6360 Z0.2284
G1 X43.3001 Y-23.6741 Z0.2268
G1 X43.3001 Y-23.7122 Z0.2252
G1 X43.3001 Y-23.7503 Z0.2234
G1 X43.3001 Y-23.7884 Z0.2215
G1 X43.3001 Y-23.8279 Z0.2194
G1 X43.3001 Y-23.8660 Z0.2173
G1 X43.3001 Y-23.9041 Z0.2150
G1 X43.3001 Y-23.9422 Z0.2126
G1 X43.3001 Y-23.9803 Z0.2101
G1 X43.3001 Y-24.0199 Z0.2074
G1 X43.3001 Y-24.0579 Z0.2046
G1 X43.3001 Y-24.0960 Z0.2017
G1 X43.3001 Y-24.1341 Z0.1987
G1 X43.3001 Y-24.1722 Z0.1956
G1 X43.3001 Y-24.2103 Z0.1924
G1 X43.3001 Y-24.2484 Z0.1890
G1 X43.3001 Y-24.2865 Z0.1855
G1 X43.3001 Y-24.3257 Z0.1818
G1 X43.3001 Y-24.3638 Z0.1781
G1 X43.3001 Y-24.3985 Z0.1746
G1 X43.3001 Y-24.4115 Z0.1739
G1 X43.3001 Y-24.4246 Z0.1746
G1 X43.3001 Y-24.4375 Z0.1767
G1 X43.3001 Y-24.4501 Z0.1801
G1 X43.3001 Y-24.4622 Z0.1849
G1 X43.3001 Y-24.4738 Z0.1908
G1 X43.3001 Y-24.4848 Z0.1979
G1 X43.3001 Y-24.4949 Z0.2062
G1 X43.3001 Y-24.5041 Z0.2154
G1 X43.3001 Y-24.5123 Z0.2256
G1 X43.3001 Y-24.5194 Z0.2365
G1 X43.3001 Y-24.5253 Z0.2482
G1 X43.3001 Y-24.5300 Z0.2604
G1 X43.3001 Y-24.5334 Z0.2730
G1 X43.3001 Y-24.5354 Z0.2859
G1 X43.3001 Y-24.5361 Z0.2989
G0 Z0.3626
G0 X43.1351 Y-23.0750 
G1 X43.1351 Y-23.0756 Z0.3504 F25.
G1 X43.1351 Y-23.0774 Z0.3383
G1 X43.1351 Y-23.0804 Z0.3264
G1 X43.1351 Y-23.0845 Z0.3149
G1 X43.1351 Y-23.0897 Z0.3038
G1 X43.1351 Y-23.0960 Z0.2934
G1 X43.1351 Y-23.1033 Z0.2835
G1 X43.1351 Y-23.1114 Z0.2744
G1 X43.1351 Y-23.1205 Z0.2662
G1 X43.1351 Y-23.1303 Z0.2589
G1 X43.1351 Y-23.1408 Z0.2526
G1 X43.1351 Y-23.1518 Z0.2473
G1 X43.1351 Y-23.1633 Z0.2431
G1 X43.1351 Y-23.1751 Z0.2401
G1 X43.1351 Y-23.1872 Z0.2383
G1 X43.1351 Y-23.1994 Z0.2376
G1 X43.1351 Y-23.2405 Z0.2374 F50.
G1 X43.1351 Y-23.2855 Z0.2370
G1 X43.1351 Y-23.3254 Z0.2366
G1 X43.1351 Y-23.3650 Z0.2360
G1 X43.1351 Y-23.4031 Z0.2353
G1 X43.1351 Y-23.4426 Z0.2345
G1 X43.1351 Y-23.4807 Z0.2336
G1 X43.1351 Y-23.5203 Z0.2325
G1 X43.1351 Y-23.5584 Z0.2314
G1 X43.1351 Y-23.5965 Z0.2301
G1 X43.1351 Y-23.6360 Z0.2286
G1 X43.1351 Y-23.6741 Z0.2271
G1 X43.1351 Y-23.7122 Z0.2254
G1 X43.1351 Y-23.7503 Z0.2236
G1 X43.1351 Y-23.7884 Z0.2218
G1 X43.1351 Y-23.8279 Z0.2197
G1 X43.1351 Y-23.8660 Z0.2175
G1 X43.1351 Y-23.9041 Z0.2152
G1 X43.1351 Y-23.9422 Z0.2129
G1 X43.1351 Y-23.9803 Z0.2104
G1 X43.1351 Y-24.0199 Z0.2076
G1 X43.1351 Y-24.0579 Z0.2049
G1 X43.1351 Y-24.0960 Z0.2020
G1 X43.1351 Y-24.1341 Z0.1990
G1 X43.1351 Y-24.1722 Z0.1959
G1 X43.1351 Y-24.2103 Z0.1926
G1 X43.1351 Y-24.2484 Z0.1893
G1 X43.1351 Y-24.2865 Z0.1858
G1 X43.1351 Y-24.3258 Z0.1820
G1 X43.1351 Y-24.3635 Z0.1783
G1 X43.1351 Y-24.4000 Z0.1746
G1 X43.1351 Y-24.4131 Z0.1740
G1 X43.1351 Y-24.4261 Z0.1747
G1 X43.1351 Y-24.4390 Z0.1768
G1 X43.1351 Y-24.4516 Z0.1802
G1 X43.1351 Y-24.4638 Z0.1850
G1 X43.1351 Y-24.4754 Z0.1909
G1 X43.1351 Y-24.4863 Z0.1980
G1 X43.1351 Y-24.4964 Z0.2063
G1 X43.1351 Y-24.5056 Z0.2155
G1 X43.1351 Y-24.5138 Z0.2257
G1 X43.1351 Y-24.5209 Z0.2366
G1 X43.1351 Y-24.5269 Z0.2483
G1 X43.1351 Y-24.5315 Z0.2605
G1 X43.1351 Y-24.5349 Z0.2731
G1 X43.1351 Y-24.5369 Z0.2860
G1 X43.1351 Y-24.5376 Z0.2990
G0 Z0.3629
G0 X42.9701 Y-23.0750 
G1 X42.9701 Y-23.0756 Z0.3506 F25.
G1 X42.9701 Y-23.0774 Z0.3385
G1 X42.9701 Y-23.0804 Z0.3267
G1 X42.9701 Y-23.0845 Z0.3152
G1 X42.9701 Y-23.0897 Z0.3041
G1 X42.9701 Y-23.0960 Z0.2936
G1 X42.9701 Y-23.1033 Z0.2838
G1 X42.9701 Y-23.1114 Z0.2747
G1 X42.9701 Y-23.1205 Z0.2664
G1 X42.9701 Y-23.1303 Z0.2591
G1 X42.9701 Y-23.1408 Z0.2528
G1 X42.9701 Y-23.1518 Z0.2475
G1 X42.9701 Y-23.1633 Z0.2434
G1 X42.9701 Y-23.1751 Z0.2404
G1 X42.9701 Y-23.1872 Z0.2385
G1 X42.9701 Y-23.1994 Z0.2379
G1 X42.9701 Y-23.2405 Z0.2376 F50.
G1 X42.9701 Y-23.2855 Z0.2373
G1 X42.9701 Y-23.3254 Z0.2368
G1 X42.9701 Y-23.3650 Z0.2363
G1 X42.9701 Y-23.4031 Z0.2356
G1 X42.9701 Y-23.4426 Z0.2348
G1 X42.9701 Y-23.4807 Z0.2338
G1 X42.9701 Y-23.5203 Z0.2328
G1 X42.9701 Y-23.5584 Z0.2316
G1 X42.9701 Y-23.5965 Z0.2303
G1 X42.9701 Y-23.6360 Z0.2288
G1 X42.9701 Y-23.6741 Z0.2273
G1 X42.9701 Y-23.7122 Z0.2257
G1 X42.9701 Y-23.7503 Z0.2239
G1 X42.9701 Y-23.7884 Z0.2220
G1 X42.9701 Y-23.8279 Z0.2199
G1 X42.9701 Y-23.8660 Z0.2178
G1 X42.9701 Y-23.9041 Z0.2155
G1 X42.9701 Y-23.9422 Z0.2131
G1 X42.9701 Y-23.9803 Z0.2106
G1 X42.9701 Y-24.0199 Z0.2079
G1 X42.9701 Y-24.0579 Z0.2051
G1 X42.9701 Y-24.0960 Z0.2022
G1 X42.9701 Y-24.1341 Z0.1992
G1 X42.9701 Y-24.1722 Z0.1961
G1 X42.9701 Y-24.2103 Z0.1929
G1 X42.9701 Y-24.2484 Z0.1895
G1 X42.9701 Y-24.2865 Z0.1860
G1 X42.9701 Y-24.3246 Z0.1824
G1 X42.9701 Y-24.3631 Z0.1786
G1 X42.9701 Y-24.4015 Z0.1747
G1 X42.9701 Y-24.4146 Z0.1741
G1 X42.9701 Y-24.4276 Z0.1748
G1 X42.9701 Y-24.4405 Z0.1769
G1 X42.9701 Y-24.4531 Z0.1803
G1 X42.9701 Y-24.4653 Z0.1850
G1 X42.9701 Y-24.4769 Z0.1910
G1 X42.9701 Y-24.4878 Z0.1981
G1 X42.9701 Y-24.4980 Z0.2064
G1 X42.9701 Y-24.5072 Z0.2156
G1 X42.9701 Y-24.5154 Z0.2258
G1 X42.9701 Y-24.5225 Z0.2367
G1 X42.9701 Y-24.5284 Z0.2484
G1 X42.9701 Y-24.5330 Z0.2606
G1 X42.9701 Y-24.5364 Z0.2732
G1 X42.9701 Y-24.5385 Z0.2861
G1 X42.9701 Y-24.5391 Z0.2991
G0 Z0.3631
G0 X42.8051 Y-23.0750 
G1 X42.8051 Y-23.0756 Z0.3509 F25.
G1 X42.8051 Y-23.0774 Z0.3388
G1 X42.8051 Y-23.0804 Z0.3269
G1 X42.8051 Y-23.0845 Z0.3154
G1 X42.8051 Y-23.0897 Z0.3043
G1 X42.8051 Y-23.0960 Z0.2938
G1 X42.8051 Y-23.1033 Z0.2840
G1 X42.8051 Y-23.1114 Z0.2749
G1 X42.8051 Y-23.1205 Z0.2667
G1 X42.8051 Y-23.1303 Z0.2594
G1 X42.8051 Y-23.1408 Z0.2531
G1 X42.8051 Y-23.1518 Z0.2478
G1 X42.8051 Y-23.1633 Z0.2436
G1 X42.8051 Y-23.1751 Z0.2406
G1 X42.8051 Y-23.1872 Z0.2388
G1 X42.8051 Y-23.1994 Z0.2381
G1 X42.8051 Y-23.2405 Z0.2379 F50.
G1 X42.8051 Y-23.2855 Z0.2375
G1 X42.8051 Y-23.3254 Z0.2371
G1 X42.8051 Y-23.3650 Z0.2365
G1 X42.8051 Y-23.4031 Z0.2358
G1 X42.8051 Y-23.4426 Z0.2350
G1 X42.8051 Y-23.4807 Z0.2341
G1 X42.8051 Y-23.5203 Z0.2330
G1 X42.8051 Y-23.5584 Z0.2318
G1 X42.8051 Y-23.5965 Z0.2306
G1 X42.8051 Y-23.6360 Z0.2291
G1 X42.8051 Y-23.6741 Z0.2276
G1 X42.8051 Y-23.7122 Z0.2259
G1 X42.8051 Y-23.7503 Z0.2241
G1 X42.8051 Y-23.7884 Z0.2222
G1 X42.8051 Y-23.8279 Z0.2201
G1 X42.8051 Y-23.8660 Z0.2180
G1 X42.8051 Y-23.9041 Z0.2157
G1 X42.8051 Y-23.9422 Z0.2134
G1 X42.8051 Y-23.9803 Z0.2108
G1 X42.8051 Y-24.0199 Z0.2081
G1 X42.8051 Y-24.0579 Z0.2054
G1 X42.8051 Y-24.0960 Z0.2025
G1 X42.8051 Y-24.1341 Z0.1995
G1 X42.8051 Y-24.1722 Z0.1964
G1 X42.8051 Y-24.2103 Z0.1931
G1 X42.8051 Y-24.2484 Z0.1898
G1 X42.8051 Y-24.2865 Z0.1863
G1 X42.8051 Y-24.3246 Z0.1827
G1 X42.8051 Y-24.3638 Z0.1788
G1 X42.8051 Y-24.4031 Z0.1748
G1 X42.8051 Y-24.4161 Z0.1742
G1 X42.8051 Y-24.4291 Z0.1749
G1 X42.8051 Y-24.4420 Z0.1770
G1 X42.8051 Y-24.4546 Z0.1804
G1 X42.8051 Y-24.4668 Z0.1851
G1 X42.8051 Y-24.4784 Z0.1911
G1 X42.8051 Y-24.4894 Z0.1982
G1 X42.8051 Y-24.4995 Z0.2064
G1 X42.8051 Y-24.5087 Z0.2157
G1 X42.8051 Y-24.5169 Z0.2259
G1 X42.8051 Y-24.5240 Z0.2368
G1 X42.8051 Y-24.5299 Z0.2484
G1 X42.8051 Y-24.5346 Z0.2606
G1 X42.8051 Y-24.5380 Z0.2733
G1 X42.8051 Y-24.5400 Z0.2861
G1 X42.8051 Y-24.5407 Z0.2992
G0 Z0.3633
G0 X42.6401 Y-23.0750 
G1 X42.6401 Y-23.0756 Z0.3511 F25.
G1 X42.6401 Y-23.0774 Z0.3390
G1 X42.6401 Y-23.0804 Z0.3272
G1 X42.6401 Y-23.0845 Z0.3157
G1 X42.6401 Y-23.0897 Z0.3046
G1 X42.6401 Y-23.0960 Z0.2941
G1 X42.6401 Y-23.1033 Z0.2843
G1 X42.6401 Y-23.1114 Z0.2752
G1 X42.6401 Y-23.1205 Z0.2669
G1 X42.6401 Y-23.1303 Z0.2596
G1 X42.6401 Y-23.1408 Z0.2533
G1 X42.6401 Y-23.1518 Z0.2480
G1 X42.6401 Y-23.1633 Z0.2439
G1 X42.6401 Y-23.1751 Z0.2409
G1 X42.6401 Y-23.1872 Z0.2390
G1 X42.6401 Y-23.1994 Z0.2383
G1 X42.6401 Y-23.2405 Z0.2381 F50.
G1 X42.6401 Y-23.2855 Z0.2378
G1 X42.6401 Y-23.3254 Z0.2373
G1 X42.6401 Y-23.3650 Z0.2368
G1 X42.6401 Y-23.4031 Z0.2361
G1 X42.6401 Y-23.4426 Z0.2353
G1 X42.6401 Y-23.4807 Z0.2343
G1 X42.6401 Y-23.5203 Z0.2333
G1 X42.6401 Y-23.5584 Z0.2321
G1 X42.6401 Y-23.5965 Z0.2308
G1 X42.6401 Y-23.6360 Z0.2293
G1 X42.6401 Y-23.6741 Z0.2278
G1 X42.6401 Y-23.7122 Z0.2262
G1 X42.6401 Y-23.7503 Z0.2244
G1 X42.6401 Y-23.7884 Z0.2225
G1 X42.6401 Y-23.8279 Z0.2204
G1 X42.6401 Y-23.8660 Z0.2183
G1 X42.6401 Y-23.9041 Z0.2160
G1 X42.6401 Y-23.9422 Z0.2136
G1 X42.6401 Y-23.9803 Z0.2111
G1 X42.6401 Y-24.0199 Z0.2084
G1 X42.6401 Y-24.0579 Z0.2056
G1 X42.6401 Y-24.0960 Z0.2027
G1 X42.6401 Y-24.1341 Z0.1997
G1 X42.6401 Y-24.1722 Z0.1966
G1 X42.6401 Y-24.2103 Z0.1934
G1 X42.6401 Y-24.2484 Z0.1900
G1 X42.6401 Y-24.2865 Z0.1865
G1 X42.6401 Y-24.3246 Z0.1829
G1 X42.6401 Y-24.3646 Z0.1790
G1 X42.6401 Y-24.4021 Z0.1752
G1 X42.6401 Y-24.4046 Z0.1749
G1 X42.6401 Y-24.4176 Z0.1742
G1 X42.6401 Y-24.4307 Z0.1749
G1 X42.6401 Y-24.4436 Z0.1770
G1 X42.6401 Y-24.4563 Z0.1804
G1 X42.6401 Y-24.4685 Z0.1851
G1 X42.6401 Y-24.4801 Z0.1910
G1 X42.6401 Y-24.4911 Z0.1981
G1 X42.6401 Y-24.5012 Z0.2064
G1 X42.6401 Y-24.5105 Z0.2156
G1 X42.6401 Y-24.5187 Z0.2258
G1 X42.6401 Y-24.5258 Z0.2368
G1 X42.6401 Y-24.5318 Z0.2484
G1 X42.6401 Y-24.5365 Z0.2606
G1 X42.6401 Y-24.5398 Z0.2733
G1 X42.6401 Y-24.5419 Z0.2862
G1 X42.6401 Y-24.5426 Z0.2992
G0 Z0.3636
G0 X42.4751 Y-23.0750 
G1 X42.4751 Y-23.0756 Z0.3514 F25.
G1 X42.4751 Y-23.0774 Z0.3393
G1 X42.4751 Y-23.0804 Z0.3274
G1 X42.4751 Y-23.0845 Z0.3159
G1 X42.4751 Y-23.0897 Z0.3048
G1 X42.4751 Y-23.0960 Z0.2943
G1 X42.4751 Y-23.1033 Z0.2845
G1 X42.4751 Y-23.1114 Z0.2754
G1 X42.4751 Y-23.1205 Z0.2672
G1 X42.4751 Y-23.1303 Z0.2599
G1 X42.4751 Y-23.1408 Z0.2536
G1 X42.4751 Y-23.1518 Z0.2483
G1 X42.4751 Y-23.1633 Z0.2441
G1 X42.4751 Y-23.1751 Z0.2411
G1 X42.4751 Y-23.1872 Z0.2393
G1 X42.4751 Y-23.1994 Z0.2386
G1 X42.4751 Y-23.2405 Z0.2384 F50.
G1 X42.4751 Y-23.2855 Z0.2380
G1 X42.4751 Y-23.3254 Z0.2376
G1 X42.4751 Y-23.3650 Z0.2370
G1 X42.4751 Y-23.4031 Z0.2363
G1 X42.4751 Y-23.4426 Z0.2355
G1 X42.4751 Y-23.4807 Z0.2346
G1 X42.4751 Y-23.5203 Z0.2335
G1 X42.4751 Y-23.5584 Z0.2323
G1 X42.4751 Y-23.5965 Z0.2311
G1 X42.4751 Y-23.6360 Z0.2296
G1 X42.4751 Y-23.6741 Z0.2281
G1 X42.4751 Y-23.7122 Z0.2264
G1 X42.4751 Y-23.7503 Z0.2246
G1 X42.4751 Y-23.7884 Z0.2227
G1 X42.4751 Y-23.8279 Z0.2206
G1 X42.4751 Y-23.8660 Z0.2185
G1 X42.4751 Y-23.9041 Z0.2162
G1 X42.4751 Y-23.9422 Z0.2138
G1 X42.4751 Y-23.9803 Z0.2113
G1 X42.4751 Y-24.0199 Z0.2086
G1 X42.4751 Y-24.0579 Z0.2059
G1 X42.4751 Y-24.0960 Z0.2030
G1 X42.4751 Y-24.1341 Z0.2000
G1 X42.4751 Y-24.1722 Z0.1969
G1 X42.4751 Y-24.2103 Z0.1936
G1 X42.4751 Y-24.2484 Z0.1902
G1 X42.4751 Y-24.2865 Z0.1868
G1 X42.4751 Y-24.3246 Z0.1831
G1 X42.4751 Y-24.3653 Z0.1791
G1 X42.4751 Y-24.4023 Z0.1754
G1 X42.4751 Y-24.4061 Z0.1750
G1 X42.4751 Y-24.4192 Z0.1743
G1 X42.4751 Y-24.4322 Z0.1750
G1 X42.4751 Y-24.4452 Z0.1771
G1 X42.4751 Y-24.4578 Z0.1805
G1 X42.4751 Y-24.4700 Z0.1852
G1 X42.4751 Y-24.4816 Z0.1911
G1 X42.4751 Y-24.4926 Z0.1982
G1 X42.4751 Y-24.5028 Z0.2065
G1 X42.4751 Y-24.5120 Z0.2157
G1 X42.4751 Y-24.5202 Z0.2259
G1 X42.4751 Y-24.5274 Z0.2368
G1 X42.4751 Y-24.5333 Z0.2485
G1 X42.4751 Y-24.5380 Z0.2607
G1 X42.4751 Y-24.5414 Z0.2733
G1 X42.4751 Y-24.5434 Z0.2863
G1 X42.4751 Y-24.5441 Z0.2993
G0 Z0.3638
G0 X42.3101 Y-23.0750 
G1 X42.3101 Y-23.0756 Z0.3516 F25.
G1 X42.3101 Y-23.0774 Z0.3395
G1 X42.3101 Y-23.0804 Z0.3277
G1 X42.3101 Y-23.0845 Z0.3161
G1 X42.3101 Y-23.0897 Z0.3051
G1 X42.3101 Y-23.0960 Z0.2946
G1 X42.3101 Y-23.1033 Z0.2847
G1 X42.3101 Y-23.1114 Z0.2757
G1 X42.3101 Y-23.1205 Z0.2674
G1 X42.3101 Y-23.1303 Z0.2601
G1 X42.3101 Y-23.1408 Z0.2538
G1 X42.3101 Y-23.1518 Z0.2485
G1 X42.3101 Y-23.1633 Z0.2444
G1 X42.3101 Y-23.1751 Z0.2413
G1 X42.3101 Y-23.1872 Z0.2395
G1 X42.3101 Y-23.1994 Z0.2388
G1 X42.3101 Y-23.2405 Z0.2386 F50.
G1 X42.3101 Y-23.2855 Z0.2383
G1 X42.3101 Y-23.3254 Z0.2378
G1 X42.3101 Y-23.3650 Z0.2372
G1 X42.3101 Y-23.4031 Z0.2366
G1 X42.3101 Y-23.4426 Z0.2357
G1 X42.3101 Y-23.4807 Z0.2348
G1 X42.3101 Y-23.5203 Z0.2337
G1 X42.3101 Y-23.5584 Z0.2326
G1 X42.3101 Y-23.5965 Z0.2313
G1 X42.3101 Y-23.6360 Z0.2298
G1 X42.3101 Y-23.6741 Z0.2283
G1 X42.3101 Y-23.7122 Z0.2267
G1 X42.3101 Y-23.7503 Z0.2249
G1 X42.3101 Y-23.7884 Z0.2230
G1 X42.3101 Y-23.8279 Z0.2209
G1 X42.3101 Y-23.8660 Z0.2187
G1 X42.3101 Y-23.9041 Z0.2165
G1 X42.3101 Y-23.9422 Z0.2141
G1 X42.3101 Y-23.9803 Z0.2116
G1 X42.3101 Y-24.0199 Z0.2089
G1 X42.3101 Y-24.0579 Z0.2061
G1 X42.3101 Y-24.0960 Z0.2032
G1 X42.3101 Y-24.1341 Z0.2002
G1 X42.3101 Y-24.1722 Z0.1971
G1 X42.3101 Y-24.2103 Z0.1939
G1 X42.3101 Y-24.2484 Z0.1905
G1 X42.3101 Y-24.2865 Z0.1870
G1 X42.3101 Y-24.3246 Z0.1834
G1 X42.3101 Y-24.3661 Z0.1793
G1 X42.3101 Y-24.4024 Z0.1756
G1 X42.3101 Y-24.4076 Z0.1751
G1 X42.3101 Y-24.4207 Z0.1744
G1 X42.3101 Y-24.4338 Z0.1751
G1 X42.3101 Y-24.4467 Z0.1772
G1 X42.3101 Y-24.4593 Z0.1805
G1 X42.3101 Y-24.4715 Z0.1852
G1 X42.3101 Y-24.4832 Z0.1912
G1 X42.3101 Y-24.4941 Z0.1983
G1 X42.3101 Y-24.5043 Z0.2065
G1 X42.3101 Y-24.5135 Z0.2158
G1 X42.3101 Y-24.5218 Z0.2260
G1 X42.3101 Y-24.5289 Z0.2369
G1 X42.3101 Y-24.5348 Z0.2486
G1 X42.3101 Y-24.5395 Z0.2608
G1 X42.3101 Y-24.5429 Z0.2734
G1 X42.3101 Y-24.5449 Z0.2863
G1 X42.3101 Y-24.5456 Z0.2994
G0 Z0.3641
G0 X42.1451 Y-23.0750 
G1 X42.1451 Y-23.0756 Z0.3519 F25.
G1 X42.1451 Y-23.0774 Z0.3398
G1 X42.1451 Y-23.0804 Z0.3279
G1 X42.1451 Y-23.0845 Z0.3164
G1 X42.1451 Y-23.0897 Z0.3053
G1 X42.1451 Y-23.0960 Z0.2948
G1 X42.1451 Y-23.1033 Z0.2850
G1 X42.1451 Y-23.1114 Z0.2759
G1 X42.1451 Y-23.1205 Z0.2677
G1 X42.1451 Y-23.1303 Z0.2604
G1 X42.1451 Y-23.1408 Z0.2540
G1 X42.1451 Y-23.1518 Z0.2488
G1 X42.1451 Y-23.1633 Z0.2446
G1 X42.1451 Y-23.1751 Z0.2416
G1 X42.1451 Y-23.1872 Z0.2397
G1 X42.1451 Y-23.1994 Z0.2391
G1 X42.1451 Y-23.2405 Z0.2389 F50.
G1 X42.1451 Y-23.2855 Z0.2385
G1 X42.1451 Y-23.3254 Z0.2381
G1 X42.1451 Y-23.3650 Z0.2375
G1 X42.1451 Y-23.4031 Z0.2368
G1 X42.1451 Y-23.4426 Z0.2360
G1 X42.1451 Y-23.4807 Z0.2351
G1 X42.1451 Y-23.5203 Z0.2340
G1 X42.1451 Y-23.5584 Z0.2328
G1 X42.1451 Y-23.5965 Z0.2315
G1 X42.1451 Y-23.6360 Z0.2301
G1 X42.1451 Y-23.6741 Z0.2286
G1 X42.1451 Y-23.7122 Z0.2269
G1 X42.1451 Y-23.7503 Z0.2251
G1 X42.1451 Y-23.7884 Z0.2232
G1 X42.1451 Y-23.8279 Z0.2211
G1 X42.1451 Y-23.8660 Z0.2190
G1 X42.1451 Y-23.9041 Z0.2167
G1 X42.1451 Y-23.9422 Z0.2143
G1 X42.1451 Y-23.9803 Z0.2118
G1 X42.1451 Y-24.0199 Z0.2091
G1 X42.1451 Y-24.0579 Z0.2063
G1 X42.1451 Y-24.0960 Z0.2035
G1 X42.1451 Y-24.1341 Z0.2005
G1 X42.1451 Y-24.1722 Z0.1973
G1 X42.1451 Y-24.2103 Z0.1941
G1 X42.1451 Y-24.2484 Z0.1907
G1 X42.1451 Y-24.2865 Z0.1873
G1 X42.1451 Y-24.3246 Z0.1836
G1 X42.1451 Y-24.3669 Z0.1795
G1 X42.1451 Y-24.4012 Z0.1760
G1 X42.1451 Y-24.4092 Z0.1752
G1 X42.1451 Y-24.4222 Z0.1745
G1 X42.1451 Y-24.4353 Z0.1752
G1 X42.1451 Y-24.4482 Z0.1772
G1 X42.1451 Y-24.4608 Z0.1806
G1 X42.1451 Y-24.4730 Z0.1853
G1 X42.1451 Y-24.4847 Z0.1913
G1 X42.1451 Y-24.4957 Z0.1984
G1 X42.1451 Y-24.5058 Z0.2066
G1 X42.1451 Y-24.5151 Z0.2159
G1 X42.1451 Y-24.5233 Z0.2260
G1 X42.1451 Y-24.5304 Z0.2370
G1 X42.1451 Y-24.5363 Z0.2487
G1 X42.1451 Y-24.5410 Z0.2609
G1 X42.1451 Y-24.5444 Z0.2735
G1 X42.1451 Y-24.5465 Z0.2864
G1 X42.1451 Y-24.5471 Z0.2995
G0 Z0.3643
G0 X41.9801 Y-23.0750 
G1 X41.9801 Y-23.0756 Z0.3521 F25.
G1 X41.9801 Y-23.0774 Z0.3400
G1 X41.9801 Y-23.0804 Z0.3282
G1 X41.9801 Y-23.0845 Z0.3166
G1 X41.9801 Y-23.0897 Z0.3056
G1 X41.9801 Y-23.0960 Z0.2951
G1 X41.9801 Y-23.1033 Z0.2852
G1 X41.9801 Y-23.1114 Z0.2762
G1 X41.9801 Y-23.1205 Z0.2679
G1 X41.9801 Y-23.1303 Z0.2606
G1 X41.9801 Y-23.1408 Z0.2543
G1 X41.9801 Y-23.1518 Z0.2490
G1 X41.9801 Y-23.1633 Z0.2449
G1 X41.9801 Y-23.1751 Z0.2418
G1 X41.9801 Y-23.1872 Z0.2400
G1 X41.9801 Y-23.1994 Z0.2393
G1 X41.9801 Y-23.2405 Z0.2391 F50.
G1 X41.9801 Y-23.2855 Z0.2388
G1 X41.9801 Y-23.3254 Z0.2383
G1 X41.9801 Y-23.3650 Z0.2377
G1 X41.9801 Y-23.4031 Z0.2371
G1 X41.9801 Y-23.4426 Z0.2362
G1 X41.9801 Y-23.4807 Z0.2353
G1 X41.9801 Y-23.5203 Z0.2342
G1 X41.9801 Y-23.5584 Z0.2331
G1 X41.9801 Y-23.5965 Z0.2318
G1 X41.9801 Y-23.6360 Z0.2303
G1 X41.9801 Y-23.6741 Z0.2288
G1 X41.9801 Y-23.7122 Z0.2271
G1 X41.9801 Y-23.7503 Z0.2254
G1 X41.9801 Y-23.7884 Z0.2235
G1 X41.9801 Y-23.8279 Z0.2214
G1 X41.9801 Y-23.8660 Z0.2192
G1 X41.9801 Y-23.9041 Z0.2170
G1 X41.9801 Y-23.9422 Z0.2146
G1 X41.9801 Y-23.9803 Z0.2121
G1 X41.9801 Y-24.0199 Z0.2093
G1 X41.9801 Y-24.0579 Z0.2066
G1 X41.9801 Y-24.0960 Z0.2037
G1 X41.9801 Y-24.1341 Z0.2007
G1 X41.9801 Y-24.1722 Z0.1976
G1 X41.9801 Y-24.2103 Z0.1944
G1 X41.9801 Y-24.2484 Z0.1910
G1 X41.9801 Y-24.2865 Z0.1875
G1 X41.9801 Y-24.3246 Z0.1839
G1 X41.9801 Y-24.3676 Z0.1797
G1 X41.9801 Y-24.4026 Z0.1761
G1 X41.9801 Y-24.4107 Z0.1753
G1 X41.9801 Y-24.4237 Z0.1746
G1 X41.9801 Y-24.4368 Z0.1753
G1 X41.9801 Y-24.4497 Z0.1773
G1 X41.9801 Y-24.4624 Z0.1807
G1 X41.9801 Y-24.4746 Z0.1854
G1 X41.9801 Y-24.4862 Z0.1914
G1 X41.9801 Y-24.4972 Z0.1985
G1 X41.9801 Y-24.5073 Z0.2067
G1 X41.9801 Y-24.5166 Z0.2160
G1 X41.9801 Y-24.5248 Z0.2261
G1 X41.9801 Y-24.5319 Z0.2371
G1 X41.9801 Y-24.5379 Z0.2488
G1 X41.9801 Y-24.5426 Z0.2610
G1 X41.9801 Y-24.5459 Z0.2736
G1 X41.9801 Y-24.5480 Z0.2865
G1 X41.9801 Y-24.5487 Z0.2996
G0 Z0.3646
G0 X41.8151 Y-23.0750 
G1 X41.8151 Y-23.0756 Z0.3524 F25.
G1 X41.8151 Y-23.0774 Z0.3403
G1 X41.8151 Y-23.0804 Z0.3284
G1 X41.8151 Y-23.0845 Z0.3169
G1 X41.8151 Y-23.0897 Z0.3058
G1 X41.8151 Y-23.0960 Z0.2953
G1 X41.8151 Y-23.1033 Z0.2855
G1 X41.8151 Y-23.1114 Z0.2764
G1 X41.8151 Y-23.1205 Z0.2682
G1 X41.8151 Y-23.1303 Z0.2609
G1 X41.8151 Y-23.1408 Z0.2545
G1 X41.8151 Y-23.1518 Z0.2493
G1 X41.8151 Y-23.1633 Z0.2451
G1 X41.8151 Y-23.1751 Z0.2421
G1 X41.8151 Y-23.1872 Z0.2402
G1 X41.8151 Y-23.1994 Z0.2396
G1 X41.8151 Y-23.2405 Z0.2394 F50.
G1 X41.8151 Y-23.2855 Z0.2390
G1 X41.8151 Y-23.3254 Z0.2386
G1 X41.8151 Y-23.3650 Z0.2380
G1 X41.8151 Y-23.4031 Z0.2373
G1 X41.8151 Y-23.4426 Z0.2365
G1 X41.8151 Y-23.4807 Z0.2356
G1 X41.8151 Y-23.5203 Z0.2345
G1 X41.8151 Y-23.5584 Z0.2333
G1 X41.8151 Y-23.5965 Z0.2320
G1 X41.8151 Y-23.6360 Z0.2306
G1 X41.8151 Y-23.6741 Z0.2290
G1 X41.8151 Y-23.7122 Z0.2274
G1 X41.8151 Y-23.7503 Z0.2256
G1 X41.8151 Y-23.7884 Z0.2237
G1 X41.8151 Y-23.8279 Z0.2216
G1 X41.8151 Y-23.8660 Z0.2195
G1 X41.8151 Y-23.9041 Z0.2172
G1 X41.8151 Y-23.9422 Z0.2148
G1 X41.8151 Y-23.9803 Z0.2123
G1 X41.8151 Y-24.0199 Z0.2096
G1 X41.8151 Y-24.0579 Z0.2068
G1 X41.8151 Y-24.0960 Z0.2040
G1 X41.8151 Y-24.1341 Z0.2010
G1 X41.8151 Y-24.1722 Z0.1978
G1 X41.8151 Y-24.2103 Z0.1946
G1 X41.8151 Y-24.2484 Z0.1912
G1 X41.8151 Y-24.2865 Z0.1877
G1 X41.8151 Y-24.3246 Z0.1841
G1 X41.8151 Y-24.3684 Z0.1798
G1 X41.8151 Y-24.4013 Z0.1765
G1 X41.8151 Y-24.4122 Z0.1754
G1 X41.8151 Y-24.4253 Z0.1747
G1 X41.8151 Y-24.4383 Z0.1754
G1 X41.8151 Y-24.4512 Z0.1774
G1 X41.8151 Y-24.4639 Z0.1808
G1 X41.8151 Y-24.4761 Z0.1855
G1 X41.8151 Y-24.4877 Z0.1914
G1 X41.8151 Y-24.4987 Z0.1986
G1 X41.8151 Y-24.5089 Z0.2068
G1 X41.8151 Y-24.5181 Z0.2161
G1 X41.8151 Y-24.5263 Z0.2262
G1 X41.8151 Y-24.5335 Z0.2372
G1 X41.8151 Y-24.5394 Z0.2488
G1 X41.8151 Y-24.5441 Z0.2611
G1 X41.8151 Y-24.5475 Z0.2737
G1 X41.8151 Y-24.5495 Z0.2866
G1 X41.8151 Y-24.5502 Z0.2997
G0 Z0.3648
G0 X41.6501 Y-23.0750 
G1 X41.6501 Y-23.0756 Z0.3526 F25.
G1 X41.6501 Y-23.0774 Z0.3405
G1 X41.6501 Y-23.0804 Z0.3286
G1 X41.6501 Y-23.0845 Z0.3171
G1 X41.6501 Y-23.0897 Z0.3061
G1 X41.6501 Y-23.0960 Z0.2956
G1 X41.6501 Y-23.1033 Z0.2857
G1 X41.6501 Y-23.1114 Z0.2767
G1 X41.6501 Y-23.1205 Z0.2684
G1 X41.6501 Y-23.1303 Z0.2611
G1 X41.6501 Y-23.1408 Z0.2548
G1 X41.6501 Y-23.1518 Z0.2495
G1 X41.6501 Y-23.1633 Z0.2454
G1 X41.6501 Y-23.1751 Z0.2423
G1 X41.6501 Y-23.1872 Z0.2405
G1 X41.6501 Y-23.1994 Z0.2398
G1 X41.6501 Y-23.2405 Z0.2396 F50.
G1 X41.6501 Y-23.2855 Z0.2393
G1 X41.6501 Y-23.3254 Z0.2388
G1 X41.6501 Y-23.3650 Z0.2382
G1 X41.6501 Y-23.4031 Z0.2376
G1 X41.6501 Y-23.4426 Z0.2367
G1 X41.6501 Y-23.4807 Z0.2358
G1 X41.6501 Y-23.5203 Z0.2347
G1 X41.6501 Y-23.5584 Z0.2336
G1 X41.6501 Y-23.5965 Z0.2323
G1 X41.6501 Y-23.6360 Z0.2308
G1 X41.6501 Y-23.6741 Z0.2293
G1 X41.6501 Y-23.7122 Z0.2276
G1 X41.6501 Y-23.7503 Z0.2259
G1 X41.6501 Y-23.7884 Z0.2240
G1 X41.6501 Y-23.8279 Z0.2219
G1 X41.6501 Y-23.8660 Z0.2197
G1 X41.6501 Y-23.9041 Z0.2175
G1 X41.6501 Y-23.9422 Z0.2151
G1 X41.6501 Y-23.9803 Z0.2126
G1 X41.6501 Y-24.0199 Z0.2098
G1 X41.6501 Y-24.0579 Z0.2071
G1 X41.6501 Y-24.0960 Z0.2042
G1 X41.6501 Y-24.1341 Z0.2012
G1 X41.6501 Y-24.1722 Z0.1981
G1 X41.6501 Y-24.2103 Z0.1948
G1 X41.6501 Y-24.2484 Z0.1915
G1 X41.6501 Y-24.2865 Z0.1880
G1 X41.6501 Y-24.3246 Z0.1844
G1 X41.6501 Y-24.3692 Z0.1800
G1 X41.6501 Y-24.4026 Z0.1766
G1 X41.6501 Y-24.4137 Z0.1754
G1 X41.6501 Y-24.4268 Z0.1748
G1 X41.6501 Y-24.4399 Z0.1755
G1 X41.6501 Y-24.4528 Z0.1775
G1 X41.6501 Y-24.4654 Z0.1809
G1 X41.6501 Y-24.4776 Z0.1856
G1 X41.6501 Y-24.4893 Z0.1915
G1 X41.6501 Y-24.5002 Z0.1987
G1 X41.6501 Y-24.5104 Z0.2069
G1 X41.6501 Y-24.5196 Z0.2161
G1 X41.6501 Y-24.5279 Z0.2263
G1 X41.6501 Y-24.5350 Z0.2373
G1 X41.6501 Y-24.5409 Z0.2489
G1 X41.6501 Y-24.5456 Z0.2611
G1 X41.6501 Y-24.5490 Z0.2738
G1 X41.6501 Y-24.5510 Z0.2867
G1 X41.6501 Y-24.5517 Z0.2998
G0 Z0.3651
G0 X41.4851 Y-23.0750 
G1 X41.4851 Y-23.0756 Z0.3529 F25.
G1 X41.4851 Y-23.0774 Z0.3408
G1 X41.4851 Y-23.0804 Z0.3289
G1 X41.4851 Y-23.0845 Z0.3174
G1 X41.4851 Y-23.0897 Z0.3063
G1 X41.4851 Y-23.0960 Z0.2958
G1 X41.4851 Y-23.1033 Z0.2860
G1 X41.4851 Y-23.1114 Z0.2769
G1 X41.4851 Y-23.1205 Z0.2687
G1 X41.4851 Y-23.1303 Z0.2614
G1 X41.4851 Y-23.1408 Z0.2550
G1 X41.4851 Y-23.1518 Z0.2498
G1 X41.4851 Y-23.1633 Z0.2456
G1 X41.4851 Y-23.1751 Z0.2426
G1 X41.4851 Y-23.1872 Z0.2407
G1 X41.4851 Y-23.1994 Z0.2401
G1 X41.4851 Y-23.2405 Z0.2399 F50.
G1 X41.4851 Y-23.2855 Z0.2395
G1 X41.4851 Y-23.3254 Z0.2391
G1 X41.4851 Y-23.3650 Z0.2385
G1 X41.4851 Y-23.4031 Z0.2378
G1 X41.4851 Y-23.4426 Z0.2370
G1 X41.4851 Y-23.4807 Z0.2361
G1 X41.4851 Y-23.5203 Z0.2350
G1 X41.4851 Y-23.5584 Z0.2338
G1 X41.4851 Y-23.5965 Z0.2325
G1 X41.4851 Y-23.6360 Z0.2311
G1 X41.4851 Y-23.6741 Z0.2295
G1 X41.4851 Y-23.7122 Z0.2279
G1 X41.4851 Y-23.7503 Z0.2261
G1 X41.4851 Y-23.7884 Z0.2242
G1 X41.4851 Y-23.8279 Z0.2221
G1 X41.4851 Y-23.8660 Z0.2200
G1 X41.4851 Y-23.9041 Z0.2177
G1 X41.4851 Y-23.9422 Z0.2153
G1 X41.4851 Y-23.9803 Z0.2128
G1 X41.4851 Y-24.0199 Z0.2101
G1 X41.4851 Y-24.0579 Z0.2073
G1 X41.4851 Y-24.0960 Z0.2045
G1 X41.4851 Y-24.1341 Z0.2015
G1 X41.4851 Y-24.1722 Z0.1983
G1 X41.4851 Y-24.2103 Z0.1951
G1 X41.4851 Y-24.2484 Z0.1917
G1 X41.4851 Y-24.2865 Z0.1882
G1 X41.4851 Y-24.3260 Z0.1845
G1 X41.4851 Y-24.3643 Z0.1807
G1 X41.4851 Y-24.4025 Z0.1769
G1 X41.4851 Y-24.4153 Z0.1755
G1 X41.4851 Y-24.4283 Z0.1748
G1 X41.4851 Y-24.4414 Z0.1755
G1 X41.4851 Y-24.4543 Z0.1776
G1 X41.4851 Y-24.4669 Z0.1810
G1 X41.4851 Y-24.4791 Z0.1857
G1 X41.4851 Y-24.4908 Z0.1916
G1 X41.4851 Y-24.5017 Z0.1987
G1 X41.4851 Y-24.5119 Z0.2070
G1 X41.4851 Y-24.5212 Z0.2162
G1 X41.4851 Y-24.5294 Z0.2264
G1 X41.4851 Y-24.5365 Z0.2374
G1 X41.4851 Y-24.5424 Z0.2490
G1 X41.4851 Y-24.5471 Z0.2612
G1 X41.4851 Y-24.5505 Z0.2739
G1 X41.4851 Y-24.5526 Z0.2868
G1 X41.4851 Y-24.5532 Z0.2998
G0 Z0.3653
G0 X41.3201 Y-23.0750 
G1 X41.3201 Y-23.0756 Z0.3531 F25.
G1 X41.3201 Y-23.0774 Z0.3410
G1 X41.3201 Y-23.0804 Z0.3291
G1 X41.3201 Y-23.0845 Z0.3176
G1 X41.3201 Y-23.0897 Z0.3066
G1 X41.3201 Y-23.0960 Z0.2961
G1 X41.3201 Y-23.1033 Z0.2862
G1 X41.3201 Y-23.1114 Z0.2771
G1 X41.3201 Y-23.1205 Z0.2689
G1 X41.3201 Y-23.1303 Z0.2616
G1 X41.3201 Y-23.1408 Z0.2553
G1 X41.3201 Y-23.1518 Z0.2500
G1 X41.3201 Y-23.1633 Z0.2458
G1 X41.3201 Y-23.1751 Z0.2428
G1 X41.3201 Y-23.1872 Z0.2410
G1 X41.3201 Y-23.1994 Z0.2403
G1 X41.3201 Y-23.2405 Z0.2401 F50.
G1 X41.3201 Y-23.2855 Z0.2398
G1 X41.3201 Y-23.3254 Z0.2393
G1 X41.3201 Y-23.3650 Z0.2387
G1 X41.3201 Y-23.4031 Z0.2381
G1 X41.3201 Y-23.4426 Z0.2372
G1 X41.3201 Y-23.4807 Z0.2363
G1 X41.3201 Y-23.5203 Z0.2352
G1 X41.3201 Y-23.5584 Z0.2341
G1 X41.3201 Y-23.5965 Z0.2328
G1 X41.3201 Y-23.6360 Z0.2313
G1 X41.3201 Y-23.6741 Z0.2298
G1 X41.3201 Y-23.7122 Z0.2281
G1 X41.3201 Y-23.7503 Z0.2264
G1 X41.3201 Y-23.7884 Z0.2245
G1 X41.3201 Y-23.8279 Z0.2224
G1 X41.3201 Y-23.8660 Z0.2202
G1 X41.3201 Y-23.9041 Z0.2180
G1 X41.3201 Y-23.9422 Z0.2156
G1 X41.3201 Y-23.9803 Z0.2131
G1 X41.3201 Y-24.0199 Z0.2103
G1 X41.3201 Y-24.0579 Z0.2076
G1 X41.3201 Y-24.0960 Z0.2047
G1 X41.3201 Y-24.1341 Z0.2017
G1 X41.3201 Y-24.1722 Z0.1986
G1 X41.3201 Y-24.2103 Z0.1953
G1 X41.3201 Y-24.2484 Z0.1920
G1 X41.3201 Y-24.2865 Z0.1885
G1 X41.3201 Y-24.3260 Z0.1847
G1 X41.3201 Y-24.3635 Z0.1811
G1 X41.3201 Y-24.4024 Z0.1771
G1 X41.3201 Y-24.4168 Z0.1756
G1 X41.3201 Y-24.4298 Z0.1749
G1 X41.3201 Y-24.4429 Z0.1756
G1 X41.3201 Y-24.4558 Z0.1777
G1 X41.3201 Y-24.4684 Z0.1811
G1 X41.3201 Y-24.4807 Z0.1858
G1 X41.3201 Y-24.4923 Z0.1917
G1 X41.3201 Y-24.5033 Z0.1988
G1 X41.3201 Y-24.5134 Z0.2071
G1 X41.3201 Y-24.5227 Z0.2163
G1 X41.3201 Y-24.5309 Z0.2265
G1 X41.3201 Y-24.5380 Z0.2375
G1 X41.3201 Y-24.5440 Z0.2491
G1 X41.3201 Y-24.5487 Z0.2613
G1 X41.3201 Y-24.5520 Z0.2740
G1 X41.3201 Y-24.5541 Z0.2869
G1 X41.3201 Y-24.5548 Z0.2999
G0 Z0.3656
G0 X41.1551 Y-23.0750 
G1 X41.1551 Y-23.0756 Z0.3533 F25.
G1 X41.1551 Y-23.0774 Z0.3413
G1 X41.1551 Y-23.0804 Z0.3294
G1 X41.1551 Y-23.0845 Z0.3179
G1 X41.1551 Y-23.0897 Z0.3068
G1 X41.1551 Y-23.0960 Z0.2963
G1 X41.1551 Y-23.1033 Z0.2865
G1 X41.1551 Y-23.1114 Z0.2774
G1 X41.1551 Y-23.1205 Z0.2692
G1 X41.1551 Y-23.1303 Z0.2618
G1 X41.1551 Y-23.1408 Z0.2555
G1 X41.1551 Y-23.1518 Z0.2503
G1 X41.1551 Y-23.1633 Z0.2461
G1 X41.1551 Y-23.1751 Z0.2431
G1 X41.1551 Y-23.1872 Z0.2412
G1 X41.1551 Y-23.1994 Z0.2406
G1 X41.1551 Y-23.2405 Z0.2404 F50.
G1 X41.1551 Y-23.2855 Z0.2400
G1 X41.1551 Y-23.3254 Z0.2395
G1 X41.1551 Y-23.3650 Z0.2390
G1 X41.1551 Y-23.4031 Z0.2383
G1 X41.1551 Y-23.4426 Z0.2375
G1 X41.1551 Y-23.4807 Z0.2366
G1 X41.1551 Y-23.5203 Z0.2355
G1 X41.1551 Y-23.5584 Z0.2343
G1 X41.1551 Y-23.5965 Z0.2330
G1 X41.1551 Y-23.6360 Z0.2316
G1 X41.1551 Y-23.6741 Z0.2300
G1 X41.1551 Y-23.7122 Z0.2284
G1 X41.1551 Y-23.7503 Z0.2266
G1 X41.1551 Y-23.7884 Z0.2247
G1 X41.1551 Y-23.8279 Z0.2226
G1 X41.1551 Y-23.8660 Z0.2205
G1 X41.1551 Y-23.9041 Z0.2182
G1 X41.1551 Y-23.9422 Z0.2158
G1 X41.1551 Y-23.9803 Z0.2133
G1 X41.1551 Y-24.0199 Z0.2106
G1 X41.1551 Y-24.0579 Z0.2078
G1 X41.1551 Y-24.0960 Z0.2049
G1 X41.1551 Y-24.1341 Z0.2019
G1 X41.1551 Y-24.1722 Z0.1988
G1 X41.1551 Y-24.2103 Z0.1956
G1 X41.1551 Y-24.2484 Z0.1922
G1 X41.1551 Y-24.2865 Z0.1887
G1 X41.1551 Y-24.3260 Z0.1850
G1 X41.1551 Y-24.3641 Z0.1812
G1 X41.1551 Y-24.4022 Z0.1774
G1 X41.1551 Y-24.4183 Z0.1757
G1 X41.1551 Y-24.4314 Z0.1750
G1 X41.1551 Y-24.4444 Z0.1757
G1 X41.1551 Y-24.4573 Z0.1778
G1 X41.1551 Y-24.4700 Z0.1812
G1 X41.1551 Y-24.4822 Z0.1859
G1 X41.1551 Y-24.4938 Z0.1918
G1 X41.1551 Y-24.5048 Z0.1989
G1 X41.1551 Y-24.5150 Z0.2072
G1 X41.1551 Y-24.5242 Z0.2164
G1 X41.1551 Y-24.5324 Z0.2266
G1 X41.1551 Y-24.5396 Z0.2375
G1 X41.1551 Y-24.5455 Z0.2492
G1 X41.1551 Y-24.5502 Z0.2614
G1 X41.1551 Y-24.5536 Z0.2740
G1 X41.1551 Y-24.5556 Z0.2870
G1 X41.1551 Y-24.5563 Z0.3000
G0 Z0.3658
G0 X40.9901 Y-23.0750 
G1 X40.9901 Y-23.0756 Z0.3536 F25.
G1 X40.9901 Y-23.0774 Z0.3415
G1 X40.9901 Y-23.0804 Z0.3296
G1 X40.9901 Y-23.0845 Z0.3181
G1 X40.9901 Y-23.0897 Z0.3071
G1 X40.9901 Y-23.0960 Z0.2966
G1 X40.9901 Y-23.1033 Z0.2867
G1 X40.9901 Y-23.1114 Z0.2776
G1 X40.9901 Y-23.1205 Z0.2694
G1 X40.9901 Y-23.1303 Z0.2621
G1 X40.9901 Y-23.1408 Z0.2558
G1 X40.9901 Y-23.1518 Z0.2505
G1 X40.9901 Y-23.1633 Z0.2463
G1 X40.9901 Y-23.1751 Z0.2433
G1 X40.9901 Y-23.1872 Z0.2415
G1 X40.9901 Y-23.1994 Z0.2408
G1 X40.9901 Y-23.2405 Z0.2406 F50.
G1 X40.9901 Y-23.2855 Z0.2402
G1 X40.9901 Y-23.3254 Z0.2398
G1 X40.9901 Y-23.3650 Z0.2392
G1 X40.9901 Y-23.4031 Z0.2385
G1 X40.9901 Y-23.4426 Z0.2377
G1 X40.9901 Y-23.4807 Z0.2368
G1 X40.9901 Y-23.5203 Z0.2357
G1 X40.9901 Y-23.5584 Z0.2346
G1 X40.9901 Y-23.5965 Z0.2333
G1 X40.9901 Y-23.6360 Z0.2318
G1 X40.9901 Y-23.6741 Z0.2303
G1 X40.9901 Y-23.7122 Z0.2286
G1 X40.9901 Y-23.7503 Z0.2269
G1 X40.9901 Y-23.7884 Z0.2250
G1 X40.9901 Y-23.8279 Z0.2229
G1 X40.9901 Y-23.8660 Z0.2207
G1 X40.9901 Y-23.9041 Z0.2185
G1 X40.9901 Y-23.9422 Z0.2161
G1 X40.9901 Y-23.9803 Z0.2136
G1 X40.9901 Y-24.0199 Z0.2108
G1 X40.9901 Y-24.0579 Z0.2081
G1 X40.9901 Y-24.0960 Z0.2052
G1 X40.9901 Y-24.1341 Z0.2022
G1 X40.9901 Y-24.1722 Z0.1991
G1 X40.9901 Y-24.2103 Z0.1958
G1 X40.9901 Y-24.2484 Z0.1925
G1 X40.9901 Y-24.2865 Z0.1890
G1 X40.9901 Y-24.3261 Z0.1852
G1 X40.9901 Y-24.3633 Z0.1816
G1 X40.9901 Y-24.4020 Z0.1777
G1 X40.9901 Y-24.4198 Z0.1758
G1 X40.9901 Y-24.4329 Z0.1751
G1 X40.9901 Y-24.4459 Z0.1758
G1 X40.9901 Y-24.4589 Z0.1779
G1 X40.9901 Y-24.4715 Z0.1812
G1 X40.9901 Y-24.4837 Z0.1859
G1 X40.9901 Y-24.4954 Z0.1919
G1 X40.9901 Y-24.5063 Z0.1990
G1 X40.9901 Y-24.5165 Z0.2072
G1 X40.9901 Y-24.5257 Z0.2165
G1 X40.9901 Y-24.5340 Z0.2267
G1 X40.9901 Y-24.5411 Z0.2376
G1 X40.9901 Y-24.5470 Z0.2493
G1 X40.9901 Y-24.5517 Z0.2615
G1 X40.9901 Y-24.5551 Z0.2741
G1 X40.9901 Y-24.5571 Z0.2870
G1 X40.9901 Y-24.5578 Z0.3001
G0 Z0.3661
G0 X40.8251 Y-23.0750 
G1 X40.8251 Y-23.0756 Z0.3538 F25.
G1 X40.8251 Y-23.0774 Z0.3417
G1 X40.8251 Y-23.0804 Z0.3299
G1 X40.8251 Y-23.0845 Z0.3184
G1 X40.8251 Y-23.0897 Z0.3073
G1 X40.8251 Y-23.0960 Z0.2968
G1 X40.8251 Y-23.1033 Z0.2870
G1 X40.8251 Y-23.1114 Z0.2779
G1 X40.8251 Y-23.1205 Z0.2697
G1 X40.8251 Y-23.1303 Z0.2623
G1 X40.8251 Y-23.1408 Z0.2560
G1 X40.8251 Y-23.1518 Z0.2507
G1 X40.8251 Y-23.1633 Z0.2466
G1 X40.8251 Y-23.1751 Z0.2436
G1 X40.8251 Y-23.1872 Z0.2417
G1 X40.8251 Y-23.1994 Z0.2411
G1 X40.8251 Y-23.2405 Z0.2409 F50.
G1 X40.8251 Y-23.2855 Z0.2405
G1 X40.8251 Y-23.3254 Z0.2400
G1 X40.8251 Y-23.3650 Z0.2395
G1 X40.8251 Y-23.4031 Z0.2388
G1 X40.8251 Y-23.4426 Z0.2380
G1 X40.8251 Y-23.4807 Z0.2371
G1 X40.8251 Y-23.5203 Z0.2360
G1 X40.8251 Y-23.5584 Z0.2348
G1 X40.8251 Y-23.5965 Z0.2335
G1 X40.8251 Y-23.6360 Z0.2321
G1 X40.8251 Y-23.6741 Z0.2305
G1 X40.8251 Y-23.7122 Z0.2289
G1 X40.8251 Y-23.7503 Z0.2271
G1 X40.8251 Y-23.7884 Z0.2252
G1 X40.8251 Y-23.8279 Z0.2231
G1 X40.8251 Y-23.8660 Z0.2210
G1 X40.8251 Y-23.9041 Z0.2187
G1 X40.8251 Y-23.9422 Z0.2163
G1 X40.8251 Y-23.9803 Z0.2138
G1 X40.8251 Y-24.0199 Z0.2111
G1 X40.8251 Y-24.0579 Z0.2083
G1 X40.8251 Y-24.0960 Z0.2054
G1 X40.8251 Y-24.1341 Z0.2024
G1 X40.8251 Y-24.1722 Z0.1993
G1 X40.8251 Y-24.2103 Z0.1961
G1 X40.8251 Y-24.2484 Z0.1927
G1 X40.8251 Y-24.2865 Z0.1892
G1 X40.8251 Y-24.3261 Z0.1855
G1 X40.8251 Y-24.3639 Z0.1818
G1 X40.8251 Y-24.4017 Z0.1779
G1 X40.8251 Y-24.4213 Z0.1759
G1 X40.8251 Y-24.4344 Z0.1752
G1 X40.8251 Y-24.4475 Z0.1759
G1 X40.8251 Y-24.4604 Z0.1779
G1 X40.8251 Y-24.4730 Z0.1813
G1 X40.8251 Y-24.4852 Z0.1860
G1 X40.8251 Y-24.4969 Z0.1920
G1 X40.8251 Y-24.5078 Z0.1991
G1 X40.8251 Y-24.5180 Z0.2073
G1 X40.8251 Y-24.5273 Z0.2166
G1 X40.8251 Y-24.5355 Z0.2267
G1 X40.8251 Y-24.5426 Z0.2377
G1 X40.8251 Y-24.5485 Z0.2494
G1 X40.8251 Y-24.5532 Z0.2616
G1 X40.8251 Y-24.5566 Z0.2742
G1 X40.8251 Y-24.5587 Z0.2871
G1 X40.8251 Y-24.5593 Z0.3002
G0 Z0.3663
G0 X40.6601 Y-23.0750 
G1 X40.6601 Y-23.0756 Z0.3541 F25.
G1 X40.6601 Y-23.0774 Z0.3420
G1 X40.6601 Y-23.0804 Z0.3301
G1 X40.6601 Y-23.0845 Z0.3186
G1 X40.6601 Y-23.0897 Z0.3075
G1 X40.6601 Y-23.0960 Z0.2970
G1 X40.6601 Y-23.1033 Z0.2872
G1 X40.6601 Y-23.1114 Z0.2781
G1 X40.6601 Y-23.1205 Z0.2699
G1 X40.6601 Y-23.1303 Z0.2626
G1 X40.6601 Y-23.1408 Z0.2563
G1 X40.6601 Y-23.1518 Z0.2510
G1 X40.6601 Y-23.1633 Z0.2468
G1 X40.6601 Y-23.1751 Z0.2438
G1 X40.6601 Y-23.1872 Z0.2420
G1 X40.6601 Y-23.1994 Z0.2413
G1 X40.6601 Y-23.2405 Z0.2411 F50.
G1 X40.6601 Y-23.2855 Z0.2407
G1 X40.6601 Y-23.3254 Z0.2403
G1 X40.6601 Y-23.3650 Z0.2397
G1 X40.6601 Y-23.4031 Z0.2390
G1 X40.6601 Y-23.4426 Z0.2382
G1 X40.6601 Y-23.4807 Z0.2373
G1 X40.6601 Y-23.5203 Z0.2362
G1 X40.6601 Y-23.5584 Z0.2351
G1 X40.6601 Y-23.5965 Z0.2338
G1 X40.6601 Y-23.6360 Z0.2323
G1 X40.6601 Y-23.6741 Z0.2308
G1 X40.6601 Y-23.7122 Z0.2291
G1 X40.6601 Y-23.7503 Z0.2273
G1 X40.6601 Y-23.7884 Z0.2255
G1 X40.6601 Y-23.8279 Z0.2234
G1 X40.6601 Y-23.8660 Z0.2212
G1 X40.6601 Y-23.9041 Z0.2189
G1 X40.6601 Y-23.9422 Z0.2166
G1 X40.6601 Y-23.9803 Z0.2141
G1 X40.6601 Y-24.0199 Z0.2113
G1 X40.6601 Y-24.0579 Z0.2086
G1 X40.6601 Y-24.0960 Z0.2057
G1 X40.6601 Y-24.1341 Z0.2027
G1 X40.6601 Y-24.1722 Z0.1996
G1 X40.6601 Y-24.2103 Z0.1963
G1 X40.6601 Y-24.2484 Z0.1930
G1 X40.6601 Y-24.2865 Z0.1895
G1 X40.6601 Y-24.3261 Z0.1857
G1 X40.6601 Y-24.3645 Z0.1819
G1 X40.6601 Y-24.4014 Z0.1782
G1 X40.6601 Y-24.4229 Z0.1760
G1 X40.6601 Y-24.4359 Z0.1753
G1 X40.6601 Y-24.4490 Z0.1760
G1 X40.6601 Y-24.4619 Z0.1780
G1 X40.6601 Y-24.4745 Z0.1814
G1 X40.6601 Y-24.4867 Z0.1861
G1 X40.6601 Y-24.4984 Z0.1921
G1 X40.6601 Y-24.5094 Z0.1992
G1 X40.6601 Y-24.5195 Z0.2074
G1 X40.6601 Y-24.5288 Z0.2167
G1 X40.6601 Y-24.5370 Z0.2268
G1 X40.6601 Y-24.5441 Z0.2378
G1 X40.6601 Y-24.5501 Z0.2495
G1 X40.6601 Y-24.5547 Z0.2617
G1 X40.6601 Y-24.5581 Z0.2743
G1 X40.6601 Y-24.5602 Z0.2872
G1 X40.6601 Y-24.5609 Z0.3003
G0 Z0.3666
G0 X40.4951 Y-23.0750 
G1 X40.4951 Y-23.0756 Z0.3543 F25.
G1 X40.4951 Y-23.0774 Z0.3422
G1 X40.4951 Y-23.0804 Z0.3304
G1 X40.4951 Y-23.0845 Z0.3189
G1 X40.4951 Y-23.0897 Z0.3078
G1 X40.4951 Y-23.0960 Z0.2973
G1 X40.4951 Y-23.1033 Z0.2875
G1 X40.4951 Y-23.1114 Z0.2784
G1 X40.4951 Y-23.1205 Z0.2701
G1 X40.4951 Y-23.1303 Z0.2628
G1 X40.4951 Y-23.1408 Z0.2565
G1 X40.4951 Y-23.1518 Z0.2512
G1 X40.4951 Y-23.1633 Z0.2471
G1 X40.4951 Y-23.1751 Z0.2441
G1 X40.4951 Y-23.1872 Z0.2422
G1 X40.4951 Y-23.1994 Z0.2416
G1 X40.4951 Y-23.2405 Z0.2413 F50.
G1 X40.4951 Y-23.2855 Z0.2410
G1 X40.4951 Y-23.3254 Z0.2405
G1 X40.4951 Y-23.3650 Z0.2400
G1 X40.4951 Y-23.4031 Z0.2393
G1 X40.4951 Y-23.4426 Z0.2385
G1 X40.4951 Y-23.4807 Z0.2375
G1 X40.4951 Y-23.5203 Z0.2365
G1 X40.4951 Y-23.5584 Z0.2353
G1 X40.4951 Y-23.5965 Z0.2340
G1 X40.4951 Y-23.6360 Z0.2325
G1 X40.4951 Y-23.6741 Z0.2310
G1 X40.4951 Y-23.7122 Z0.2294
G1 X40.4951 Y-23.7503 Z0.2276
G1 X40.4951 Y-23.7884 Z0.2257
G1 X40.4951 Y-23.8279 Z0.2236
G1 X40.4951 Y-23.8660 Z0.2215
G1 X40.4951 Y-23.9041 Z0.2192
G1 X40.4951 Y-23.9422 Z0.2168
G1 X40.4951 Y-23.9803 Z0.2143
G1 X40.4951 Y-24.0199 Z0.2116
G1 X40.4951 Y-24.0579 Z0.2088
G1 X40.4951 Y-24.0960 Z0.2059
G1 X40.4951 Y-24.1341 Z0.2029
G1 X40.4951 Y-24.1722 Z0.1998
G1 X40.4951 Y-24.2103 Z0.1966
G1 X40.4951 Y-24.2484 Z0.1932
G1 X40.4951 Y-24.2865 Z0.1897
G1 X40.4951 Y-24.3261 Z0.1860
G1 X40.4951 Y-24.3636 Z0.1823
G1 X40.4951 Y-24.4026 Z0.1783
G1 X40.4951 Y-24.4244 Z0.1761
G1 X40.4951 Y-24.4375 Z0.1754
G1 X40.4951 Y-24.4505 Z0.1761
G1 X40.4951 Y-24.4634 Z0.1781
G1 X40.4951 Y-24.4761 Z0.1815
G1 X40.4951 Y-24.4883 Z0.1862
G1 X40.4951 Y-24.4999 Z0.1921
G1 X40.4951 Y-24.5109 Z0.1993
G1 X40.4951 Y-24.5211 Z0.2075
G1 X40.4951 Y-24.5303 Z0.2168
G1 X40.4951 Y-24.5385 Z0.2269
G1 X40.4951 Y-24.5456 Z0.2379
G1 X40.4951 Y-24.5516 Z0.2495
G1 X40.4951 Y-24.5563 Z0.2618
G1 X40.4951 Y-24.5597 Z0.2744
G1 X40.4951 Y-24.5617 Z0.2873
G1 X40.4951 Y-24.5624 Z0.3004
G0 Z0.3668
G0 X40.3301 Y-23.0750 
G1 X40.3301 Y-23.0756 Z0.3546 F25.
G1 X40.3301 Y-23.0774 Z0.3425
G1 X40.3301 Y-23.0804 Z0.3306
G1 X40.3301 Y-23.0845 Z0.3191
G1 X40.3301 Y-23.0897 Z0.3080
G1 X40.3301 Y-23.0960 Z0.2975
G1 X40.3301 Y-23.1033 Z0.2877
G1 X40.3301 Y-23.1114 Z0.2786
G1 X40.3301 Y-23.1205 Z0.2704
G1 X40.3301 Y-23.1303 Z0.2631
G1 X40.3301 Y-23.1408 Z0.2568
G1 X40.3301 Y-23.1518 Z0.2515
G1 X40.3301 Y-23.1633 Z0.2473
G1 X40.3301 Y-23.1751 Z0.2443
G1 X40.3301 Y-23.1872 Z0.2425
G1 X40.3301 Y-23.1994 Z0.2418
G1 X40.3301 Y-23.2405 Z0.2416 F50.
G1 X40.3301 Y-23.2855 Z0.2412
G1 X40.3301 Y-23.3254 Z0.2408
G1 X40.3301 Y-23.3650 Z0.2402
G1 X40.3301 Y-23.4031 Z0.2395
G1 X40.3301 Y-23.4426 Z0.2387
G1 X40.3301 Y-23.4807 Z0.2378
G1 X40.3301 Y-23.5203 Z0.2367
G1 X40.3301 Y-23.5584 Z0.2355
G1 X40.3301 Y-23.5965 Z0.2343
G1 X40.3301 Y-23.6360 Z0.2328
G1 X40.3301 Y-23.6741 Z0.2313
G1 X40.3301 Y-23.7122 Z0.2296
G1 X40.3301 Y-23.7503 Z0.2278
G1 X40.3301 Y-23.7884 Z0.2259
G1 X40.3301 Y-23.8279 Z0.2238
G1 X40.3301 Y-23.8660 Z0.2217
G1 X40.3301 Y-23.9041 Z0.2194
G1 X40.3301 Y-23.9422 Z0.2171
G1 X40.3301 Y-23.9803 Z0.2145
G1 X40.3301 Y-24.0199 Z0.2118
G1 X40.3301 Y-24.0579 Z0.2091
G1 X40.3301 Y-24.0960 Z0.2062
G1 X40.3301 Y-24.1341 Z0.2032
G1 X40.3301 Y-24.1722 Z0.2001
G1 X40.3301 Y-24.2103 Z0.1968
G1 X40.3301 Y-24.2484 Z0.1935
G1 X40.3301 Y-24.2865 Z0.1900
G1 X40.3301 Y-24.3262 Z0.1862
G1 X40.3301 Y-24.3642 Z0.1825
G1 X40.3301 Y-24.4022 Z0.1786
G1 X40.3301 Y-24.4259 Z0.1761
G1 X40.3301 Y-24.4390 Z0.1755
G1 X40.3301 Y-24.4520 Z0.1762
G1 X40.3301 Y-24.4650 Z0.1782
G1 X40.3301 Y-24.4776 Z0.1816
G1 X40.3301 Y-24.4898 Z0.1863
G1 X40.3301 Y-24.5014 Z0.1922
G1 X40.3301 Y-24.5124 Z0.1994
G1 X40.3301 Y-24.5226 Z0.2076
G1 X40.3301 Y-24.5318 Z0.2168
G1 X40.3301 Y-24.5400 Z0.2270
G1 X40.3301 Y-24.5472 Z0.2380
G1 X40.3301 Y-24.5531 Z0.2496
G1 X40.3301 Y-24.5578 Z0.2618
G1 X40.3301 Y-24.5612 Z0.2745
G1 X40.3301 Y-24.5632 Z0.2874
G1 X40.3301 Y-24.5639 Z0.3005
G0 Z0.3670
G0 X40.1651 Y-23.0750 
G1 X40.1651 Y-23.0756 Z0.3548 F25.
G1 X40.1651 Y-23.0774 Z0.3427
G1 X40.1651 Y-23.0804 Z0.3309
G1 X40.1651 Y-23.0845 Z0.3194
G1 X40.1651 Y-23.0897 Z0.3083
G1 X40.1651 Y-23.0960 Z0.2978
G1 X40.1651 Y-23.1033 Z0.2880
G1 X40.1651 Y-23.1114 Z0.2789
G1 X40.1651 Y-23.1205 Z0.2706
G1 X40.1651 Y-23.1303 Z0.2633
G1 X40.1651 Y-23.1408 Z0.2570
G1 X40.1651 Y-23.1518 Z0.2517
G1 X40.1651 Y-23.1633 Z0.2476
G1 X40.1651 Y-23.1751 Z0.2446
G1 X40.1651 Y-23.1872 Z0.2427
G1 X40.1651 Y-23.1994 Z0.2420
G1 X40.1651 Y-23.2405 Z0.2418 F50.
G1 X40.1651 Y-23.2855 Z0.2415
G1 X40.1651 Y-23.3254 Z0.2410
G1 X40.1651 Y-23.3650 Z0.2405
G1 X40.1651 Y-23.4031 Z0.2398
G1 X40.1651 Y-23.4426 Z0.2390
G1 X40.1651 Y-23.4807 Z0.2380
G1 X40.1651 Y-23.5203 Z0.2370
G1 X40.1651 Y-23.5584 Z0.2358
G1 X40.1651 Y-23.5965 Z0.2345
G1 X40.1651 Y-23.6360 Z0.2330
G1 X40.1651 Y-23.6741 Z0.2315
G1 X40.1651 Y-23.7122 Z0.2299
G1 X40.1651 Y-23.7503 Z0.2281
G1 X40.1651 Y-23.7884 Z0.2262
G1 X40.1651 Y-23.8279 Z0.2241
G1 X40.1651 Y-23.8660 Z0.2220
G1 X40.1651 Y-23.9041 Z0.2197
G1 X40.1651 Y-23.9422 Z0.2173
G1 X40.1651 Y-23.9803 Z0.2148
G1 X40.1651 Y-24.0199 Z0.2121
G1 X40.1651 Y-24.0579 Z0.2093
G1 X40.1651 Y-24.0960 Z0.2064
G1 X40.1651 Y-24.1341 Z0.2034
G1 X40.1651 Y-24.1722 Z0.2003
G1 X40.1651 Y-24.2103 Z0.1971
G1 X40.1651 Y-24.2484 Z0.1937
G1 X40.1651 Y-24.2865 Z0.1902
G1 X40.1651 Y-24.3262 Z0.1864
G1 X40.1651 Y-24.3632 Z0.1828
G1 X40.1651 Y-24.4017 Z0.1789
G1 X40.1651 Y-24.4274 Z0.1762
G1 X40.1651 Y-24.4405 Z0.1755
G1 X40.1651 Y-24.4536 Z0.1762
G1 X40.1651 Y-24.4665 Z0.1783
G1 X40.1651 Y-24.4791 Z0.1817
G1 X40.1651 Y-24.4913 Z0.1864
G1 X40.1651 Y-24.5030 Z0.1923
G1 X40.1651 Y-24.5139 Z0.1994
G1 X40.1651 Y-24.5241 Z0.2077
G1 X40.1651 Y-24.5333 Z0.2169
G1 X40.1651 Y-24.5416 Z0.2271
G1 X40.1651 Y-24.5487 Z0.2381
G1 X40.1651 Y-24.5546 Z0.2497
G1 X40.1651 Y-24.5593 Z0.2619
G1 X40.1651 Y-24.5627 Z0.2746
G1 X40.1651 Y-24.5647 Z0.2875
G1 X40.1651 Y-24.5654 Z0.3005
G0 Z0.3673
G0 X40.0001 Y-23.0750 
G1 X40.0001 Y-23.0756 Z0.3551 F25.
G1 X40.0001 Y-23.0774 Z0.3430
G1 X40.0001 Y-23.0804 Z0.3311
G1 X40.0001 Y-23.0845 Z0.3196
G1 X40.0001 Y-23.0897 Z0.3085
G1 X40.0001 Y-23.0960 Z0.2980
G1 X40.0001 Y-23.1033 Z0.2882
G1 X40.0001 Y-23.1114 Z0.2791
G1 X40.0001 Y-23.1205 Z0.2709
G1 X40.0001 Y-23.1303 Z0.2636
G1 X40.0001 Y-23.1408 Z0.2573
G1 X40.0001 Y-23.1518 Z0.2520
G1 X40.0001 Y-23.1633 Z0.2478
G1 X40.0001 Y-23.1751 Z0.2448
G1 X40.0001 Y-23.1872 Z0.2430
G1 X40.0001 Y-23.1994 Z0.2423
G1 X40.0001 Y-23.2405 Z0.2421 F50.
G1 X40.0001 Y-23.2855 Z0.2417
G1 X40.0001 Y-23.3254 Z0.2413
G1 X40.0001 Y-23.3650 Z0.2407
G1 X40.0001 Y-23.4031 Z0.2400
G1 X40.0001 Y-23.4426 Z0.2392
G1 X40.0001 Y-23.4807 Z0.2383
G1 X40.0001 Y-23.5203 Z0.2372
G1 X40.0001 Y-23.5584 Z0.2360
G1 X40.0001 Y-23.5965 Z0.2348
G1 X40.0001 Y-23.6360 Z0.2333
G1 X40.0001 Y-23.6741 Z0.2318
G1 X40.0001 Y-23.7122 Z0.2301
G1 X40.0001 Y-23.7503 Z0.2283
G1 X40.0001 Y-23.7884 Z0.2264
G1 X40.0001 Y-23.8279 Z0.2243
G1 X40.0001 Y-23.8660 Z0.2222
G1 X40.0001 Y-23.9041 Z0.2199
G1 X40.0001 Y-23.9422 Z0.2175
G1 X40.0001 Y-23.9803 Z0.2150
G1 X40.0001 Y-24.0199 Z0.2123
G1 X40.0001 Y-24.0579 Z0.2096
G1 X40.0001 Y-24.0960 Z0.2067
G1 X40.0001 Y-24.1341 Z0.2037
G1 X40.0001 Y-24.1722 Z0.2006
G1 X40.0001 Y-24.2103 Z0.1973
G1 X40.0001 Y-24.2484 Z0.1939
G1 X40.0001 Y-24.2865 Z0.1905
G1 X40.0001 Y-24.3262 Z0.1867
G1 X40.0001 Y-24.3637 Z0.1830
G1 X40.0001 Y-24.4012 Z0.1792
G1 X40.0001 Y-24.4290 Z0.1763
G1 X40.0001 Y-24.4420 Z0.1756
G1 X40.0001 Y-24.4551 Z0.1763
G1 X40.0001 Y-24.4680 Z0.1784
G1 X40.0001 Y-24.4806 Z0.1818
G1 X40.0001 Y-24.4928 Z0.1865
G1 X40.0001 Y-24.5045 Z0.1924
G1 X40.0001 Y-24.5155 Z0.1995
G1 X40.0001 Y-24.5256 Z0.2078
G1 X40.0001 Y-24.5349 Z0.2170
G1 X40.0001 Y-24.5431 Z0.2272
G1 X40.0001 Y-24.5502 Z0.2382
G1 X40.0001 Y-24.5562 Z0.2498
G1 X40.0001 Y-24.5608 Z0.2620
G1 X40.0001 Y-24.5642 Z0.2747
G1 X40.0001 Y-24.5663 Z0.2876
G1 X40.0001 Y-24.5670 Z0.3006
G0 Z0.3675
G0 X39.8351 Y-23.0750 
G1 X39.8351 Y-23.0756 Z0.3553 F25.
G1 X39.8351 Y-23.0774 Z0.3432
G1 X39.8351 Y-23.0804 Z0.3314
G1 X39.8351 Y-23.0845 Z0.3198
G1 X39.8351 Y-23.0897 Z0.3088
G1 X39.8351 Y-23.0960 Z0.2983
G1 X39.8351 Y-23.1033 Z0.2884
G1 X39.8351 Y-23.1114 Z0.2794
G1 X39.8351 Y-23.1205 Z0.2711
G1 X39.8351 Y-23.1303 Z0.2638
G1 X39.8351 Y-23.1408 Z0.2575
G1 X39.8351 Y-23.1518 Z0.2522
G1 X39.8351 Y-23.1633 Z0.2481
G1 X39.8351 Y-23.1751 Z0.2450
G1 X39.8351 Y-23.1872 Z0.2432
G1 X39.8351 Y-23.1994 Z0.2425
G1 X39.8351 Y-23.2405 Z0.2423 F50.
G1 X39.8351 Y-23.2855 Z0.2420
G1 X39.8351 Y-23.3254 Z0.2415
G1 X39.8351 Y-23.3650 Z0.2409
G1 X39.8351 Y-23.4031 Z0.2403
G1 X39.8351 Y-23.4426 Z0.2394
G1 X39.8351 Y-23.4807 Z0.2385
G1 X39.8351 Y-23.5203 Z0.2374
G1 X39.8351 Y-23.5584 Z0.2363
G1 X39.8351 Y-23.5965 Z0.2350
G1 X39.8351 Y-23.6360 Z0.2335
G1 X39.8351 Y-23.6741 Z0.2320
G1 X39.8351 Y-23.7122 Z0.2304
G1 X39.8351 Y-23.7503 Z0.2286
G1 X39.8351 Y-23.7884 Z0.2267
G1 X39.8351 Y-23.8279 Z0.2246
G1 X39.8351 Y-23.8660 Z0.2224
G1 X39.8351 Y-23.9041 Z0.2202
G1 X39.8351 Y-23.9422 Z0.2178
G1 X39.8351 Y-23.9803 Z0.2153
G1 X39.8351 Y-24.0199 Z0.2126
G1 X39.8351 Y-24.0579 Z0.2098
G1 X39.8351 Y-24.0960 Z0.2069
G1 X39.8351 Y-24.1341 Z0.2039
G1 X39.8351 Y-24.1722 Z0.2008
G1 X39.8351 Y-24.2103 Z0.1976
G1 X39.8351 Y-24.2484 Z0.1942
G1 X39.8351 Y-24.2865 Z0.1907
G1 X39.8351 Y-24.3262 Z0.1869
G1 X39.8351 Y-24.3643 Z0.1832
G1 X39.8351 Y-24.4024 Z0.1793
G1 X39.8351 Y-24.4305 Z0.1764
G1 X39.8351 Y-24.4435 Z0.1757
G1 X39.8351 Y-24.4566 Z0.1764
G1 X39.8351 Y-24.4695 Z0.1785
G1 X39.8351 Y-24.4822 Z0.1819
G1 X39.8351 Y-24.4944 Z0.1866
G1 X39.8351 Y-24.5060 Z0.1925
G1 X39.8351 Y-24.5170 Z0.1996
G1 X39.8351 Y-24.5271 Z0.2079
G1 X39.8351 Y-24.5364 Z0.2171
G1 X39.8351 Y-24.5446 Z0.2273
G1 X39.8351 Y-24.5517 Z0.2382
G1 X39.8351 Y-24.5577 Z0.2499
G1 X39.8351 Y-24.5624 Z0.2621
G1 X39.8351 Y-24.5657 Z0.2747
G1 X39.8351 Y-24.5678 Z0.2877
G1 X39.8351 Y-24.5685 Z0.3007
G0 Z0.3678
G0 X39.6701 Y-23.0750 
G1 X39.6701 Y-23.0756 Z0.3556 F25.
G1 X39.6701 Y-23.0774 Z0.3435
G1 X39.6701 Y-23.0804 Z0.3316
G1 X39.6701 Y-23.0845 Z0.3201
G1 X39.6701 Y-23.0897 Z0.3090
G1 X39.6701 Y-23.0960 Z0.2985
G1 X39.6701 Y-23.1033 Z0.2887
G1 X39.6701 Y-23.1114 Z0.2796
G1 X39.6701 Y-23.1205 Z0.2714
G1 X39.6701 Y-23.1303 Z0.2641
G1 X39.6701 Y-23.1408 Z0.2577
G1 X39.6701 Y-23.1518 Z0.2525
G1 X39.6701 Y-23.1633 Z0.2483
G1 X39.6701 Y-23.1751 Z0.2453
G1 X39.6701 Y-23.1872 Z0.2434
G1 X39.6701 Y-23.1994 Z0.2428
G1 X39.6701 Y-23.2405 Z0.2426 F50.
G1 X39.6701 Y-23.2855 Z0.2422
G1 X39.6701 Y-23.3254 Z0.2418
G1 X39.6701 Y-23.3650 Z0.2412
G1 X39.6701 Y-23.4031 Z0.2405
G1 X39.6701 Y-23.4426 Z0.2397
G1 X39.6701 Y-23.4807 Z0.2388
G1 X39.6701 Y-23.5203 Z0.2377
G1 X39.6701 Y-23.5584 Z0.2365
G1 X39.6701 Y-23.5965 Z0.2352
G1 X39.6701 Y-23.6360 Z0.2338
G1 X39.6701 Y-23.6741 Z0.2323
G1 X39.6701 Y-23.7122 Z0.2306
G1 X39.6701 Y-23.7503 Z0.2288
G1 X39.6701 Y-23.7884 Z0.2269
G1 X39.6701 Y-23.8279 Z0.2248
G1 X39.6701 Y-23.8660 Z0.2227
G1 X39.6701 Y-23.9041 Z0.2204
G1 X39.6701 Y-23.9422 Z0.2180
G1 X39.6701 Y-23.9803 Z0.2155
G1 X39.6701 Y-24.0199 Z0.2128
G1 X39.6701 Y-24.0579 Z0.2100
G1 X39.6701 Y-24.0960 Z0.2072
G1 X39.6701 Y-24.1341 Z0.2042
G1 X39.6701 Y-24.1722 Z0.2010
G1 X39.6701 Y-24.2103 Z0.1978
G1 X39.6701 Y-24.2484 Z0.1944
G1 X39.6701 Y-24.2865 Z0.1910
G1 X39.6701 Y-24.3263 Z0.1872
G1 X39.6701 Y-24.3632 Z0.1836
G1 X39.6701 Y-24.4018 Z0.1796
G1 X39.6701 Y-24.4320 Z0.1765
G1 X39.6701 Y-24.4451 Z0.1758
G1 X39.6701 Y-24.4581 Z0.1765
G1 X39.6701 Y-24.4710 Z0.1786
G1 X39.6701 Y-24.4837 Z0.1819
G1 X39.6701 Y-24.4959 Z0.1866
G1 X39.6701 Y-24.5075 Z0.1926
G1 X39.6701 Y-24.5185 Z0.1997
G1 X39.6701 Y-24.5287 Z0.2079
G1 X39.6701 Y-24.5379 Z0.2172
G1 X39.6701 Y-24.5461 Z0.2274
G1 X39.6701 Y-24.5533 Z0.2383
G1 X39.6701 Y-24.5592 Z0.2500
G1 X39.6701 Y-24.5639 Z0.2622
G1 X39.6701 Y-24.5673 Z0.2748
G1 X39.6701 Y-24.5693 Z0.2877
G1 X39.6701 Y-24.5700 Z0.3008
G0 Z0.3680
G0 X39.5051 Y-23.0750 
G1 X39.5051 Y-23.0756 Z0.3558 F25.
G1 X39.5051 Y-23.0774 Z0.3437
G1 X39.5051 Y-23.0804 Z0.3319
G1 X39.5051 Y-23.0845 Z0.3203
G1 X39.5051 Y-23.0897 Z0.3093
G1 X39.5051 Y-23.0960 Z0.2988
G1 X39.5051 Y-23.1033 Z0.2889
G1 X39.5051 Y-23.1114 Z0.2799
G1 X39.5051 Y-23.1205 Z0.2716
G1 X39.5051 Y-23.1303 Z0.2643
G1 X39.5051 Y-23.1408 Z0.2580
G1 X39.5051 Y-23.1518 Z0.2527
G1 X39.5051 Y-23.1633 Z0.2486
G1 X39.5051 Y-23.1751 Z0.2455
G1 X39.5051 Y-23.1872 Z0.2437
G1 X39.5051 Y-23.1994 Z0.2430
G1 X39.5051 Y-23.2405 Z0.2428 F50.
G1 X39.5051 Y-23.2855 Z0.2425
G1 X39.5051 Y-23.3254 Z0.2420
G1 X39.5051 Y-23.3650 Z0.2414
G1 X39.5051 Y-23.4031 Z0.2408
G1 X39.5051 Y-23.4426 Z0.2399
G1 X39.5051 Y-23.4807 Z0.2390
G1 X39.5051 Y-23.5203 Z0.2379
G1 X39.5051 Y-23.5584 Z0.2368
G1 X39.5051 Y-23.5965 Z0.2355
G1 X39.5051 Y-23.6360 Z0.2340
G1 X39.5051 Y-23.6741 Z0.2325
G1 X39.5051 Y-23.7122 Z0.2308
G1 X39.5051 Y-23.7503 Z0.2291
G1 X39.5051 Y-23.7884 Z0.2272
G1 X39.5051 Y-23.8279 Z0.2251
G1 X39.5051 Y-23.8660 Z0.2229
G1 X39.5051 Y-23.9041 Z0.2207
G1 X39.5051 Y-23.9422 Z0.2183
G1 X39.5051 Y-23.9803 Z0.2158
G1 X39.5051 Y-24.0199 Z0.2130
G1 X39.5051 Y-24.0579 Z0.2103
G1 X39.5051 Y-24.0960 Z0.2074
G1 X39.5051 Y-24.1341 Z0.2044
G1 X39.5051 Y-24.1722 Z0.2013
G1 X39.5051 Y-24.2103 Z0.1981
G1 X39.5051 Y-24.2484 Z0.1947
G1 X39.5051 Y-24.2865 Z0.1912
G1 X39.5051 Y-24.3263 Z0.1874
G1 X39.5051 Y-24.3637 Z0.1837
G1 X39.5051 Y-24.4012 Z0.1800
G1 X39.5051 Y-24.4335 Z0.1766
G1 X39.5051 Y-24.4466 Z0.1759
G1 X39.5051 Y-24.4597 Z0.1766
G1 X39.5051 Y-24.4726 Z0.1786
G1 X39.5051 Y-24.4852 Z0.1820
G1 X39.5051 Y-24.4974 Z0.1867
G1 X39.5051 Y-24.5091 Z0.1927
G1 X39.5051 Y-24.5200 Z0.1998
G1 X39.5051 Y-24.5302 Z0.2080
G1 X39.5051 Y-24.5394 Z0.2173
G1 X39.5051 Y-24.5477 Z0.2274
G1 X39.5051 Y-24.5548 Z0.2384
G1 X39.5051 Y-24.5607 Z0.2501
G1 X39.5051 Y-24.5654 Z0.2623
G1 X39.5051 Y-24.5688 Z0.2749
G1 X39.5051 Y-24.5708 Z0.2878
G1 X39.5051 Y-24.5715 Z0.3009
G0 Z0.3683
G0 X39.3401 Y-23.0750 
G1 X39.3401 Y-23.0756 Z0.3561 F25.
G1 X39.3401 Y-23.0774 Z0.3440
G1 X39.3401 Y-23.0804 Z0.3321
G1 X39.3401 Y-23.0845 Z0.3206
G1 X39.3401 Y-23.0897 Z0.3095
G1 X39.3401 Y-23.0960 Z0.2990
G1 X39.3401 Y-23.1033 Z0.2892
G1 X39.3401 Y-23.1114 Z0.2801
G1 X39.3401 Y-23.1205 Z0.2719
G1 X39.3401 Y-23.1303 Z0.2646
G1 X39.3401 Y-23.1408 Z0.2582
G1 X39.3401 Y-23.1518 Z0.2530
G1 X39.3401 Y-23.1633 Z0.2488
G1 X39.3401 Y-23.1751 Z0.2458
G1 X39.3401 Y-23.1872 Z0.2439
G1 X39.3401 Y-23.1994 Z0.2433
G1 X39.3401 Y-23.2405 Z0.2431 F50.
G1 X39.3401 Y-23.2855 Z0.2427
G1 X39.3401 Y-23.3254 Z0.2423
G1 X39.3401 Y-23.3650 Z0.2417
G1 X39.3401 Y-23.4031 Z0.2410
G1 X39.3401 Y-23.4426 Z0.2402
G1 X39.3401 Y-23.4807 Z0.2393
G1 X39.3401 Y-23.5203 Z0.2382
G1 X39.3401 Y-23.5584 Z0.2370
G1 X39.3401 Y-23.5965 Z0.2357
G1 X39.3401 Y-23.6360 Z0.2343
G1 X39.3401 Y-23.6741 Z0.2327
G1 X39.3401 Y-23.7122 Z0.2311
G1 X39.3401 Y-23.7503 Z0.2293
G1 X39.3401 Y-23.7884 Z0.2274
G1 X39.3401 Y-23.8279 Z0.2253
G1 X39.3401 Y-23.8660 Z0.2232
G1 X39.3401 Y-23.9041 Z0.2209
G1 X39.3401 Y-23.9422 Z0.2185
G1 X39.3401 Y-23.9803 Z0.2160
G1 X39.3401 Y-24.0199 Z0.2133
G1 X39.3401 Y-24.0579 Z0.2105
G1 X39.3401 Y-24.0960 Z0.2077
G1 X39.3401 Y-24.1341 Z0.2047
G1 X39.3401 Y-24.1722 Z0.2015
G1 X39.3401 Y-24.2103 Z0.1983
G1 X39.3401 Y-24.2484 Z0.1949
G1 X39.3401 Y-24.2865 Z0.1914
G1 X39.3401 Y-24.3263 Z0.1877
G1 X39.3401 Y-24.3643 Z0.1839
G1 X39.3401 Y-24.4023 Z0.1801
G1 X39.3401 Y-24.4351 Z0.1767
G1 X39.3401 Y-24.4481 Z0.1760
G1 X39.3401 Y-24.4612 Z0.1767
G1 X39.3401 Y-24.4741 Z0.1787
G1 X39.3401 Y-24.4867 Z0.1821
G1 X39.3401 Y-24.4989 Z0.1868
G1 X39.3401 Y-24.5106 Z0.1928
G1 X39.3401 Y-24.5216 Z0.1999
G1 X39.3401 Y-24.5317 Z0.2081
G1 X39.3401 Y-24.5410 Z0.2174
G1 X39.3401 Y-24.5492 Z0.2275
G1 X39.3401 Y-24.5563 Z0.2385
G1 X39.3401 Y-24.5622 Z0.2502
G1 X39.3401 Y-24.5669 Z0.2624
G1 X39.3401 Y-24.5703 Z0.2750
G1 X39.3401 Y-24.5724 Z0.2879
G1 X39.3401 Y-24.5730 Z0.3010
G0 Z0.3685
G0 X39.1751 Y-23.0750 
G1 X39.1751 Y-23.0756 Z0.3563 F25.
G1 X39.1751 Y-23.0774 Z0.3442
G1 X39.1751 Y-23.0804 Z0.3323
G1 X39.1751 Y-23.0845 Z0.3208
G1 X39.1751 Y-23.0897 Z0.3098
G1 X39.1751 Y-23.0960 Z0.2993
G1 X39.1751 Y-23.1033 Z0.2894
G1 X39.1751 Y-23.1114 Z0.2804
G1 X39.1751 Y-23.1205 Z0.2721
G1 X39.1751 Y-23.1303 Z0.2648
G1 X39.1751 Y-23.1408 Z0.2585
G1 X39.1751 Y-23.1518 Z0.2532
G1 X39.1751 Y-23.1633 Z0.2491
G1 X39.1751 Y-23.1751 Z0.2460
G1 X39.1751 Y-23.1872 Z0.2442
G1 X39.1751 Y-23.1994 Z0.2435
G1 X39.1751 Y-23.2405 Z0.2433 F50.
G1 X39.1751 Y-23.2855 Z0.2430
G1 X39.1751 Y-23.3254 Z0.2425
G1 X39.1751 Y-23.3650 Z0.2419
G1 X39.1751 Y-23.4031 Z0.2413
G1 X39.1751 Y-23.4426 Z0.2404
G1 X39.1751 Y-23.4807 Z0.2395
G1 X39.1751 Y-23.5203 Z0.2384
G1 X39.1751 Y-23.5584 Z0.2373
G1 X39.1751 Y-23.5965 Z0.2360
G1 X39.1751 Y-23.6360 Z0.2345
