( MOP:  02-radius-r1016-AnyScale-final-start-01a )
( FILE: G:\Shared drives\AlloyProjectFiles\Customer CAD files\Alloy-Standard-Builds-CAM\Fingerboards-in\02-radius-r1016-AnyScale-final-start-01.nc)
G90
(  BEGIN TOOL LIST )
(  TOOL 3 - Downcut PT750 - DESC: 0.7500 DIA, 2 FLUTE,  CARBIDE MAT )
(  ENDOF TOOL LIST )
( 02-radius-r1016-AnyScale-final-start-01a)
T03
S14000
M3
G0 Z6.0000
G0 X25.1250 Y-22.7982 
G1 X25.1250 Y-22.7982 Z0.6100 F75.
G1 X25.1250 Y-22.7982 Z0.5100 F30.
G1 X25.1262 Y-22.7982 Z0.4855 F40.
G1 X25.1298 Y-22.7982 Z0.4612
G1 X25.1358 Y-22.7982 Z0.4374
G1 X25.1440 Y-22.7982 Z0.4143
G1 X25.1545 Y-22.7982 Z0.3922
G1 X25.1671 Y-22.7982 Z0.3711
G1 X25.1818 Y-22.7982 Z0.3514
G1 X25.1982 Y-22.7982 Z0.3332
G1 X25.2164 Y-22.7982 Z0.3167
G1 X25.2361 Y-22.7982 Z0.3021
G1 X25.2572 Y-22.7982 Z0.2895
G1 X25.2793 Y-22.7982 Z0.2790
G1 X25.3024 Y-22.7982 Z0.2708
G1 X25.3262 Y-22.7982 Z0.2648
G1 X25.3505 Y-22.7982 Z0.2612
G1 X25.3750 Y-22.7982 Z0.2600
G1 X47.3686 Y-22.7982 Z0.2600 F80.
G1 X47.3931 Y-22.7982 Z0.2612
G1 X47.4174 Y-22.7982 Z0.2648
G1 X47.4412 Y-22.7982 Z0.2708
G1 X47.4643 Y-22.7982 Z0.2790
G1 X47.4865 Y-22.7982 Z0.2895
G1 X47.5075 Y-22.7982 Z0.3021
G1 X47.5272 Y-22.7982 Z0.3167
G1 X47.5454 Y-22.7982 Z0.3332
G1 X47.5619 Y-22.7982 Z0.3514
G1 X47.5765 Y-22.7982 Z0.3711
G1 X47.5891 Y-22.7982 Z0.3922
G1 X47.5996 Y-22.7982 Z0.4143
G1 X47.6079 Y-22.7982 Z0.4374
G1 X47.6138 Y-22.7982 Z0.4612
G1 X47.6174 Y-22.7982 Z0.4855
G1 X47.6186 Y-22.7982 Z0.5100
G1 X47.6186 Y-22.7982 Z0.6100
G0 Z6.0000
G0 X47.6186 Y-22.7982 
( 02-radius-r1016-AnyScale-final-start-01b)
G0 Z6.0000
G0 X47.2601 Y-23.0747 
G1 X47.2601 Y-23.0747 Z0.3845 F110.
G1 X47.2601 Y-23.0753 Z0.3723 F25.
G1 X47.2601 Y-23.0771 Z0.3601
G1 X47.2601 Y-23.0800 Z0.3483
G1 X47.2601 Y-23.0842 Z0.3367
G1 X47.2601 Y-23.0894 Z0.3256
G1 X47.2601 Y-23.0957 Z0.3151
G1 X47.2601 Y-23.1030 Z0.3053
G1 X47.2601 Y-23.1112 Z0.2962
G1 X47.2601 Y-23.1203 Z0.2880
G1 X47.2601 Y-23.1301 Z0.2807
G1 X47.2601 Y-23.1406 Z0.2743
G1 X47.2601 Y-23.1517 Z0.2691
G1 X47.2601 Y-23.1632 Z0.2649
G1 X47.2601 Y-23.1751 Z0.2619
G1 X47.2601 Y-23.1872 Z0.2601
G1 X47.2601 Y-23.1994 Z0.2595
G1 X47.2601 Y-23.2084 Z0.2595 F50.
G1 X47.2601 Y-23.2415 Z0.2593
G1 X47.2601 Y-23.2775 Z0.2590
G1 X47.2601 Y-23.3136 Z0.2585
G1 X47.2601 Y-23.3451 Z0.2580
G1 X47.2601 Y-23.3466 Z0.2580
G1 X47.2601 Y-23.3827 Z0.2573
G1 X47.2601 Y-23.4157 Z0.2565
G1 X47.2601 Y-23.4518 Z0.2556
G1 X47.2601 Y-23.4841 Z0.2546
G1 X47.2601 Y-23.4848 Z0.2546
G1 X47.2601 Y-23.5186 Z0.2534
G1 X47.2601 Y-23.5209 Z0.2533
G1 X47.2601 Y-23.5532 Z0.2521
G1 X47.2601 Y-23.5539 Z0.2521
G1 X47.2601 Y-23.5599 Z0.2518
G1 X47.2601 Y-23.5877 Z0.2507
G1 X47.2601 Y-23.5896 Z0.2506
G1 X47.2601 Y-23.6227 Z0.2491
G1 X47.2601 Y-23.6260 Z0.2490
G1 X47.2601 Y-23.6572 Z0.2475
G1 X47.2601 Y-23.6591 Z0.2474
G1 X47.2601 Y-23.6921 Z0.2457
G1 X47.2601 Y-23.7042 Z0.2450
G1 X47.2601 Y-23.7263 Z0.2438
G1 X47.2601 Y-23.7282 Z0.2437
G1 X47.2601 Y-23.7609 Z0.2418
G1 X47.2601 Y-23.7642 Z0.2416
G1 X47.2601 Y-23.7954 Z0.2396
G1 X47.2601 Y-23.7973 Z0.2395
G1 X47.2601 Y-23.8363 Z0.2369
G1 X47.2601 Y-23.8647 Z0.2349
G1 X47.2601 Y-23.8664 Z0.2348
G1 X47.2601 Y-23.8992 Z0.2324
G1 X47.2601 Y-23.9009 Z0.2323
G1 X47.2601 Y-23.9338 Z0.2297
G1 X47.2601 Y-23.9355 Z0.2296
G1 X47.2601 Y-23.9682 Z0.2270
G1 X47.2601 Y-23.9700 Z0.2268
G1 X47.2601 Y-24.0027 Z0.2241
G1 X47.2601 Y-24.0046 Z0.2239
G1 X47.2601 Y-24.0373 Z0.2211
G1 X47.2601 Y-24.0391 Z0.2209
G1 X47.2601 Y-24.0718 Z0.2179
G1 X47.2601 Y-24.0737 Z0.2178
G1 X47.2601 Y-24.1062 Z0.2147
G1 X47.2601 Y-24.1067 Z0.2146
G1 X47.2601 Y-24.1127 Z0.2140
G1 X47.2601 Y-24.1407 Z0.2113
G1 X47.2601 Y-24.1422 Z0.2111
G1 X47.2601 Y-24.1751 Z0.2078
G1 X47.2601 Y-24.1758 Z0.2077
G1 X47.2601 Y-24.1788 Z0.2074
G1 X47.2601 Y-24.2094 Z0.2041
G1 X47.2601 Y-24.2104 Z0.2041
G1 X47.2601 Y-24.2119 Z0.2039
G1 X47.2601 Y-24.2438 Z0.2004
G1 X47.2601 Y-24.2449 Z0.2003
G1 X47.2601 Y-24.2569 Z0.1989
G1 X47.2601 Y-24.2782 Z0.1965
G1 X47.2601 Y-24.2795 Z0.1964
G1 X47.2601 Y-24.3125 Z0.1925
G1 X47.2601 Y-24.3142 Z0.1924
G1 X47.2601 Y-24.3469 Z0.1884
G1 X47.2601 Y-24.3486 Z0.1883
G1 X47.2601 Y-24.3619 Z0.1866
G1 X47.2601 Y-24.3751 Z0.1856
G1 X47.2601 Y-24.3884 Z0.1861
G1 X47.2601 Y-24.4015 Z0.1880
G1 X47.2601 Y-24.4143 Z0.1912
G1 X47.2601 Y-24.4267 Z0.1958
G1 X47.2601 Y-24.4386 Z0.2016
G1 X47.2601 Y-24.4498 Z0.2087
G1 X47.2601 Y-24.4602 Z0.2169
G1 X47.2601 Y-24.4696 Z0.2262
G1 X47.2601 Y-24.4780 Z0.2364
G1 X47.2601 Y-24.4853 Z0.2475
G1 X47.2601 Y-24.4914 Z0.2592
G1 X47.2601 Y-24.4962 Z0.2716
G1 X47.2601 Y-24.4996 Z0.2843
G1 X47.2601 Y-24.5017 Z0.2974
G1 X47.2601 Y-24.5024 Z0.3106
G0 Z0.3595
G0 X47.2601 Y-24.5024 
G0 Z0.3845
G0 X47.0951 Y-23.0747 
G1 X47.0951 Y-23.0753 Z0.3723 F25.
G1 X47.0951 Y-23.0771 Z0.3601
G1 X47.0951 Y-23.0800 Z0.3483
G1 X47.0951 Y-23.0842 Z0.3367
G1 X47.0951 Y-23.0894 Z0.3256
G1 X47.0951 Y-23.0957 Z0.3151
G1 X47.0951 Y-23.1030 Z0.3053
G1 X47.0951 Y-23.1112 Z0.2962
G1 X47.0951 Y-23.1203 Z0.2880
G1 X47.0951 Y-23.1301 Z0.2807
G1 X47.0951 Y-23.1406 Z0.2743
G1 X47.0951 Y-23.1517 Z0.2691
G1 X47.0951 Y-23.1632 Z0.2649
G1 X47.0951 Y-23.1751 Z0.2619
G1 X47.0951 Y-23.1872 Z0.2601
G1 X47.0951 Y-23.1994 Z0.2595
G1 X47.0951 Y-23.2084 Z0.2595 F50.
G1 X47.0951 Y-23.2415 Z0.2593
G1 X47.0951 Y-23.2775 Z0.2590
G1 X47.0951 Y-23.3136 Z0.2585
G1 X47.0951 Y-23.3496 Z0.2580
G1 X47.0951 Y-23.3827 Z0.2573
G1 X47.0951 Y-23.4157 Z0.2565
G1 X47.0951 Y-23.4495 Z0.2556
G1 X47.0951 Y-23.4518 Z0.2556
G1 X47.0951 Y-23.4878 Z0.2545
G1 X47.0951 Y-23.5194 Z0.2534
G1 X47.0951 Y-23.5209 Z0.2534
G1 X47.0951 Y-23.5599 Z0.2519
G1 X47.0951 Y-23.5885 Z0.2507
G1 X47.0951 Y-23.5900 Z0.2507
G1 X47.0951 Y-23.6234 Z0.2492
G1 X47.0951 Y-23.6245 Z0.2491
G1 X47.0951 Y-23.6260 Z0.2490
G1 X47.0951 Y-23.6580 Z0.2475
G1 X47.0951 Y-23.6591 Z0.2475
G1 X47.0951 Y-23.6621 Z0.2473
G1 X47.0951 Y-23.6929 Z0.2457
G1 X47.0951 Y-23.6948 Z0.2456
G1 X47.0951 Y-23.7274 Z0.2438
G1 X47.0951 Y-23.7282 Z0.2438
G1 X47.0951 Y-23.7620 Z0.2418
G1 X47.0951 Y-23.7642 Z0.2417
G1 X47.0951 Y-23.7967 Z0.2396
G1 X47.0951 Y-23.7973 Z0.2396
G1 X47.0951 Y-23.8003 Z0.2394
G1 X47.0951 Y-23.8315 Z0.2373
G1 X47.0951 Y-23.8333 Z0.2372
G1 X47.0951 Y-23.8660 Z0.2349
G1 X47.0951 Y-23.8679 Z0.2348
G1 X47.0951 Y-23.9006 Z0.2324
G1 X47.0951 Y-23.9026 Z0.2323
G1 X47.0951 Y-23.9353 Z0.2297
G1 X47.0951 Y-23.9372 Z0.2296
G1 X47.0951 Y-23.9698 Z0.2270
G1 X47.0951 Y-23.9717 Z0.2269
G1 X47.0951 Y-24.0044 Z0.2241
G1 X47.0951 Y-24.0061 Z0.2240
G1 X47.0951 Y-24.0389 Z0.2211
G1 X47.0951 Y-24.0406 Z0.2210
G1 X47.0951 Y-24.0735 Z0.2179
G1 X47.0951 Y-24.0752 Z0.2178
G1 X47.0951 Y-24.1080 Z0.2147
G1 X47.0951 Y-24.1097 Z0.2146
G1 X47.0951 Y-24.1426 Z0.2113
G1 X47.0951 Y-24.1443 Z0.2112
G1 X47.0951 Y-24.1771 Z0.2078
G1 X47.0951 Y-24.1788 Z0.2077
G1 X47.0951 Y-24.2117 Z0.2042
G1 X47.0951 Y-24.2136 Z0.2040
G1 X47.0951 Y-24.2461 Z0.2004
G1 X47.0951 Y-24.2480 Z0.2003
G1 X47.0951 Y-24.2806 Z0.1965
G1 X47.0951 Y-24.2825 Z0.1964
G1 X47.0951 Y-24.3150 Z0.1926
G1 X47.0951 Y-24.3170 Z0.1924
G1 X47.0951 Y-24.3493 Z0.1885
G1 X47.0951 Y-24.3501 Z0.1884
G1 X47.0951 Y-24.3516 Z0.1882
G1 X47.0951 Y-24.3635 Z0.1867
G1 X47.0951 Y-24.3767 Z0.1858
G1 X47.0951 Y-24.3899 Z0.1863
G1 X47.0951 Y-24.4030 Z0.1881
G1 X47.0951 Y-24.4158 Z0.1913
G1 X47.0951 Y-24.4283 Z0.1959
G1 X47.0951 Y-24.4401 Z0.2018
G1 X47.0951 Y-24.4513 Z0.2089
G1 X47.0951 Y-24.4617 Z0.2171
G1 X47.0951 Y-24.4711 Z0.2264
G1 X47.0951 Y-24.4795 Z0.2366
G1 X47.0951 Y-24.4868 Z0.2476
G1 X47.0951 Y-24.4929 Z0.2594
G1 X47.0951 Y-24.4977 Z0.2717
G1 X47.0951 Y-24.5012 Z0.2845
G1 X47.0951 Y-24.5033 Z0.2976
G1 X47.0951 Y-24.5040 Z0.3108
G0 Z0.3595
G0 X47.0951 Y-24.5040 
G0 Z0.3845
G0 X46.9301 Y-23.0747 
G1 X46.9301 Y-23.0753 Z0.3723 F25.
G1 X46.9301 Y-23.0771 Z0.3601
G1 X46.9301 Y-23.0800 Z0.3483
G1 X46.9301 Y-23.0842 Z0.3367
G1 X46.9301 Y-23.0894 Z0.3256
G1 X46.9301 Y-23.0957 Z0.3151
G1 X46.9301 Y-23.1030 Z0.3053
G1 X46.9301 Y-23.1112 Z0.2962
G1 X46.9301 Y-23.1203 Z0.2880
G1 X46.9301 Y-23.1301 Z0.2806
G1 X46.9301 Y-23.1406 Z0.2743
G1 X46.9301 Y-23.1517 Z0.2691
G1 X46.9301 Y-23.1632 Z0.2649
G1 X46.9301 Y-23.1751 Z0.2619
G1 X46.9301 Y-23.1872 Z0.2601
G1 X46.9301 Y-23.1994 Z0.2595
G1 X46.9301 Y-23.2084 Z0.2595 F50.
G1 X46.9301 Y-23.2415 Z0.2593
G1 X46.9301 Y-23.2475 Z0.2593
G1 X46.9301 Y-23.2775 Z0.2590
G1 X46.9301 Y-23.3136 Z0.2585
G1 X46.9301 Y-23.3496 Z0.2580
G1 X46.9301 Y-23.3804 Z0.2574
G1 X46.9301 Y-23.3827 Z0.2573
G1 X46.9301 Y-23.4157 Z0.2565
G1 X46.9301 Y-23.4503 Z0.2556
G1 X46.9301 Y-23.4518 Z0.2556
G1 X46.9301 Y-23.4848 Z0.2546
G1 X46.9301 Y-23.4878 Z0.2545
G1 X46.9301 Y-23.5198 Z0.2534
G1 X46.9301 Y-23.5209 Z0.2534
G1 X46.9301 Y-23.5239 Z0.2533
G1 X46.9301 Y-23.5547 Z0.2521
G1 X46.9301 Y-23.5569 Z0.2520
G1 X46.9301 Y-23.5892 Z0.2507
G1 X46.9301 Y-23.5900 Z0.2507
G1 X46.9301 Y-23.5960 Z0.2504
G1 X46.9301 Y-23.6242 Z0.2492
G1 X46.9301 Y-23.6264 Z0.2491
G1 X46.9301 Y-23.6587 Z0.2475
G1 X46.9301 Y-23.6621 Z0.2474
G1 X46.9301 Y-23.6936 Z0.2457
G1 X46.9301 Y-23.6951 Z0.2457
G1 X46.9301 Y-23.6981 Z0.2455
G1 X46.9301 Y-23.7284 Z0.2438
G1 X46.9301 Y-23.7306 Z0.2437
G1 X46.9301 Y-23.7631 Z0.2418
G1 X46.9301 Y-23.7642 Z0.2417
G1 X46.9301 Y-23.7763 Z0.2410
G1 X46.9301 Y-23.7980 Z0.2396
G1 X46.9301 Y-23.8003 Z0.2395
G1 X46.9301 Y-23.8326 Z0.2373
G1 X46.9301 Y-23.8348 Z0.2372
G1 X46.9301 Y-23.8673 Z0.2349
G1 X46.9301 Y-23.8696 Z0.2348
G1 X46.9301 Y-23.9021 Z0.2324
G1 X46.9301 Y-23.9039 Z0.2323
G1 X46.9301 Y-23.9368 Z0.2298
G1 X46.9301 Y-23.9385 Z0.2297
G1 X46.9301 Y-23.9445 Z0.2292
G1 X46.9301 Y-23.9715 Z0.2270
G1 X46.9301 Y-23.9730 Z0.2269
G1 X46.9301 Y-23.9745 Z0.2268
G1 X46.9301 Y-24.0061 Z0.2241
G1 X46.9301 Y-24.0076 Z0.2240
G1 X46.9301 Y-24.0106 Z0.2238
G1 X46.9301 Y-24.0408 Z0.2211
G1 X46.9301 Y-24.0430 Z0.2209
G1 X46.9301 Y-24.0754 Z0.2180
G1 X46.9301 Y-24.0767 Z0.2179
G1 X46.9301 Y-24.0887 Z0.2167
G1 X46.9301 Y-24.1101 Z0.2147
G1 X46.9301 Y-24.1120 Z0.2146
G1 X46.9301 Y-24.1447 Z0.2113
G1 X46.9301 Y-24.1458 Z0.2112
G1 X46.9301 Y-24.1473 Z0.2111
G1 X46.9301 Y-24.1792 Z0.2078
G1 X46.9301 Y-24.1803 Z0.2077
G1 X46.9301 Y-24.1818 Z0.2076
G1 X46.9301 Y-24.2138 Z0.2042
G1 X46.9301 Y-24.2149 Z0.2041
G1 X46.9301 Y-24.2164 Z0.2040
G1 X46.9301 Y-24.2483 Z0.2004
G1 X46.9301 Y-24.2494 Z0.2004
G1 X46.9301 Y-24.2509 Z0.2002
G1 X46.9301 Y-24.2829 Z0.1966
G1 X46.9301 Y-24.2840 Z0.1965
G1 X46.9301 Y-24.2855 Z0.1963
G1 X46.9301 Y-24.3174 Z0.1926
G1 X46.9301 Y-24.3185 Z0.1925
G1 X46.9301 Y-24.3200 Z0.1923
G1 X46.9301 Y-24.3518 Z0.1885
G1 X46.9301 Y-24.3538 Z0.1883
G1 X46.9301 Y-24.3650 Z0.1869
G1 X46.9301 Y-24.3782 Z0.1860
G1 X46.9301 Y-24.3914 Z0.1864
G1 X46.9301 Y-24.4045 Z0.1883
G1 X46.9301 Y-24.4173 Z0.1915
G1 X46.9301 Y-24.4298 Z0.1961
G1 X46.9301 Y-24.4416 Z0.2020
G1 X46.9301 Y-24.4528 Z0.2090
G1 X46.9301 Y-24.4632 Z0.2173
G1 X46.9301 Y-24.4726 Z0.2265
G1 X46.9301 Y-24.4810 Z0.2368
G1 X46.9301 Y-24.4883 Z0.2478
G1 X46.9301 Y-24.4944 Z0.2596
G1 X46.9301 Y-24.4992 Z0.2719
G1 X46.9301 Y-24.5026 Z0.2847
G1 X46.9301 Y-24.5047 Z0.2977
G1 X46.9301 Y-24.5054 Z0.3110
G0 Z0.3595
G0 X46.9301 Y-24.5054 
G0 Z0.3845
G0 X46.7651 Y-23.0747 
G1 X46.7651 Y-23.0753 Z0.3723 F25.
G1 X46.7651 Y-23.0771 Z0.3601
G1 X46.7651 Y-23.0800 Z0.3483
G1 X46.7651 Y-23.0842 Z0.3367
G1 X46.7651 Y-23.0894 Z0.3256
G1 X46.7651 Y-23.0957 Z0.3151
G1 X46.7651 Y-23.1030 Z0.3053
G1 X46.7651 Y-23.1112 Z0.2962
G1 X46.7651 Y-23.1203 Z0.2880
G1 X46.7651 Y-23.1301 Z0.2806
G1 X46.7651 Y-23.1406 Z0.2743
G1 X46.7651 Y-23.1517 Z0.2691
G1 X46.7651 Y-23.1632 Z0.2649
G1 X46.7651 Y-23.1751 Z0.2619
G1 X46.7651 Y-23.1872 Z0.2601
G1 X46.7651 Y-23.1994 Z0.2595
G1 X46.7651 Y-23.2084 Z0.2595 F50.
G1 X46.7651 Y-23.2415 Z0.2593
G1 X46.7651 Y-23.2475 Z0.2593
G1 X46.7651 Y-23.2775 Z0.2590
G1 X46.7651 Y-23.3136 Z0.2585
G1 X46.7651 Y-23.3496 Z0.2580
G1 X46.7651 Y-23.3812 Z0.2573
G1 X46.7651 Y-23.3827 Z0.2573
G1 X46.7651 Y-23.4157 Z0.2566
G1 X46.7651 Y-23.4503 Z0.2556
G1 X46.7651 Y-23.4518 Z0.2556
G1 X46.7651 Y-23.4856 Z0.2546
G1 X46.7651 Y-23.4878 Z0.2545
G1 X46.7651 Y-23.5201 Z0.2534
G1 X46.7651 Y-23.5228 Z0.2534
G1 X46.7651 Y-23.5551 Z0.2521
G1 X46.7651 Y-23.5569 Z0.2521
G1 X46.7651 Y-23.5900 Z0.2507
G1 X46.7651 Y-23.5930 Z0.2506
G1 X46.7651 Y-23.6249 Z0.2492
G1 X46.7651 Y-23.6260 Z0.2491
G1 X46.7651 Y-23.6321 Z0.2489
G1 X46.7651 Y-23.6598 Z0.2475
G1 X46.7651 Y-23.6621 Z0.2474
G1 X46.7651 Y-23.6944 Z0.2457
G1 X46.7651 Y-23.6981 Z0.2456
G1 X46.7651 Y-23.7293 Z0.2438
G1 X46.7651 Y-23.7312 Z0.2437
G1 X46.7651 Y-23.7342 Z0.2436
G1 X46.7651 Y-23.7642 Z0.2418
G1 X46.7651 Y-23.7672 Z0.2416
G1 X46.7651 Y-23.7992 Z0.2396
G1 X46.7651 Y-23.8003 Z0.2396
G1 X46.7651 Y-23.8337 Z0.2374
G1 X46.7651 Y-23.8363 Z0.2372
G1 X46.7651 Y-23.8686 Z0.2350
G1 X46.7651 Y-23.8709 Z0.2348
G1 X46.7651 Y-23.9036 Z0.2324
G1 X46.7651 Y-23.9054 Z0.2323
G1 X46.7651 Y-23.9084 Z0.2321
G1 X46.7651 Y-23.9381 Z0.2298
G1 X46.7651 Y-23.9415 Z0.2296
G1 X46.7651 Y-23.9730 Z0.2270
G1 X46.7651 Y-23.9745 Z0.2269
G1 X46.7651 Y-23.9806 Z0.2264
G1 X46.7651 Y-24.0078 Z0.2241
G1 X46.7651 Y-24.0091 Z0.2240
G1 X46.7651 Y-24.0106 Z0.2239
G1 X46.7651 Y-24.0425 Z0.2211
G1 X46.7651 Y-24.0451 Z0.2209
G1 X46.7651 Y-24.0773 Z0.2180
G1 X46.7651 Y-24.0798 Z0.2178
G1 X46.7651 Y-24.1120 Z0.2147
G1 X46.7651 Y-24.1142 Z0.2146
G1 X46.7651 Y-24.1465 Z0.2114
G1 X46.7651 Y-24.1488 Z0.2112
G1 X46.7651 Y-24.1813 Z0.2078
G1 X46.7651 Y-24.1833 Z0.2077
G1 X46.7651 Y-24.1848 Z0.2075
G1 X46.7651 Y-24.2160 Z0.2042
G1 X46.7651 Y-24.2179 Z0.2041
G1 X46.7651 Y-24.2209 Z0.2038
G1 X46.7651 Y-24.2506 Z0.2005
G1 X46.7651 Y-24.2524 Z0.2003
G1 X46.7651 Y-24.2539 Z0.2002
G1 X46.7651 Y-24.2851 Z0.1966
G1 X46.7651 Y-24.2870 Z0.1965
G1 X46.7651 Y-24.2930 Z0.1958
G1 X46.7651 Y-24.3198 Z0.1926
G1 X46.7651 Y-24.3223 Z0.1924
G1 X46.7651 Y-24.3543 Z0.1885
G1 X46.7651 Y-24.3564 Z0.1883
G1 X46.7651 Y-24.3598 Z0.1879
G1 X46.7651 Y-24.3665 Z0.1871
G1 X46.7651 Y-24.3797 Z0.1861
G1 X46.7651 Y-24.3929 Z0.1866
G1 X46.7651 Y-24.4060 Z0.1884
G1 X46.7651 Y-24.4189 Z0.1917
G1 X46.7651 Y-24.4313 Z0.1962
G1 X46.7651 Y-24.4432 Z0.2021
G1 X46.7651 Y-24.4544 Z0.2092
G1 X46.7651 Y-24.4647 Z0.2174
G1 X46.7651 Y-24.4742 Z0.2267
G1 X46.7651 Y-24.4826 Z0.2369
G1 X46.7651 Y-24.4899 Z0.2480
G1 X46.7651 Y-24.4959 Z0.2597
G1 X46.7651 Y-24.5007 Z0.2721
G1 X46.7651 Y-24.5042 Z0.2848
G1 X46.7651 Y-24.5063 Z0.2979
G1 X46.7651 Y-24.5070 Z0.3111
G0 Z0.3595
G0 X46.7651 Y-24.5070 
G0 Z0.3845
G0 X46.6001 Y-23.0747 
G1 X46.6001 Y-23.0753 Z0.3723 F25.
G1 X46.6001 Y-23.0771 Z0.3601
G1 X46.6001 Y-23.0800 Z0.3483
G1 X46.6001 Y-23.0842 Z0.3367
G1 X46.6001 Y-23.0894 Z0.3256
G1 X46.6001 Y-23.0957 Z0.3151
G1 X46.6001 Y-23.1030 Z0.3053
G1 X46.6001 Y-23.1112 Z0.2962
G1 X46.6001 Y-23.1203 Z0.2880
G1 X46.6001 Y-23.1301 Z0.2806
G1 X46.6001 Y-23.1406 Z0.2743
G1 X46.6001 Y-23.1517 Z0.2691
G1 X46.6001 Y-23.1632 Z0.2649
G1 X46.6001 Y-23.1751 Z0.2619
G1 X46.6001 Y-23.1872 Z0.2601
G1 X46.6001 Y-23.1994 Z0.2595
G1 X46.6001 Y-23.2054 Z0.2595 F50.
G1 X46.6001 Y-23.2115 Z0.2595
G1 X46.6001 Y-23.2415 Z0.2593
G1 X46.6001 Y-23.2475 Z0.2593
G1 X46.6001 Y-23.2775 Z0.2590
G1 X46.6001 Y-23.3106 Z0.2586
G1 X46.6001 Y-23.3136 Z0.2586
G1 X46.6001 Y-23.3496 Z0.2580
G1 X46.6001 Y-23.3812 Z0.2574
G1 X46.6001 Y-23.3827 Z0.2573
G1 X46.6001 Y-23.4157 Z0.2566
G1 X46.6001 Y-23.4518 Z0.2556
G1 X46.6001 Y-23.4638 Z0.2553
G1 X46.6001 Y-23.4856 Z0.2546
G1 X46.6001 Y-23.4878 Z0.2546
G1 X46.6001 Y-23.5209 Z0.2534
G1 X46.6001 Y-23.5239 Z0.2533
G1 X46.6001 Y-23.5554 Z0.2521
G1 X46.6001 Y-23.5569 Z0.2521
G1 X46.6001 Y-23.5599 Z0.2520
G1 X46.6001 Y-23.5907 Z0.2507
G1 X46.6001 Y-23.5930 Z0.2507
G1 X46.6001 Y-23.6257 Z0.2492
G1 X46.6001 Y-23.6290 Z0.2491
G1 X46.6001 Y-23.6606 Z0.2475
G1 X46.6001 Y-23.6621 Z0.2475
G1 X46.6001 Y-23.6681 Z0.2472
G1 X46.6001 Y-23.6955 Z0.2457
G1 X46.6001 Y-23.6983 Z0.2456
G1 X46.6001 Y-23.7304 Z0.2438
G1 X46.6001 Y-23.7342 Z0.2437
G1 X46.6001 Y-23.7654 Z0.2418
G1 X46.6001 Y-23.7672 Z0.2417
G1 X46.6001 Y-23.7702 Z0.2415
G1 X46.6001 Y-23.8003 Z0.2397
G1 X46.6001 Y-23.8033 Z0.2395
G1 X46.6001 Y-23.8352 Z0.2374
G1 X46.6001 Y-23.8380 Z0.2372
G1 X46.6001 Y-23.8700 Z0.2350
G1 X46.6001 Y-23.8724 Z0.2349
G1 X46.6001 Y-23.9049 Z0.2325
G1 X46.6001 Y-23.9084 Z0.2322
G1 X46.6001 Y-23.9396 Z0.2298
G1 X46.6001 Y-23.9415 Z0.2297
G1 X46.6001 Y-23.9445 Z0.2295
G1 X46.6001 Y-23.9745 Z0.2270
G1 X46.6001 Y-23.9775 Z0.2269
G1 X46.6001 Y-24.0095 Z0.2242
G1 X46.6001 Y-24.0123 Z0.2240
G1 X46.6001 Y-24.0442 Z0.2211
G1 X46.6001 Y-24.0466 Z0.2210
G1 X46.6001 Y-24.0527 Z0.2204
G1 X46.6001 Y-24.0789 Z0.2180
G1 X46.6001 Y-24.0812 Z0.2179
G1 X46.6001 Y-24.0827 Z0.2177
G1 X46.6001 Y-24.1139 Z0.2148
G1 X46.6001 Y-24.1157 Z0.2146
G1 X46.6001 Y-24.1187 Z0.2143
G1 X46.6001 Y-24.1486 Z0.2114
G1 X46.6001 Y-24.1518 Z0.2111
G1 X46.6001 Y-24.1833 Z0.2079
G1 X46.6001 Y-24.1863 Z0.2076
G1 X46.6001 Y-24.2181 Z0.2043
G1 X46.6001 Y-24.2209 Z0.2040
G1 X46.6001 Y-24.2528 Z0.2005
G1 X46.6001 Y-24.2554 Z0.2003
G1 X46.6001 Y-24.2876 Z0.1966
G1 X46.6001 Y-24.2900 Z0.1964
G1 X46.6001 Y-24.2930 Z0.1961
G1 X46.6001 Y-24.3221 Z0.1927
G1 X46.6001 Y-24.3245 Z0.1924
G1 X46.6001 Y-24.3260 Z0.1923
G1 X46.6001 Y-24.3568 Z0.1885
G1 X46.6001 Y-24.3597 Z0.1883
G1 X46.6001 Y-24.3680 Z0.1872
G1 X46.6001 Y-24.3812 Z0.1863
G1 X46.6001 Y-24.3945 Z0.1868
G1 X46.6001 Y-24.4076 Z0.1886
G1 X46.6001 Y-24.4204 Z0.1918
G1 X46.6001 Y-24.4328 Z0.1964
G1 X46.6001 Y-24.4447 Z0.2023
G1 X46.6001 Y-24.4559 Z0.2094
G1 X46.6001 Y-24.4662 Z0.2176
G1 X46.6001 Y-24.4757 Z0.2268
G1 X46.6001 Y-24.4841 Z0.2371
G1 X46.6001 Y-24.4914 Z0.2481
G1 X46.6001 Y-24.4975 Z0.2599
G1 X46.6001 Y-24.5023 Z0.2722
G1 X46.6001 Y-24.5057 Z0.2850
G1 X46.6001 Y-24.5078 Z0.2981
G1 X46.6001 Y-24.5085 Z0.3113
G0 Z0.3595
G0 X46.6001 Y-24.5085 
G0 Z0.3845
G0 X46.4351 Y-23.0747 
G1 X46.4351 Y-23.0753 Z0.3723 F25.
G1 X46.4351 Y-23.0771 Z0.3601
G1 X46.4351 Y-23.0800 Z0.3483
G1 X46.4351 Y-23.0841 Z0.3367
G1 X46.4351 Y-23.0894 Z0.3256
G1 X46.4351 Y-23.0957 Z0.3151
G1 X46.4351 Y-23.1030 Z0.3053
G1 X46.4351 Y-23.1112 Z0.2962
G1 X46.4351 Y-23.1203 Z0.2880
G1 X46.4351 Y-23.1301 Z0.2806
G1 X46.4351 Y-23.1406 Z0.2743
G1 X46.4351 Y-23.1517 Z0.2691
G1 X46.4351 Y-23.1632 Z0.2649
G1 X46.4351 Y-23.1751 Z0.2619
G1 X46.4351 Y-23.1872 Z0.2601
G1 X46.4351 Y-23.1994 Z0.2595
G1 X46.4351 Y-23.2054 Z0.2595 F50.
G1 X46.4351 Y-23.2115 Z0.2595
G1 X46.4351 Y-23.2415 Z0.2593
G1 X46.4351 Y-23.2475 Z0.2593
G1 X46.4351 Y-23.2775 Z0.2590
G1 X46.4351 Y-23.3151 Z0.2585
G1 X46.4351 Y-23.3496 Z0.2580
G1 X46.4351 Y-23.3812 Z0.2574
G1 X46.4351 Y-23.3827 Z0.2573
G1 X46.4351 Y-23.3857 Z0.2573
G1 X46.4351 Y-23.4157 Z0.2566
G1 X46.4351 Y-23.4187 Z0.2565
G1 X46.4351 Y-23.4518 Z0.2556
G1 X46.4351 Y-23.4638 Z0.2553
G1 X46.4351 Y-23.4863 Z0.2546
G1 X46.4351 Y-23.4878 Z0.2546
G1 X46.4351 Y-23.5213 Z0.2534
G1 X46.4351 Y-23.5239 Z0.2534
G1 X46.4351 Y-23.5562 Z0.2522
G1 X46.4351 Y-23.5599 Z0.2520
G1 X46.4351 Y-23.5915 Z0.2507
G1 X46.4351 Y-23.5930 Z0.2507
G1 X46.4351 Y-23.5960 Z0.2506
G1 X46.4351 Y-23.6264 Z0.2492
G1 X46.4351 Y-23.6290 Z0.2491
G1 X46.4351 Y-23.6613 Z0.2475
G1 X46.4351 Y-23.6651 Z0.2474
G1 X46.4351 Y-23.6963 Z0.2458
G1 X46.4351 Y-23.6981 Z0.2457
G1 X46.4351 Y-23.7042 Z0.2454
G1 X46.4351 Y-23.7312 Z0.2439
G1 X46.4351 Y-23.7342 Z0.2437
G1 X46.4351 Y-23.7665 Z0.2418
G1 X46.4351 Y-23.7702 Z0.2416
G1 X46.4351 Y-23.8014 Z0.2397
G1 X46.4351 Y-23.8033 Z0.2396
G1 X46.4351 Y-23.8063 Z0.2394
G1 X46.4351 Y-23.8363 Z0.2374
G1 X46.4351 Y-23.8395 Z0.2372
G1 X46.4351 Y-23.8713 Z0.2350
G1 X46.4351 Y-23.8724 Z0.2349
G1 X46.4351 Y-23.8754 Z0.2348
G1 X46.4351 Y-23.9062 Z0.2325
G1 X46.4351 Y-23.9084 Z0.2324
G1 X46.4351 Y-23.9205 Z0.2314
G1 X46.4351 Y-23.9411 Z0.2298
G1 X46.4351 Y-23.9445 Z0.2296
G1 X46.4351 Y-23.9760 Z0.2271
G1 X46.4351 Y-23.9790 Z0.2269
G1 X46.4351 Y-24.0110 Z0.2242
G1 X46.4351 Y-24.0136 Z0.2240
G1 X46.4351 Y-24.0166 Z0.2238
G1 X46.4351 Y-24.0459 Z0.2212
G1 X46.4351 Y-24.0496 Z0.2209
G1 X46.4351 Y-24.0808 Z0.2180
G1 X46.4351 Y-24.0842 Z0.2178
G1 X46.4351 Y-24.1157 Z0.2148
G1 X46.4351 Y-24.1187 Z0.2146
G1 X46.4351 Y-24.1507 Z0.2114
G1 X46.4351 Y-24.1533 Z0.2112
G1 X46.4351 Y-24.1548 Z0.2111
G1 X46.4351 Y-24.1854 Z0.2079
G1 X46.4351 Y-24.1878 Z0.2077
G1 X46.4351 Y-24.1909 Z0.2074
G1 X46.4351 Y-24.2203 Z0.2043
G1 X46.4351 Y-24.2239 Z0.2040
G1 X46.4351 Y-24.2551 Z0.2005
G1 X46.4351 Y-24.2569 Z0.2004
G1 X46.4351 Y-24.2584 Z0.2002
G1 X46.4351 Y-24.2898 Z0.1967
G1 X46.4351 Y-24.2931 Z0.1964
G1 X46.4351 Y-24.3245 Z0.1927
G1 X46.4351 Y-24.3275 Z0.1924
G1 X46.4351 Y-24.3290 Z0.1922
G1 X46.4351 Y-24.3593 Z0.1886
G1 X46.4351 Y-24.3623 Z0.1883
G1 X46.4351 Y-24.3695 Z0.1874
G1 X46.4351 Y-24.3827 Z0.1865
G1 X46.4351 Y-24.3960 Z0.1869
G1 X46.4351 Y-24.4091 Z0.1888
G1 X46.4351 Y-24.4219 Z0.1920
G1 X46.4351 Y-24.4343 Z0.1966
G1 X46.4351 Y-24.4462 Z0.2025
G1 X46.4351 Y-24.4574 Z0.2095
G1 X46.4351 Y-24.4677 Z0.2178
G1 X46.4351 Y-24.4772 Z0.2270
G1 X46.4351 Y-24.4856 Z0.2373
G1 X46.4351 Y-24.4929 Z0.2483
G1 X46.4351 Y-24.4989 Z0.2601
G1 X46.4351 Y-24.5037 Z0.2724
G1 X46.4351 Y-24.5072 Z0.2852
G1 X46.4351 Y-24.5093 Z0.2982
G1 X46.4351 Y-24.5100 Z0.3115
G0 Z0.3595
G0 X46.4351 Y-24.5100 
G0 Z0.3845
G0 X46.2701 Y-23.0747 
G1 X46.2701 Y-23.0753 Z0.3723 F25.
G1 X46.2701 Y-23.0770 Z0.3601
G1 X46.2701 Y-23.0800 Z0.3483
G1 X46.2701 Y-23.0841 Z0.3367
G1 X46.2701 Y-23.0894 Z0.3256
G1 X46.2701 Y-23.0957 Z0.3151
G1 X46.2701 Y-23.1030 Z0.3053
G1 X46.2701 Y-23.1112 Z0.2962
G1 X46.2701 Y-23.1203 Z0.2880
G1 X46.2701 Y-23.1301 Z0.2806
G1 X46.2701 Y-23.1406 Z0.2743
G1 X46.2701 Y-23.1517 Z0.2691
G1 X46.2701 Y-23.1632 Z0.2649
G1 X46.2701 Y-23.1751 Z0.2619
G1 X46.2701 Y-23.1872 Z0.2601
G1 X46.2701 Y-23.1994 Z0.2595
G1 X46.2701 Y-23.2054 Z0.2595 F50.
G1 X46.2701 Y-23.2115 Z0.2595
G1 X46.2701 Y-23.2415 Z0.2593
G1 X46.2701 Y-23.2475 Z0.2593
G1 X46.2701 Y-23.2775 Z0.2590
G1 X46.2701 Y-23.3106 Z0.2586
G1 X46.2701 Y-23.3136 Z0.2586
G1 X46.2701 Y-23.3466 Z0.2580
G1 X46.2701 Y-23.3496 Z0.2580
G1 X46.2701 Y-23.3812 Z0.2574
G1 X46.2701 Y-23.3857 Z0.2573
G1 X46.2701 Y-23.4165 Z0.2566
G1 X46.2701 Y-23.4187 Z0.2565
G1 X46.2701 Y-23.4518 Z0.2556
G1 X46.2701 Y-23.4548 Z0.2556
G1 X46.2701 Y-23.4863 Z0.2546
G1 X46.2701 Y-23.4878 Z0.2546
G1 X46.2701 Y-23.5216 Z0.2535
G1 X46.2701 Y-23.5239 Z0.2534
G1 X46.2701 Y-23.5359 Z0.2529
G1 X46.2701 Y-23.5569 Z0.2522
G1 X46.2701 Y-23.5599 Z0.2521
G1 X46.2701 Y-23.5919 Z0.2508
G1 X46.2701 Y-23.5960 Z0.2506
G1 X46.2701 Y-23.6272 Z0.2492
G1 X46.2701 Y-23.6290 Z0.2491
G1 X46.2701 Y-23.6321 Z0.2490
G1 X46.2701 Y-23.6621 Z0.2476
G1 X46.2701 Y-23.6651 Z0.2474
G1 X46.2701 Y-23.6974 Z0.2458
G1 X46.2701 Y-23.7012 Z0.2456
G1 X46.2701 Y-23.7323 Z0.2439
G1 X46.2701 Y-23.7359 Z0.2437
G1 X46.2701 Y-23.7674 Z0.2418
G1 X46.2701 Y-23.7702 Z0.2417
G1 X46.2701 Y-23.7763 Z0.2413
G1 X46.2701 Y-23.8025 Z0.2397
G1 X46.2701 Y-23.8063 Z0.2395
G1 X46.2701 Y-23.8375 Z0.2374
G1 X46.2701 Y-23.8409 Z0.2373
G1 X46.2701 Y-23.8728 Z0.2350
G1 X46.2701 Y-23.8754 Z0.2349
G1 X46.2701 Y-23.8784 Z0.2347
G1 X46.2701 Y-23.9077 Z0.2325
G1 X46.2701 Y-23.9115 Z0.2323
G1 X46.2701 Y-23.9426 Z0.2299
G1 X46.2701 Y-23.9460 Z0.2297
G1 X46.2701 Y-23.9777 Z0.2271
G1 X46.2701 Y-23.9806 Z0.2269
G1 X46.2701 Y-23.9926 Z0.2259
G1 X46.2701 Y-24.0128 Z0.2242
G1 X46.2701 Y-24.0166 Z0.2239
G1 X46.2701 Y-24.0478 Z0.2212
G1 X46.2701 Y-24.0513 Z0.2209
G1 X46.2701 Y-24.0827 Z0.2181
G1 X46.2701 Y-24.0857 Z0.2179
G1 X46.2701 Y-24.0887 Z0.2176
G1 X46.2701 Y-24.1176 Z0.2148
G1 X46.2701 Y-24.1187 Z0.2147
G1 X46.2701 Y-24.1218 Z0.2145
G1 X46.2701 Y-24.1525 Z0.2114
G1 X46.2701 Y-24.1548 Z0.2113
G1 X46.2701 Y-24.1563 Z0.2111
G1 X46.2701 Y-24.1875 Z0.2079
G1 X46.2701 Y-24.1909 Z0.2077
G1 X46.2701 Y-24.2224 Z0.2043
G1 X46.2701 Y-24.2254 Z0.2041
G1 X46.2701 Y-24.2269 Z0.2039
G1 X46.2701 Y-24.2573 Z0.2006
G1 X46.2701 Y-24.2599 Z0.2003
G1 X46.2701 Y-24.2630 Z0.2000
G1 X46.2701 Y-24.2922 Z0.1967
G1 X46.2701 Y-24.2960 Z0.1964
G1 X46.2701 Y-24.3270 Z0.1927
G1 X46.2701 Y-24.3306 Z0.1924
G1 X46.2701 Y-24.3618 Z0.1886
G1 X46.2701 Y-24.3655 Z0.1883
G1 X46.2701 Y-24.3711 Z0.1876
G1 X46.2701 Y-24.3843 Z0.1866
G1 X46.2701 Y-24.3975 Z0.1871
G1 X46.2701 Y-24.4106 Z0.1889
G1 X46.2701 Y-24.4234 Z0.1922
G1 X46.2701 Y-24.4359 Z0.1967
G1 X46.2701 Y-24.4477 Z0.2026
G1 X46.2701 Y-24.4589 Z0.2097
G1 X46.2701 Y-24.4693 Z0.2179
G1 X46.2701 Y-24.4787 Z0.2272
G1 X46.2701 Y-24.4872 Z0.2374
G1 X46.2701 Y-24.4944 Z0.2484
G1 X46.2701 Y-24.5005 Z0.2602
G1 X46.2701 Y-24.5053 Z0.2725
G1 X46.2701 Y-24.5088 Z0.2853
G1 X46.2701 Y-24.5109 Z0.2984
G1 X46.2701 Y-24.5116 Z0.3116
G0 Z0.3595
G0 X46.2701 Y-24.5116 
G0 Z0.3845
G0 X46.1051 Y-23.0747 
G1 X46.1051 Y-23.0753 Z0.3723 F25.
G1 X46.1051 Y-23.0771 Z0.3601
G1 X46.1051 Y-23.0801 Z0.3483
G1 X46.1051 Y-23.0842 Z0.3367
G1 X46.1051 Y-23.0894 Z0.3257
G1 X46.1051 Y-23.0957 Z0.3151
G1 X46.1051 Y-23.1030 Z0.3053
G1 X46.1051 Y-23.1112 Z0.2962
G1 X46.1051 Y-23.1203 Z0.2880
G1 X46.1051 Y-23.1301 Z0.2807
G1 X46.1051 Y-23.1406 Z0.2743
G1 X46.1051 Y-23.1517 Z0.2691
G1 X46.1051 Y-23.1632 Z0.2649
G1 X46.1051 Y-23.1751 Z0.2620
G1 X46.1051 Y-23.1872 Z0.2601
G1 X46.1051 Y-23.1994 Z0.2595
G1 X46.1051 Y-23.2099 Z0.2595 F50.
G1 X46.1051 Y-23.2415 Z0.2593
G1 X46.1051 Y-23.2475 Z0.2593
G1 X46.1051 Y-23.2775 Z0.2590
G1 X46.1051 Y-23.2836 Z0.2589
G1 X46.1051 Y-23.3106 Z0.2586
G1 X46.1051 Y-23.3136 Z0.2586
G1 X46.1051 Y-23.3466 Z0.2580
G1 X46.1051 Y-23.3496 Z0.2580
G1 X46.1051 Y-23.3812 Z0.2574
G1 X46.1051 Y-23.3857 Z0.2573
G1 X46.1051 Y-23.4165 Z0.2566
G1 X46.1051 Y-23.4187 Z0.2565
G1 X46.1051 Y-23.4218 Z0.2565
G1 X46.1051 Y-23.4518 Z0.2557
G1 X46.1051 Y-23.4548 Z0.2556
G1 X46.1051 Y-23.4871 Z0.2546
G1 X46.1051 Y-23.4908 Z0.2545
G1 X46.1051 Y-23.5224 Z0.2535
G1 X46.1051 Y-23.5239 Z0.2534
G1 X46.1051 Y-23.5359 Z0.2530
G1 X46.1051 Y-23.5573 Z0.2522
G1 X46.1051 Y-23.5599 Z0.2521
G1 X46.1051 Y-23.5926 Z0.2508
G1 X46.1051 Y-23.5960 Z0.2507
G1 X46.1051 Y-23.6279 Z0.2492
G1 X46.1051 Y-23.6321 Z0.2491
G1 X46.1051 Y-23.6628 Z0.2476
G1 X46.1051 Y-23.6670 Z0.2474
G1 X46.1051 Y-23.6981 Z0.2458
G1 X46.1051 Y-23.7012 Z0.2457
G1 X46.1051 Y-23.7042 Z0.2455
G1 X46.1051 Y-23.7334 Z0.2439
G1 X46.1051 Y-23.7372 Z0.2437
G1 X46.1051 Y-23.7684 Z0.2419
G1 X46.1051 Y-23.7702 Z0.2418
G1 X46.1051 Y-23.7733 Z0.2416
G1 X46.1051 Y-23.8037 Z0.2397
G1 X46.1051 Y-23.8063 Z0.2396
G1 X46.1051 Y-23.8123 Z0.2392
G1 X46.1051 Y-23.8390 Z0.2374
G1 X46.1051 Y-23.8424 Z0.2373
G1 X46.1051 Y-23.8739 Z0.2350
G1 X46.1051 Y-23.8754 Z0.2350
G1 X46.1051 Y-23.8784 Z0.2348
G1 X46.1051 Y-23.9092 Z0.2325
G1 X46.1051 Y-23.9130 Z0.2323
G1 X46.1051 Y-23.9441 Z0.2299
G1 X46.1051 Y-23.9475 Z0.2297
G1 X46.1051 Y-23.9505 Z0.2294
G1 X46.1051 Y-23.9794 Z0.2271
G1 X46.1051 Y-23.9836 Z0.2268
G1 X46.1051 Y-24.0143 Z0.2242
G1 X46.1051 Y-24.0183 Z0.2240
G1 X46.1051 Y-24.0495 Z0.2212
G1 X46.1051 Y-24.0527 Z0.2210
G1 X46.1051 Y-24.0647 Z0.2199
G1 X46.1051 Y-24.0846 Z0.2181
G1 X46.1051 Y-24.0887 Z0.2178
G1 X46.1051 Y-24.1195 Z0.2148
G1 X46.1051 Y-24.1234 Z0.2145
G1 X46.1051 Y-24.1546 Z0.2115
G1 X46.1051 Y-24.1578 Z0.2112
G1 X46.1051 Y-24.1608 Z0.2109
G1 X46.1051 Y-24.1895 Z0.2080
G1 X46.1051 Y-24.1939 Z0.2076
G1 X46.1051 Y-24.2246 Z0.2043
G1 X46.1051 Y-24.2285 Z0.2040
G1 X46.1051 Y-24.2596 Z0.2006
G1 X46.1051 Y-24.2630 Z0.2003
G1 X46.1051 Y-24.2690 Z0.1996
G1 X46.1051 Y-24.2945 Z0.1967
G1 X46.1051 Y-24.2960 Z0.1966
G1 X46.1051 Y-24.2990 Z0.1963
G1 X46.1051 Y-24.3294 Z0.1927
G1 X46.1051 Y-24.3321 Z0.1925
G1 X46.1051 Y-24.3336 Z0.1924
G1 X46.1051 Y-24.3644 Z0.1886
G1 X46.1051 Y-24.3677 Z0.1883
G1 X46.1051 Y-24.3726 Z0.1877
G1 X46.1051 Y-24.3858 Z0.1868
G1 X46.1051 Y-24.3990 Z0.1873
G1 X46.1051 Y-24.4121 Z0.1892
G1 X46.1051 Y-24.4249 Z0.1924
G1 X46.1051 Y-24.4373 Z0.1970
G1 X46.1051 Y-24.4491 Z0.2029
G1 X46.1051 Y-24.4603 Z0.2100
G1 X46.1051 Y-24.4706 Z0.2182
G1 X46.1051 Y-24.4800 Z0.2275
G1 X46.1051 Y-24.4884 Z0.2377
G1 X46.1051 Y-24.4957 Z0.2487
G1 X46.1051 Y-24.5018 Z0.2605
G1 X46.1051 Y-24.5065 Z0.2728
G1 X46.1051 Y-24.5100 Z0.2856
G1 X46.1051 Y-24.5121 Z0.2986
G1 X46.1051 Y-24.5128 Z0.3118
G0 Z0.3595
G0 X46.1051 Y-24.5128 
G0 Z0.3845
G0 X45.9401 Y-23.0747 
G1 X45.9401 Y-23.0753 Z0.3723 F25.
G1 X45.9401 Y-23.0771 Z0.3602
G1 X45.9401 Y-23.0801 Z0.3483
G1 X45.9401 Y-23.0842 Z0.3367
G1 X45.9401 Y-23.0895 Z0.3257
G1 X45.9401 Y-23.0957 Z0.3152
G1 X45.9401 Y-23.1030 Z0.3053
G1 X45.9401 Y-23.1112 Z0.2962
G1 X45.9401 Y-23.1203 Z0.2880
G1 X45.9401 Y-23.1301 Z0.2807
G1 X45.9401 Y-23.1406 Z0.2744
G1 X45.9401 Y-23.1517 Z0.2691
G1 X45.9401 Y-23.1632 Z0.2650
G1 X45.9401 Y-23.1751 Z0.2620
G1 X45.9401 Y-23.1872 Z0.2601
G1 X45.9401 Y-23.1994 Z0.2595
G1 X45.9401 Y-23.2115 Z0.2595 F50.
G1 X45.9401 Y-23.2415 Z0.2593
G1 X45.9401 Y-23.2475 Z0.2593
G1 X45.9401 Y-23.2775 Z0.2590
G1 X45.9401 Y-23.2836 Z0.2589
G1 X45.9401 Y-23.3106 Z0.2586
G1 X45.9401 Y-23.3136 Z0.2586
G1 X45.9401 Y-23.3466 Z0.2580
G1 X45.9401 Y-23.3496 Z0.2580
G1 X45.9401 Y-23.3812 Z0.2574
G1 X45.9401 Y-23.3857 Z0.2573
G1 X45.9401 Y-23.4172 Z0.2566
G1 X45.9401 Y-23.4218 Z0.2565
G1 X45.9401 Y-23.4518 Z0.2557
G1 X45.9401 Y-23.4578 Z0.2555
G1 X45.9401 Y-23.4871 Z0.2546
G1 X45.9401 Y-23.4908 Z0.2546
G1 X45.9401 Y-23.5228 Z0.2535
G1 X45.9401 Y-23.5269 Z0.2534
G1 X45.9401 Y-23.5581 Z0.2522
G1 X45.9401 Y-23.5599 Z0.2521
G1 X45.9401 Y-23.5630 Z0.2520
G1 X45.9401 Y-23.5934 Z0.2508
G1 X45.9401 Y-23.5960 Z0.2507
G1 X45.9401 Y-23.6080 Z0.2502
G1 X45.9401 Y-23.6287 Z0.2492
G1 X45.9401 Y-23.6321 Z0.2491
G1 X45.9401 Y-23.6640 Z0.2476
G1 X45.9401 Y-23.6681 Z0.2474
G1 X45.9401 Y-23.6993 Z0.2458
G1 X45.9401 Y-23.7012 Z0.2457
G1 X45.9401 Y-23.7042 Z0.2456
G1 X45.9401 Y-23.7342 Z0.2439
G1 X45.9401 Y-23.7372 Z0.2438
G1 X45.9401 Y-23.7402 Z0.2436
G1 X45.9401 Y-23.7695 Z0.2419
G1 X45.9401 Y-23.7733 Z0.2417
G1 X45.9401 Y-23.7763 Z0.2415
G1 X45.9401 Y-23.8048 Z0.2397
G1 X45.9401 Y-23.8093 Z0.2395
G1 X45.9401 Y-23.8401 Z0.2374
G1 X45.9401 Y-23.8439 Z0.2373
G1 X45.9401 Y-23.8754 Z0.2350
G1 X45.9401 Y-23.8784 Z0.2349
G1 X45.9401 Y-23.8844 Z0.2345
G1 X45.9401 Y-23.9105 Z0.2325
G1 X45.9401 Y-23.9145 Z0.2323
G1 X45.9401 Y-23.9456 Z0.2299
G1 X45.9401 Y-23.9475 Z0.2298
G1 X45.9401 Y-23.9505 Z0.2296
G1 X45.9401 Y-23.9809 Z0.2271
G1 X45.9401 Y-23.9852 Z0.2269
G1 X45.9401 Y-24.0160 Z0.2242
G1 X45.9401 Y-24.0196 Z0.2240
G1 X45.9401 Y-24.0226 Z0.2238
G1 X45.9401 Y-24.0512 Z0.2212
G1 X45.9401 Y-24.0557 Z0.2209
G1 X45.9401 Y-24.0865 Z0.2181
G1 X45.9401 Y-24.0902 Z0.2178
G1 X45.9401 Y-24.1214 Z0.2149
G1 X45.9401 Y-24.1248 Z0.2146
G1 X45.9401 Y-24.1368 Z0.2134
G1 X45.9401 Y-24.1567 Z0.2115
G1 X45.9401 Y-24.1608 Z0.2112
G1 X45.9401 Y-24.1916 Z0.2080
G1 X45.9401 Y-24.1954 Z0.2077
G1 X45.9401 Y-24.1969 Z0.2075
G1 X45.9401 Y-24.2267 Z0.2044
G1 X45.9401 Y-24.2299 Z0.2041
G1 X45.9401 Y-24.2314 Z0.2040
G1 X45.9401 Y-24.2618 Z0.2006
G1 X45.9401 Y-24.2660 Z0.2003
G1 X45.9401 Y-24.2968 Z0.1968
G1 X45.9401 Y-24.3005 Z0.1964
G1 X45.9401 Y-24.3020 Z0.1963
G1 X45.9401 Y-24.3319 Z0.1928
G1 X45.9401 Y-24.3358 Z0.1924
G1 X45.9401 Y-24.3669 Z0.1887
G1 X45.9401 Y-24.3689 Z0.1885
G1 X45.9401 Y-24.3715 Z0.1882
G1 X45.9401 Y-24.3741 Z0.1879
G1 X45.9401 Y-24.3873 Z0.1870
G1 X45.9401 Y-24.4006 Z0.1874
G1 X45.9401 Y-24.4137 Z0.1893
G1 X45.9401 Y-24.4265 Z0.1925
G1 X45.9401 Y-24.4389 Z0.1971
G1 X45.9401 Y-24.4508 Z0.2029
G1 X45.9401 Y-24.4620 Z0.2100
G1 X45.9401 Y-24.4723 Z0.2182
G1 X45.9401 Y-24.4818 Z0.2275
G1 X45.9401 Y-24.4902 Z0.2377
G1 X45.9401 Y-24.4975 Z0.2488
G1 X45.9401 Y-24.5036 Z0.2605
G1 X45.9401 Y-24.5084 Z0.2729
G1 X45.9401 Y-24.5118 Z0.2857
G1 X45.9401 Y-24.5139 Z0.2987
G1 X45.9401 Y-24.5146 Z0.3119
G0 Z0.3595
G0 X45.9401 Y-24.5146 
G0 Z0.3845
G0 X45.7751 Y-23.0747 
G1 X45.7751 Y-23.0753 Z0.3723 F25.
G1 X45.7751 Y-23.0771 Z0.3602
G1 X45.7751 Y-23.0801 Z0.3483
G1 X45.7751 Y-23.0842 Z0.3367
G1 X45.7751 Y-23.0895 Z0.3257
G1 X45.7751 Y-23.0957 Z0.3152
G1 X45.7751 Y-23.1030 Z0.3053
G1 X45.7751 Y-23.1112 Z0.2962
G1 X45.7751 Y-23.1203 Z0.2880
G1 X45.7751 Y-23.1301 Z0.2807
G1 X45.7751 Y-23.1406 Z0.2744
G1 X45.7751 Y-23.1517 Z0.2691
G1 X45.7751 Y-23.1632 Z0.2650
G1 X45.7751 Y-23.1751 Z0.2620
G1 X45.7751 Y-23.1872 Z0.2601
G1 X45.7751 Y-23.1994 Z0.2595
G1 X45.7751 Y-23.2115 Z0.2595 F50.
G1 X45.7751 Y-23.2415 Z0.2593
G1 X45.7751 Y-23.2475 Z0.2593
G1 X45.7751 Y-23.2760 Z0.2590
G1 X45.7751 Y-23.2836 Z0.2589
G1 X45.7751 Y-23.3106 Z0.2586
G1 X45.7751 Y-23.3136 Z0.2586
G1 X45.7751 Y-23.3196 Z0.2585
G1 X45.7751 Y-23.3466 Z0.2580
G1 X45.7751 Y-23.3496 Z0.2580
G1 X45.7751 Y-23.3819 Z0.2574
G1 X45.7751 Y-23.3857 Z0.2573
G1 X45.7751 Y-23.4172 Z0.2566
G1 X45.7751 Y-23.4218 Z0.2565
G1 X45.7751 Y-23.4525 Z0.2557
G1 X45.7751 Y-23.4548 Z0.2556
G1 X45.7751 Y-23.4578 Z0.2556
G1 X45.7751 Y-23.4878 Z0.2546
G1 X45.7751 Y-23.4939 Z0.2545
G1 X45.7751 Y-23.5231 Z0.2535
G1 X45.7751 Y-23.5269 Z0.2534
G1 X45.7751 Y-23.5584 Z0.2522
G1 X45.7751 Y-23.5630 Z0.2521
G1 X45.7751 Y-23.5937 Z0.2508
G1 X45.7751 Y-23.5990 Z0.2506
G1 X45.7751 Y-23.6294 Z0.2492
G1 X45.7751 Y-23.6321 Z0.2492
G1 X45.7751 Y-23.6647 Z0.2476
G1 X45.7751 Y-23.6681 Z0.2475
G1 X45.7751 Y-23.6801 Z0.2469
G1 X45.7751 Y-23.7000 Z0.2458
G1 X45.7751 Y-23.7042 Z0.2457
G1 X45.7751 Y-23.7353 Z0.2439
G1 X45.7751 Y-23.7402 Z0.2437
G1 X45.7751 Y-23.7706 Z0.2419
G1 X45.7751 Y-23.7733 Z0.2418
G1 X45.7751 Y-23.7763 Z0.2416
G1 X45.7751 Y-23.8059 Z0.2397
G1 X45.7751 Y-23.8093 Z0.2396
G1 X45.7751 Y-23.8123 Z0.2394
G1 X45.7751 Y-23.8412 Z0.2375
G1 X45.7751 Y-23.8454 Z0.2373
G1 X45.7751 Y-23.8484 Z0.2371
G1 X45.7751 Y-23.8765 Z0.2351
G1 X45.7751 Y-23.8814 Z0.2348
G1 X45.7751 Y-23.9118 Z0.2326
G1 X45.7751 Y-23.9160 Z0.2323
G1 X45.7751 Y-23.9175 Z0.2322
G1 X45.7751 Y-23.9471 Z0.2299
G1 X45.7751 Y-23.9505 Z0.2297
G1 X45.7751 Y-23.9520 Z0.2296
G1 X45.7751 Y-23.9824 Z0.2272
G1 X45.7751 Y-23.9866 Z0.2269
G1 X45.7751 Y-23.9926 Z0.2264
G1 X45.7751 Y-24.0177 Z0.2243
G1 X45.7751 Y-24.0226 Z0.2239
G1 X45.7751 Y-24.0530 Z0.2213
G1 X45.7751 Y-24.0572 Z0.2210
G1 X45.7751 Y-24.0881 Z0.2181
G1 X45.7751 Y-24.0917 Z0.2179
G1 X45.7751 Y-24.0947 Z0.2176
G1 X45.7751 Y-24.1234 Z0.2149
G1 X45.7751 Y-24.1279 Z0.2145
G1 X45.7751 Y-24.1586 Z0.2115
G1 X45.7751 Y-24.1608 Z0.2113
G1 X45.7751 Y-24.1638 Z0.2111
G1 X45.7751 Y-24.1937 Z0.2080
G1 X45.7751 Y-24.1984 Z0.2076
G1 X45.7751 Y-24.2290 Z0.2044
G1 X45.7751 Y-24.2329 Z0.2041
G1 X45.7751 Y-24.2641 Z0.2006
G1 X45.7751 Y-24.2660 Z0.2005
G1 X45.7751 Y-24.2690 Z0.2002
G1 X45.7751 Y-24.2992 Z0.1968
G1 X45.7751 Y-24.3037 Z0.1964
G1 X45.7751 Y-24.3343 Z0.1928
G1 X45.7751 Y-24.3381 Z0.1925
G1 X45.7751 Y-24.3411 Z0.1921
G1 X45.7751 Y-24.3693 Z0.1887
G1 X45.7751 Y-24.3728 Z0.1884
G1 X45.7751 Y-24.3742 Z0.1882
G1 X45.7751 Y-24.3756 Z0.1881
G1 X45.7751 Y-24.3888 Z0.1871
G1 X45.7751 Y-24.4021 Z0.1876
G1 X45.7751 Y-24.4152 Z0.1894
G1 X45.7751 Y-24.4280 Z0.1927
G1 X45.7751 Y-24.4404 Z0.1972
G1 X45.7751 Y-24.4523 Z0.2031
G1 X45.7751 Y-24.4635 Z0.2102
G1 X45.7751 Y-24.4739 Z0.2184
G1 X45.7751 Y-24.4833 Z0.2277
G1 X45.7751 Y-24.4917 Z0.2379
G1 X45.7751 Y-24.4990 Z0.2489
G1 X45.7751 Y-24.5051 Z0.2607
G1 X45.7751 Y-24.5099 Z0.2730
G1 X45.7751 Y-24.5133 Z0.2858
G1 X45.7751 Y-24.5154 Z0.2989
G1 X45.7751 Y-24.5161 Z0.3121
G0 Z0.3595
G0 X45.7751 Y-24.5161 
G0 Z0.3845
G0 X45.6101 Y-23.0747 
G1 X45.6101 Y-23.0753 Z0.3723 F25.
G1 X45.6101 Y-23.0771 Z0.3602
G1 X45.6101 Y-23.0801 Z0.3483
G1 X45.6101 Y-23.0842 Z0.3367
G1 X45.6101 Y-23.0895 Z0.3257
G1 X45.6101 Y-23.0957 Z0.3152
G1 X45.6101 Y-23.1030 Z0.3053
G1 X45.6101 Y-23.1112 Z0.2962
G1 X45.6101 Y-23.1203 Z0.2880
G1 X45.6101 Y-23.1301 Z0.2807
G1 X45.6101 Y-23.1406 Z0.2744
G1 X45.6101 Y-23.1517 Z0.2691
G1 X45.6101 Y-23.1632 Z0.2650
G1 X45.6101 Y-23.1751 Z0.2620
G1 X45.6101 Y-23.1872 Z0.2601
G1 X45.6101 Y-23.1994 Z0.2595
G1 X45.6101 Y-23.2115 Z0.2595 F50.
G1 X45.6101 Y-23.2415 Z0.2593
G1 X45.6101 Y-23.2475 Z0.2593
G1 X45.6101 Y-23.2836 Z0.2589
G1 X45.6101 Y-23.3106 Z0.2586
G1 X45.6101 Y-23.3136 Z0.2586
G1 X45.6101 Y-23.3196 Z0.2585
G1 X45.6101 Y-23.3466 Z0.2581
G1 X45.6101 Y-23.3496 Z0.2580
G1 X45.6101 Y-23.3557 Z0.2579
G1 X45.6101 Y-23.3819 Z0.2574
G1 X45.6101 Y-23.3857 Z0.2573
G1 X45.6101 Y-23.4172 Z0.2566
G1 X45.6101 Y-23.4221 Z0.2565
G1 X45.6101 Y-23.4525 Z0.2557
G1 X45.6101 Y-23.4578 Z0.2556
G1 X45.6101 Y-23.4882 Z0.2546
G1 X45.6101 Y-23.4908 Z0.2546
G1 X45.6101 Y-23.4939 Z0.2545
G1 X45.6101 Y-23.5239 Z0.2535
G1 X45.6101 Y-23.5299 Z0.2533
G1 X45.6101 Y-23.5592 Z0.2522
G1 X45.6101 Y-23.5630 Z0.2521
G1 X45.6101 Y-23.5660 Z0.2520
G1 X45.6101 Y-23.5945 Z0.2508
G1 X45.6101 Y-23.5990 Z0.2507
G1 X45.6101 Y-23.6302 Z0.2493
G1 X45.6101 Y-23.6351 Z0.2491
G1 X45.6101 Y-23.6655 Z0.2476
G1 X45.6101 Y-23.6681 Z0.2475
G1 X45.6101 Y-23.6711 Z0.2474
G1 X45.6101 Y-23.7008 Z0.2458
G1 X45.6101 Y-23.7042 Z0.2457
G1 X45.6101 Y-23.7365 Z0.2439
G1 X45.6101 Y-23.7402 Z0.2438
G1 X45.6101 Y-23.7522 Z0.2431
G1 X45.6101 Y-23.7718 Z0.2419
G1 X45.6101 Y-23.7763 Z0.2417
G1 X45.6101 Y-23.8071 Z0.2398
G1 X45.6101 Y-23.8123 Z0.2395
G1 X45.6101 Y-23.8425 Z0.2375
G1 X45.6101 Y-23.8454 Z0.2373
G1 X45.6101 Y-23.8484 Z0.2372
G1 X45.6101 Y-23.8780 Z0.2351
G1 X45.6101 Y-23.8829 Z0.2348
G1 X45.6101 Y-23.9133 Z0.2326
G1 X45.6101 Y-23.9175 Z0.2323
G1 X45.6101 Y-23.9205 Z0.2321
G1 X45.6101 Y-23.9486 Z0.2299
G1 X45.6101 Y-23.9536 Z0.2296
G1 X45.6101 Y-23.9839 Z0.2272
G1 X45.6101 Y-23.9866 Z0.2270
G1 X45.6101 Y-23.9896 Z0.2268
G1 X45.6101 Y-24.0194 Z0.2243
G1 X45.6101 Y-24.0243 Z0.2240
G1 X45.6101 Y-24.0547 Z0.2213
G1 X45.6101 Y-24.0587 Z0.2210
G1 X45.6101 Y-24.0647 Z0.2205
G1 X45.6101 Y-24.0900 Z0.2182
G1 X45.6101 Y-24.0949 Z0.2178
G1 X45.6101 Y-24.1253 Z0.2149
G1 X45.6101 Y-24.1278 Z0.2147
G1 X45.6101 Y-24.1308 Z0.2145
G1 X45.6101 Y-24.1606 Z0.2115
G1 X45.6101 Y-24.1653 Z0.2112
G1 X45.6101 Y-24.1957 Z0.2080
G1 X45.6101 Y-24.1999 Z0.2077
G1 X45.6101 Y-24.2029 Z0.2074
G1 X45.6101 Y-24.2310 Z0.2044
G1 X45.6101 Y-24.2360 Z0.2040
G1 X45.6101 Y-24.2663 Z0.2007
G1 X45.6101 Y-24.2705 Z0.2003
G1 X45.6101 Y-24.2720 Z0.2002
G1 X45.6101 Y-24.3014 Z0.1968
G1 X45.6101 Y-24.3050 Z0.1965
G1 X45.6101 Y-24.3065 Z0.1964
G1 X45.6101 Y-24.3367 Z0.1928
G1 X45.6101 Y-24.3411 Z0.1925
G1 X45.6101 Y-24.3531 Z0.1910
G1 X45.6101 Y-24.3718 Z0.1887
G1 X45.6101 Y-24.3742 Z0.1885
G1 X45.6101 Y-24.3772 Z0.1882
G1 X45.6101 Y-24.3902 Z0.1876
G1 X45.6101 Y-24.4032 Z0.1884
G1 X45.6101 Y-24.4160 Z0.1905
G1 X45.6101 Y-24.4286 Z0.1940
G1 X45.6101 Y-24.4407 Z0.1987
G1 X45.6101 Y-24.4523 Z0.2047
G1 X45.6101 Y-24.4632 Z0.2118
G1 X45.6101 Y-24.4733 Z0.2201
G1 X45.6101 Y-24.4825 Z0.2293
G1 X45.6101 Y-24.4906 Z0.2395
G1 X45.6101 Y-24.4977 Z0.2504
G1 X45.6101 Y-24.5036 Z0.2620
G1 X45.6101 Y-24.5082 Z0.2742
G1 X45.6101 Y-24.5116 Z0.2868
G1 X45.6101 Y-24.5136 Z0.2996
G1 X45.6101 Y-24.5143 Z0.3126
G0 Z0.3595
G0 X45.6101 Y-24.5143 
G0 Z0.3845
G0 X45.4451 Y-23.0747 
G1 X45.4451 Y-23.0753 Z0.3723 F25.
G1 X45.4451 Y-23.0771 Z0.3602
G1 X45.4451 Y-23.0801 Z0.3483
G1 X45.4451 Y-23.0842 Z0.3367
G1 X45.4451 Y-23.0894 Z0.3257
G1 X45.4451 Y-23.0957 Z0.3151
G1 X45.4451 Y-23.1030 Z0.3053
G1 X45.4451 Y-23.1112 Z0.2962
G1 X45.4451 Y-23.1203 Z0.2880
G1 X45.4451 Y-23.1301 Z0.2807
G1 X45.4451 Y-23.1406 Z0.2744
G1 X45.4451 Y-23.1517 Z0.2691
G1 X45.4451 Y-23.1632 Z0.2650
G1 X45.4451 Y-23.1751 Z0.2620
G1 X45.4451 Y-23.1872 Z0.2601
G1 X45.4451 Y-23.1994 Z0.2595
G1 X45.4451 Y-23.2115 Z0.2595 F50.
G1 X45.4451 Y-23.2415 Z0.2593
G1 X45.4451 Y-23.2475 Z0.2593
G1 X45.4451 Y-23.2836 Z0.2589
G1 X45.4451 Y-23.3106 Z0.2586
G1 X45.4451 Y-23.3136 Z0.2586
G1 X45.4451 Y-23.3196 Z0.2585
G1 X45.4451 Y-23.3466 Z0.2581
G1 X45.4451 Y-23.3496 Z0.2580
G1 X45.4451 Y-23.3557 Z0.2579
G1 X45.4451 Y-23.3819 Z0.2574
G1 X45.4451 Y-23.3857 Z0.2573
G1 X45.4451 Y-23.3917 Z0.2572
G1 X45.4451 Y-23.4172 Z0.2566
G1 X45.4451 Y-23.4218 Z0.2565
G1 X45.4451 Y-23.4533 Z0.2557
G1 X45.4451 Y-23.4578 Z0.2556
G1 X45.4451 Y-23.4886 Z0.2547
G1 X45.4451 Y-23.4939 Z0.2545
G1 X45.4451 Y-23.5239 Z0.2535
G1 X45.4451 Y-23.5299 Z0.2533
G1 X45.4451 Y-23.5599 Z0.2522
G1 X45.4451 Y-23.5660 Z0.2520
G1 X45.4451 Y-23.5952 Z0.2508
G1 X45.4451 Y-23.5990 Z0.2507
G1 X45.4451 Y-23.6020 Z0.2506
G1 X45.4451 Y-23.6309 Z0.2493
G1 X45.4451 Y-23.6351 Z0.2491
G1 X45.4451 Y-23.6381 Z0.2490
G1 X45.4451 Y-23.6662 Z0.2476
G1 X45.4451 Y-23.6711 Z0.2474
G1 X45.4451 Y-23.7019 Z0.2458
G1 X45.4451 Y-23.7072 Z0.2456
G1 X45.4451 Y-23.7372 Z0.2439
G1 X45.4451 Y-23.7402 Z0.2438
G1 X45.4451 Y-23.7432 Z0.2437
G1 X45.4451 Y-23.7729 Z0.2419
G1 X45.4451 Y-23.7779 Z0.2417
G1 X45.4451 Y-23.8082 Z0.2398
G1 X45.4451 Y-23.8123 Z0.2396
G1 X45.4451 Y-23.8243 Z0.2388
G1 X45.4451 Y-23.8439 Z0.2375
G1 X45.4451 Y-23.8484 Z0.2373
G1 X45.4451 Y-23.8792 Z0.2351
G1 X45.4451 Y-23.8845 Z0.2348
G1 X45.4451 Y-23.9148 Z0.2326
G1 X45.4451 Y-23.9175 Z0.2324
G1 X45.4451 Y-23.9205 Z0.2323
G1 X45.4451 Y-23.9501 Z0.2300
G1 X45.4451 Y-23.9550 Z0.2297
G1 X45.4451 Y-23.9856 Z0.2272
G1 X45.4451 Y-23.9896 Z0.2270
G1 X45.4451 Y-23.9911 Z0.2269
G1 X45.4451 Y-24.0211 Z0.2243
G1 X45.4451 Y-24.0256 Z0.2240
G1 X45.4451 Y-24.0286 Z0.2238
G1 X45.4451 Y-24.0564 Z0.2213
G1 X45.4451 Y-24.0617 Z0.2210
G1 X45.4451 Y-24.0919 Z0.2182
G1 X45.4451 Y-24.0947 Z0.2180
G1 X45.4451 Y-24.0977 Z0.2178
G1 X45.4451 Y-24.1272 Z0.2149
G1 X45.4451 Y-24.1325 Z0.2145
G1 X45.4451 Y-24.1625 Z0.2116
G1 X45.4451 Y-24.1668 Z0.2112
G1 X45.4451 Y-24.1728 Z0.2106
G1 X45.4451 Y-24.1980 Z0.2081
G1 X45.4451 Y-24.2029 Z0.2077
G1 X45.4451 Y-24.2333 Z0.2044
G1 X45.4451 Y-24.2359 Z0.2042
G1 X45.4451 Y-24.2389 Z0.2040
G1 X45.4451 Y-24.2686 Z0.2007
G1 X45.4451 Y-24.2735 Z0.2003
G1 X45.4451 Y-24.3039 Z0.1968
G1 X45.4451 Y-24.3088 Z0.1964
G1 X45.4451 Y-24.3390 Z0.1929
G1 X45.4451 Y-24.3443 Z0.1924
G1 X45.4451 Y-24.3743 Z0.1888
G1 X45.4451 Y-24.3787 Z0.1884
G1 X45.4451 Y-24.3917 Z0.1879
G1 X45.4451 Y-24.4046 Z0.1887
G1 X45.4451 Y-24.4174 Z0.1909
G1 X45.4451 Y-24.4299 Z0.1944
G1 X45.4451 Y-24.4419 Z0.1992
G1 X45.4451 Y-24.4534 Z0.2052
G1 X45.4451 Y-24.4642 Z0.2123
G1 X45.4451 Y-24.4743 Z0.2206
G1 X45.4451 Y-24.4834 Z0.2298
G1 X45.4451 Y-24.4915 Z0.2399
G1 X45.4451 Y-24.4985 Z0.2509
G1 X45.4451 Y-24.5043 Z0.2624
G1 X45.4451 Y-24.5089 Z0.2746
G1 X45.4451 Y-24.5123 Z0.2871
G1 X45.4451 Y-24.5143 Z0.2999
G1 X45.4451 Y-24.5149 Z0.3129
G0 Z0.3595
G0 X45.4451 Y-24.5149 
G0 Z0.3845
G0 X45.2801 Y-23.0747 
G1 X45.2801 Y-23.0753 Z0.3723 F25.
G1 X45.2801 Y-23.0771 Z0.3602
G1 X45.2801 Y-23.0801 Z0.3483
G1 X45.2801 Y-23.0842 Z0.3367
G1 X45.2801 Y-23.0894 Z0.3257
G1 X45.2801 Y-23.0957 Z0.3151
G1 X45.2801 Y-23.1030 Z0.3053
G1 X45.2801 Y-23.1112 Z0.2962
G1 X45.2801 Y-23.1203 Z0.2880
G1 X45.2801 Y-23.1301 Z0.2807
G1 X45.2801 Y-23.1406 Z0.2744
G1 X45.2801 Y-23.1517 Z0.2691
G1 X45.2801 Y-23.1632 Z0.2650
G1 X45.2801 Y-23.1751 Z0.2620
G1 X45.2801 Y-23.1872 Z0.2601
G1 X45.2801 Y-23.1994 Z0.2595
G1 X45.2801 Y-23.2115 Z0.2595 F50.
G1 X45.2801 Y-23.2415 Z0.2593
G1 X45.2801 Y-23.2475 Z0.2593
G1 X45.2801 Y-23.2836 Z0.2590
G1 X45.2801 Y-23.3106 Z0.2586
G1 X45.2801 Y-23.3136 Z0.2586
G1 X45.2801 Y-23.3196 Z0.2585
G1 X45.2801 Y-23.3466 Z0.2581
G1 X45.2801 Y-23.3496 Z0.2580
G1 X45.2801 Y-23.3557 Z0.2579
G1 X45.2801 Y-23.3827 Z0.2574
G1 X45.2801 Y-23.3857 Z0.2573
G1 X45.2801 Y-23.3917 Z0.2572
G1 X45.2801 Y-23.4180 Z0.2566
G1 X45.2801 Y-23.4218 Z0.2565
G1 X45.2801 Y-23.4278 Z0.2564
G1 X45.2801 Y-23.4533 Z0.2557
G1 X45.2801 Y-23.4578 Z0.2556
G1 X45.2801 Y-23.4638 Z0.2554
G1 X45.2801 Y-23.4893 Z0.2547
G1 X45.2801 Y-23.4939 Z0.2546
G1 X45.2801 Y-23.5246 Z0.2535
G1 X45.2801 Y-23.5303 Z0.2534
G1 X45.2801 Y-23.5603 Z0.2522
G1 X45.2801 Y-23.5660 Z0.2521
G1 X45.2801 Y-23.5960 Z0.2508
G1 X45.2801 Y-23.6020 Z0.2506
G1 X45.2801 Y-23.6317 Z0.2493
G1 X45.2801 Y-23.6381 Z0.2490
G1 X45.2801 Y-23.6670 Z0.2476
G1 X45.2801 Y-23.6711 Z0.2475
G1 X45.2801 Y-23.6741 Z0.2473
G1 X45.2801 Y-23.7027 Z0.2459
G1 X45.2801 Y-23.7072 Z0.2457
G1 X45.2801 Y-23.7102 Z0.2455
G1 X45.2801 Y-23.7383 Z0.2440
G1 X45.2801 Y-23.7432 Z0.2438
G1 X45.2801 Y-23.7462 Z0.2436
G1 X45.2801 Y-23.7740 Z0.2419
G1 X45.2801 Y-23.7795 Z0.2417
G1 X45.2801 Y-23.8095 Z0.2398
G1 X45.2801 Y-23.8153 Z0.2395
G1 X45.2801 Y-23.8450 Z0.2375
G1 X45.2801 Y-23.8484 Z0.2374
G1 X45.2801 Y-23.8514 Z0.2372
G1 X45.2801 Y-23.8807 Z0.2351
G1 X45.2801 Y-23.8861 Z0.2348
G1 X45.2801 Y-23.9161 Z0.2326
G1 X45.2801 Y-23.9205 Z0.2324
G1 X45.2801 Y-23.9516 Z0.2300
G1 X45.2801 Y-23.9565 Z0.2297
G1 X45.2801 Y-23.9685 Z0.2287
G1 X45.2801 Y-23.9873 Z0.2272
G1 X45.2801 Y-23.9928 Z0.2269
G1 X45.2801 Y-24.0226 Z0.2243
G1 X45.2801 Y-24.0286 Z0.2239
G1 X45.2801 Y-24.0583 Z0.2213
G1 X45.2801 Y-24.0632 Z0.2210
G1 X45.2801 Y-24.0647 Z0.2209
G1 X45.2801 Y-24.0936 Z0.2182
G1 X45.2801 Y-24.0992 Z0.2178
G1 X45.2801 Y-24.1291 Z0.2150
G1 X45.2801 Y-24.1338 Z0.2146
G1 X45.2801 Y-24.1368 Z0.2143
G1 X45.2801 Y-24.1646 Z0.2116
G1 X45.2801 Y-24.1698 Z0.2112
G1 X45.2801 Y-24.2001 Z0.2081
G1 X45.2801 Y-24.2029 Z0.2079
G1 X45.2801 Y-24.2059 Z0.2076
G1 X45.2801 Y-24.2354 Z0.2045
G1 X45.2801 Y-24.2404 Z0.2041
G1 X45.2801 Y-24.2419 Z0.2039
G1 X45.2801 Y-24.2708 Z0.2007
G1 X45.2801 Y-24.2750 Z0.2004
G1 X45.2801 Y-24.2765 Z0.2003
G1 X45.2801 Y-24.3061 Z0.1969
G1 X45.2801 Y-24.3110 Z0.1965
G1 X45.2801 Y-24.3170 Z0.1958
G1 X45.2801 Y-24.3414 Z0.1929
G1 X45.2801 Y-24.3471 Z0.1924
G1 X45.2801 Y-24.3768 Z0.1888
G1 X45.2801 Y-24.3802 Z0.1885
G1 X45.2801 Y-24.3932 Z0.1880
G1 X45.2801 Y-24.4061 Z0.1888
G1 X45.2801 Y-24.4189 Z0.1910
G1 X45.2801 Y-24.4314 Z0.1945
G1 X45.2801 Y-24.4434 Z0.1993
G1 X45.2801 Y-24.4549 Z0.2053
G1 X45.2801 Y-24.4658 Z0.2125
G1 X45.2801 Y-24.4758 Z0.2207
G1 X45.2801 Y-24.4849 Z0.2299
G1 X45.2801 Y-24.4930 Z0.2401
G1 X45.2801 Y-24.5000 Z0.2510
G1 X45.2801 Y-24.5058 Z0.2626
G1 X45.2801 Y-24.5104 Z0.2747
G1 X45.2801 Y-24.5138 Z0.2872
G1 X45.2801 Y-24.5158 Z0.3000
G1 X45.2801 Y-24.5165 Z0.3130
G0 Z0.3595
G0 X45.2801 Y-24.5165 
G0 Z0.3845
G0 X45.1151 Y-23.0747 
G1 X45.1151 Y-23.0753 Z0.3723 F25.
G1 X45.1151 Y-23.0771 Z0.3602
G1 X45.1151 Y-23.0801 Z0.3483
G1 X45.1151 Y-23.0842 Z0.3367
G1 X45.1151 Y-23.0894 Z0.3257
G1 X45.1151 Y-23.0957 Z0.3151
G1 X45.1151 Y-23.1030 Z0.3053
G1 X45.1151 Y-23.1112 Z0.2962
G1 X45.1151 Y-23.1203 Z0.2880
G1 X45.1151 Y-23.1301 Z0.2807
G1 X45.1151 Y-23.1406 Z0.2744
G1 X45.1151 Y-23.1517 Z0.2691
G1 X45.1151 Y-23.1632 Z0.2650
G1 X45.1151 Y-23.1751 Z0.2620
G1 X45.1151 Y-23.1872 Z0.2601
G1 X45.1151 Y-23.1994 Z0.2595
G1 X45.1151 Y-23.2115 Z0.2595 F50.
G1 X45.1151 Y-23.2415 Z0.2593
G1 X45.1151 Y-23.2475 Z0.2593
G1 X45.1151 Y-23.2836 Z0.2590
G1 X45.1151 Y-23.3106 Z0.2586
G1 X45.1151 Y-23.3136 Z0.2586
G1 X45.1151 Y-23.3196 Z0.2585
G1 X45.1151 Y-23.3466 Z0.2581
G1 X45.1151 Y-23.3496 Z0.2580
G1 X45.1151 Y-23.3557 Z0.2579
G1 X45.1151 Y-23.3827 Z0.2574
G1 X45.1151 Y-23.3857 Z0.2574
G1 X45.1151 Y-23.3917 Z0.2572
G1 X45.1151 Y-23.4180 Z0.2566
G1 X45.1151 Y-23.4218 Z0.2566
G1 X45.1151 Y-23.4278 Z0.2564
G1 X45.1151 Y-23.4540 Z0.2557
G1 X45.1151 Y-23.4578 Z0.2556
G1 X45.1151 Y-23.4638 Z0.2555
G1 X45.1151 Y-23.4893 Z0.2547
G1 X45.1151 Y-23.4939 Z0.2546
G1 X45.1151 Y-23.4999 Z0.2544
G1 X45.1151 Y-23.5254 Z0.2535
G1 X45.1151 Y-23.5299 Z0.2534
G1 X45.1151 Y-23.5359 Z0.2532
G1 X45.1151 Y-23.5607 Z0.2522
G1 X45.1151 Y-23.5660 Z0.2521
G1 X45.1151 Y-23.5968 Z0.2508
G1 X45.1151 Y-23.6020 Z0.2507
G1 X45.1151 Y-23.6321 Z0.2493
G1 X45.1151 Y-23.6381 Z0.2491
G1 X45.1151 Y-23.6681 Z0.2476
G1 X45.1151 Y-23.6741 Z0.2474
G1 X45.1151 Y-23.7038 Z0.2459
G1 X45.1151 Y-23.7102 Z0.2456
G1 X45.1151 Y-23.7395 Z0.2440
G1 X45.1151 Y-23.7462 Z0.2437
G1 X45.1151 Y-23.7751 Z0.2419
G1 X45.1151 Y-23.7808 Z0.2417
G1 X45.1151 Y-23.8108 Z0.2398
G1 X45.1151 Y-23.8153 Z0.2396
G1 X45.1151 Y-23.8183 Z0.2394
G1 X45.1151 Y-23.8463 Z0.2375
G1 X45.1151 Y-23.8514 Z0.2373
G1 X45.1151 Y-23.8544 Z0.2371
G1 X45.1151 Y-23.8820 Z0.2351
G1 X45.1151 Y-23.8874 Z0.2349
G1 X45.1151 Y-23.9175 Z0.2326
G1 X45.1151 Y-23.9235 Z0.2323
G1 X45.1151 Y-23.9531 Z0.2300
G1 X45.1151 Y-23.9565 Z0.2298
G1 X45.1151 Y-23.9595 Z0.2296
G1 X45.1151 Y-23.9888 Z0.2272
G1 X45.1151 Y-23.9941 Z0.2269
G1 X45.1151 Y-23.9956 Z0.2268
G1 X45.1151 Y-24.0243 Z0.2244
G1 X45.1151 Y-24.0302 Z0.2240
G1 X45.1151 Y-24.0600 Z0.2213
G1 X45.1151 Y-24.0647 Z0.2210
G1 X45.1151 Y-24.0662 Z0.2209
G1 X45.1151 Y-24.0955 Z0.2182
G1 X45.1151 Y-24.1007 Z0.2179
G1 X45.1151 Y-24.1127 Z0.2167
G1 X45.1151 Y-24.1310 Z0.2150
G1 X45.1151 Y-24.1368 Z0.2146
G1 X45.1151 Y-24.1666 Z0.2116
G1 X45.1151 Y-24.1728 Z0.2111
G1 X45.1151 Y-24.2021 Z0.2081
G1 X45.1151 Y-24.2074 Z0.2077
G1 X45.1151 Y-24.2089 Z0.2076
G1 X45.1151 Y-24.2376 Z0.2045
G1 X45.1151 Y-24.2434 Z0.2040
G1 X45.1151 Y-24.2731 Z0.2008
G1 X45.1151 Y-24.2780 Z0.2004
G1 X45.1151 Y-24.2810 Z0.2000
G1 X45.1151 Y-24.3084 Z0.1969
G1 X45.1151 Y-24.3140 Z0.1964
G1 X45.1151 Y-24.3439 Z0.1929
G1 X45.1151 Y-24.3471 Z0.1927
G1 X45.1151 Y-24.3501 Z0.1924
G1 X45.1151 Y-24.3793 Z0.1888
G1 X45.1151 Y-24.3817 Z0.1886
G1 X45.1151 Y-24.3947 Z0.1881
G1 X45.1151 Y-24.4076 Z0.1890
G1 X45.1151 Y-24.4204 Z0.1912
G1 X45.1151 Y-24.4329 Z0.1947
G1 X45.1151 Y-24.4450 Z0.1994
G1 X45.1151 Y-24.4565 Z0.2054
G1 X45.1151 Y-24.4673 Z0.2126
G1 X45.1151 Y-24.4773 Z0.2208
G1 X45.1151 Y-24.4864 Z0.2301
G1 X45.1151 Y-24.4945 Z0.2402
G1 X45.1151 Y-24.5015 Z0.2511
G1 X45.1151 Y-24.5074 Z0.2627
G1 X45.1151 Y-24.5120 Z0.2748
G1 X45.1151 Y-24.5153 Z0.2873
G1 X45.1151 Y-24.5173 Z0.3002
G1 X45.1151 Y-24.5180 Z0.3131
G0 Z0.3595
G0 X45.1151 Y-24.5180 
G0 Z0.3845
G0 X44.9501 Y-23.0747 
G1 X44.9501 Y-23.0753 Z0.3723 F25.
G1 X44.9501 Y-23.0771 Z0.3602
G1 X44.9501 Y-23.0801 Z0.3483
G1 X44.9501 Y-23.0842 Z0.3367
G1 X44.9501 Y-23.0894 Z0.3257
G1 X44.9501 Y-23.0957 Z0.3151
G1 X44.9501 Y-23.1030 Z0.3053
G1 X44.9501 Y-23.1112 Z0.2962
G1 X44.9501 Y-23.1203 Z0.2880
G1 X44.9501 Y-23.1301 Z0.2807
G1 X44.9501 Y-23.1406 Z0.2744
G1 X44.9501 Y-23.1517 Z0.2691
G1 X44.9501 Y-23.1632 Z0.2650
G1 X44.9501 Y-23.1751 Z0.2620
G1 X44.9501 Y-23.1872 Z0.2601
G1 X44.9501 Y-23.1994 Z0.2595
G1 X44.9501 Y-23.2115 Z0.2595 F50.
G1 X44.9501 Y-23.2475 Z0.2593
G1 X44.9501 Y-23.2836 Z0.2590
G1 X44.9501 Y-23.3106 Z0.2586
G1 X44.9501 Y-23.3136 Z0.2586
G1 X44.9501 Y-23.3196 Z0.2585
G1 X44.9501 Y-23.3466 Z0.2581
G1 X44.9501 Y-23.3496 Z0.2580
G1 X44.9501 Y-23.3557 Z0.2579
G1 X44.9501 Y-23.3827 Z0.2574
G1 X44.9501 Y-23.3857 Z0.2574
G1 X44.9501 Y-23.3917 Z0.2572
G1 X44.9501 Y-23.4187 Z0.2566
G1 X44.9501 Y-23.4218 Z0.2566
G1 X44.9501 Y-23.4278 Z0.2564
G1 X44.9501 Y-23.4540 Z0.2557
G1 X44.9501 Y-23.4578 Z0.2556
G1 X44.9501 Y-23.4638 Z0.2555
G1 X44.9501 Y-23.4901 Z0.2547
G1 X44.9501 Y-23.4939 Z0.2546
G1 X44.9501 Y-23.4999 Z0.2544
G1 X44.9501 Y-23.5254 Z0.2535
G1 X44.9501 Y-23.5299 Z0.2534
G1 X44.9501 Y-23.5359 Z0.2532
G1 X44.9501 Y-23.5615 Z0.2522
G1 X44.9501 Y-23.5660 Z0.2521
G1 X44.9501 Y-23.5720 Z0.2519
G1 X44.9501 Y-23.5971 Z0.2508
G1 X44.9501 Y-23.6020 Z0.2507
G1 X44.9501 Y-23.6080 Z0.2504
G1 X44.9501 Y-23.6328 Z0.2493
G1 X44.9501 Y-23.6381 Z0.2491
G1 X44.9501 Y-23.6441 Z0.2489
G1 X44.9501 Y-23.6689 Z0.2477
G1 X44.9501 Y-23.6741 Z0.2475
G1 X44.9501 Y-23.6801 Z0.2472
G1 X44.9501 Y-23.7045 Z0.2459
G1 X44.9501 Y-23.7102 Z0.2457
G1 X44.9501 Y-23.7402 Z0.2440
G1 X44.9501 Y-23.7462 Z0.2437
G1 X44.9501 Y-23.7761 Z0.2420
G1 X44.9501 Y-23.7823 Z0.2417
G1 X44.9501 Y-23.8119 Z0.2398
G1 X44.9501 Y-23.8183 Z0.2395
G1 X44.9501 Y-23.8476 Z0.2375
G1 X44.9501 Y-23.8544 Z0.2372
G1 X44.9501 Y-23.8833 Z0.2352
G1 X44.9501 Y-23.8889 Z0.2349
G1 X44.9501 Y-23.8904 Z0.2348
G1 X44.9501 Y-23.9190 Z0.2327
G1 X44.9501 Y-23.9252 Z0.2323
G1 X44.9501 Y-23.9546 Z0.2300
G1 X44.9501 Y-23.9595 Z0.2297
G1 X44.9501 Y-23.9610 Z0.2296
G1 X44.9501 Y-23.9903 Z0.2273
G1 X44.9501 Y-23.9956 Z0.2269
G1 X44.9501 Y-23.9986 Z0.2267
G1 X44.9501 Y-24.0260 Z0.2244
G1 X44.9501 Y-24.0316 Z0.2240
G1 X44.9501 Y-24.0346 Z0.2238
G1 X44.9501 Y-24.0617 Z0.2214
G1 X44.9501 Y-24.0679 Z0.2210
G1 X44.9501 Y-24.0973 Z0.2182
G1 X44.9501 Y-24.1007 Z0.2180
G1 X44.9501 Y-24.1037 Z0.2178
G1 X44.9501 Y-24.1330 Z0.2150
G1 X44.9501 Y-24.1368 Z0.2147
G1 X44.9501 Y-24.1398 Z0.2145
G1 X44.9501 Y-24.1685 Z0.2116
G1 X44.9501 Y-24.1743 Z0.2112
G1 X44.9501 Y-24.1758 Z0.2111
G1 X44.9501 Y-24.2042 Z0.2081
G1 X44.9501 Y-24.2104 Z0.2077
G1 X44.9501 Y-24.2397 Z0.2045
G1 X44.9501 Y-24.2457 Z0.2041
G1 X44.9501 Y-24.2753 Z0.2008
G1 X44.9501 Y-24.2810 Z0.2003
G1 X44.9501 Y-24.3108 Z0.1969
G1 X44.9501 Y-24.3170 Z0.1964
G1 X44.9501 Y-24.3463 Z0.1930
G1 X44.9501 Y-24.3531 Z0.1923
G1 X44.9501 Y-24.3818 Z0.1889
G1 X44.9501 Y-24.3833 Z0.1887
G1 X44.9501 Y-24.3962 Z0.1882
G1 X44.9501 Y-24.4092 Z0.1891
G1 X44.9501 Y-24.4219 Z0.1913
G1 X44.9501 Y-24.4344 Z0.1948
G1 X44.9501 Y-24.4465 Z0.1995
G1 X44.9501 Y-24.4580 Z0.2055
G1 X44.9501 Y-24.4688 Z0.2127
G1 X44.9501 Y-24.4788 Z0.2209
G1 X44.9501 Y-24.4879 Z0.2302
G1 X44.9501 Y-24.4960 Z0.2403
G1 X44.9501 Y-24.5030 Z0.2512
G1 X44.9501 Y-24.5089 Z0.2628
G1 X44.9501 Y-24.5135 Z0.2749
G1 X44.9501 Y-24.5168 Z0.2875
G1 X44.9501 Y-24.5188 Z0.3003
G1 X44.9501 Y-24.5195 Z0.3132
G0 Z0.3595
G0 X44.9501 Y-24.5195 
G0 Z0.3845
G0 X44.7851 Y-23.0747 
G1 X44.7851 Y-23.0753 Z0.3723 F25.
G1 X44.7851 Y-23.0771 Z0.3602
G1 X44.7851 Y-23.0801 Z0.3483
G1 X44.7851 Y-23.0842 Z0.3367
G1 X44.7851 Y-23.0894 Z0.3257
G1 X44.7851 Y-23.0957 Z0.3151
G1 X44.7851 Y-23.1030 Z0.3053
G1 X44.7851 Y-23.1112 Z0.2962
G1 X44.7851 Y-23.1203 Z0.2880
G1 X44.7851 Y-23.1301 Z0.2807
G1 X44.7851 Y-23.1406 Z0.2744
G1 X44.7851 Y-23.1517 Z0.2691
G1 X44.7851 Y-23.1632 Z0.2650
G1 X44.7851 Y-23.1751 Z0.2620
G1 X44.7851 Y-23.1872 Z0.2601
G1 X44.7851 Y-23.1994 Z0.2595
G1 X44.7851 Y-23.2115 Z0.2595 F50.
G1 X44.7851 Y-23.2475 Z0.2593
G1 X44.7851 Y-23.2745 Z0.2590
G1 X44.7851 Y-23.2775 Z0.2590
G1 X44.7851 Y-23.2836 Z0.2590
G1 X44.7851 Y-23.3106 Z0.2586
G1 X44.7851 Y-23.3136 Z0.2586
G1 X44.7851 Y-23.3196 Z0.2585
G1 X44.7851 Y-23.3466 Z0.2581
G1 X44.7851 Y-23.3496 Z0.2580
G1 X44.7851 Y-23.3557 Z0.2579
G1 X44.7851 Y-23.3827 Z0.2574
G1 X44.7851 Y-23.3891 Z0.2573
G1 X44.7851 Y-23.4187 Z0.2566
G1 X44.7851 Y-23.4248 Z0.2565
G1 X44.7851 Y-23.4548 Z0.2557
G1 X44.7851 Y-23.4608 Z0.2556
G1 X44.7851 Y-23.4901 Z0.2547
G1 X44.7851 Y-23.4969 Z0.2545
G1 X44.7851 Y-23.5262 Z0.2535
G1 X44.7851 Y-23.5329 Z0.2533
G1 X44.7851 Y-23.5622 Z0.2522
G1 X44.7851 Y-23.5660 Z0.2521
G1 X44.7851 Y-23.5690 Z0.2520
G1 X44.7851 Y-23.5979 Z0.2508
G1 X44.7851 Y-23.6020 Z0.2507
G1 X44.7851 Y-23.6050 Z0.2506
G1 X44.7851 Y-23.6336 Z0.2493
G1 X44.7851 Y-23.6381 Z0.2492
G1 X44.7851 Y-23.6411 Z0.2491
G1 X44.7851 Y-23.6696 Z0.2477
G1 X44.7851 Y-23.6741 Z0.2475
G1 X44.7851 Y-23.6771 Z0.2474
G1 X44.7851 Y-23.7057 Z0.2459
G1 X44.7851 Y-23.7102 Z0.2457
G1 X44.7851 Y-23.7132 Z0.2456
G1 X44.7851 Y-23.7413 Z0.2440
G1 X44.7851 Y-23.7479 Z0.2437
G1 X44.7851 Y-23.7770 Z0.2420
G1 X44.7851 Y-23.7823 Z0.2418
G1 X44.7851 Y-23.7883 Z0.2414
G1 X44.7851 Y-23.8131 Z0.2398
G1 X44.7851 Y-23.8183 Z0.2396
G1 X44.7851 Y-23.8243 Z0.2392
G1 X44.7851 Y-23.8487 Z0.2376
G1 X44.7851 Y-23.8544 Z0.2373
G1 X44.7851 Y-23.8604 Z0.2369
G1 X44.7851 Y-23.8846 Z0.2352
G1 X44.7851 Y-23.8904 Z0.2349
G1 X44.7851 Y-23.8964 Z0.2344
G1 X44.7851 Y-23.9205 Z0.2327
G1 X44.7851 Y-23.9265 Z0.2323
G1 X44.7851 Y-23.9561 Z0.2300
G1 X44.7851 Y-23.9627 Z0.2297
G1 X44.7851 Y-23.9918 Z0.2273
G1 X44.7851 Y-23.9986 Z0.2269
G1 X44.7851 Y-24.0277 Z0.2244
G1 X44.7851 Y-24.0346 Z0.2239
G1 X44.7851 Y-24.0634 Z0.2214
G1 X44.7851 Y-24.0707 Z0.2209
G1 X44.7851 Y-24.0992 Z0.2183
G1 X44.7851 Y-24.1052 Z0.2179
G1 X44.7851 Y-24.1067 Z0.2177
G1 X44.7851 Y-24.1349 Z0.2150
G1 X44.7851 Y-24.1414 Z0.2146
G1 X44.7851 Y-24.1706 Z0.2117
G1 X44.7851 Y-24.1758 Z0.2113
G1 X44.7851 Y-24.1773 Z0.2111
G1 X44.7851 Y-24.2062 Z0.2082
G1 X44.7851 Y-24.2119 Z0.2077
G1 X44.7851 Y-24.2149 Z0.2074
G1 X44.7851 Y-24.2419 Z0.2046
G1 X44.7851 Y-24.2479 Z0.2041
G1 X44.7851 Y-24.2509 Z0.2038
G1 X44.7851 Y-24.2774 Z0.2008
G1 X44.7851 Y-24.2840 Z0.2003
G1 X44.7851 Y-24.3131 Z0.1970
G1 X44.7851 Y-24.3170 Z0.1966
G1 X44.7851 Y-24.3200 Z0.1964
G1 X44.7851 Y-24.3488 Z0.1930
G1 X44.7851 Y-24.3551 Z0.1924
G1 X44.7851 Y-24.3843 Z0.1889
G1 X44.7851 Y-24.3848 Z0.1889
G1 X44.7851 Y-24.3977 Z0.1884
G1 X44.7851 Y-24.4107 Z0.1892
G1 X44.7851 Y-24.4235 Z0.1914
G1 X44.7851 Y-24.4360 Z0.1949
G1 X44.7851 Y-24.4480 Z0.1997
G1 X44.7851 Y-24.4595 Z0.2057
G1 X44.7851 Y-24.4703 Z0.2128
G1 X44.7851 Y-24.4803 Z0.2211
G1 X44.7851 Y-24.4895 Z0.2303
G1 X44.7851 Y-24.4976 Z0.2404
G1 X44.7851 Y-24.5046 Z0.2513
G1 X44.7851 Y-24.5104 Z0.2629
G1 X44.7851 Y-24.5150 Z0.2750
G1 X44.7851 Y-24.5183 Z0.2876
G1 X44.7851 Y-24.5204 Z0.3004
G1 X44.7851 Y-24.5210 Z0.3133
G0 Z0.3595
G0 X44.7851 Y-24.5210 
G0 Z0.3845
G0 X44.6201 Y-23.0747 
G1 X44.6201 Y-23.0753 Z0.3723 F25.
G1 X44.6201 Y-23.0771 Z0.3602
G1 X44.6201 Y-23.0801 Z0.3483
G1 X44.6201 Y-23.0842 Z0.3367
G1 X44.6201 Y-23.0894 Z0.3257
G1 X44.6201 Y-23.0957 Z0.3151
G1 X44.6201 Y-23.1030 Z0.3053
G1 X44.6201 Y-23.1112 Z0.2962
G1 X44.6201 Y-23.1203 Z0.2880
G1 X44.6201 Y-23.1301 Z0.2807
G1 X44.6201 Y-23.1406 Z0.2744
G1 X44.6201 Y-23.1517 Z0.2691
G1 X44.6201 Y-23.1632 Z0.2650
G1 X44.6201 Y-23.1751 Z0.2620
G1 X44.6201 Y-23.1872 Z0.2601
G1 X44.6201 Y-23.1994 Z0.2595
G1 X44.6201 Y-23.2115 Z0.2595 F50.
G1 X44.6201 Y-23.2475 Z0.2593
G1 X44.6201 Y-23.2745 Z0.2590
G1 X44.6201 Y-23.2836 Z0.2590
G1 X44.6201 Y-23.3106 Z0.2586
G1 X44.6201 Y-23.3136 Z0.2586
G1 X44.6201 Y-23.3196 Z0.2585
G1 X44.6201 Y-23.3466 Z0.2581
G1 X44.6201 Y-23.3496 Z0.2580
G1 X44.6201 Y-23.3557 Z0.2580
G1 X44.6201 Y-23.3827 Z0.2574
G1 X44.6201 Y-23.3857 Z0.2574
G1 X44.6201 Y-23.3917 Z0.2573
G1 X44.6201 Y-23.4187 Z0.2566
G1 X44.6201 Y-23.4218 Z0.2566
G1 X44.6201 Y-23.4278 Z0.2565
G1 X44.6201 Y-23.4548 Z0.2557
G1 X44.6201 Y-23.4608 Z0.2556
G1 X44.6201 Y-23.4908 Z0.2547
G1 X44.6201 Y-23.4969 Z0.2546
G1 X44.6201 Y-23.5269 Z0.2535
G1 X44.6201 Y-23.5329 Z0.2534
G1 X44.6201 Y-23.5626 Z0.2523
G1 X44.6201 Y-23.5690 Z0.2521
G1 X44.6201 Y-23.5986 Z0.2509
G1 X44.6201 Y-23.6050 Z0.2507
G1 X44.6201 Y-23.6343 Z0.2493
G1 X44.6201 Y-23.6414 Z0.2491
G1 X44.6201 Y-23.6704 Z0.2477
G1 X44.6201 Y-23.6773 Z0.2474
G1 X44.6201 Y-23.7064 Z0.2459
G1 X44.6201 Y-23.7132 Z0.2456
G1 X44.6201 Y-23.7425 Z0.2440
G1 X44.6201 Y-23.7492 Z0.2437
G1 X44.6201 Y-23.7781 Z0.2420
G1 X44.6201 Y-23.7853 Z0.2417
G1 X44.6201 Y-23.8142 Z0.2398
G1 X44.6201 Y-23.8183 Z0.2397
G1 X44.6201 Y-23.8213 Z0.2395
G1 X44.6201 Y-23.8501 Z0.2376
G1 X44.6201 Y-23.8544 Z0.2374
G1 X44.6201 Y-23.8574 Z0.2372
G1 X44.6201 Y-23.8859 Z0.2352
G1 X44.6201 Y-23.8904 Z0.2350
G1 X44.6201 Y-23.8934 Z0.2348
G1 X44.6201 Y-23.9218 Z0.2327
G1 X44.6201 Y-23.9265 Z0.2324
G1 X44.6201 Y-23.9295 Z0.2322
G1 X44.6201 Y-23.9576 Z0.2301
G1 X44.6201 Y-23.9640 Z0.2297
G1 X44.6201 Y-23.9655 Z0.2296
G1 X44.6201 Y-23.9935 Z0.2273
G1 X44.6201 Y-24.0001 Z0.2269
G1 X44.6201 Y-24.0294 Z0.2244
G1 X44.6201 Y-24.0362 Z0.2240
G1 X44.6201 Y-24.0652 Z0.2214
G1 X44.6201 Y-24.0707 Z0.2211
G1 X44.6201 Y-24.0722 Z0.2210
G1 X44.6201 Y-24.1009 Z0.2183
G1 X44.6201 Y-24.1067 Z0.2179
G1 X44.6201 Y-24.1082 Z0.2178
G1 X44.6201 Y-24.1368 Z0.2151
G1 X44.6201 Y-24.1428 Z0.2146
G1 X44.6201 Y-24.1488 Z0.2140
G1 X44.6201 Y-24.1724 Z0.2117
G1 X44.6201 Y-24.1788 Z0.2112
G1 X44.6201 Y-24.1848 Z0.2106
G1 X44.6201 Y-24.2083 Z0.2082
G1 X44.6201 Y-24.2149 Z0.2077
G1 X44.6201 Y-24.2440 Z0.2046
G1 X44.6201 Y-24.2509 Z0.2040
G1 X44.6201 Y-24.2797 Z0.2009
G1 X44.6201 Y-24.2870 Z0.2002
G1 X44.6201 Y-24.3155 Z0.1970
G1 X44.6201 Y-24.3221 Z0.1964
G1 X44.6201 Y-24.3512 Z0.1930
G1 X44.6201 Y-24.3572 Z0.1925
G1 X44.6201 Y-24.3614 Z0.1920
G1 X44.6201 Y-24.3863 Z0.1890
G1 X44.6201 Y-24.3995 Z0.1881
G1 X44.6201 Y-24.4127 Z0.1886
G1 X44.6201 Y-24.4258 Z0.1905
G1 X44.6201 Y-24.4386 Z0.1937
G1 X44.6201 Y-24.4509 Z0.1983
G1 X44.6201 Y-24.4628 Z0.2042
G1 X44.6201 Y-24.4739 Z0.2113
G1 X44.6201 Y-24.4843 Z0.2195
G1 X44.6201 Y-24.4937 Z0.2288
G1 X44.6201 Y-24.5020 Z0.2390
G1 X44.6201 Y-24.5093 Z0.2500
G1 X44.6201 Y-24.5153 Z0.2618
G1 X44.6201 Y-24.5201 Z0.2741
G1 X44.6201 Y-24.5236 Z0.2868
G1 X44.6201 Y-24.5257 Z0.2999
G1 X44.6201 Y-24.5264 Z0.3131
G0 Z0.3595
G0 X44.6201 Y-24.5264 
G0 Z0.3845
G0 X44.4551 Y-23.0747 
G1 X44.4551 Y-23.0753 Z0.3723 F25.
G1 X44.4551 Y-23.0771 Z0.3601
G1 X44.4551 Y-23.0801 Z0.3483
G1 X44.4551 Y-23.0842 Z0.3367
G1 X44.4551 Y-23.0894 Z0.3257
G1 X44.4551 Y-23.0957 Z0.3151
G1 X44.4551 Y-23.1030 Z0.3053
G1 X44.4551 Y-23.1112 Z0.2962
G1 X44.4551 Y-23.1203 Z0.2880
G1 X44.4551 Y-23.1301 Z0.2807
G1 X44.4551 Y-23.1406 Z0.2744
G1 X44.4551 Y-23.1517 Z0.2691
G1 X44.4551 Y-23.1632 Z0.2649
G1 X44.4551 Y-23.1751 Z0.2620
G1 X44.4551 Y-23.1872 Z0.2601
G1 X44.4551 Y-23.1994 Z0.2595
G1 X44.4551 Y-23.2115 Z0.2595 F50.
G1 X44.4551 Y-23.2475 Z0.2593
G1 X44.4551 Y-23.2745 Z0.2590
G1 X44.4551 Y-23.2836 Z0.2590
G1 X44.4551 Y-23.3106 Z0.2586
G1 X44.4551 Y-23.3196 Z0.2585
G1 X44.4551 Y-23.3466 Z0.2581
G1 X44.4551 Y-23.3496 Z0.2581
G1 X44.4551 Y-23.3557 Z0.2580
G1 X44.4551 Y-23.3827 Z0.2574
G1 X44.4551 Y-23.3857 Z0.2574
G1 X44.4551 Y-23.3917 Z0.2573
G1 X44.4551 Y-23.4187 Z0.2566
G1 X44.4551 Y-23.4218 Z0.2566
G1 X44.4551 Y-23.4278 Z0.2565
G1 X44.4551 Y-23.4548 Z0.2557
G1 X44.4551 Y-23.4578 Z0.2557
G1 X44.4551 Y-23.4638 Z0.2555
G1 X44.4551 Y-23.4908 Z0.2547
G1 X44.4551 Y-23.4939 Z0.2546
G1 X44.4551 Y-23.4999 Z0.2545
G1 X44.4551 Y-23.5269 Z0.2536
G1 X44.4551 Y-23.5299 Z0.2535
G1 X44.4551 Y-23.5359 Z0.2533
G1 X44.4551 Y-23.5630 Z0.2523
G1 X44.4551 Y-23.5690 Z0.2521
G1 X44.4551 Y-23.5720 Z0.2520
G1 X44.4551 Y-23.5990 Z0.2509
G1 X44.4551 Y-23.6050 Z0.2507
G1 X44.4551 Y-23.6080 Z0.2506
G1 X44.4551 Y-23.6351 Z0.2493
G1 X44.4551 Y-23.6411 Z0.2491
G1 X44.4551 Y-23.6441 Z0.2490
G1 X44.4551 Y-23.6711 Z0.2477
G1 X44.4551 Y-23.6771 Z0.2475
G1 X44.4551 Y-23.6801 Z0.2473
G1 X44.4551 Y-23.7072 Z0.2459
G1 X44.4551 Y-23.7132 Z0.2457
G1 X44.4551 Y-23.7162 Z0.2455
G1 X44.4551 Y-23.7432 Z0.2440
G1 X44.4551 Y-23.7492 Z0.2438
G1 X44.4551 Y-23.7522 Z0.2436
G1 X44.4551 Y-23.7793 Z0.2420
G1 X44.4551 Y-23.7853 Z0.2417
G1 X44.4551 Y-23.7883 Z0.2416
G1 X44.4551 Y-23.8153 Z0.2399
G1 X44.4551 Y-23.8213 Z0.2396
G1 X44.4551 Y-23.8243 Z0.2394
G1 X44.4551 Y-23.8514 Z0.2376
G1 X44.4551 Y-23.8574 Z0.2373
G1 X44.4551 Y-23.8604 Z0.2371
G1 X44.4551 Y-23.8872 Z0.2352
G1 X44.4551 Y-23.8934 Z0.2349
G1 X44.4551 Y-23.8964 Z0.2347
G1 X44.4551 Y-23.9231 Z0.2327
G1 X44.4551 Y-23.9295 Z0.2324
G1 X44.4551 Y-23.9325 Z0.2321
G1 X44.4551 Y-23.9591 Z0.2301
G1 X44.4551 Y-23.9655 Z0.2297
G1 X44.4551 Y-23.9685 Z0.2295
G1 X44.4551 Y-23.9952 Z0.2273
G1 X44.4551 Y-24.0016 Z0.2269
G1 X44.4551 Y-24.0046 Z0.2267
G1 X44.4551 Y-24.0311 Z0.2244
G1 X44.4551 Y-24.0376 Z0.2240
G1 X44.4551 Y-24.0406 Z0.2238
G1 X44.4551 Y-24.0669 Z0.2214
G1 X44.4551 Y-24.0737 Z0.2210
G1 X44.4551 Y-24.0767 Z0.2207
G1 X44.4551 Y-24.1028 Z0.2183
G1 X44.4551 Y-24.1097 Z0.2178
G1 X44.4551 Y-24.1387 Z0.2151
G1 X44.4551 Y-24.1459 Z0.2146
G1 X44.4551 Y-24.1745 Z0.2117
G1 X44.4551 Y-24.1818 Z0.2112
G1 X44.4551 Y-24.2104 Z0.2082
G1 X44.4551 Y-24.2149 Z0.2079
G1 X44.4551 Y-24.2179 Z0.2076
G1 X44.4551 Y-24.2462 Z0.2046
G1 X44.4551 Y-24.2509 Z0.2042
G1 X44.4551 Y-24.2539 Z0.2040
G1 X44.4551 Y-24.2819 Z0.2009
G1 X44.4551 Y-24.2885 Z0.2004
G1 X44.4551 Y-24.2900 Z0.2002
G1 X44.4551 Y-24.3178 Z0.1970
G1 X44.4551 Y-24.3245 Z0.1965
G1 X44.4551 Y-24.3260 Z0.1963
G1 X44.4551 Y-24.3535 Z0.1931
G1 X44.4551 Y-24.3607 Z0.1924
G1 X44.4551 Y-24.3878 Z0.1891
G1 X44.4551 Y-24.4010 Z0.1882
G1 X44.4551 Y-24.4142 Z0.1887
G1 X44.4551 Y-24.4273 Z0.1906
G1 X44.4551 Y-24.4401 Z0.1939
G1 X44.4551 Y-24.4525 Z0.1985
G1 X44.4551 Y-24.4643 Z0.2044
G1 X44.4551 Y-24.4754 Z0.2114
G1 X44.4551 Y-24.4858 Z0.2197
G1 X44.4551 Y-24.4952 Z0.2289
G1 X44.4551 Y-24.5036 Z0.2391
G1 X44.4551 Y-24.5108 Z0.2502
G1 X44.4551 Y-24.5169 Z0.2619
G1 X44.4551 Y-24.5216 Z0.2742
G1 X44.4551 Y-24.5251 Z0.2870
G1 X44.4551 Y-24.5272 Z0.3000
G1 X44.4551 Y-24.5279 Z0.3132
G0 Z0.3595
G0 X44.4551 Y-24.5279 
G0 Z0.3845
G0 X44.2901 Y-23.0747 
G1 X44.2901 Y-23.0753 Z0.3723 F25.
G1 X44.2901 Y-23.0771 Z0.3601
G1 X44.2901 Y-23.0801 Z0.3483
G1 X44.2901 Y-23.0842 Z0.3367
G1 X44.2901 Y-23.0894 Z0.3257
G1 X44.2901 Y-23.0957 Z0.3151
G1 X44.2901 Y-23.1030 Z0.3053
G1 X44.2901 Y-23.1112 Z0.2962
G1 X44.2901 Y-23.1203 Z0.2880
G1 X44.2901 Y-23.1301 Z0.2807
G1 X44.2901 Y-23.1406 Z0.2743
G1 X44.2901 Y-23.1517 Z0.2691
G1 X44.2901 Y-23.1632 Z0.2649
G1 X44.2901 Y-23.1751 Z0.2620
G1 X44.2901 Y-23.1872 Z0.2601
G1 X44.2901 Y-23.1994 Z0.2595
G1 X44.2901 Y-23.2115 Z0.2595 F50.
G1 X44.2901 Y-23.2475 Z0.2593
G1 X44.2901 Y-23.2745 Z0.2590
G1 X44.2901 Y-23.2836 Z0.2590
G1 X44.2901 Y-23.3106 Z0.2586
G1 X44.2901 Y-23.3196 Z0.2585
G1 X44.2901 Y-23.3466 Z0.2581
G1 X44.2901 Y-23.3557 Z0.2580
G1 X44.2901 Y-23.3834 Z0.2574
G1 X44.2901 Y-23.3917 Z0.2573
G1 X44.2901 Y-23.4195 Z0.2566
G1 X44.2901 Y-23.4278 Z0.2565
G1 X44.2901 Y-23.4555 Z0.2557
G1 X44.2901 Y-23.4638 Z0.2556
G1 X44.2901 Y-23.4916 Z0.2547
G1 X44.2901 Y-23.4999 Z0.2545
G1 X44.2901 Y-23.5277 Z0.2536
G1 X44.2901 Y-23.5359 Z0.2533
G1 X44.2901 Y-23.5637 Z0.2523
G1 X44.2901 Y-23.5720 Z0.2520
G1 X44.2901 Y-23.5998 Z0.2509
G1 X44.2901 Y-23.6080 Z0.2506
G1 X44.2901 Y-23.6358 Z0.2494
G1 X44.2901 Y-23.6441 Z0.2491
G1 X44.2901 Y-23.6722 Z0.2477
G1 X44.2901 Y-23.6801 Z0.2474
G1 X44.2901 Y-23.7083 Z0.2459
G1 X44.2901 Y-23.7162 Z0.2456
G1 X44.2901 Y-23.7443 Z0.2440
G1 X44.2901 Y-23.7522 Z0.2437
G1 X44.2901 Y-23.7804 Z0.2420
G1 X44.2901 Y-23.7883 Z0.2417
G1 X44.2901 Y-23.8164 Z0.2399
G1 X44.2901 Y-23.8243 Z0.2395
G1 X44.2901 Y-23.8525 Z0.2376
G1 X44.2901 Y-23.8604 Z0.2372
G1 X44.2901 Y-23.8885 Z0.2352
G1 X44.2901 Y-23.8964 Z0.2348
G1 X44.2901 Y-23.9246 Z0.2327
G1 X44.2901 Y-23.9325 Z0.2323
G1 X44.2901 Y-23.9606 Z0.2301
G1 X44.2901 Y-23.9685 Z0.2296
G1 X44.2901 Y-23.9967 Z0.2273
G1 X44.2901 Y-24.0046 Z0.2268
G1 X44.2901 Y-24.0327 Z0.2245
G1 X44.2901 Y-24.0406 Z0.2239
G1 X44.2901 Y-24.0686 Z0.2215
G1 X44.2901 Y-24.0767 Z0.2209
G1 X44.2901 Y-24.1047 Z0.2183
G1 X44.2901 Y-24.1067 Z0.2182
G1 X44.2901 Y-24.1127 Z0.2178
G1 X44.2901 Y-24.1405 Z0.2151
G1 X44.2901 Y-24.1428 Z0.2149
G1 X44.2901 Y-24.1488 Z0.2145
G1 X44.2901 Y-24.1766 Z0.2117
G1 X44.2901 Y-24.1833 Z0.2112
G1 X44.2901 Y-24.1848 Z0.2111
G1 X44.2901 Y-24.2124 Z0.2083
G1 X44.2901 Y-24.2194 Z0.2077
G1 X44.2901 Y-24.2209 Z0.2076
G1 X44.2901 Y-24.2483 Z0.2046
G1 X44.2901 Y-24.2554 Z0.2041
G1 X44.2901 Y-24.2569 Z0.2039
G1 X44.2901 Y-24.2842 Z0.2009
G1 X44.2901 Y-24.2915 Z0.2003
G1 X44.2901 Y-24.3200 Z0.1971
G1 X44.2901 Y-24.3276 Z0.1964
G1 X44.2901 Y-24.3559 Z0.1931
G1 X44.2901 Y-24.3633 Z0.1924
G1 X44.2901 Y-24.3894 Z0.1893
G1 X44.2901 Y-24.4025 Z0.1884
G1 X44.2901 Y-24.4157 Z0.1889
G1 X44.2901 Y-24.4288 Z0.1908
G1 X44.2901 Y-24.4416 Z0.1940
G1 X44.2901 Y-24.4540 Z0.1986
G1 X44.2901 Y-24.4658 Z0.2045
G1 X44.2901 Y-24.4770 Z0.2116
G1 X44.2901 Y-24.4873 Z0.2198
G1 X44.2901 Y-24.4967 Z0.2291
G1 X44.2901 Y-24.5051 Z0.2393
G1 X44.2901 Y-24.5123 Z0.2503
G1 X44.2901 Y-24.5184 Z0.2621
G1 X44.2901 Y-24.5232 Z0.2744
G1 X44.2901 Y-24.5266 Z0.2871
G1 X44.2901 Y-24.5287 Z0.3002
G1 X44.2901 Y-24.5294 Z0.3134
G0 Z0.3595
G0 X44.2901 Y-24.5294 
G0 Z0.3845
G0 X44.1251 Y-23.0747 
G1 X44.1251 Y-23.0753 Z0.3723 F25.
G1 X44.1251 Y-23.0771 Z0.3601
G1 X44.1251 Y-23.0801 Z0.3483
G1 X44.1251 Y-23.0842 Z0.3367
G1 X44.1251 Y-23.0894 Z0.3257
G1 X44.1251 Y-23.0957 Z0.3151
G1 X44.1251 Y-23.1030 Z0.3053
G1 X44.1251 Y-23.1112 Z0.2962
G1 X44.1251 Y-23.1203 Z0.2880
G1 X44.1251 Y-23.1301 Z0.2807
G1 X44.1251 Y-23.1406 Z0.2743
G1 X44.1251 Y-23.1517 Z0.2691
G1 X44.1251 Y-23.1632 Z0.2649
G1 X44.1251 Y-23.1751 Z0.2619
G1 X44.1251 Y-23.1872 Z0.2601
G1 X44.1251 Y-23.1994 Z0.2595
G1 X44.1251 Y-23.2115 Z0.2595 F50.
G1 X44.1251 Y-23.2475 Z0.2593
G1 X44.1251 Y-23.2745 Z0.2590
G1 X44.1251 Y-23.2836 Z0.2590
G1 X44.1251 Y-23.3106 Z0.2586
G1 X44.1251 Y-23.3196 Z0.2585
G1 X44.1251 Y-23.3466 Z0.2581
G1 X44.1251 Y-23.3557 Z0.2580
G1 X44.1251 Y-23.3834 Z0.2574
G1 X44.1251 Y-23.3917 Z0.2573
G1 X44.1251 Y-23.4195 Z0.2567
G1 X44.1251 Y-23.4278 Z0.2565
G1 X44.1251 Y-23.4555 Z0.2557
G1 X44.1251 Y-23.4638 Z0.2556
G1 X44.1251 Y-23.4920 Z0.2547
G1 X44.1251 Y-23.4999 Z0.2545
G1 X44.1251 Y-23.5284 Z0.2536
G1 X44.1251 Y-23.5359 Z0.2534
G1 X44.1251 Y-23.5645 Z0.2523
G1 X44.1251 Y-23.5722 Z0.2521
G1 X44.1251 Y-23.6005 Z0.2509
G1 X44.1251 Y-23.6080 Z0.2507
G1 X44.1251 Y-23.6366 Z0.2494
G1 X44.1251 Y-23.6441 Z0.2491
G1 X44.1251 Y-23.6730 Z0.2477
G1 X44.1251 Y-23.6801 Z0.2475
G1 X44.1251 Y-23.7090 Z0.2460
G1 X44.1251 Y-23.7162 Z0.2457
G1 X44.1251 Y-23.7455 Z0.2440
G1 X44.1251 Y-23.7522 Z0.2438
G1 X44.1251 Y-23.7815 Z0.2420
G1 X44.1251 Y-23.7883 Z0.2417
G1 X44.1251 Y-23.8003 Z0.2410
G1 X44.1251 Y-23.8176 Z0.2399
G1 X44.1251 Y-23.8243 Z0.2396
G1 X44.1251 Y-23.8538 Z0.2376
G1 X44.1251 Y-23.8604 Z0.2373
G1 X44.1251 Y-23.8724 Z0.2365
G1 X44.1251 Y-23.8900 Z0.2352
G1 X44.1251 Y-23.8964 Z0.2349
G1 X44.1251 Y-23.9261 Z0.2327
G1 X44.1251 Y-23.9340 Z0.2323
G1 X44.1251 Y-23.9621 Z0.2301
G1 X44.1251 Y-23.9700 Z0.2297
G1 X44.1251 Y-23.9982 Z0.2274
G1 X44.1251 Y-24.0061 Z0.2269
G1 X44.1251 Y-24.0343 Z0.2245
G1 X44.1251 Y-24.0422 Z0.2240
G1 X44.1251 Y-24.0703 Z0.2215
G1 X44.1251 Y-24.0783 Z0.2210
G1 X44.1251 Y-24.1064 Z0.2184
G1 X44.1251 Y-24.1143 Z0.2178
G1 X44.1251 Y-24.1424 Z0.2151
G1 X44.1251 Y-24.1503 Z0.2146
G1 X44.1251 Y-24.1785 Z0.2118
G1 X44.1251 Y-24.1864 Z0.2112
G1 X44.1251 Y-24.2145 Z0.2083
G1 X44.1251 Y-24.2224 Z0.2077
G1 X44.1251 Y-24.2506 Z0.2047
G1 X44.1251 Y-24.2569 Z0.2042
G1 X44.1251 Y-24.2584 Z0.2040
G1 X44.1251 Y-24.2864 Z0.2009
G1 X44.1251 Y-24.2930 Z0.2004
G1 X44.1251 Y-24.2945 Z0.2003
G1 X44.1251 Y-24.3225 Z0.1971
G1 X44.1251 Y-24.3290 Z0.1965
G1 X44.1251 Y-24.3306 Z0.1964
G1 X44.1251 Y-24.3584 Z0.1931
G1 X44.1251 Y-24.3661 Z0.1924
G1 X44.1251 Y-24.3909 Z0.1894
G1 X44.1251 Y-24.4041 Z0.1885
G1 X44.1251 Y-24.4173 Z0.1890
G1 X44.1251 Y-24.4303 Z0.1909
G1 X44.1251 Y-24.4431 Z0.1942
G1 X44.1251 Y-24.4555 Z0.1988
G1 X44.1251 Y-24.4673 Z0.2047
G1 X44.1251 Y-24.4785 Z0.2117
G1 X44.1251 Y-24.4888 Z0.2200
G1 X44.1251 Y-24.4982 Z0.2292
G1 X44.1251 Y-24.5066 Z0.2395
G1 X44.1251 Y-24.5139 Z0.2505
G1 X44.1251 Y-24.5199 Z0.2622
G1 X44.1251 Y-24.5247 Z0.2745
G1 X44.1251 Y-24.5281 Z0.2873
G1 X44.1251 Y-24.5302 Z0.3003
G1 X44.1251 Y-24.5309 Z0.3135
G0 Z0.3595
G0 X44.1251 Y-24.5309 
G0 Z0.3845
G0 X43.9601 Y-23.0747 
G1 X43.9601 Y-23.0753 Z0.3723 F25.
G1 X43.9601 Y-23.0771 Z0.3601
G1 X43.9601 Y-23.0801 Z0.3483
G1 X43.9601 Y-23.0842 Z0.3367
G1 X43.9601 Y-23.0894 Z0.3256
G1 X43.9601 Y-23.0957 Z0.3151
G1 X43.9601 Y-23.1030 Z0.3053
G1 X43.9601 Y-23.1112 Z0.2962
G1 X43.9601 Y-23.1203 Z0.2880
G1 X43.9601 Y-23.1301 Z0.2807
G1 X43.9601 Y-23.1406 Z0.2743
G1 X43.9601 Y-23.1517 Z0.2691
G1 X43.9601 Y-23.1632 Z0.2649
G1 X43.9601 Y-23.1751 Z0.2619
G1 X43.9601 Y-23.1872 Z0.2601
G1 X43.9601 Y-23.1994 Z0.2595
G1 X43.9601 Y-23.2115 Z0.2595 F50.
G1 X43.9601 Y-23.2475 Z0.2593
G1 X43.9601 Y-23.2745 Z0.2590
G1 X43.9601 Y-23.2836 Z0.2590
G1 X43.9601 Y-23.3106 Z0.2586
G1 X43.9601 Y-23.3196 Z0.2585
G1 X43.9601 Y-23.3474 Z0.2581
G1 X43.9601 Y-23.3557 Z0.2580
G1 X43.9601 Y-23.3834 Z0.2574
G1 X43.9601 Y-23.3917 Z0.2573
G1 X43.9601 Y-23.4202 Z0.2566
G1 X43.9601 Y-23.4278 Z0.2565
G1 X43.9601 Y-23.4563 Z0.2557
G1 X43.9601 Y-23.4638 Z0.2556
G1 X43.9601 Y-23.4924 Z0.2547
G1 X43.9601 Y-23.4999 Z0.2546
G1 X43.9601 Y-23.5284 Z0.2536
G1 X43.9601 Y-23.5359 Z0.2534
G1 X43.9601 Y-23.5652 Z0.2523
G1 X43.9601 Y-23.5720 Z0.2521
G1 X43.9601 Y-23.5840 Z0.2516
G1 X43.9601 Y-23.6013 Z0.2509
G1 X43.9601 Y-23.6080 Z0.2507
G1 X43.9601 Y-23.6373 Z0.2494
G1 X43.9601 Y-23.6441 Z0.2492
G1 X43.9601 Y-23.6561 Z0.2486
G1 X43.9601 Y-23.6737 Z0.2477
G1 X43.9601 Y-23.6801 Z0.2475
G1 X43.9601 Y-23.6831 Z0.2474
G1 X43.9601 Y-23.7102 Z0.2460
G1 X43.9601 Y-23.7162 Z0.2457
G1 X43.9601 Y-23.7192 Z0.2456
G1 X43.9601 Y-23.7462 Z0.2441
G1 X43.9601 Y-23.7522 Z0.2438
G1 X43.9601 Y-23.7552 Z0.2437
G1 X43.9601 Y-23.7826 Z0.2421
G1 X43.9601 Y-23.7883 Z0.2418
G1 X43.9601 Y-23.7913 Z0.2417
G1 X43.9601 Y-23.8187 Z0.2399
G1 X43.9601 Y-23.8243 Z0.2397
G1 X43.9601 Y-23.8273 Z0.2395
G1 X43.9601 Y-23.8551 Z0.2377
G1 X43.9601 Y-23.8634 Z0.2372
G1 X43.9601 Y-23.8912 Z0.2353
G1 X43.9601 Y-23.8994 Z0.2348
G1 X43.9601 Y-23.9274 Z0.2328
G1 X43.9601 Y-23.9357 Z0.2323
G1 X43.9601 Y-23.9637 Z0.2301
G1 X43.9601 Y-23.9715 Z0.2297
G1 X43.9601 Y-23.9997 Z0.2274
G1 X43.9601 Y-24.0076 Z0.2269
G1 X43.9601 Y-24.0359 Z0.2245
G1 X43.9601 Y-24.0436 Z0.2240
G1 X43.9601 Y-24.0466 Z0.2238
G1 X43.9601 Y-24.0722 Z0.2215
G1 X43.9601 Y-24.0797 Z0.2210
G1 X43.9601 Y-24.0827 Z0.2208
G1 X43.9601 Y-24.1082 Z0.2184
G1 X43.9601 Y-24.1157 Z0.2179
G1 X43.9601 Y-24.1187 Z0.2176
G1 X43.9601 Y-24.1445 Z0.2152
G1 X43.9601 Y-24.1518 Z0.2146
G1 X43.9601 Y-24.1548 Z0.2143
G1 X43.9601 Y-24.1805 Z0.2118
G1 X43.9601 Y-24.1878 Z0.2112
G1 X43.9601 Y-24.1909 Z0.2110
G1 X43.9601 Y-24.2166 Z0.2083
G1 X43.9601 Y-24.2239 Z0.2077
G1 X43.9601 Y-24.2269 Z0.2074
G1 X43.9601 Y-24.2526 Z0.2047
G1 X43.9601 Y-24.2599 Z0.2041
G1 X43.9601 Y-24.2630 Z0.2038
G1 X43.9601 Y-24.2887 Z0.2010
G1 X43.9601 Y-24.2960 Z0.2004
G1 X43.9601 Y-24.2990 Z0.2001
G1 X43.9601 Y-24.3247 Z0.1971
G1 X43.9601 Y-24.3321 Z0.1965
G1 X43.9601 Y-24.3351 Z0.1962
G1 X43.9601 Y-24.3608 Z0.1932
G1 X43.9601 Y-24.3678 Z0.1925
G1 X43.9601 Y-24.3691 Z0.1924
G1 X43.9601 Y-24.3924 Z0.1896
G1 X43.9601 Y-24.4056 Z0.1887
G1 X43.9601 Y-24.4188 Z0.1892
G1 X43.9601 Y-24.4319 Z0.1911
G1 X43.9601 Y-24.4447 Z0.1943
G1 X43.9601 Y-24.4570 Z0.1989
G1 X43.9601 Y-24.4689 Z0.2048
G1 X43.9601 Y-24.4800 Z0.2119
G1 X43.9601 Y-24.4903 Z0.2201
G1 X43.9601 Y-24.4998 Z0.2294
G1 X43.9601 Y-24.5081 Z0.2396
G1 X43.9601 Y-24.5154 Z0.2506
G1 X43.9601 Y-24.5214 Z0.2624
G1 X43.9601 Y-24.5262 Z0.2747
G1 X43.9601 Y-24.5297 Z0.2874
G1 X43.9601 Y-24.5318 Z0.3005
G1 X43.9601 Y-24.5325 Z0.3137
G0 Z0.3595
G0 X43.9601 Y-24.5325 
G0 Z0.3845
G0 X43.7951 Y-23.0747 
G1 X43.7951 Y-23.0753 Z0.3723 F25.
G1 X43.7951 Y-23.0771 Z0.3601
G1 X43.7951 Y-23.0801 Z0.3483
G1 X43.7951 Y-23.0842 Z0.3367
G1 X43.7951 Y-23.0894 Z0.3256
G1 X43.7951 Y-23.0957 Z0.3151
G1 X43.7951 Y-23.1030 Z0.3053
G1 X43.7951 Y-23.1112 Z0.2962
G1 X43.7951 Y-23.1203 Z0.2880
G1 X43.7951 Y-23.1301 Z0.2807
G1 X43.7951 Y-23.1406 Z0.2743
G1 X43.7951 Y-23.1517 Z0.2691
G1 X43.7951 Y-23.1632 Z0.2649
G1 X43.7951 Y-23.1751 Z0.2619
G1 X43.7951 Y-23.1872 Z0.2601
G1 X43.7951 Y-23.1994 Z0.2595
G1 X43.7951 Y-23.2115 Z0.2595 F50.
G1 X43.7951 Y-23.2475 Z0.2593
G1 X43.7951 Y-23.2745 Z0.2590
G1 X43.7951 Y-23.2836 Z0.2590
G1 X43.7951 Y-23.3106 Z0.2586
G1 X43.7951 Y-23.3196 Z0.2585
G1 X43.7951 Y-23.3474 Z0.2581
G1 X43.7951 Y-23.3557 Z0.2580
G1 X43.7951 Y-23.3842 Z0.2574
G1 X43.7951 Y-23.3921 Z0.2573
G1 X43.7951 Y-23.4202 Z0.2567
G1 X43.7951 Y-23.4278 Z0.2565
G1 X43.7951 Y-23.4563 Z0.2558
G1 X43.7951 Y-23.4638 Z0.2556
G1 X43.7951 Y-23.4931 Z0.2547
G1 X43.7951 Y-23.4999 Z0.2546
G1 X43.7951 Y-23.5119 Z0.2542
G1 X43.7951 Y-23.5292 Z0.2536
G1 X43.7951 Y-23.5359 Z0.2534
G1 X43.7951 Y-23.5656 Z0.2523
G1 X43.7951 Y-23.5720 Z0.2521
G1 X43.7951 Y-23.5840 Z0.2516
G1 X43.7951 Y-23.6020 Z0.2509
G1 X43.7951 Y-23.6080 Z0.2507
G1 X43.7951 Y-23.6110 Z0.2506
G1 X43.7951 Y-23.6381 Z0.2494
G1 X43.7951 Y-23.6441 Z0.2492
G1 X43.7951 Y-23.6471 Z0.2491
G1 X43.7951 Y-23.6745 Z0.2477
G1 X43.7951 Y-23.6831 Z0.2474
G1 X43.7951 Y-23.7109 Z0.2460
G1 X43.7951 Y-23.7196 Z0.2456
G1 X43.7951 Y-23.7473 Z0.2441
G1 X43.7951 Y-23.7552 Z0.2438
G1 X43.7951 Y-23.7838 Z0.2421
G1 X43.7951 Y-23.7913 Z0.2417
G1 X43.7951 Y-23.7943 Z0.2416
G1 X43.7951 Y-23.8198 Z0.2399
G1 X43.7951 Y-23.8273 Z0.2396
G1 X43.7951 Y-23.8303 Z0.2394
G1 X43.7951 Y-23.8562 Z0.2377
G1 X43.7951 Y-23.8649 Z0.2372
G1 X43.7951 Y-23.8927 Z0.2353
G1 X43.7951 Y-23.9011 Z0.2348
G1 X43.7951 Y-23.9287 Z0.2328
G1 X43.7951 Y-23.9370 Z0.2323
G1 X43.7951 Y-23.9652 Z0.2302
G1 X43.7951 Y-23.9730 Z0.2297
G1 X43.7951 Y-23.9745 Z0.2296
G1 X43.7951 Y-24.0014 Z0.2274
G1 X43.7951 Y-24.0046 Z0.2272
G1 X43.7951 Y-24.0106 Z0.2268
G1 X43.7951 Y-24.0376 Z0.2245
G1 X43.7951 Y-24.0406 Z0.2243
G1 X43.7951 Y-24.0466 Z0.2239
G1 X43.7951 Y-24.0739 Z0.2215
G1 X43.7951 Y-24.0827 Z0.2209
G1 X43.7951 Y-24.1101 Z0.2184
G1 X43.7951 Y-24.1187 Z0.2178
G1 X43.7951 Y-24.1463 Z0.2152
G1 X43.7951 Y-24.1548 Z0.2146
G1 X43.7951 Y-24.1826 Z0.2118
G1 X43.7951 Y-24.1910 Z0.2112
G1 X43.7951 Y-24.2186 Z0.2083
G1 X43.7951 Y-24.2269 Z0.2077
G1 X43.7951 Y-24.2549 Z0.2047
G1 X43.7951 Y-24.2630 Z0.2041
G1 X43.7951 Y-24.2690 Z0.2034
G1 X43.7951 Y-24.2909 Z0.2010
G1 X43.7951 Y-24.2990 Z0.2003
G1 X43.7951 Y-24.3050 Z0.1997
G1 X43.7951 Y-24.3272 Z0.1971
G1 X43.7951 Y-24.3351 Z0.1965
G1 X43.7951 Y-24.3411 Z0.1958
G1 X43.7951 Y-24.3631 Z0.1932
G1 X43.7951 Y-24.3710 Z0.1925
G1 X43.7951 Y-24.3735 Z0.1922
G1 X43.7951 Y-24.3939 Z0.1897
G1 X43.7951 Y-24.4071 Z0.1888
G1 X43.7951 Y-24.4203 Z0.1893
G1 X43.7951 Y-24.4334 Z0.1912
G1 X43.7951 Y-24.4462 Z0.1945
G1 X43.7951 Y-24.4586 Z0.1991
G1 X43.7951 Y-24.4704 Z0.2050
G1 X43.7951 Y-24.4815 Z0.2120
G1 X43.7951 Y-24.4919 Z0.2203
G1 X43.7951 Y-24.5013 Z0.2295
G1 X43.7951 Y-24.5097 Z0.2397
G1 X43.7951 Y-24.5169 Z0.2508
G1 X43.7951 Y-24.5230 Z0.2625
G1 X43.7951 Y-24.5277 Z0.2748
G1 X43.7951 Y-24.5312 Z0.2876
G1 X43.7951 Y-24.5333 Z0.3006
G1 X43.7951 Y-24.5340 Z0.3138
G0 Z0.3595
G0 X43.7951 Y-24.5340 
G0 Z0.3845
G0 X43.6301 Y-23.0747 
G1 X43.6301 Y-23.0753 Z0.3723 F25.
G1 X43.6301 Y-23.0771 Z0.3601
G1 X43.6301 Y-23.0801 Z0.3483
G1 X43.6301 Y-23.0842 Z0.3367
G1 X43.6301 Y-23.0894 Z0.3256
G1 X43.6301 Y-23.0957 Z0.3151
G1 X43.6301 Y-23.1030 Z0.3053
G1 X43.6301 Y-23.1112 Z0.2962
G1 X43.6301 Y-23.1203 Z0.2880
G1 X43.6301 Y-23.1301 Z0.2807
G1 X43.6301 Y-23.1406 Z0.2743
G1 X43.6301 Y-23.1517 Z0.2691
G1 X43.6301 Y-23.1632 Z0.2649
G1 X43.6301 Y-23.1751 Z0.2619
G1 X43.6301 Y-23.1872 Z0.2601
G1 X43.6301 Y-23.1994 Z0.2595
G1 X43.6301 Y-23.2115 Z0.2595 F50.
G1 X43.6301 Y-23.2475 Z0.2593
G1 X43.6301 Y-23.2745 Z0.2590
G1 X43.6301 Y-23.2836 Z0.2590
G1 X43.6301 Y-23.3106 Z0.2586
G1 X43.6301 Y-23.3196 Z0.2586
G1 X43.6301 Y-23.3481 Z0.2581
G1 X43.6301 Y-23.3557 Z0.2580
G1 X43.6301 Y-23.3842 Z0.2574
G1 X43.6301 Y-23.3917 Z0.2573
G1 X43.6301 Y-23.4202 Z0.2567
G1 X43.6301 Y-23.4278 Z0.2565
G1 X43.6301 Y-23.4571 Z0.2558
G1 X43.6301 Y-23.4638 Z0.2556
G1 X43.6301 Y-23.4931 Z0.2547
G1 X43.6301 Y-23.4999 Z0.2546
G1 X43.6301 Y-23.5119 Z0.2542
G1 X43.6301 Y-23.5299 Z0.2536
G1 X43.6301 Y-23.5359 Z0.2534
G1 X43.6301 Y-23.5389 Z0.2533
G1 X43.6301 Y-23.5660 Z0.2523
G1 X43.6301 Y-23.5750 Z0.2521
G1 X43.6301 Y-23.6028 Z0.2509
G1 X43.6301 Y-23.6110 Z0.2507
G1 X43.6301 Y-23.6388 Z0.2494
G1 X43.6301 Y-23.6471 Z0.2491
G1 X43.6301 Y-23.6501 Z0.2490
G1 X43.6301 Y-23.6756 Z0.2477
G1 X43.6301 Y-23.6831 Z0.2475
G1 X43.6301 Y-23.6861 Z0.2473
G1 X43.6301 Y-23.7120 Z0.2460
G1 X43.6301 Y-23.7192 Z0.2457
G1 X43.6301 Y-23.7222 Z0.2456
G1 X43.6301 Y-23.7483 Z0.2441
G1 X43.6301 Y-23.7522 Z0.2439
G1 X43.6301 Y-23.7582 Z0.2437
G1 X43.6301 Y-23.7847 Z0.2421
G1 X43.6301 Y-23.7883 Z0.2419
G1 X43.6301 Y-23.7943 Z0.2416
G1 X43.6301 Y-23.8211 Z0.2399
G1 X43.6301 Y-23.8303 Z0.2395
G1 X43.6301 Y-23.8574 Z0.2377
G1 X43.6301 Y-23.8664 Z0.2372
G1 X43.6301 Y-23.8938 Z0.2353
G1 X43.6301 Y-23.9024 Z0.2349
G1 X43.6301 Y-23.9302 Z0.2328
G1 X43.6301 Y-23.9385 Z0.2324
G1 X43.6301 Y-23.9445 Z0.2319
G1 X43.6301 Y-23.9667 Z0.2302
G1 X43.6301 Y-23.9745 Z0.2297
G1 X43.6301 Y-23.9806 Z0.2292
G1 X43.6301 Y-24.0031 Z0.2274
G1 X43.6301 Y-24.0106 Z0.2270
G1 X43.6301 Y-24.0121 Z0.2269
G1 X43.6301 Y-24.0393 Z0.2246
G1 X43.6301 Y-24.0481 Z0.2240
G1 X43.6301 Y-24.0756 Z0.2216
G1 X43.6301 Y-24.0842 Z0.2210
G1 X43.6301 Y-24.1120 Z0.2184
G1 X43.6301 Y-24.1203 Z0.2179
G1 X43.6301 Y-24.1218 Z0.2177
G1 X43.6301 Y-24.1482 Z0.2152
G1 X43.6301 Y-24.1571 Z0.2146
G1 X43.6301 Y-24.1845 Z0.2118
G1 X43.6301 Y-24.1909 Z0.2114
G1 X43.6301 Y-24.1939 Z0.2111
G1 X43.6301 Y-24.2207 Z0.2084
G1 X43.6301 Y-24.2269 Z0.2079
G1 X43.6301 Y-24.2299 Z0.2076
G1 X43.6301 Y-24.2569 Z0.2048
G1 X43.6301 Y-24.2630 Z0.2043
G1 X43.6301 Y-24.2660 Z0.2040
G1 X43.6301 Y-24.2932 Z0.2010
G1 X43.6301 Y-24.3020 Z0.2003
G1 X43.6301 Y-24.3294 Z0.1972
G1 X43.6301 Y-24.3382 Z0.1964
G1 X43.6301 Y-24.3657 Z0.1932
G1 X43.6301 Y-24.3744 Z0.1924
G1 X43.6301 Y-24.3954 Z0.1899
G1 X43.6301 Y-24.4086 Z0.1890
G1 X43.6301 Y-24.4218 Z0.1895
G1 X43.6301 Y-24.4349 Z0.1914
G1 X43.6301 Y-24.4477 Z0.1946
G1 X43.6301 Y-24.4601 Z0.1992
G1 X43.6301 Y-24.4719 Z0.2051
G1 X43.6301 Y-24.4831 Z0.2122
G1 X43.6301 Y-24.4934 Z0.2204
G1 X43.6301 Y-24.5028 Z0.2297
G1 X43.6301 Y-24.5112 Z0.2399
G1 X43.6301 Y-24.5184 Z0.2509
G1 X43.6301 Y-24.5245 Z0.2627
G1 X43.6301 Y-24.5293 Z0.2750
G1 X43.6301 Y-24.5327 Z0.2877
G1 X43.6301 Y-24.5348 Z0.3008
G1 X43.6301 Y-24.5355 Z0.3140
G0 Z0.3595
G0 X43.6301 Y-24.5355 
G0 Z0.3845
G0 X43.4651 Y-23.0747 
G1 X43.4651 Y-23.0753 Z0.3723 F25.
G1 X43.4651 Y-23.0771 Z0.3601
G1 X43.4651 Y-23.0800 Z0.3483
G1 X43.4651 Y-23.0842 Z0.3367
G1 X43.4651 Y-23.0894 Z0.3256
G1 X43.4651 Y-23.0957 Z0.3151
G1 X43.4651 Y-23.1030 Z0.3053
G1 X43.4651 Y-23.1112 Z0.2962
G1 X43.4651 Y-23.1203 Z0.2880
G1 X43.4651 Y-23.1301 Z0.2807
G1 X43.4651 Y-23.1406 Z0.2743
G1 X43.4651 Y-23.1517 Z0.2691
G1 X43.4651 Y-23.1632 Z0.2649
G1 X43.4651 Y-23.1751 Z0.2619
G1 X43.4651 Y-23.1872 Z0.2601
G1 X43.4651 Y-23.1994 Z0.2595
G1 X43.4651 Y-23.2115 Z0.2595 F50.
G1 X43.4651 Y-23.2475 Z0.2593
G1 X43.4651 Y-23.2745 Z0.2591
G1 X43.4651 Y-23.2836 Z0.2590
G1 X43.4651 Y-23.3106 Z0.2586
G1 X43.4651 Y-23.3196 Z0.2586
G1 X43.4651 Y-23.3481 Z0.2581
G1 X43.4651 Y-23.3557 Z0.2580
G1 X43.4651 Y-23.3842 Z0.2575
G1 X43.4651 Y-23.3917 Z0.2573
G1 X43.4651 Y-23.4202 Z0.2567
G1 X43.4651 Y-23.4278 Z0.2565
G1 X43.4651 Y-23.4398 Z0.2562
G1 X43.4651 Y-23.4571 Z0.2558
G1 X43.4651 Y-23.4638 Z0.2556
G1 X43.4651 Y-23.4939 Z0.2547
G1 X43.4651 Y-23.5029 Z0.2545
G1 X43.4651 Y-23.5299 Z0.2536
G1 X43.4651 Y-23.5389 Z0.2534
G1 X43.4651 Y-23.5667 Z0.2523
G1 X43.4651 Y-23.5750 Z0.2521
G1 X43.4651 Y-23.5780 Z0.2520
G1 X43.4651 Y-23.6031 Z0.2509
G1 X43.4651 Y-23.6110 Z0.2507
G1 X43.4651 Y-23.6140 Z0.2506
G1 X43.4651 Y-23.6396 Z0.2494
G1 X43.4651 Y-23.6441 Z0.2493
G1 X43.4651 Y-23.6501 Z0.2490
G1 X43.4651 Y-23.6764 Z0.2478
G1 X43.4651 Y-23.6801 Z0.2476
G1 X43.4651 Y-23.6861 Z0.2474
G1 X43.4651 Y-23.7128 Z0.2460
G1 X43.4651 Y-23.7222 Z0.2456
G1 X43.4651 Y-23.7492 Z0.2441
G1 X43.4651 Y-23.7584 Z0.2437
G1 X43.4651 Y-23.7856 Z0.2421
G1 X43.4651 Y-23.7943 Z0.2417
G1 X43.4651 Y-23.8003 Z0.2414
G1 X43.4651 Y-23.8223 Z0.2400
G1 X43.4651 Y-23.8303 Z0.2396
G1 X43.4651 Y-23.8363 Z0.2392
G1 X43.4651 Y-23.8589 Z0.2377
G1 X43.4651 Y-23.8679 Z0.2373
G1 X43.4651 Y-23.8953 Z0.2353
G1 X43.4651 Y-23.9039 Z0.2349
G1 X43.4651 Y-23.9317 Z0.2328
G1 X43.4651 Y-23.9385 Z0.2324
G1 X43.4651 Y-23.9415 Z0.2323
G1 X43.4651 Y-23.9682 Z0.2302
G1 X43.4651 Y-23.9745 Z0.2298
G1 X43.4651 Y-23.9775 Z0.2296
G1 X43.4651 Y-24.0046 Z0.2274
G1 X43.4651 Y-24.0137 Z0.2269
G1 X43.4651 Y-24.0410 Z0.2246
G1 X43.4651 Y-24.0496 Z0.2240
G1 X43.4651 Y-24.0527 Z0.2238
G1 X43.4651 Y-24.0774 Z0.2216
G1 X43.4651 Y-24.0857 Z0.2210
G1 X43.4651 Y-24.0887 Z0.2208
G1 X43.4651 Y-24.1139 Z0.2185
G1 X43.4651 Y-24.1218 Z0.2179
G1 X43.4651 Y-24.1233 Z0.2178
G1 X43.4651 Y-24.1501 Z0.2152
G1 X43.4651 Y-24.1593 Z0.2146
G1 X43.4651 Y-24.1865 Z0.2119
G1 X43.4651 Y-24.1954 Z0.2112
G1 X43.4651 Y-24.2228 Z0.2084
G1 X43.4651 Y-24.2314 Z0.2077
G1 X43.4651 Y-24.2329 Z0.2076
G1 X43.4651 Y-24.2592 Z0.2048
G1 X43.4651 Y-24.2630 Z0.2045
G1 X43.4651 Y-24.2690 Z0.2040
G1 X43.4651 Y-24.2954 Z0.2011
G1 X43.4651 Y-24.2990 Z0.2008
G1 X43.4651 Y-24.3050 Z0.2003
G1 X43.4651 Y-24.3317 Z0.1972
G1 X43.4651 Y-24.3411 Z0.1964
G1 X43.4651 Y-24.3680 Z0.1932
G1 X43.4651 Y-24.3750 Z0.1926
G1 X43.4651 Y-24.3778 Z0.1924
G1 X43.4651 Y-24.3970 Z0.1900
G1 X43.4651 Y-24.4101 Z0.1891
G1 X43.4651 Y-24.4233 Z0.1896
G1 X43.4651 Y-24.4364 Z0.1915
G1 X43.4651 Y-24.4492 Z0.1948
G1 X43.4651 Y-24.4616 Z0.1994
G1 X43.4651 Y-24.4734 Z0.2053
G1 X43.4651 Y-24.4846 Z0.2123
G1 X43.4651 Y-24.4949 Z0.2206
G1 X43.4651 Y-24.5043 Z0.2298
G1 X43.4651 Y-24.5127 Z0.2400
G1 X43.4651 Y-24.5200 Z0.2511
G1 X43.4651 Y-24.5260 Z0.2628
G1 X43.4651 Y-24.5308 Z0.2751
G1 X43.4651 Y-24.5342 Z0.2879
G1 X43.4651 Y-24.5363 Z0.3009
G1 X43.4651 Y-24.5370 Z0.3141
G0 Z0.3595
G0 X43.4651 Y-24.5370 
G0 Z0.3845
G0 X43.3001 Y-23.0747 
G1 X43.3001 Y-23.0753 Z0.3723 F25.
G1 X43.3001 Y-23.0771 Z0.3601
G1 X43.3001 Y-23.0800 Z0.3483
G1 X43.3001 Y-23.0842 Z0.3367
G1 X43.3001 Y-23.0894 Z0.3256
G1 X43.3001 Y-23.0957 Z0.3151
G1 X43.3001 Y-23.1030 Z0.3053
G1 X43.3001 Y-23.1112 Z0.2962
G1 X43.3001 Y-23.1203 Z0.2880
G1 X43.3001 Y-23.1301 Z0.2807
G1 X43.3001 Y-23.1406 Z0.2743
G1 X43.3001 Y-23.1517 Z0.2691
G1 X43.3001 Y-23.1632 Z0.2649
G1 X43.3001 Y-23.1751 Z0.2619
G1 X43.3001 Y-23.1872 Z0.2601
G1 X43.3001 Y-23.1994 Z0.2595
G1 X43.3001 Y-23.2115 Z0.2595 F50.
G1 X43.3001 Y-23.2385 Z0.2593
G1 X43.3001 Y-23.2475 Z0.2593
G1 X43.3001 Y-23.2745 Z0.2591
G1 X43.3001 Y-23.2836 Z0.2590
G1 X43.3001 Y-23.3106 Z0.2586
G1 X43.3001 Y-23.3196 Z0.2586
G1 X43.3001 Y-23.3481 Z0.2581
G1 X43.3001 Y-23.3557 Z0.2580
G1 X43.3001 Y-23.3842 Z0.2575
G1 X43.3001 Y-23.3917 Z0.2573
G1 X43.3001 Y-23.4210 Z0.2567
G1 X43.3001 Y-23.4278 Z0.2566
G1 X43.3001 Y-23.4398 Z0.2563
G1 X43.3001 Y-23.4578 Z0.2558
G1 X43.3001 Y-23.4668 Z0.2556
G1 X43.3001 Y-23.4939 Z0.2548
G1 X43.3001 Y-23.5029 Z0.2546
G1 X43.3001 Y-23.5307 Z0.2536
G1 X43.3001 Y-23.5389 Z0.2534
G1 X43.3001 Y-23.5419 Z0.2533
G1 X43.3001 Y-23.5675 Z0.2523
G1 X43.3001 Y-23.5720 Z0.2522
G1 X43.3001 Y-23.5780 Z0.2520
G1 X43.3001 Y-23.6039 Z0.2509
G1 X43.3001 Y-23.6080 Z0.2508
G1 X43.3001 Y-23.6140 Z0.2506
G1 X43.3001 Y-23.6403 Z0.2494
G1 X43.3001 Y-23.6501 Z0.2491
G1 X43.3001 Y-23.6771 Z0.2478
G1 X43.3001 Y-23.6861 Z0.2475
G1 X43.3001 Y-23.7135 Z0.2460
G1 X43.3001 Y-23.7222 Z0.2457
G1 X43.3001 Y-23.7282 Z0.2454
G1 X43.3001 Y-23.7503 Z0.2441
G1 X43.3001 Y-23.7582 Z0.2438
G1 X43.3001 Y-23.7642 Z0.2435
G1 X43.3001 Y-23.7868 Z0.2421
G1 X43.3001 Y-23.7943 Z0.2418
G1 X43.3001 Y-23.7973 Z0.2416
G1 X43.3001 Y-23.8236 Z0.2400
G1 X43.3001 Y-23.8303 Z0.2397
G1 X43.3001 Y-23.8333 Z0.2395
G1 X43.3001 Y-23.8600 Z0.2377
G1 X43.3001 Y-23.8695 Z0.2372
G1 X43.3001 Y-23.8964 Z0.2354
G1 X43.3001 Y-23.9054 Z0.2349
G1 X43.3001 Y-23.9084 Z0.2347
G1 X43.3001 Y-23.9330 Z0.2328
G1 X43.3001 Y-23.9415 Z0.2324
G1 X43.3001 Y-23.9445 Z0.2322
G1 X43.3001 Y-23.9697 Z0.2302
G1 X43.3001 Y-23.9791 Z0.2297
G1 X43.3001 Y-24.0061 Z0.2275
G1 X43.3001 Y-24.0151 Z0.2269
G1 X43.3001 Y-24.0166 Z0.2268
G1 X43.3001 Y-24.0425 Z0.2246
G1 X43.3001 Y-24.0466 Z0.2243
G1 X43.3001 Y-24.0527 Z0.2239
G1 X43.3001 Y-24.0791 Z0.2216
G1 X43.3001 Y-24.0887 Z0.2210
G1 X43.3001 Y-24.1156 Z0.2185
G1 X43.3001 Y-24.1248 Z0.2179
G1 X43.3001 Y-24.1520 Z0.2153
G1 X43.3001 Y-24.1608 Z0.2146
G1 X43.3001 Y-24.1884 Z0.2119
G1 X43.3001 Y-24.1969 Z0.2113
G1 X43.3001 Y-24.1984 Z0.2112
G1 X43.3001 Y-24.2248 Z0.2084
G1 X43.3001 Y-24.2344 Z0.2077
G1 X43.3001 Y-24.2613 Z0.2048
G1 X43.3001 Y-24.2705 Z0.2041
G1 X43.3001 Y-24.2750 Z0.2036
G1 X43.3001 Y-24.2977 Z0.2011
G1 X43.3001 Y-24.3065 Z0.2004
G1 X43.3001 Y-24.3080 Z0.2002
G1 X43.3001 Y-24.3341 Z0.1972
G1 X43.3001 Y-24.3411 Z0.1966
G1 X43.3001 Y-24.3441 Z0.1964
G1 X43.3001 Y-24.3705 Z0.1933
G1 X43.3001 Y-24.3786 Z0.1926
G1 X43.3001 Y-24.3800 Z0.1924
G1 X43.3001 Y-24.3985 Z0.1902
G1 X43.3001 Y-24.4117 Z0.1893
G1 X43.3001 Y-24.4249 Z0.1898
G1 X43.3001 Y-24.4379 Z0.1917
G1 X43.3001 Y-24.4507 Z0.1949
G1 X43.3001 Y-24.4631 Z0.1995
G1 X43.3001 Y-24.4750 Z0.2054
G1 X43.3001 Y-24.4861 Z0.2125
G1 X43.3001 Y-24.4964 Z0.2207
G1 X43.3001 Y-24.5059 Z0.2300
G1 X43.3001 Y-24.5142 Z0.2402
G1 X43.3001 Y-24.5215 Z0.2512
G1 X43.3001 Y-24.5275 Z0.2630
G1 X43.3001 Y-24.5323 Z0.2753
G1 X43.3001 Y-24.5358 Z0.2880
G1 X43.3001 Y-24.5378 Z0.3011
G1 X43.3001 Y-24.5385 Z0.3143
G0 Z0.3595
G0 X43.3001 Y-24.5385 
G0 Z0.3845
G0 X43.1351 Y-23.0747 
G1 X43.1351 Y-23.0753 Z0.3723 F25.
G1 X43.1351 Y-23.0771 Z0.3601
G1 X43.1351 Y-23.0800 Z0.3483
G1 X43.1351 Y-23.0842 Z0.3367
G1 X43.1351 Y-23.0894 Z0.3256
G1 X43.1351 Y-23.0957 Z0.3151
G1 X43.1351 Y-23.1030 Z0.3053
G1 X43.1351 Y-23.1112 Z0.2962
G1 X43.1351 Y-23.1203 Z0.2880
G1 X43.1351 Y-23.1301 Z0.2807
G1 X43.1351 Y-23.1406 Z0.2743
G1 X43.1351 Y-23.1517 Z0.2691
G1 X43.1351 Y-23.1632 Z0.2649
G1 X43.1351 Y-23.1751 Z0.2619
G1 X43.1351 Y-23.1872 Z0.2601
G1 X43.1351 Y-23.1994 Z0.2595
G1 X43.1351 Y-23.2115 Z0.2595 F50.
G1 X43.1351 Y-23.2385 Z0.2593
G1 X43.1351 Y-23.2475 Z0.2593
G1 X43.1351 Y-23.2745 Z0.2591
G1 X43.1351 Y-23.2836 Z0.2590
G1 X43.1351 Y-23.3106 Z0.2587
G1 X43.1351 Y-23.3196 Z0.2586
G1 X43.1351 Y-23.3481 Z0.2581
G1 X43.1351 Y-23.3557 Z0.2580
G1 X43.1351 Y-23.3677 Z0.2578
G1 X43.1351 Y-23.3842 Z0.2575
G1 X43.1351 Y-23.3917 Z0.2574
G1 X43.1351 Y-23.4210 Z0.2567
G1 X43.1351 Y-23.4308 Z0.2565
G1 X43.1351 Y-23.4578 Z0.2558
G1 X43.1351 Y-23.4668 Z0.2556
G1 X43.1351 Y-23.4946 Z0.2548
G1 X43.1351 Y-23.4999 Z0.2546
G1 X43.1351 Y-23.5059 Z0.2545
G1 X43.1351 Y-23.5314 Z0.2536
G1 X43.1351 Y-23.5359 Z0.2535
G1 X43.1351 Y-23.5419 Z0.2533
G1 X43.1351 Y-23.5678 Z0.2523
G1 X43.1351 Y-23.5780 Z0.2521
G1 X43.1351 Y-23.6046 Z0.2509
G1 X43.1351 Y-23.6140 Z0.2507
G1 X43.1351 Y-23.6411 Z0.2494
G1 X43.1351 Y-23.6501 Z0.2491
G1 X43.1351 Y-23.6561 Z0.2489
G1 X43.1351 Y-23.6779 Z0.2478
G1 X43.1351 Y-23.6861 Z0.2475
G1 X43.1351 Y-23.6921 Z0.2472
G1 X43.1351 Y-23.7147 Z0.2460
G1 X43.1351 Y-23.7222 Z0.2457
G1 X43.1351 Y-23.7252 Z0.2456
G1 X43.1351 Y-23.7511 Z0.2441
G1 X43.1351 Y-23.7612 Z0.2437
G1 X43.1351 Y-23.7879 Z0.2421
G1 X43.1351 Y-23.7973 Z0.2417
G1 X43.1351 Y-23.8247 Z0.2400
G1 X43.1351 Y-23.8333 Z0.2396
G1 X43.1351 Y-23.8363 Z0.2394
G1 X43.1351 Y-23.8611 Z0.2377
G1 X43.1351 Y-23.8711 Z0.2372
G1 X43.1351 Y-23.8979 Z0.2354
G1 X43.1351 Y-23.9024 Z0.2351
G1 X43.1351 Y-23.9084 Z0.2348
G1 X43.1351 Y-23.9345 Z0.2329
G1 X43.1351 Y-23.9445 Z0.2323
G1 X43.1351 Y-23.9712 Z0.2302
G1 X43.1351 Y-23.9806 Z0.2297
G1 X43.1351 Y-24.0076 Z0.2275
G1 X43.1351 Y-24.0166 Z0.2270
G1 X43.1351 Y-24.0444 Z0.2246
G1 X43.1351 Y-24.0542 Z0.2240
G1 X43.1351 Y-24.0808 Z0.2216
G1 X43.1351 Y-24.0902 Z0.2210
G1 X43.1351 Y-24.0917 Z0.2209
G1 X43.1351 Y-24.1174 Z0.2185
G1 X43.1351 Y-24.1248 Z0.2180
G1 X43.1351 Y-24.1278 Z0.2178
G1 X43.1351 Y-24.1540 Z0.2153
G1 X43.1351 Y-24.1638 Z0.2146
G1 X43.1351 Y-24.1905 Z0.2119
G1 X43.1351 Y-24.1999 Z0.2112
G1 X43.1351 Y-24.2029 Z0.2109
G1 X43.1351 Y-24.2269 Z0.2084
G1 X43.1351 Y-24.2359 Z0.2078
G1 X43.1351 Y-24.2389 Z0.2075
G1 X43.1351 Y-24.2635 Z0.2048
G1 X43.1351 Y-24.2720 Z0.2042
G1 X43.1351 Y-24.2735 Z0.2040
G1 X43.1351 Y-24.2999 Z0.2011
G1 X43.1351 Y-24.3095 Z0.2003
G1 X43.1351 Y-24.3364 Z0.1973
G1 X43.1351 Y-24.3456 Z0.1965
G1 X43.1351 Y-24.3471 Z0.1963
G1 X43.1351 Y-24.3729 Z0.1933
G1 X43.1351 Y-24.3824 Z0.1925
G1 X43.1351 Y-24.4000 Z0.1903
G1 X43.1351 Y-24.4132 Z0.1894
G1 X43.1351 Y-24.4264 Z0.1899
G1 X43.1351 Y-24.4395 Z0.1918
G1 X43.1351 Y-24.4523 Z0.1951
G1 X43.1351 Y-24.4646 Z0.1997
G1 X43.1351 Y-24.4765 Z0.2056
G1 X43.1351 Y-24.4876 Z0.2127
G1 X43.1351 Y-24.4979 Z0.2209
G1 X43.1351 Y-24.5074 Z0.2302
G1 X43.1351 Y-24.5157 Z0.2404
G1 X43.1351 Y-24.5230 Z0.2514
G1 X43.1351 Y-24.5290 Z0.2631
G1 X43.1351 Y-24.5338 Z0.2755
G1 X43.1351 Y-24.5373 Z0.2882
G1 X43.1351 Y-24.5393 Z0.3012
G1 X43.1351 Y-24.5400 Z0.3144
G0 Z0.3595
G0 X43.1351 Y-24.5400 
G0 Z0.3845
G0 X42.9701 Y-23.0747 
G1 X42.9701 Y-23.0753 Z0.3723 F25.
G1 X42.9701 Y-23.0771 Z0.3601
G1 X42.9701 Y-23.0800 Z0.3483
G1 X42.9701 Y-23.0842 Z0.3367
G1 X42.9701 Y-23.0894 Z0.3256
G1 X42.9701 Y-23.0957 Z0.3151
G1 X42.9701 Y-23.1030 Z0.3053
G1 X42.9701 Y-23.1112 Z0.2962
G1 X42.9701 Y-23.1203 Z0.2880
G1 X42.9701 Y-23.1301 Z0.2806
G1 X42.9701 Y-23.1406 Z0.2743
G1 X42.9701 Y-23.1517 Z0.2691
G1 X42.9701 Y-23.1632 Z0.2649
G1 X42.9701 Y-23.1751 Z0.2619
G1 X42.9701 Y-23.1872 Z0.2601
G1 X42.9701 Y-23.1994 Z0.2595
G1 X42.9701 Y-23.2115 Z0.2595 F50.
G1 X42.9701 Y-23.2385 Z0.2593
G1 X42.9701 Y-23.2475 Z0.2593
G1 X42.9701 Y-23.2745 Z0.2591
G1 X42.9701 Y-23.2836 Z0.2590
G1 X42.9701 Y-23.3106 Z0.2587
G1 X42.9701 Y-23.3196 Z0.2586
G1 X42.9701 Y-23.3481 Z0.2581
G1 X42.9701 Y-23.3557 Z0.2580
G1 X42.9701 Y-23.3677 Z0.2578
G1 X42.9701 Y-23.3842 Z0.2575
G1 X42.9701 Y-23.3917 Z0.2574
G1 X42.9701 Y-23.4218 Z0.2567
G1 X42.9701 Y-23.4308 Z0.2565
G1 X42.9701 Y-23.4578 Z0.2558
G1 X42.9701 Y-23.4638 Z0.2557
G1 X42.9701 Y-23.4698 Z0.2555
G1 X42.9701 Y-23.4946 Z0.2548
G1 X42.9701 Y-23.4999 Z0.2547
G1 X42.9701 Y-23.5059 Z0.2545
G1 X42.9701 Y-23.5314 Z0.2536
G1 X42.9701 Y-23.5419 Z0.2534
G1 X42.9701 Y-23.5682 Z0.2524
G1 X42.9701 Y-23.5780 Z0.2521
G1 X42.9701 Y-23.6050 Z0.2510
G1 X42.9701 Y-23.6140 Z0.2507
G1 X42.9701 Y-23.6200 Z0.2504
G1 X42.9701 Y-23.6418 Z0.2494
G1 X42.9701 Y-23.6501 Z0.2492
G1 X42.9701 Y-23.6531 Z0.2491
G1 X42.9701 Y-23.6786 Z0.2478
G1 X42.9701 Y-23.6861 Z0.2475
G1 X42.9701 Y-23.6891 Z0.2474
G1 X42.9701 Y-23.7154 Z0.2460
G1 X42.9701 Y-23.7252 Z0.2457
G1 X42.9701 Y-23.7522 Z0.2442
G1 X42.9701 Y-23.7612 Z0.2438
G1 X42.9701 Y-23.7642 Z0.2436
G1 X42.9701 Y-23.7890 Z0.2421
G1 X42.9701 Y-23.7988 Z0.2417
G1 X42.9701 Y-23.8258 Z0.2400
G1 X42.9701 Y-23.8303 Z0.2398
G1 X42.9701 Y-23.8363 Z0.2395
G1 X42.9701 Y-23.8624 Z0.2378
G1 X42.9701 Y-23.8726 Z0.2373
G1 X42.9701 Y-23.8991 Z0.2354
G1 X42.9701 Y-23.9084 Z0.2349
G1 X42.9701 Y-23.9205 Z0.2340
G1 X42.9701 Y-23.9359 Z0.2329
G1 X42.9701 Y-23.9461 Z0.2323
G1 X42.9701 Y-23.9727 Z0.2303
G1 X42.9701 Y-23.9806 Z0.2298
G1 X42.9701 Y-23.9836 Z0.2296
G1 X42.9701 Y-24.0093 Z0.2275
G1 X42.9701 Y-24.0166 Z0.2271
G1 X42.9701 Y-24.0196 Z0.2269
G1 X42.9701 Y-24.0459 Z0.2246
G1 X42.9701 Y-24.0557 Z0.2240
G1 X42.9701 Y-24.0587 Z0.2238
G1 X42.9701 Y-24.0827 Z0.2216
G1 X42.9701 Y-24.0917 Z0.2211
G1 X42.9701 Y-24.0932 Z0.2209
G1 X42.9701 Y-24.1193 Z0.2185
G1 X42.9701 Y-24.1295 Z0.2178
G1 X42.9701 Y-24.1559 Z0.2153
G1 X42.9701 Y-24.1653 Z0.2146
G1 X42.9701 Y-24.1668 Z0.2145
G1 X42.9701 Y-24.1925 Z0.2119
G1 X42.9701 Y-24.2029 Z0.2112
G1 X42.9701 Y-24.2292 Z0.2085
G1 X42.9701 Y-24.2389 Z0.2077
G1 X42.9701 Y-24.2656 Z0.2049
G1 X42.9701 Y-24.2750 Z0.2041
G1 X42.9701 Y-24.2810 Z0.2035
G1 X42.9701 Y-24.3022 Z0.2011
G1 X42.9701 Y-24.3110 Z0.2004
G1 X42.9701 Y-24.3125 Z0.2003
G1 X42.9701 Y-24.3388 Z0.1973
G1 X42.9701 Y-24.3486 Z0.1965
G1 X42.9701 Y-24.3752 Z0.1933
G1 X42.9701 Y-24.3849 Z0.1925
G1 X42.9701 Y-24.3864 Z0.1923
G1 X42.9701 Y-24.4015 Z0.1905
G1 X42.9701 Y-24.4147 Z0.1896
G1 X42.9701 Y-24.4279 Z0.1901
G1 X42.9701 Y-24.4410 Z0.1920
G1 X42.9701 Y-24.4538 Z0.1952
G1 X42.9701 Y-24.4662 Z0.1998
G1 X42.9701 Y-24.4780 Z0.2057
G1 X42.9701 Y-24.4892 Z0.2128
G1 X42.9701 Y-24.4995 Z0.2210
G1 X42.9701 Y-24.5089 Z0.2303
G1 X42.9701 Y-24.5173 Z0.2405
G1 X42.9701 Y-24.5245 Z0.2515
G1 X42.9701 Y-24.5306 Z0.2633
G1 X42.9701 Y-24.5354 Z0.2756
G1 X42.9701 Y-24.5388 Z0.2883
G1 X42.9701 Y-24.5409 Z0.3014
G1 X42.9701 Y-24.5416 Z0.3146
G0 Z0.3595
G0 X42.9701 Y-24.5416 
G0 Z0.3845
G0 X42.8051 Y-23.0747 
G1 X42.8051 Y-23.0753 Z0.3723 F25.
G1 X42.8051 Y-23.0771 Z0.3601
G1 X42.8051 Y-23.0800 Z0.3483
G1 X42.8051 Y-23.0842 Z0.3367
G1 X42.8051 Y-23.0894 Z0.3256
G1 X42.8051 Y-23.0957 Z0.3151
G1 X42.8051 Y-23.1030 Z0.3053
G1 X42.8051 Y-23.1112 Z0.2962
G1 X42.8051 Y-23.1203 Z0.2880
G1 X42.8051 Y-23.1301 Z0.2806
G1 X42.8051 Y-23.1406 Z0.2743
G1 X42.8051 Y-23.1517 Z0.2691
G1 X42.8051 Y-23.1632 Z0.2649
G1 X42.8051 Y-23.1751 Z0.2619
G1 X42.8051 Y-23.1872 Z0.2601
G1 X42.8051 Y-23.1994 Z0.2595
G1 X42.8051 Y-23.2115 Z0.2595 F50.
G1 X42.8051 Y-23.2385 Z0.2593
G1 X42.8051 Y-23.2475 Z0.2593
G1 X42.8051 Y-23.2745 Z0.2591
G1 X42.8051 Y-23.2836 Z0.2590
G1 X42.8051 Y-23.3106 Z0.2587
G1 X42.8051 Y-23.3196 Z0.2586
G1 X42.8051 Y-23.3481 Z0.2581
G1 X42.8051 Y-23.3557 Z0.2580
G1 X42.8051 Y-23.3677 Z0.2578
G1 X42.8051 Y-23.3849 Z0.2575
G1 X42.8051 Y-23.3951 Z0.2573
G1 X42.8051 Y-23.4218 Z0.2567
G1 X42.8051 Y-23.4278 Z0.2566
G1 X42.8051 Y-23.4338 Z0.2565
G1 X42.8051 Y-23.4586 Z0.2558
G1 X42.8051 Y-23.4638 Z0.2557
G1 X42.8051 Y-23.4698 Z0.2556
G1 X42.8051 Y-23.4954 Z0.2548
G1 X42.8051 Y-23.5059 Z0.2545
G1 X42.8051 Y-23.5322 Z0.2536
G1 X42.8051 Y-23.5419 Z0.2534
G1 X42.8051 Y-23.5690 Z0.2524
G1 X42.8051 Y-23.5780 Z0.2521
G1 X42.8051 Y-23.5840 Z0.2519
G1 X42.8051 Y-23.6058 Z0.2510
G1 X42.8051 Y-23.6140 Z0.2507
G1 X42.8051 Y-23.6170 Z0.2506
G1 X42.8051 Y-23.6426 Z0.2495
G1 X42.8051 Y-23.6531 Z0.2491
G1 X42.8051 Y-23.6794 Z0.2478
G1 X42.8051 Y-23.6891 Z0.2475
G1 X42.8051 Y-23.6921 Z0.2473
G1 X42.8051 Y-23.7165 Z0.2461
G1 X42.8051 Y-23.7269 Z0.2456
G1 X42.8051 Y-23.7534 Z0.2442
G1 X42.8051 Y-23.7582 Z0.2440
G1 X42.8051 Y-23.7642 Z0.2437
G1 X42.8051 Y-23.7902 Z0.2422
G1 X42.8051 Y-23.8003 Z0.2417
G1 X42.8051 Y-23.8270 Z0.2400
G1 X42.8051 Y-23.8363 Z0.2396
G1 X42.8051 Y-23.8484 Z0.2388
G1 X42.8051 Y-23.8638 Z0.2378
G1 X42.8051 Y-23.8739 Z0.2373
G1 X42.8051 Y-23.9006 Z0.2354
G1 X42.8051 Y-23.9084 Z0.2350
G1 X42.8051 Y-23.9115 Z0.2348
G1 X42.8051 Y-23.9374 Z0.2329
G1 X42.8051 Y-23.9475 Z0.2323
G1 X42.8051 Y-23.9742 Z0.2303
G1 X42.8051 Y-23.9836 Z0.2297
G1 X42.8051 Y-23.9866 Z0.2295
G1 X42.8051 Y-24.0110 Z0.2275
G1 X42.8051 Y-24.0211 Z0.2269
G1 X42.8051 Y-24.0476 Z0.2247
G1 X42.8051 Y-24.0527 Z0.2243
G1 X42.8051 Y-24.0587 Z0.2240
G1 X42.8051 Y-24.0844 Z0.2217
G1 X42.8051 Y-24.0947 Z0.2210
G1 X42.8051 Y-24.1210 Z0.2186
G1 X42.8051 Y-24.1308 Z0.2179
G1 X42.8051 Y-24.1368 Z0.2173
G1 X42.8051 Y-24.1578 Z0.2153
G1 X42.8051 Y-24.1683 Z0.2146
G1 X42.8051 Y-24.1944 Z0.2120
G1 X42.8051 Y-24.2044 Z0.2112
G1 X42.8051 Y-24.2059 Z0.2111
G1 X42.8051 Y-24.2312 Z0.2085
G1 X42.8051 Y-24.2389 Z0.2079
G1 X42.8051 Y-24.2419 Z0.2077
G1 X42.8051 Y-24.2678 Z0.2049
G1 X42.8051 Y-24.2780 Z0.2041
G1 X42.8051 Y-24.3045 Z0.2012
G1 X42.8051 Y-24.3140 Z0.2004
G1 X42.8051 Y-24.3170 Z0.2001
G1 X42.8051 Y-24.3411 Z0.1973
G1 X42.8051 Y-24.3516 Z0.1964
G1 X42.8051 Y-24.3777 Z0.1934
G1 X42.8051 Y-24.3874 Z0.1925
G1 X42.8051 Y-24.3906 Z0.1921
G1 X42.8051 Y-24.4031 Z0.1906
G1 X42.8051 Y-24.4162 Z0.1897
G1 X42.8051 Y-24.4294 Z0.1902
G1 X42.8051 Y-24.4425 Z0.1921
G1 X42.8051 Y-24.4553 Z0.1954
G1 X42.8051 Y-24.4677 Z0.2000
G1 X42.8051 Y-24.4795 Z0.2059
G1 X42.8051 Y-24.4907 Z0.2129
G1 X42.8051 Y-24.5010 Z0.2212
G1 X42.8051 Y-24.5104 Z0.2304
G1 X42.8051 Y-24.5188 Z0.2406
G1 X42.8051 Y-24.5261 Z0.2517
G1 X42.8051 Y-24.5321 Z0.2634
G1 X42.8051 Y-24.5369 Z0.2757
G1 X42.8051 Y-24.5403 Z0.2885
G1 X42.8051 Y-24.5424 Z0.3015
