( MOP:  03-frets-r9PT5-s25PT5-NFrets21-StandardDepth-StandardKerf )
( FILE: G:\Shared drives\AlloyProjectFiles\Customer CAD files\Alloy-Standard-Builds-CAM\Fingerboards-in\03-frets-r9PT5-s25PT5-NFrets21-StandardDepth-StandardKerf.nc)
G90
(  BEGIN TOOL LIST )
(  TOOL 15 - Fretkerf PT025 - DESC: 0.0250 DIA, 2 FLUTE,  CARBIDE MAT )
(  ENDOF TOOL LIST )
( 03-frets-r9PT5-s25PT5-NFrets21-StandardDepth-StandardKerf)
T15
S14000
M3
G0 Z4.0000
G0 X28.3413 Y-23.8368 
G1 X28.3413 Y-23.8368 Z0.1878 F75.
G1 X28.3413 Y-23.9148 Z0.1740 F21.
G1 X28.3413 Y-24.0070 Z0.1578
G1 X28.3413 Y-23.7071 Z0.1916 F22.
G1 X28.3413 Y-23.4063 Z0.2158
G1 X28.3413 Y-23.1048 Z0.2305
G1 X28.3413 Y-22.8031 Z0.2357
G1 X28.3413 Y-22.5013 Z0.2312
G1 X28.3413 Y-22.1998 Z0.2171
G1 X28.3413 Y-21.8990 Z0.1935
G1 X28.3413 Y-21.5990 Z0.1604
G0 Z0.3234
G0 X28.3413 Y-21.5990 
G0 Z0.3234
G0 X28.3413 Y-23.8368 
G1 X28.3413 Y-23.8368 Z0.1734 F75.
G1 X28.3413 Y-23.9148 Z0.1597 F21.
G1 X28.3413 Y-24.0070 Z0.1434
G1 X28.3413 Y-23.7071 Z0.1772 F22.
G1 X28.3413 Y-23.4063 Z0.2015
G1 X28.3413 Y-23.1048 Z0.2162
G1 X28.3413 Y-22.8031 Z0.2213
G1 X28.3413 Y-22.5013 Z0.2169
G1 X28.3413 Y-22.1998 Z0.2028
G1 X28.3413 Y-21.8990 Z0.1792
G1 X28.3413 Y-21.5990 Z0.1460
G0 Z0.3091
G0 X28.3413 Y-21.5990 
G0 Z0.3091
G0 X28.3413 Y-23.8368 
G1 X28.3413 Y-23.8368 Z0.1591 F75.
G1 X28.3413 Y-23.9148 Z0.1454 F21.
G1 X28.3413 Y-24.0070 Z0.1291
G1 X28.3413 Y-23.7071 Z0.1629 F22.
G1 X28.3413 Y-23.4063 Z0.1872
G1 X28.3413 Y-23.1048 Z0.2019
G1 X28.3413 Y-22.8031 Z0.2070
G1 X28.3413 Y-22.5013 Z0.2025
G1 X28.3413 Y-22.1998 Z0.1885
G1 X28.3413 Y-21.8990 Z0.1649
G1 X28.3413 Y-21.5990 Z0.1317
G0 Z0.2948
G0 X28.3413 Y-21.5990 
G0 Z0.2948
G0 X28.3413 Y-23.8368 
G1 X28.3413 Y-23.8368 Z0.1448 F75.
G1 X28.3413 Y-23.9148 Z0.1310 F21.
G1 X28.3413 Y-24.0070 Z0.1148
G1 X28.3413 Y-23.7071 Z0.1486 F22.
G1 X28.3413 Y-23.4063 Z0.1728
G1 X28.3413 Y-23.1048 Z0.1875
G1 X28.3413 Y-22.8031 Z0.1927
G1 X28.3413 Y-22.5013 Z0.1882
G1 X28.3413 Y-22.1998 Z0.1741
G1 X28.3413 Y-21.8990 Z0.1505
G1 X28.3413 Y-21.5990 Z0.1174
G0 Z0.2804
G0 X28.3413 Y-21.5990 
G0 Z0.2804
G0 X28.3413 Y-23.8368 
G1 X28.3413 Y-23.8368 Z0.1304 F75.
G1 X28.3413 Y-23.9148 Z0.1167 F21.
G1 X28.3413 Y-24.0070 Z0.1004
G1 X28.3413 Y-23.7071 Z0.1342 F22.
G1 X28.3413 Y-23.4063 Z0.1585
G1 X28.3413 Y-23.1048 Z0.1732
G1 X28.3413 Y-22.8031 Z0.1783
G1 X28.3413 Y-22.5013 Z0.1739
G1 X28.3413 Y-22.1998 Z0.1598
G1 X28.3413 Y-21.8990 Z0.1362
G1 X28.3413 Y-21.5990 Z0.1030
G0 Z0.2661
G0 X28.3413 Y-21.5990 
G0 Z0.2661
G0 X28.3413 Y-23.8368 
G1 X28.3413 Y-23.8368 Z0.1161 F75.
G1 X28.3413 Y-23.9148 Z0.1024 F21.
G1 X28.3413 Y-24.0070 Z0.0861
G1 X28.3413 Y-23.7071 Z0.1199 F22.
G1 X28.3413 Y-23.4063 Z0.1442
G1 X28.3413 Y-23.1048 Z0.1589
G1 X28.3413 Y-22.8031 Z0.1640
G1 X28.3413 Y-22.5013 Z0.1595
G1 X28.3413 Y-22.1998 Z0.1455
G1 X28.3413 Y-21.8990 Z0.1219
G1 X28.3413 Y-21.5990 Z0.0887
G0 Z0.3385
G0 X28.3413 Y-21.5990 
G0 Z0.3385
G0 X28.7921 Y-23.8308 
G1 X28.7921 Y-23.8308 Z0.1885 F75.
G1 X28.7921 Y-23.9092 Z0.1747 F21.
G1 X28.7921 Y-24.0009 Z0.1585
G1 X28.7921 Y-23.7025 Z0.1920 F22.
G1 X28.7921 Y-23.4032 Z0.2160
G1 X28.7921 Y-23.1033 Z0.2306
G1 X28.7921 Y-22.8030 Z0.2357
G1 X28.7921 Y-22.5028 Z0.2312
G1 X28.7921 Y-22.2028 Z0.2173
G1 X28.7921 Y-21.9035 Z0.1939
G1 X28.7921 Y-21.6050 Z0.1611
G0 Z0.3242
G0 X28.7921 Y-21.6050 
G0 Z0.3242
G0 X28.7921 Y-23.8308 
G1 X28.7921 Y-23.8308 Z0.1742 F75.
G1 X28.7921 Y-23.9092 Z0.1604 F21.
G1 X28.7921 Y-24.0009 Z0.1442
G1 X28.7921 Y-23.7025 Z0.1777 F22.
G1 X28.7921 Y-23.4032 Z0.2017
G1 X28.7921 Y-23.1033 Z0.2163
G1 X28.7921 Y-22.8030 Z0.2213
G1 X28.7921 Y-22.5028 Z0.2169
G1 X28.7921 Y-22.2028 Z0.2030
G1 X28.7921 Y-21.9035 Z0.1796
G1 X28.7921 Y-21.6050 Z0.1468
G0 Z0.3099
G0 X28.7921 Y-21.6050 
G0 Z0.3099
G0 X28.7921 Y-23.8308 
G1 X28.7921 Y-23.8308 Z0.1599 F75.
G1 X28.7921 Y-23.9092 Z0.1460 F21.
G1 X28.7921 Y-24.0009 Z0.1299
G1 X28.7921 Y-23.7025 Z0.1634 F22.
G1 X28.7921 Y-23.4032 Z0.1874
G1 X28.7921 Y-23.1033 Z0.2019
G1 X28.7921 Y-22.8030 Z0.2070
G1 X28.7921 Y-22.5028 Z0.2026
G1 X28.7921 Y-22.2028 Z0.1887
G1 X28.7921 Y-21.9035 Z0.1653
G1 X28.7921 Y-21.6050 Z0.1324
G0 Z0.2955
G0 X28.7921 Y-21.6050 
G0 Z0.2955
G0 X28.7921 Y-23.8308 
G1 X28.7921 Y-23.8308 Z0.1455 F75.
G1 X28.7921 Y-23.9092 Z0.1317 F21.
G1 X28.7921 Y-24.0009 Z0.1155
G1 X28.7921 Y-23.7025 Z0.1490 F22.
G1 X28.7921 Y-23.4032 Z0.1730
G1 X28.7921 Y-23.1033 Z0.1876
G1 X28.7921 Y-22.8030 Z0.1927
G1 X28.7921 Y-22.5028 Z0.1882
G1 X28.7921 Y-22.2028 Z0.1743
G1 X28.7921 Y-21.9035 Z0.1509
G1 X28.7921 Y-21.6050 Z0.1181
G0 Z0.2812
G0 X28.7921 Y-21.6050 
G0 Z0.2812
G0 X28.7921 Y-23.8308 
G1 X28.7921 Y-23.8308 Z0.1312 F75.
G1 X28.7921 Y-23.9092 Z0.1174 F21.
G1 X28.7921 Y-24.0009 Z0.1012
G1 X28.7921 Y-23.7025 Z0.1347 F22.
G1 X28.7921 Y-23.4032 Z0.1587
G1 X28.7921 Y-23.1033 Z0.1733
G1 X28.7921 Y-22.8030 Z0.1783
G1 X28.7921 Y-22.5028 Z0.1739
G1 X28.7921 Y-22.2028 Z0.1600
G1 X28.7921 Y-21.9035 Z0.1366
G1 X28.7921 Y-21.6050 Z0.1038
G0 Z0.2669
G0 X28.7921 Y-21.6050 
G0 Z0.2669
G0 X28.7921 Y-23.8308 
G1 X28.7921 Y-23.8308 Z0.1169 F75.
G1 X28.7921 Y-23.9092 Z0.1030 F21.
G1 X28.7921 Y-24.0009 Z0.0869
G1 X28.7921 Y-23.7025 Z0.1204 F22.
G1 X28.7921 Y-23.4032 Z0.1444
G1 X28.7921 Y-23.1033 Z0.1589
G1 X28.7921 Y-22.8030 Z0.1640
G1 X28.7921 Y-22.5028 Z0.1596
G1 X28.7921 Y-22.2028 Z0.1457
G1 X28.7921 Y-21.9035 Z0.1223
G1 X28.7921 Y-21.6050 Z0.0894
G0 Z0.3394
G0 X28.7921 Y-21.6050 
G0 Z0.3394
G0 X29.2697 Y-23.8243 
G1 X29.2697 Y-23.8243 Z0.1894 F75.
G1 X29.2697 Y-23.9033 Z0.1755 F21.
G1 X29.2697 Y-23.9945 Z0.1594
G1 X29.2697 Y-23.6977 Z0.1925 F22.
G1 X29.2697 Y-23.3999 Z0.2163
G1 X29.2697 Y-23.1016 Z0.2307
G1 X29.2697 Y-22.8030 Z0.2357
G1 X29.2697 Y-22.5044 Z0.2313
G1 X29.2697 Y-22.2060 Z0.2175
G1 X29.2697 Y-21.9082 Z0.1944
G1 X29.2697 Y-21.6113 Z0.1619
G0 Z0.3250
G0 X29.2697 Y-21.6113 
G0 Z0.3250
G0 X29.2697 Y-23.8243 
G1 X29.2697 Y-23.8243 Z0.1750 F75.
G1 X29.2697 Y-23.9033 Z0.1611 F21.
G1 X29.2697 Y-23.9945 Z0.1450
G1 X29.2697 Y-23.6977 Z0.1782 F22.
G1 X29.2697 Y-23.3999 Z0.2019
G1 X29.2697 Y-23.1016 Z0.2163
G1 X29.2697 Y-22.8030 Z0.2213
G1 X29.2697 Y-22.5044 Z0.2170
G1 X29.2697 Y-22.2060 Z0.2032
G1 X29.2697 Y-21.9082 Z0.1801
G1 X29.2697 Y-21.6113 Z0.1476
G0 Z0.3107
G0 X29.2697 Y-21.6113 
G0 Z0.3107
G0 X29.2697 Y-23.8243 
G1 X29.2697 Y-23.8243 Z0.1607 F75.
G1 X29.2697 Y-23.9033 Z0.1468 F21.
G1 X29.2697 Y-23.9945 Z0.1307
G1 X29.2697 Y-23.6977 Z0.1638 F22.
G1 X29.2697 Y-23.3999 Z0.1876
G1 X29.2697 Y-23.1016 Z0.2020
G1 X29.2697 Y-22.8030 Z0.2070
G1 X29.2697 Y-22.5044 Z0.2026
G1 X29.2697 Y-22.2060 Z0.1889
G1 X29.2697 Y-21.9082 Z0.1657
G1 X29.2697 Y-21.6113 Z0.1332
G0 Z0.2964
G0 X29.2697 Y-21.6113 
G0 Z0.2964
G0 X29.2697 Y-23.8243 
G1 X29.2697 Y-23.8243 Z0.1464 F75.
G1 X29.2697 Y-23.9033 Z0.1325 F21.
G1 X29.2697 Y-23.9945 Z0.1164
G1 X29.2697 Y-23.6977 Z0.1495 F22.
G1 X29.2697 Y-23.3999 Z0.1733
G1 X29.2697 Y-23.1016 Z0.1877
G1 X29.2697 Y-22.8030 Z0.1927
G1 X29.2697 Y-22.5044 Z0.1883
G1 X29.2697 Y-22.2060 Z0.1745
G1 X29.2697 Y-21.9082 Z0.1514
G1 X29.2697 Y-21.6113 Z0.1189
G0 Z0.2820
G0 X29.2697 Y-21.6113 
G0 Z0.2820
G0 X29.2697 Y-23.8243 
G1 X29.2697 Y-23.8243 Z0.1320 F75.
G1 X29.2697 Y-23.9033 Z0.1181 F21.
G1 X29.2697 Y-23.9945 Z0.1020
G1 X29.2697 Y-23.6977 Z0.1352 F22.
G1 X29.2697 Y-23.3999 Z0.1589
G1 X29.2697 Y-23.1016 Z0.1733
G1 X29.2697 Y-22.8030 Z0.1783
G1 X29.2697 Y-22.5044 Z0.1740
G1 X29.2697 Y-22.2060 Z0.1602
G1 X29.2697 Y-21.9082 Z0.1371
G1 X29.2697 Y-21.6113 Z0.1046
G0 Z0.2677
G0 X29.2697 Y-21.6113 
G0 Z0.2677
G0 X29.2697 Y-23.8243 
G1 X29.2697 Y-23.8243 Z0.1177 F75.
G1 X29.2697 Y-23.9033 Z0.1038 F21.
G1 X29.2697 Y-23.9945 Z0.0877
G1 X29.2697 Y-23.6977 Z0.1208 F22.
G1 X29.2697 Y-23.3999 Z0.1446
G1 X29.2697 Y-23.1016 Z0.1590
G1 X29.2697 Y-22.8030 Z0.1640
G1 X29.2697 Y-22.5044 Z0.1596
G1 X29.2697 Y-22.2060 Z0.1459
G1 X29.2697 Y-21.9082 Z0.1227
G1 X29.2697 Y-21.6113 Z0.0902
G0 Z0.3402
G0 X29.2697 Y-21.6113 
G0 Z0.3402
G0 X29.7757 Y-23.8175 
G1 X29.7757 Y-23.8175 Z0.1902 F75.
G1 X29.7757 Y-23.8933 Z0.1769 F21.
G1 X29.7757 Y-23.9877 Z0.1602
G1 X29.7757 Y-23.6925 Z0.1930 F22.
G1 X29.7757 Y-23.3965 Z0.2165
G1 X29.7757 Y-23.0999 Z0.2307
G1 X29.7757 Y-22.8030 Z0.2357
G1 X29.7757 Y-22.5060 Z0.2313
G1 X29.7757 Y-22.2094 Z0.2177
G1 X29.7757 Y-21.9133 Z0.1949
G1 X29.7757 Y-21.6181 Z0.1628
G0 Z0.3259
G0 X29.7757 Y-21.6181 
G0 Z0.3259
G0 X29.7757 Y-23.8175 
G1 X29.7757 Y-23.8175 Z0.1759 F75.
G1 X29.7757 Y-23.8933 Z0.1625 F21.
G1 X29.7757 Y-23.9877 Z0.1459
G1 X29.7757 Y-23.6925 Z0.1786 F22.
G1 X29.7757 Y-23.3965 Z0.2021
G1 X29.7757 Y-23.0999 Z0.2164
G1 X29.7757 Y-22.8030 Z0.2213
G1 X29.7757 Y-22.5060 Z0.2170
G1 X29.7757 Y-22.2094 Z0.2034
G1 X29.7757 Y-21.9133 Z0.1805
G1 X29.7757 Y-21.6181 Z0.1484
G0 Z0.3116
G0 X29.7757 Y-21.6181 
G0 Z0.3116
G0 X29.7757 Y-23.8175 
G1 X29.7757 Y-23.8175 Z0.1616 F75.
G1 X29.7757 Y-23.8933 Z0.1482 F21.
G1 X29.7757 Y-23.9877 Z0.1316
G1 X29.7757 Y-23.6925 Z0.1643 F22.
G1 X29.7757 Y-23.3965 Z0.1878
G1 X29.7757 Y-23.0999 Z0.2020
G1 X29.7757 Y-22.8030 Z0.2070
G1 X29.7757 Y-22.5060 Z0.2027
G1 X29.7757 Y-22.2094 Z0.1891
G1 X29.7757 Y-21.9133 Z0.1662
G1 X29.7757 Y-21.6181 Z0.1341
G0 Z0.2972
G0 X29.7757 Y-21.6181 
G0 Z0.2972
G0 X29.7757 Y-23.8175 
G1 X29.7757 Y-23.8175 Z0.1472 F75.
G1 X29.7757 Y-23.8933 Z0.1339 F21.
G1 X29.7757 Y-23.9877 Z0.1172
G1 X29.7757 Y-23.6925 Z0.1500 F22.
G1 X29.7757 Y-23.3965 Z0.1735
G1 X29.7757 Y-23.0999 Z0.1877
G1 X29.7757 Y-22.8030 Z0.1927
G1 X29.7757 Y-22.5060 Z0.1883
G1 X29.7757 Y-22.2094 Z0.1747
G1 X29.7757 Y-21.9133 Z0.1519
G1 X29.7757 Y-21.6181 Z0.1198
G0 Z0.2829
G0 X29.7757 Y-21.6181 
G0 Z0.2829
G0 X29.7757 Y-23.8175 
G1 X29.7757 Y-23.8175 Z0.1329 F75.
G1 X29.7757 Y-23.8933 Z0.1195 F21.
G1 X29.7757 Y-23.9877 Z0.1029
G1 X29.7757 Y-23.6925 Z0.1356 F22.
G1 X29.7757 Y-23.3965 Z0.1591
G1 X29.7757 Y-23.0999 Z0.1734
G1 X29.7757 Y-22.8030 Z0.1783
G1 X29.7757 Y-22.5060 Z0.1740
G1 X29.7757 Y-22.2094 Z0.1604
G1 X29.7757 Y-21.9133 Z0.1375
G1 X29.7757 Y-21.6181 Z0.1054
G0 Z0.2686
G0 X29.7757 Y-21.6181 
G0 Z0.2686
G0 X29.7757 Y-23.8175 
G1 X29.7757 Y-23.8175 Z0.1186 F75.
G1 X29.7757 Y-23.8933 Z0.1052 F21.
G1 X29.7757 Y-23.9877 Z0.0886
G1 X29.7757 Y-23.6925 Z0.1213 F22.
G1 X29.7757 Y-23.3965 Z0.1448
G1 X29.7757 Y-23.0999 Z0.1590
G1 X29.7757 Y-22.8030 Z0.1640
G1 X29.7757 Y-22.5060 Z0.1597
G1 X29.7757 Y-22.2094 Z0.1461
G1 X29.7757 Y-21.9133 Z0.1232
G1 X29.7757 Y-21.6181 Z0.0911
G0 Z0.3411
G0 X29.7757 Y-21.6181 
G0 Z0.3411
G0 X30.3118 Y-23.8103 
G1 X30.3118 Y-23.8103 Z0.1911 F75.
G1 X30.3118 Y-23.8867 Z0.1777 F21.
G1 X30.3118 Y-23.9805 Z0.1611
G1 X30.3118 Y-23.6871 Z0.1935 F22.
G1 X30.3118 Y-23.3928 Z0.2167
G1 X30.3118 Y-23.0980 Z0.2308
G1 X30.3118 Y-22.8029 Z0.2357
G1 X30.3118 Y-22.5078 Z0.2314
G1 X30.3118 Y-22.2129 Z0.2180
G1 X30.3118 Y-21.9186 Z0.1954
G1 X30.3118 Y-21.6252 Z0.1636
G0 Z0.3268
G0 X30.3118 Y-21.6252 
G0 Z0.3268
G0 X30.3118 Y-23.8103 
G1 X30.3118 Y-23.8103 Z0.1768 F75.
G1 X30.3118 Y-23.8867 Z0.1633 F21.
G1 X30.3118 Y-23.9805 Z0.1468
G1 X30.3118 Y-23.6871 Z0.1792 F22.
G1 X30.3118 Y-23.3928 Z0.2024
G1 X30.3118 Y-23.0980 Z0.2164
G1 X30.3118 Y-22.8029 Z0.2213
G1 X30.3118 Y-22.5078 Z0.2171
G1 X30.3118 Y-22.2129 Z0.2036
G1 X30.3118 Y-21.9186 Z0.1810
G1 X30.3118 Y-21.6252 Z0.1493
G0 Z0.3125
G0 X30.3118 Y-21.6252 
G0 Z0.3125
G0 X30.3118 Y-23.8103 
G1 X30.3118 Y-23.8103 Z0.1625 F75.
G1 X30.3118 Y-23.8867 Z0.1490 F21.
G1 X30.3118 Y-23.9805 Z0.1325
G1 X30.3118 Y-23.6871 Z0.1648 F22.
G1 X30.3118 Y-23.3928 Z0.1880
G1 X30.3118 Y-23.0980 Z0.2021
G1 X30.3118 Y-22.8029 Z0.2070
G1 X30.3118 Y-22.5078 Z0.2027
G1 X30.3118 Y-22.2129 Z0.1893
G1 X30.3118 Y-21.9186 Z0.1667
G1 X30.3118 Y-21.6252 Z0.1350
G0 Z0.2981
G0 X30.3118 Y-21.6252 
G0 Z0.2981
G0 X30.3118 Y-23.8103 
G1 X30.3118 Y-23.8103 Z0.1481 F75.
G1 X30.3118 Y-23.8867 Z0.1347 F21.
G1 X30.3118 Y-23.9805 Z0.1181
G1 X30.3118 Y-23.6871 Z0.1505 F22.
G1 X30.3118 Y-23.3928 Z0.1737
G1 X30.3118 Y-23.0980 Z0.1878
G1 X30.3118 Y-22.8029 Z0.1927
G1 X30.3118 Y-22.5078 Z0.1884
G1 X30.3118 Y-22.2129 Z0.1750
G1 X30.3118 Y-21.9186 Z0.1524
G1 X30.3118 Y-21.6252 Z0.1206
G0 Z0.2838
G0 X30.3118 Y-21.6252 
G0 Z0.2838
G0 X30.3118 Y-23.8103 
G1 X30.3118 Y-23.8103 Z0.1338 F75.
G1 X30.3118 Y-23.8867 Z0.1203 F21.
G1 X30.3118 Y-23.9805 Z0.1038
G1 X30.3118 Y-23.6871 Z0.1362 F22.
G1 X30.3118 Y-23.3928 Z0.1594
G1 X30.3118 Y-23.0980 Z0.1734
G1 X30.3118 Y-22.8029 Z0.1783
G1 X30.3118 Y-22.5078 Z0.1741
G1 X30.3118 Y-22.2129 Z0.1606
G1 X30.3118 Y-21.9186 Z0.1380
G1 X30.3118 Y-21.6252 Z0.1063
G0 Z0.2695
G0 X30.3118 Y-21.6252 
G0 Z0.2695
G0 X30.3118 Y-23.8103 
G1 X30.3118 Y-23.8103 Z0.1195 F75.
G1 X30.3118 Y-23.8867 Z0.1060 F21.
G1 X30.3118 Y-23.9805 Z0.0895
G1 X30.3118 Y-23.6871 Z0.1218 F22.
G1 X30.3118 Y-23.3928 Z0.1450
G1 X30.3118 Y-23.0980 Z0.1591
G1 X30.3118 Y-22.8029 Z0.1640
G1 X30.3118 Y-22.5078 Z0.1597
G1 X30.3118 Y-22.2129 Z0.1463
G1 X30.3118 Y-21.9186 Z0.1237
G1 X30.3118 Y-21.6252 Z0.0920
G0 Z0.3421
G0 X30.3118 Y-21.6252 
G0 Z0.3421
G0 X30.8798 Y-23.8027 
G1 X30.8798 Y-23.8027 Z0.1921 F75.
G1 X30.8798 Y-23.8797 Z0.1785 F21.
G1 X30.8798 Y-23.9728 Z0.1621
G1 X30.8798 Y-23.6813 Z0.1940 F22.
G1 X30.8798 Y-23.3890 Z0.2169
G1 X30.8798 Y-23.0961 Z0.2308
G1 X30.8798 Y-22.8029 Z0.2357
G1 X30.8798 Y-22.5096 Z0.2314
G1 X30.8798 Y-22.2167 Z0.2182
G1 X30.8798 Y-21.9243 Z0.1959
G1 X30.8798 Y-21.6327 Z0.1646
G0 Z0.3278
G0 X30.8798 Y-21.6327 
G0 Z0.3278
G0 X30.8798 Y-23.8027 
G1 X30.8798 Y-23.8027 Z0.1778 F75.
G1 X30.8798 Y-23.8797 Z0.1642 F21.
G1 X30.8798 Y-23.9728 Z0.1478
G1 X30.8798 Y-23.6813 Z0.1797 F22.
G1 X30.8798 Y-23.3890 Z0.2026
G1 X30.8798 Y-23.0961 Z0.2165
G1 X30.8798 Y-22.8029 Z0.2213
G1 X30.8798 Y-22.5096 Z0.2171
G1 X30.8798 Y-22.2167 Z0.2038
G1 X30.8798 Y-21.9243 Z0.1815
G1 X30.8798 Y-21.6327 Z0.1502
G0 Z0.3134
G0 X30.8798 Y-21.6327 
G0 Z0.3134
G0 X30.8798 Y-23.8027 
G1 X30.8798 Y-23.8027 Z0.1634 F75.
G1 X30.8798 Y-23.8797 Z0.1499 F21.
G1 X30.8798 Y-23.9728 Z0.1334
G1 X30.8798 Y-23.6813 Z0.1654 F22.
G1 X30.8798 Y-23.3890 Z0.1883
G1 X30.8798 Y-23.0961 Z0.2022
G1 X30.8798 Y-22.8029 Z0.2070
G1 X30.8798 Y-22.5096 Z0.2028
G1 X30.8798 Y-22.2167 Z0.1895
G1 X30.8798 Y-21.9243 Z0.1672
G1 X30.8798 Y-21.6327 Z0.1359
G0 Z0.2991
G0 X30.8798 Y-21.6327 
G0 Z0.2991
G0 X30.8798 Y-23.8027 
G1 X30.8798 Y-23.8027 Z0.1491 F75.
G1 X30.8798 Y-23.8797 Z0.1355 F21.
G1 X30.8798 Y-23.9728 Z0.1191
G1 X30.8798 Y-23.6813 Z0.1510 F22.
G1 X30.8798 Y-23.3890 Z0.1739
G1 X30.8798 Y-23.0961 Z0.1878
G1 X30.8798 Y-22.8029 Z0.1927
G1 X30.8798 Y-22.5096 Z0.1884
G1 X30.8798 Y-22.2167 Z0.1752
G1 X30.8798 Y-21.9243 Z0.1529
G1 X30.8798 Y-21.6327 Z0.1216
G0 Z0.2848
G0 X30.8798 Y-21.6327 
G0 Z0.2848
G0 X30.8798 Y-23.8027 
G1 X30.8798 Y-23.8027 Z0.1348 F75.
G1 X30.8798 Y-23.8797 Z0.1212 F21.
G1 X30.8798 Y-23.9728 Z0.1048
G1 X30.8798 Y-23.6813 Z0.1367 F22.
G1 X30.8798 Y-23.3890 Z0.1596
G1 X30.8798 Y-23.0961 Z0.1735
G1 X30.8798 Y-22.8029 Z0.1783
G1 X30.8798 Y-22.5096 Z0.1741
G1 X30.8798 Y-22.2167 Z0.1608
G1 X30.8798 Y-21.9243 Z0.1385
G1 X30.8798 Y-21.6327 Z0.1072
G0 Z0.2704
G0 X30.8798 Y-21.6327 
G0 Z0.2704
G0 X30.8798 Y-23.8027 
G1 X30.8798 Y-23.8027 Z0.1204 F75.
G1 X30.8798 Y-23.8797 Z0.1069 F21.
G1 X30.8798 Y-23.9728 Z0.0904
G1 X30.8798 Y-23.6813 Z0.1224 F22.
G1 X30.8798 Y-23.3890 Z0.1453
G1 X30.8798 Y-23.0961 Z0.1592
G1 X30.8798 Y-22.8029 Z0.1640
G1 X30.8798 Y-22.5096 Z0.1598
G1 X30.8798 Y-22.2167 Z0.1465
G1 X30.8798 Y-21.9243 Z0.1242
G1 X30.8798 Y-21.6327 Z0.0929
G0 Z0.3431
G0 X30.8798 Y-21.6327 
G0 Z0.3431
G0 X31.4816 Y-23.7946 
G1 X31.4816 Y-23.7946 Z0.1931 F75.
G1 X31.4816 Y-23.8722 Z0.1794 F21.
G1 X31.4816 Y-23.9647 Z0.1631
G1 X31.4816 Y-23.6752 Z0.1946 F22.
G1 X31.4816 Y-23.3849 Z0.2172
G1 X31.4816 Y-23.0940 Z0.2309
G1 X31.4816 Y-22.8028 Z0.2357
G1 X31.4816 Y-22.5116 Z0.2315
G1 X31.4816 Y-22.2207 Z0.2184
G1 X31.4816 Y-21.9303 Z0.1964
G1 X31.4816 Y-21.6407 Z0.1655
G0 Z0.3288
G0 X31.4816 Y-21.6407 
G0 Z0.3288
G0 X31.4816 Y-23.7946 
G1 X31.4816 Y-23.7946 Z0.1788 F75.
G1 X31.4816 Y-23.8722 Z0.1651 F21.
G1 X31.4816 Y-23.9647 Z0.1488
G1 X31.4816 Y-23.6752 Z0.1803 F22.
G1 X31.4816 Y-23.3849 Z0.2029
G1 X31.4816 Y-23.0940 Z0.2166
G1 X31.4816 Y-22.8028 Z0.2213
G1 X31.4816 Y-22.5116 Z0.2172
G1 X31.4816 Y-22.2207 Z0.2041
G1 X31.4816 Y-21.9303 Z0.1821
G1 X31.4816 Y-21.6407 Z0.1512
G0 Z0.3144
G0 X31.4816 Y-21.6407 
G0 Z0.3144
G0 X31.4816 Y-23.7946 
G1 X31.4816 Y-23.7946 Z0.1644 F75.
G1 X31.4816 Y-23.8722 Z0.1508 F21.
G1 X31.4816 Y-23.9647 Z0.1344
G1 X31.4816 Y-23.6752 Z0.1659 F22.
G1 X31.4816 Y-23.3849 Z0.1885
G1 X31.4816 Y-23.0940 Z0.2022
G1 X31.4816 Y-22.8028 Z0.2070
G1 X31.4816 Y-22.5116 Z0.2028
G1 X31.4816 Y-22.2207 Z0.1898
G1 X31.4816 Y-21.9303 Z0.1678
G1 X31.4816 Y-21.6407 Z0.1369
G0 Z0.3001
G0 X31.4816 Y-21.6407 
G0 Z0.3001
G0 X31.4816 Y-23.7946 
G1 X31.4816 Y-23.7946 Z0.1501 F75.
G1 X31.4816 Y-23.8722 Z0.1364 F21.
G1 X31.4816 Y-23.9647 Z0.1201
G1 X31.4816 Y-23.6752 Z0.1516 F22.
G1 X31.4816 Y-23.3849 Z0.1742
G1 X31.4816 Y-23.0940 Z0.1879
G1 X31.4816 Y-22.8028 Z0.1927
G1 X31.4816 Y-22.5116 Z0.1885
G1 X31.4816 Y-22.2207 Z0.1754
G1 X31.4816 Y-21.9303 Z0.1534
G1 X31.4816 Y-21.6407 Z0.1225
G0 Z0.2858
G0 X31.4816 Y-21.6407 
G0 Z0.2858
G0 X31.4816 Y-23.7946 
G1 X31.4816 Y-23.7946 Z0.1358 F75.
G1 X31.4816 Y-23.8722 Z0.1221 F21.
G1 X31.4816 Y-23.9647 Z0.1058
G1 X31.4816 Y-23.6752 Z0.1373 F22.
G1 X31.4816 Y-23.3849 Z0.1599
G1 X31.4816 Y-23.0940 Z0.1736
G1 X31.4816 Y-22.8028 Z0.1783
G1 X31.4816 Y-22.5116 Z0.1742
G1 X31.4816 Y-22.2207 Z0.1611
G1 X31.4816 Y-21.9303 Z0.1391
G1 X31.4816 Y-21.6407 Z0.1082
G0 Z0.2714
G0 X31.4816 Y-21.6407 
G0 Z0.2714
G0 X31.4816 Y-23.7946 
G1 X31.4816 Y-23.7946 Z0.1214 F75.
G1 X31.4816 Y-23.8722 Z0.1078 F21.
G1 X31.4816 Y-23.9647 Z0.0914
G1 X31.4816 Y-23.6752 Z0.1229 F22.
G1 X31.4816 Y-23.3849 Z0.1455
G1 X31.4816 Y-23.0940 Z0.1592
G1 X31.4816 Y-22.8028 Z0.1640
G1 X31.4816 Y-22.5116 Z0.1598
G1 X31.4816 Y-22.2207 Z0.1468
G1 X31.4816 Y-21.9303 Z0.1248
G1 X31.4816 Y-21.6407 Z0.0939
G0 Z0.3442
G0 X31.4816 Y-21.6407 
G0 Z0.3442
G0 X32.1191 Y-23.7860 
G1 X32.1191 Y-23.7860 Z0.1942 F75.
G1 X32.1191 Y-23.8643 Z0.1804 F21.
G1 X32.1191 Y-23.9562 Z0.1642
G1 X32.1191 Y-23.6688 Z0.1952 F22.
G1 X32.1191 Y-23.3806 Z0.2175
G1 X32.1191 Y-23.0918 Z0.2310
G1 X32.1191 Y-22.8028 Z0.2357
G1 X32.1191 Y-22.5137 Z0.2316
G1 X32.1191 Y-22.2249 Z0.2187
G1 X32.1191 Y-21.9367 Z0.1970
G1 X32.1191 Y-21.6492 Z0.1666
G0 Z0.3298
G0 X32.1191 Y-21.6492 
G0 Z0.3298
G0 X32.1191 Y-23.7860 
G1 X32.1191 Y-23.7860 Z0.1798 F75.
G1 X32.1191 Y-23.8643 Z0.1660 F21.
G1 X32.1191 Y-23.9562 Z0.1498
G1 X32.1191 Y-23.6688 Z0.1809 F22.
G1 X32.1191 Y-23.3806 Z0.2031
G1 X32.1191 Y-23.0918 Z0.2166
G1 X32.1191 Y-22.8028 Z0.2213
G1 X32.1191 Y-22.5137 Z0.2172
G1 X32.1191 Y-22.2249 Z0.2043
G1 X32.1191 Y-21.9367 Z0.1827
G1 X32.1191 Y-21.6492 Z0.1522
G0 Z0.3155
G0 X32.1191 Y-21.6492 
G0 Z0.3155
G0 X32.1191 Y-23.7860 
G1 X32.1191 Y-23.7860 Z0.1655 F75.
G1 X32.1191 Y-23.8643 Z0.1517 F21.
G1 X32.1191 Y-23.9562 Z0.1355
G1 X32.1191 Y-23.6688 Z0.1665 F22.
G1 X32.1191 Y-23.3806 Z0.1888
G1 X32.1191 Y-23.0918 Z0.2023
G1 X32.1191 Y-22.8028 Z0.2070
G1 X32.1191 Y-22.5137 Z0.2029
G1 X32.1191 Y-22.2249 Z0.1900
G1 X32.1191 Y-21.9367 Z0.1683
G1 X32.1191 Y-21.6492 Z0.1379
G0 Z0.3012
G0 X32.1191 Y-21.6492 
G0 Z0.3012
G0 X32.1191 Y-23.7860 
G1 X32.1191 Y-23.7860 Z0.1512 F75.
G1 X32.1191 Y-23.8643 Z0.1374 F21.
G1 X32.1191 Y-23.9562 Z0.1212
G1 X32.1191 Y-23.6688 Z0.1522 F22.
G1 X32.1191 Y-23.3806 Z0.1745
G1 X32.1191 Y-23.0918 Z0.1880
G1 X32.1191 Y-22.8028 Z0.1927
G1 X32.1191 Y-22.5137 Z0.1886
G1 X32.1191 Y-22.2249 Z0.1757
G1 X32.1191 Y-21.9367 Z0.1540
G1 X32.1191 Y-21.6492 Z0.1236
G0 Z0.2868
G0 X32.1191 Y-21.6492 
G0 Z0.2868
G0 X32.1191 Y-23.7860 
G1 X32.1191 Y-23.7860 Z0.1368 F75.
G1 X32.1191 Y-23.8643 Z0.1230 F21.
G1 X32.1191 Y-23.9562 Z0.1068
G1 X32.1191 Y-23.6688 Z0.1379 F22.
G1 X32.1191 Y-23.3806 Z0.1601
G1 X32.1191 Y-23.0918 Z0.1736
G1 X32.1191 Y-22.8028 Z0.1783
G1 X32.1191 Y-22.5137 Z0.1742
G1 X32.1191 Y-22.2249 Z0.1613
G1 X32.1191 Y-21.9367 Z0.1397
G1 X32.1191 Y-21.6492 Z0.1092
G0 Z0.2725
G0 X32.1191 Y-21.6492 
G0 Z0.2725
G0 X32.1191 Y-23.7860 
G1 X32.1191 Y-23.7860 Z0.1225 F75.
G1 X32.1191 Y-23.8643 Z0.1087 F21.
G1 X32.1191 Y-23.9562 Z0.0925
G1 X32.1191 Y-23.6688 Z0.1235 F22.
G1 X32.1191 Y-23.3806 Z0.1458
G1 X32.1191 Y-23.0918 Z0.1593
G1 X32.1191 Y-22.8028 Z0.1640
G1 X32.1191 Y-22.5137 Z0.1599
G1 X32.1191 Y-22.2249 Z0.1470
G1 X32.1191 Y-21.9367 Z0.1253
G1 X32.1191 Y-21.6492 Z0.0949
G0 Z0.3453
G0 X32.1191 Y-21.6492 
G0 Z0.3453
G0 X32.7945 Y-23.7770 
G1 X32.7945 Y-23.7770 Z0.1953 F75.
G1 X32.7945 Y-23.8521 Z0.1820 F21.
G1 X32.7945 Y-23.9471 Z0.1653
G1 X32.7945 Y-23.6619 Z0.1958 F22.
G1 X32.7945 Y-23.3760 Z0.2178
G1 X32.7945 Y-23.0895 Z0.2310
G1 X32.7945 Y-22.8027 Z0.2357
G1 X32.7945 Y-22.5159 Z0.2316
G1 X32.7945 Y-22.2294 Z0.2189
G1 X32.7945 Y-21.9434 Z0.1976
G1 X32.7945 Y-21.6582 Z0.1677
G0 Z0.3310
G0 X32.7945 Y-21.6582 
G0 Z0.3310
G0 X32.7945 Y-23.7770 
G1 X32.7945 Y-23.7770 Z0.1810 F75.
G1 X32.7945 Y-23.8521 Z0.1677 F21.
G1 X32.7945 Y-23.9471 Z0.1510
G1 X32.7945 Y-23.6619 Z0.1815 F22.
G1 X32.7945 Y-23.3760 Z0.2034
G1 X32.7945 Y-23.0895 Z0.2167
G1 X32.7945 Y-22.8027 Z0.2213
G1 X32.7945 Y-22.5159 Z0.2173
G1 X32.7945 Y-22.2294 Z0.2046
G1 X32.7945 Y-21.9434 Z0.1833
G1 X32.7945 Y-21.6582 Z0.1533
G0 Z0.3166
G0 X32.7945 Y-21.6582 
G0 Z0.3166
G0 X32.7945 Y-23.7770 
G1 X32.7945 Y-23.7770 Z0.1666 F75.
G1 X32.7945 Y-23.8521 Z0.1534 F21.
G1 X32.7945 Y-23.9471 Z0.1366
G1 X32.7945 Y-23.6619 Z0.1672 F22.
G1 X32.7945 Y-23.3760 Z0.1891
G1 X32.7945 Y-23.0895 Z0.2024
G1 X32.7945 Y-22.8027 Z0.2070
G1 X32.7945 Y-22.5159 Z0.2030
G1 X32.7945 Y-22.2294 Z0.1903
G1 X32.7945 Y-21.9434 Z0.1689
G1 X32.7945 Y-21.6582 Z0.1390
G0 Z0.3023
G0 X32.7945 Y-21.6582 
G0 Z0.3023
G0 X32.7945 Y-23.7770 
G1 X32.7945 Y-23.7770 Z0.1523 F75.
G1 X32.7945 Y-23.8521 Z0.1390 F21.
G1 X32.7945 Y-23.9471 Z0.1223
G1 X32.7945 Y-23.6619 Z0.1528 F22.
G1 X32.7945 Y-23.3760 Z0.1748
G1 X32.7945 Y-23.0895 Z0.1880
G1 X32.7945 Y-22.8027 Z0.1927
G1 X32.7945 Y-22.5159 Z0.1886
G1 X32.7945 Y-22.2294 Z0.1759
G1 X32.7945 Y-21.9434 Z0.1546
G1 X32.7945 Y-21.6582 Z0.1247
G0 Z0.2880
G0 X32.7945 Y-21.6582 
G0 Z0.2880
G0 X32.7945 Y-23.7770 
G1 X32.7945 Y-23.7770 Z0.1380 F75.
G1 X32.7945 Y-23.8521 Z0.1247 F21.
G1 X32.7945 Y-23.9471 Z0.1080
G1 X32.7945 Y-23.6619 Z0.1385 F22.
G1 X32.7945 Y-23.3760 Z0.1604
G1 X32.7945 Y-23.0895 Z0.1737
G1 X32.7945 Y-22.8027 Z0.1783
G1 X32.7945 Y-22.5159 Z0.1743
G1 X32.7945 Y-22.2294 Z0.1616
G1 X32.7945 Y-21.9434 Z0.1403
G1 X32.7945 Y-21.6582 Z0.1103
G0 Z0.2736
G0 X32.7945 Y-21.6582 
G0 Z0.2736
G0 X32.7945 Y-23.7770 
G1 X32.7945 Y-23.7770 Z0.1236 F75.
G1 X32.7945 Y-23.8521 Z0.1104 F21.
G1 X32.7945 Y-23.9471 Z0.0936
G1 X32.7945 Y-23.6619 Z0.1242 F22.
G1 X32.7945 Y-23.3760 Z0.1461
G1 X32.7945 Y-23.0895 Z0.1594
G1 X32.7945 Y-22.8027 Z0.1640
G1 X32.7945 Y-22.5159 Z0.1600
G1 X32.7945 Y-22.2294 Z0.1473
G1 X32.7945 Y-21.9434 Z0.1259
G1 X32.7945 Y-21.6582 Z0.0960
G0 Z0.3465
G0 X32.7945 Y-21.6582 
G0 Z0.3465
G0 X33.5101 Y-23.7673 
G1 X33.5101 Y-23.7673 Z0.1965 F75.
G1 X33.5101 Y-23.8433 Z0.1831 F21.
G1 X33.5101 Y-23.9375 Z0.1665
G1 X33.5101 Y-23.6547 Z0.1965 F22.
G1 X33.5101 Y-23.3711 Z0.2181
G1 X33.5101 Y-23.0870 Z0.2311
G1 X33.5101 Y-22.8026 Z0.2357
G1 X33.5101 Y-22.5183 Z0.2317
G1 X33.5101 Y-22.2341 Z0.2192
G1 X33.5101 Y-21.9505 Z0.1983
G1 X33.5101 Y-21.6677 Z0.1688
G0 Z0.3321
G0 X33.5101 Y-21.6677 
G0 Z0.3321
G0 X33.5101 Y-23.7673 
G1 X33.5101 Y-23.7673 Z0.1821 F75.
G1 X33.5101 Y-23.8433 Z0.1687 F21.
G1 X33.5101 Y-23.9375 Z0.1521
G1 X33.5101 Y-23.6547 Z0.1822 F22.
G1 X33.5101 Y-23.3711 Z0.2037
G1 X33.5101 Y-23.0870 Z0.2168
G1 X33.5101 Y-22.8026 Z0.2213
G1 X33.5101 Y-22.5183 Z0.2174
G1 X33.5101 Y-22.2341 Z0.2049
G1 X33.5101 Y-21.9505 Z0.1839
G1 X33.5101 Y-21.6677 Z0.1545
G0 Z0.3178
G0 X33.5101 Y-21.6677 
G0 Z0.3178
G0 X33.5101 Y-23.7673 
G1 X33.5101 Y-23.7673 Z0.1678 F75.
G1 X33.5101 Y-23.8433 Z0.1544 F21.
G1 X33.5101 Y-23.9375 Z0.1378
G1 X33.5101 Y-23.6547 Z0.1678 F22.
G1 X33.5101 Y-23.3711 Z0.1894
G1 X33.5101 Y-23.0870 Z0.2024
G1 X33.5101 Y-22.8026 Z0.2070
G1 X33.5101 Y-22.5183 Z0.2030
G1 X33.5101 Y-22.2341 Z0.1906
G1 X33.5101 Y-21.9505 Z0.1696
G1 X33.5101 Y-21.6677 Z0.1401
G0 Z0.3035
G0 X33.5101 Y-21.6677 
G0 Z0.3035
G0 X33.5101 Y-23.7673 
G1 X33.5101 Y-23.7673 Z0.1535 F75.
G1 X33.5101 Y-23.8433 Z0.1401 F21.
G1 X33.5101 Y-23.9375 Z0.1235
G1 X33.5101 Y-23.6547 Z0.1535 F22.
G1 X33.5101 Y-23.3711 Z0.1751
G1 X33.5101 Y-23.0870 Z0.1881
G1 X33.5101 Y-22.8026 Z0.1927
G1 X33.5101 Y-22.5183 Z0.1887
G1 X33.5101 Y-22.2341 Z0.1762
G1 X33.5101 Y-21.9505 Z0.1553
G1 X33.5101 Y-21.6677 Z0.1258
G0 Z0.2891
G0 X33.5101 Y-21.6677 
G0 Z0.2891
G0 X33.5101 Y-23.7673 
G1 X33.5101 Y-23.7673 Z0.1391 F75.
G1 X33.5101 Y-23.8433 Z0.1257 F21.
G1 X33.5101 Y-23.9375 Z0.1091
G1 X33.5101 Y-23.6547 Z0.1392 F22.
G1 X33.5101 Y-23.3711 Z0.1607
G1 X33.5101 Y-23.0870 Z0.1738
G1 X33.5101 Y-22.8026 Z0.1783
G1 X33.5101 Y-22.5183 Z0.1744
G1 X33.5101 Y-22.2341 Z0.1619
G1 X33.5101 Y-21.9505 Z0.1409
G1 X33.5101 Y-21.6677 Z0.1115
G0 Z0.2748
G0 X33.5101 Y-21.6677 
G0 Z0.2748
G0 X33.5101 Y-23.7673 
G1 X33.5101 Y-23.7673 Z0.1248 F75.
G1 X33.5101 Y-23.8433 Z0.1114 F21.
G1 X33.5101 Y-23.9375 Z0.0948
G1 X33.5101 Y-23.6547 Z0.1248 F22.
G1 X33.5101 Y-23.3711 Z0.1464
G1 X33.5101 Y-23.0870 Z0.1594
G1 X33.5101 Y-22.8026 Z0.1640
G1 X33.5101 Y-22.5183 Z0.1600
G1 X33.5101 Y-22.2341 Z0.1476
G1 X33.5101 Y-21.9505 Z0.1266
G1 X33.5101 Y-21.6677 Z0.0971
G0 Z0.3477
G0 X33.5101 Y-21.6677 
G0 Z0.3477
G0 X34.2683 Y-23.7572 
G1 X34.2683 Y-23.7572 Z0.1977 F75.
G1 X34.2683 Y-23.8340 Z0.1841 F21.
G1 X34.2683 Y-23.9273 Z0.1677
G1 X34.2683 Y-23.6470 Z0.1972 F22.
G1 X34.2683 Y-23.3659 Z0.2184
G1 X34.2683 Y-23.0844 Z0.2312
G1 X34.2683 Y-22.8026 Z0.2357
G1 X34.2683 Y-22.5208 Z0.2318
G1 X34.2683 Y-22.2392 Z0.2195
G1 X34.2683 Y-21.9581 Z0.1989
G1 X34.2683 Y-21.6777 Z0.1700
G0 Z0.3334
G0 X34.2683 Y-21.6777 
G0 Z0.3334
G0 X34.2683 Y-23.7572 
G1 X34.2683 Y-23.7572 Z0.1834 F75.
G1 X34.2683 Y-23.8340 Z0.1698 F21.
G1 X34.2683 Y-23.9273 Z0.1534
G1 X34.2683 Y-23.6470 Z0.1829 F22.
G1 X34.2683 Y-23.3659 Z0.2040
G1 X34.2683 Y-23.0844 Z0.2169
G1 X34.2683 Y-22.8026 Z0.2213
G1 X34.2683 Y-22.5208 Z0.2174
G1 X34.2683 Y-22.2392 Z0.2052
G1 X34.2683 Y-21.9581 Z0.1846
G1 X34.2683 Y-21.6777 Z0.1557
G0 Z0.3190
G0 X34.2683 Y-21.6777 
G0 Z0.3190
G0 X34.2683 Y-23.7572 
G1 X34.2683 Y-23.7572 Z0.1690 F75.
G1 X34.2683 Y-23.8340 Z0.1555 F21.
G1 X34.2683 Y-23.9273 Z0.1390
G1 X34.2683 Y-23.6470 Z0.1685 F22.
G1 X34.2683 Y-23.3659 Z0.1897
G1 X34.2683 Y-23.0844 Z0.2025
G1 X34.2683 Y-22.8026 Z0.2070
G1 X34.2683 Y-22.5208 Z0.2031
G1 X34.2683 Y-22.2392 Z0.1909
G1 X34.2683 Y-21.9581 Z0.1703
G1 X34.2683 Y-21.6777 Z0.1413
G0 Z0.3047
G0 X34.2683 Y-21.6777 
G0 Z0.3047
G0 X34.2683 Y-23.7572 
G1 X34.2683 Y-23.7572 Z0.1547 F75.
G1 X34.2683 Y-23.8340 Z0.1411 F21.
G1 X34.2683 Y-23.9273 Z0.1247
G1 X34.2683 Y-23.6470 Z0.1542 F22.
G1 X34.2683 Y-23.3659 Z0.1754
G1 X34.2683 Y-23.0844 Z0.1882
G1 X34.2683 Y-22.8026 Z0.1927
G1 X34.2683 Y-22.5208 Z0.1888
G1 X34.2683 Y-22.2392 Z0.1765
G1 X34.2683 Y-21.9581 Z0.1559
G1 X34.2683 Y-21.6777 Z0.1270
G0 Z0.2904
G0 X34.2683 Y-21.6777 
G0 Z0.2904
G0 X34.2683 Y-23.7572 
G1 X34.2683 Y-23.7572 Z0.1404 F75.
G1 X34.2683 Y-23.8340 Z0.1268 F21.
G1 X34.2683 Y-23.9273 Z0.1104
G1 X34.2683 Y-23.6470 Z0.1399 F22.
G1 X34.2683 Y-23.3659 Z0.1610
G1 X34.2683 Y-23.0844 Z0.1739
G1 X34.2683 Y-22.8026 Z0.1783
G1 X34.2683 Y-22.5208 Z0.1744
G1 X34.2683 Y-22.2392 Z0.1622
G1 X34.2683 Y-21.9581 Z0.1416
G1 X34.2683 Y-21.6777 Z0.1127
G0 Z0.2760
G0 X34.2683 Y-21.6777 
G0 Z0.2760
G0 X34.2683 Y-23.7572 
G1 X34.2683 Y-23.7572 Z0.1260 F75.
G1 X34.2683 Y-23.8340 Z0.1125 F21.
G1 X34.2683 Y-23.9273 Z0.0960
G1 X34.2683 Y-23.6470 Z0.1255 F22.
G1 X34.2683 Y-23.3659 Z0.1467
G1 X34.2683 Y-23.0844 Z0.1595
G1 X34.2683 Y-22.8026 Z0.1640
G1 X34.2683 Y-22.5208 Z0.1601
G1 X34.2683 Y-22.2392 Z0.1479
G1 X34.2683 Y-21.9581 Z0.1273
G1 X34.2683 Y-21.6777 Z0.0983
G0 Z0.3490
G0 X34.2683 Y-21.6777 
G0 Z0.3490
G0 X35.0715 Y-23.7464 
G1 X35.0715 Y-23.7464 Z0.1990 F75.
G1 X35.0715 Y-23.8240 Z0.1853 F21.
G1 X35.0715 Y-23.9165 Z0.1690
G1 X35.0715 Y-23.6389 Z0.1979 F22.
G1 X35.0715 Y-23.3605 Z0.2187
G1 X35.0715 Y-23.0816 Z0.2313
G1 X35.0715 Y-22.8025 Z0.2357
G1 X35.0715 Y-22.5234 Z0.2318
G1 X35.0715 Y-22.2445 Z0.2198
G1 X35.0715 Y-21.9661 Z0.1996
G1 X35.0715 Y-21.6884 Z0.1712
G0 Z0.3347
G0 X35.0715 Y-21.6884 
G0 Z0.3347
G0 X35.0715 Y-23.7464 
G1 X35.0715 Y-23.7464 Z0.1847 F75.
G1 X35.0715 Y-23.8240 Z0.1710 F21.
G1 X35.0715 Y-23.9165 Z0.1547
G1 X35.0715 Y-23.6389 Z0.1836 F22.
G1 X35.0715 Y-23.3605 Z0.2044
G1 X35.0715 Y-23.0816 Z0.2169
G1 X35.0715 Y-22.8025 Z0.2213
G1 X35.0715 Y-22.5234 Z0.2175
G1 X35.0715 Y-22.2445 Z0.2055
G1 X35.0715 Y-21.9661 Z0.1853
G1 X35.0715 Y-21.6884 Z0.1569
G0 Z0.3203
G0 X35.0715 Y-21.6884 
G0 Z0.3203
G0 X35.0715 Y-23.7464 
G1 X35.0715 Y-23.7464 Z0.1703 F75.
G1 X35.0715 Y-23.8240 Z0.1566 F21.
G1 X35.0715 Y-23.9165 Z0.1403
G1 X35.0715 Y-23.6389 Z0.1693 F22.
G1 X35.0715 Y-23.3605 Z0.1900
G1 X35.0715 Y-23.0816 Z0.2026
G1 X35.0715 Y-22.8025 Z0.2070
G1 X35.0715 Y-22.5234 Z0.2032
G1 X35.0715 Y-22.2445 Z0.1912
G1 X35.0715 Y-21.9661 Z0.1710
G1 X35.0715 Y-21.6884 Z0.1426
G0 Z0.3060
G0 X35.0715 Y-21.6884 
G0 Z0.3060
G0 X35.0715 Y-23.7464 
G1 X35.0715 Y-23.7464 Z0.1560 F75.
G1 X35.0715 Y-23.8240 Z0.1423 F21.
G1 X35.0715 Y-23.9165 Z0.1260
G1 X35.0715 Y-23.6389 Z0.1549 F22.
G1 X35.0715 Y-23.3605 Z0.1757
G1 X35.0715 Y-23.0816 Z0.1883
G1 X35.0715 Y-22.8025 Z0.1927
G1 X35.0715 Y-22.5234 Z0.1888
G1 X35.0715 Y-22.2445 Z0.1768
G1 X35.0715 Y-21.9661 Z0.1566
G1 X35.0715 Y-21.6884 Z0.1282
G0 Z0.2917
G0 X35.0715 Y-21.6884 
G0 Z0.2917
G0 X35.0715 Y-23.7464 
G1 X35.0715 Y-23.7464 Z0.1417 F75.
G1 X35.0715 Y-23.8240 Z0.1280 F21.
G1 X35.0715 Y-23.9165 Z0.1117
G1 X35.0715 Y-23.6389 Z0.1406 F22.
G1 X35.0715 Y-23.3605 Z0.1614
G1 X35.0715 Y-23.0816 Z0.1739
G1 X35.0715 Y-22.8025 Z0.1783
G1 X35.0715 Y-22.5234 Z0.1745
G1 X35.0715 Y-22.2445 Z0.1625
G1 X35.0715 Y-21.9661 Z0.1423
G1 X35.0715 Y-21.6884 Z0.1139
G0 Z0.2773
G0 X35.0715 Y-21.6884 
G0 Z0.2773
G0 X35.0715 Y-23.7464 
G1 X35.0715 Y-23.7464 Z0.1273 F75.
G1 X35.0715 Y-23.8240 Z0.1136 F21.
G1 X35.0715 Y-23.9165 Z0.0973
G1 X35.0715 Y-23.6389 Z0.1263 F22.
G1 X35.0715 Y-23.3605 Z0.1470
G1 X35.0715 Y-23.0816 Z0.1596
G1 X35.0715 Y-22.8025 Z0.1640
G1 X35.0715 Y-22.5234 Z0.1602
G1 X35.0715 Y-22.2445 Z0.1482
G1 X35.0715 Y-21.9661 Z0.1280
G1 X35.0715 Y-21.6884 Z0.0996
G0 Z0.3503
G0 X35.0715 Y-21.6884 
G0 Z0.3503
G0 X35.9225 Y-23.7349 
G1 X35.9225 Y-23.7349 Z0.2003 F75.
G1 X35.9225 Y-23.8135 Z0.1865 F21.
G1 X35.9225 Y-23.9051 Z0.1703
G1 X35.9225 Y-23.6302 Z0.1987 F22.
G1 X35.9225 Y-23.3547 Z0.2190
G1 X35.9225 Y-23.0787 Z0.2314
G1 X35.9225 Y-22.8024 Z0.2357
G1 X35.9225 Y-22.5262 Z0.2319
G1 X35.9225 Y-22.2501 Z0.2202
G1 X35.9225 Y-21.9746 Z0.2004
G1 X35.9225 Y-21.6997 Z0.1726
G0 Z0.3360
G0 X35.9225 Y-21.6997 
G0 Z0.3360
G0 X35.9225 Y-23.7349 
G1 X35.9225 Y-23.7349 Z0.1860 F75.
G1 X35.9225 Y-23.8135 Z0.1721 F21.
G1 X35.9225 Y-23.9051 Z0.1560
G1 X35.9225 Y-23.6302 Z0.1844 F22.
G1 X35.9225 Y-23.3547 Z0.2047
G1 X35.9225 Y-23.0787 Z0.2170
G1 X35.9225 Y-22.8024 Z0.2213
G1 X35.9225 Y-22.5262 Z0.2176
G1 X35.9225 Y-22.2501 Z0.2058
G1 X35.9225 Y-21.9746 Z0.1860
G1 X35.9225 Y-21.6997 Z0.1582
G0 Z0.3217
G0 X35.9225 Y-21.6997 
G0 Z0.3217
G0 X35.9225 Y-23.7349 
G1 X35.9225 Y-23.7349 Z0.1717 F75.
G1 X35.9225 Y-23.8135 Z0.1578 F21.
G1 X35.9225 Y-23.9051 Z0.1417
G1 X35.9225 Y-23.6302 Z0.1700 F22.
G1 X35.9225 Y-23.3547 Z0.1904
G1 X35.9225 Y-23.0787 Z0.2027
G1 X35.9225 Y-22.8024 Z0.2070
G1 X35.9225 Y-22.5262 Z0.2033
G1 X35.9225 Y-22.2501 Z0.1915
G1 X35.9225 Y-21.9746 Z0.1717
G1 X35.9225 Y-21.6997 Z0.1439
G0 Z0.3073
G0 X35.9225 Y-21.6997 
G0 Z0.3073
G0 X35.9225 Y-23.7349 
G1 X35.9225 Y-23.7349 Z0.1573 F75.
G1 X35.9225 Y-23.8135 Z0.1435 F21.
G1 X35.9225 Y-23.9051 Z0.1273
G1 X35.9225 Y-23.6302 Z0.1557 F22.
G1 X35.9225 Y-23.3547 Z0.1760
G1 X35.9225 Y-23.0787 Z0.1884
G1 X35.9225 Y-22.8024 Z0.1927
G1 X35.9225 Y-22.5262 Z0.1889
G1 X35.9225 Y-22.2501 Z0.1772
G1 X35.9225 Y-21.9746 Z0.1574
G1 X35.9225 Y-21.6997 Z0.1296
G0 Z0.2930
G0 X35.9225 Y-21.6997 
G0 Z0.2930
G0 X35.9225 Y-23.7349 
G1 X35.9225 Y-23.7349 Z0.1430 F75.
G1 X35.9225 Y-23.8135 Z0.1291 F21.
G1 X35.9225 Y-23.9051 Z0.1130
G1 X35.9225 Y-23.6302 Z0.1414 F22.
G1 X35.9225 Y-23.3547 Z0.1617
G1 X35.9225 Y-23.0787 Z0.1740
G1 X35.9225 Y-22.8024 Z0.1783
G1 X35.9225 Y-22.5262 Z0.1746
G1 X35.9225 Y-22.2501 Z0.1628
G1 X35.9225 Y-21.9746 Z0.1430
G1 X35.9225 Y-21.6997 Z0.1152
G0 Z0.2787
G0 X35.9225 Y-21.6997 
G0 Z0.2787
G0 X35.9225 Y-23.7349 
G1 X35.9225 Y-23.7349 Z0.1287 F75.
G1 X35.9225 Y-23.8135 Z0.1148 F21.
G1 X35.9225 Y-23.9051 Z0.0987
G1 X35.9225 Y-23.6302 Z0.1270 F22.
G1 X35.9225 Y-23.3547 Z0.1474
G1 X35.9225 Y-23.0787 Z0.1597
G1 X35.9225 Y-22.8024 Z0.1640
G1 X35.9225 Y-22.5262 Z0.1603
G1 X35.9225 Y-22.2501 Z0.1485
G1 X35.9225 Y-21.9746 Z0.1287
G1 X35.9225 Y-21.6997 Z0.1009
G0 Z0.3518
G0 X35.9225 Y-21.6997 
G0 Z0.3518
G0 X36.8241 Y-23.7228 
G1 X36.8241 Y-23.7228 Z0.2018 F75.
G1 X36.8241 Y-23.7985 Z0.1884 F21.
G1 X36.8241 Y-23.8929 Z0.1718
G1 X36.8241 Y-23.5822 Z0.2028 F22.
G1 X36.8241 Y-23.2706 Z0.2236
G1 X36.8241 Y-22.9585 Z0.2342
G1 X36.8241 Y-22.6462 Z0.2345
G1 X36.8241 Y-22.3341 Z0.2246
G1 X36.8241 Y-22.0225 Z0.2044
G1 X36.8241 Y-21.7117 Z0.1739
G0 Z0.3374
G0 X36.8241 Y-21.7117 
G0 Z0.3374
G0 X36.8241 Y-23.7228 
G1 X36.8241 Y-23.7228 Z0.1874 F75.
G1 X36.8241 Y-23.7985 Z0.1741 F21.
G1 X36.8241 Y-23.8929 Z0.1574
G1 X36.8241 Y-23.5822 Z0.1885 F22.
G1 X36.8241 Y-23.2706 Z0.2093
G1 X36.8241 Y-22.9585 Z0.2199
G1 X36.8241 Y-22.6462 Z0.2202
G1 X36.8241 Y-22.3341 Z0.2103
G1 X36.8241 Y-22.0225 Z0.1900
G1 X36.8241 Y-21.7117 Z0.1596
G0 Z0.3231
G0 X36.8241 Y-21.7117 
G0 Z0.3231
G0 X36.8241 Y-23.7228 
G1 X36.8241 Y-23.7228 Z0.1731 F75.
G1 X36.8241 Y-23.7985 Z0.1597 F21.
G1 X36.8241 Y-23.8929 Z0.1431
G1 X36.8241 Y-23.5822 Z0.1742 F22.
G1 X36.8241 Y-23.2706 Z0.1950
G1 X36.8241 Y-22.9585 Z0.2056
G1 X36.8241 Y-22.6462 Z0.2059
G1 X36.8241 Y-22.3341 Z0.1959
G1 X36.8241 Y-22.0225 Z0.1757
G1 X36.8241 Y-21.7117 Z0.1453
G0 Z0.3088
G0 X36.8241 Y-21.7117 
G0 Z0.3088
G0 X36.8241 Y-23.7228 
G1 X36.8241 Y-23.7228 Z0.1588 F75.
G1 X36.8241 Y-23.7985 Z0.1454 F21.
G1 X36.8241 Y-23.8929 Z0.1288
G1 X36.8241 Y-23.5822 Z0.1598 F22.
G1 X36.8241 Y-23.2706 Z0.1806
G1 X36.8241 Y-22.9585 Z0.1912
G1 X36.8241 Y-22.6462 Z0.1915
G1 X36.8241 Y-22.3341 Z0.1816
G1 X36.8241 Y-22.0225 Z0.1614
G1 X36.8241 Y-21.7117 Z0.1309
G0 Z0.2944
G0 X36.8241 Y-21.7117 
G0 Z0.2944
G0 X36.8241 Y-23.7228 
G1 X36.8241 Y-23.7228 Z0.1444 F75.
G1 X36.8241 Y-23.7985 Z0.1311 F21.
G1 X36.8241 Y-23.8929 Z0.1144
G1 X36.8241 Y-23.5822 Z0.1455 F22.
G1 X36.8241 Y-23.2706 Z0.1663
G1 X36.8241 Y-22.9585 Z0.1769
G1 X36.8241 Y-22.6462 Z0.1772
G1 X36.8241 Y-22.3341 Z0.1673
G1 X36.8241 Y-22.0225 Z0.1470
G1 X36.8241 Y-21.7117 Z0.1166
G0 Z0.2801
G0 X36.8241 Y-21.7117 
G0 Z0.2801
G0 X36.8241 Y-23.7228 
G1 X36.8241 Y-23.7228 Z0.1301 F75.
G1 X36.8241 Y-23.7985 Z0.1167 F21.
G1 X36.8241 Y-23.8929 Z0.1001
G1 X36.8241 Y-23.5822 Z0.1312 F22.
G1 X36.8241 Y-23.2706 Z0.1520
G1 X36.8241 Y-22.9585 Z0.1626
G1 X36.8241 Y-22.6462 Z0.1629
G1 X36.8241 Y-22.3341 Z0.1529
G1 X36.8241 Y-22.0225 Z0.1327
G1 X36.8241 Y-21.7117 Z0.1023
G0 Z0.3532
G0 X36.8241 Y-21.7117 
G0 Z0.3532
G0 X37.7793 Y-23.7100 
G1 X37.7793 Y-23.7100 Z0.2032 F75.
G1 X37.7793 Y-23.7867 Z0.1897 F21.
G1 X37.7793 Y-23.8801 Z0.1732
G1 X37.7793 Y-23.5730 Z0.2036 F22.
G1 X37.7793 Y-23.2650 Z0.2239
G1 X37.7793 Y-22.9566 Z0.2343
G1 X37.7793 Y-22.6480 Z0.2346
G1 X37.7793 Y-22.3395 Z0.2248
G1 X37.7793 Y-22.0315 Z0.2051
G1 X37.7793 Y-21.7243 Z0.1754
G0 Z0.3389
G0 X37.7793 Y-21.7243 
G0 Z0.3389
G0 X37.7793 Y-23.7100 
G1 X37.7793 Y-23.7100 Z0.1889 F75.
G1 X37.7793 Y-23.7867 Z0.1754 F21.
G1 X37.7793 Y-23.8801 Z0.1589
G1 X37.7793 Y-23.5730 Z0.1893 F22.
G1 X37.7793 Y-23.2650 Z0.2096
G1 X37.7793 Y-22.9566 Z0.2199
G1 X37.7793 Y-22.6480 Z0.2202
G1 X37.7793 Y-22.3395 Z0.2105
G1 X37.7793 Y-22.0315 Z0.1908
G1 X37.7793 Y-21.7243 Z0.1611
G0 Z0.3246
G0 X37.7793 Y-21.7243 
G0 Z0.3246
G0 X37.7793 Y-23.7100 
G1 X37.7793 Y-23.7100 Z0.1746 F75.
G1 X37.7793 Y-23.7867 Z0.1610 F21.
G1 X37.7793 Y-23.8801 Z0.1446
G1 X37.7793 Y-23.5730 Z0.1749 F22.
G1 X37.7793 Y-23.2650 Z0.1953
G1 X37.7793 Y-22.9566 Z0.2056
G1 X37.7793 Y-22.6480 Z0.2059
G1 X37.7793 Y-22.3395 Z0.1962
G1 X37.7793 Y-22.0315 Z0.1764
G1 X37.7793 Y-21.7243 Z0.1467
G0 Z0.3102
G0 X37.7793 Y-21.7243 
G0 Z0.3102
G0 X37.7793 Y-23.7100 
G1 X37.7793 Y-23.7100 Z0.1602 F75.
G1 X37.7793 Y-23.7867 Z0.1467 F21.
G1 X37.7793 Y-23.8801 Z0.1302
G1 X37.7793 Y-23.5730 Z0.1606 F22.
G1 X37.7793 Y-23.2650 Z0.1809
G1 X37.7793 Y-22.9566 Z0.1913
G1 X37.7793 Y-22.6480 Z0.1916
G1 X37.7793 Y-22.3395 Z0.1818
G1 X37.7793 Y-22.0315 Z0.1621
G1 X37.7793 Y-21.7243 Z0.1324
G0 Z0.2959
G0 X37.7793 Y-21.7243 
G0 Z0.2959
G0 X37.7793 Y-23.7100 
G1 X37.7793 Y-23.7100 Z0.1459 F75.
G1 X37.7793 Y-23.7867 Z0.1324 F21.
G1 X37.7793 Y-23.8801 Z0.1159
G1 X37.7793 Y-23.5730 Z0.1463 F22.
G1 X37.7793 Y-23.2650 Z0.1666
G1 X37.7793 Y-22.9566 Z0.1769
G1 X37.7793 Y-22.6480 Z0.1772
G1 X37.7793 Y-22.3395 Z0.1675
G1 X37.7793 Y-22.0315 Z0.1478
G1 X37.7793 Y-21.7243 Z0.1181
G0 Z0.2816
G0 X37.7793 Y-21.7243 
G0 Z0.2816
G0 X37.7793 Y-23.7100 
G1 X37.7793 Y-23.7100 Z0.1316 F75.
G1 X37.7793 Y-23.7867 Z0.1180 F21.
G1 X37.7793 Y-23.8801 Z0.1016
G1 X37.7793 Y-23.5730 Z0.1319 F22.
G1 X37.7793 Y-23.2650 Z0.1523
G1 X37.7793 Y-22.9566 Z0.1626
G1 X37.7793 Y-22.6480 Z0.1629
G1 X37.7793 Y-22.3395 Z0.1532
G1 X37.7793 Y-22.0315 Z0.1334
G1 X37.7793 Y-21.7243 Z0.1037
G0 Z0.3548
G0 X37.7793 Y-21.7243 
G0 Z0.3548
G0 X38.7913 Y-23.6964 
G1 X38.7913 Y-23.6964 Z0.2048 F75.
G1 X38.7913 Y-23.7743 Z0.1911 F21.
G1 X38.7913 Y-23.8665 Z0.1748
G1 X38.7913 Y-23.5632 Z0.2044 F22.
G1 X38.7913 Y-23.2591 Z0.2242
G1 X38.7913 Y-22.9546 Z0.2343
G1 X38.7913 Y-22.6498 Z0.2346
G1 X38.7913 Y-22.3453 Z0.2251
G1 X38.7913 Y-22.0411 Z0.2059
G1 X38.7913 Y-21.7378 Z0.1769
G0 Z0.3405
G0 X38.7913 Y-21.7378 
G0 Z0.3405
G0 X38.7913 Y-23.6964 
G1 X38.7913 Y-23.6964 Z0.1905 F75.
G1 X38.7913 Y-23.7743 Z0.1767 F21.
G1 X38.7913 Y-23.8665 Z0.1605
G1 X38.7913 Y-23.5632 Z0.1901 F22.
G1 X38.7913 Y-23.2591 Z0.2099
G1 X38.7913 Y-22.9546 Z0.2200
G1 X38.7913 Y-22.6498 Z0.2203
G1 X38.7913 Y-22.3453 Z0.2108
G1 X38.7913 Y-22.0411 Z0.1915
G1 X38.7913 Y-21.7378 Z0.1626
G0 Z0.3261
G0 X38.7913 Y-21.7378 
G0 Z0.3261
G0 X38.7913 Y-23.6964 
G1 X38.7913 Y-23.6964 Z0.1761 F75.
G1 X38.7913 Y-23.7743 Z0.1624 F21.
G1 X38.7913 Y-23.8665 Z0.1461
G1 X38.7913 Y-23.5632 Z0.1757 F22.
G1 X38.7913 Y-23.2591 Z0.1956
G1 X38.7913 Y-22.9546 Z0.2056
G1 X38.7913 Y-22.6498 Z0.2059
G1 X38.7913 Y-22.3453 Z0.1965
G1 X38.7913 Y-22.0411 Z0.1772
G1 X38.7913 Y-21.7378 Z0.1482
G0 Z0.3118
G0 X38.7913 Y-21.7378 
G0 Z0.3118
G0 X38.7913 Y-23.6964 
G1 X38.7913 Y-23.6964 Z0.1618 F75.
G1 X38.7913 Y-23.7743 Z0.1481 F21.
G1 X38.7913 Y-23.8665 Z0.1318
G1 X38.7913 Y-23.5632 Z0.1614 F22.
G1 X38.7913 Y-23.2591 Z0.1812
G1 X38.7913 Y-22.9546 Z0.1913
G1 X38.7913 Y-22.6498 Z0.1916
G1 X38.7913 Y-22.3453 Z0.1821
G1 X38.7913 Y-22.0411 Z0.1629
G1 X38.7913 Y-21.7378 Z0.1339
G0 Z0.2975
G0 X38.7913 Y-21.7378 
G0 Z0.2975
G0 X38.7913 Y-23.6964 
G1 X38.7913 Y-23.6964 Z0.1475 F75.
G1 X38.7913 Y-23.7743 Z0.1337 F21.
G1 X38.7913 Y-23.8665 Z0.1175
G1 X38.7913 Y-23.5632 Z0.1471 F22.
G1 X38.7913 Y-23.2591 Z0.1669
G1 X38.7913 Y-22.9546 Z0.1770
G1 X38.7913 Y-22.6498 Z0.1773
G1 X38.7913 Y-22.3453 Z0.1678
G1 X38.7913 Y-22.0411 Z0.1485
G1 X38.7913 Y-21.7378 Z0.1196
G0 Z0.2831
G0 X38.7913 Y-21.7378 
G0 Z0.2831
G0 X38.7913 Y-23.6964 
G1 X38.7913 Y-23.6964 Z0.1331 F75.
G1 X38.7913 Y-23.7743 Z0.1194 F21.
G1 X38.7913 Y-23.8665 Z0.1031
G1 X38.7913 Y-23.5632 Z0.1327 F22.
G1 X38.7913 Y-23.2591 Z0.1526
G1 X38.7913 Y-22.9546 Z0.1626
G1 X38.7913 Y-22.6498 Z0.1629
G1 X38.7913 Y-22.3453 Z0.1535
G1 X38.7913 Y-22.0411 Z0.1342
G1 X38.7913 Y-21.7378 Z0.1052
G0 Z0.3564
G0 X38.7913 Y-21.7378 
G0 Z0.3564
G0 X39.8635 Y-23.6819 
G1 X39.8635 Y-23.6819 Z0.2064 F75.
G1 X39.8635 Y-23.7570 Z0.1932 F21.
G1 X39.8635 Y-23.8521 Z0.1764
G1 X39.8635 Y-23.5529 Z0.2052 F22.
G1 X39.8635 Y-23.2529 Z0.2245
G1 X39.8635 Y-22.9524 Z0.2343
G1 X39.8635 Y-22.6518 Z0.2346
G1 X39.8635 Y-22.3513 Z0.2254
G1 X39.8635 Y-22.0513 Z0.2067
G1 X39.8635 Y-21.7520 Z0.1785
G0 Z0.3421
G0 X39.8635 Y-21.7520 
G0 Z0.3421
G0 X39.8635 Y-23.6819 
G1 X39.8635 Y-23.6819 Z0.1921 F75.
G1 X39.8635 Y-23.7570 Z0.1789 F21.
G1 X39.8635 Y-23.8521 Z0.1621
G1 X39.8635 Y-23.5529 Z0.1909 F22.
G1 X39.8635 Y-23.2529 Z0.2102
G1 X39.8635 Y-22.9524 Z0.2200
G1 X39.8635 Y-22.6518 Z0.2203
G1 X39.8635 Y-22.3513 Z0.2111
G1 X39.8635 Y-22.0513 Z0.1924
G1 X39.8635 Y-21.7520 Z0.1641
G0 Z0.3278
G0 X39.8635 Y-21.7520 
G0 Z0.3278
G0 X39.8635 Y-23.6819 
G1 X39.8635 Y-23.6819 Z0.1778 F75.
G1 X39.8635 Y-23.7570 Z0.1645 F21.
G1 X39.8635 Y-23.8521 Z0.1478
G1 X39.8635 Y-23.5529 Z0.1766 F22.
G1 X39.8635 Y-23.2529 Z0.1959
G1 X39.8635 Y-22.9524 Z0.2057
G1 X39.8635 Y-22.6518 Z0.2060
G1 X39.8635 Y-22.3513 Z0.1967
G1 X39.8635 Y-22.0513 Z0.1780
G1 X39.8635 Y-21.7520 Z0.1498
G0 Z0.3134
G0 X39.8635 Y-21.7520 
G0 Z0.3134
G0 X39.8635 Y-23.6819 
G1 X39.8635 Y-23.6819 Z0.1634 F75.
G1 X39.8635 Y-23.7570 Z0.1502 F21.
G1 X39.8635 Y-23.8521 Z0.1334
G1 X39.8635 Y-23.5529 Z0.1622 F22.
G1 X39.8635 Y-23.2529 Z0.1815
G1 X39.8635 Y-22.9524 Z0.1913
G1 X39.8635 Y-22.6518 Z0.1916
G1 X39.8635 Y-22.3513 Z0.1824
G1 X39.8635 Y-22.0513 Z0.1637
G1 X39.8635 Y-21.7520 Z0.1355
G0 Z0.2991
G0 X39.8635 Y-21.7520 
G0 Z0.2991
G0 X39.8635 Y-23.6819 
G1 X39.8635 Y-23.6819 Z0.1491 F75.
G1 X39.8635 Y-23.7570 Z0.1359 F21.
G1 X39.8635 Y-23.8521 Z0.1191
G1 X39.8635 Y-23.5529 Z0.1479 F22.
G1 X39.8635 Y-23.2529 Z0.1672
G1 X39.8635 Y-22.9524 Z0.1770
G1 X39.8635 Y-22.6518 Z0.1773
G1 X39.8635 Y-22.3513 Z0.1681
G1 X39.8635 Y-22.0513 Z0.1494
G1 X39.8635 Y-21.7520 Z0.1211
G0 Z0.2848
G0 X39.8635 Y-21.7520 
G0 Z0.2848
G0 X39.8635 Y-23.6819 
G1 X39.8635 Y-23.6819 Z0.1348 F75.
G1 X39.8635 Y-23.7570 Z0.1215 F21.
G1 X39.8635 Y-23.8521 Z0.1048
G1 X39.8635 Y-23.5529 Z0.1336 F22.
G1 X39.8635 Y-23.2529 Z0.1529
G1 X39.8635 Y-22.9524 Z0.1627
G1 X39.8635 Y-22.6518 Z0.1630
G1 X39.8635 Y-22.3513 Z0.1537
G1 X39.8635 Y-22.0513 Z0.1350
G1 X39.8635 Y-21.7520 Z0.1068
G0 Z0.3581
G0 X39.8635 Y-21.7520 
G0 Z0.3581
G0 X40.9995 Y-23.6667 
G1 X40.9995 Y-23.6667 Z0.2081 F75.
G1 X40.9995 Y-23.7431 Z0.1947 F21.
G1 X40.9995 Y-23.8368 Z0.1781
G1 X40.9995 Y-23.5419 Z0.2061 F22.
G1 X40.9995 Y-23.2462 Z0.2248
G1 X40.9995 Y-22.9501 Z0.2344
G1 X40.9995 Y-22.6539 Z0.2347
G1 X40.9995 Y-22.3578 Z0.2257
G1 X40.9995 Y-22.0621 Z0.2075
G1 X40.9995 Y-21.7671 Z0.1801
G0 Z0.3438
G0 X40.9995 Y-21.7671 
G0 Z0.3438
G0 X40.9995 Y-23.6667 
G1 X40.9995 Y-23.6667 Z0.1938 F75.
G1 X40.9995 Y-23.7431 Z0.1803 F21.
G1 X40.9995 Y-23.8368 Z0.1638
G1 X40.9995 Y-23.5419 Z0.1918 F22.
G1 X40.9995 Y-23.2462 Z0.2105
G1 X40.9995 Y-22.9501 Z0.2200
G1 X40.9995 Y-22.6539 Z0.2203
G1 X40.9995 Y-22.3578 Z0.2114
G1 X40.9995 Y-22.0621 Z0.1932
G1 X40.9995 Y-21.7671 Z0.1658
G0 Z0.3295
G0 X40.9995 Y-21.7671 
G0 Z0.3295
G0 X40.9995 Y-23.6667 
G1 X40.9995 Y-23.6667 Z0.1795 F75.
G1 X40.9995 Y-23.7431 Z0.1660 F21.
G1 X40.9995 Y-23.8368 Z0.1495
G1 X40.9995 Y-23.5419 Z0.1774 F22.
G1 X40.9995 Y-23.2462 Z0.1962
G1 X40.9995 Y-22.9501 Z0.2057
G1 X40.9995 Y-22.6539 Z0.2060
G1 X40.9995 Y-22.3578 Z0.1970
G1 X40.9995 Y-22.0621 Z0.1789
G1 X40.9995 Y-21.7671 Z0.1515
G0 Z0.3151
G0 X40.9995 Y-21.7671 
G0 Z0.3151
G0 X40.9995 Y-23.6667 
G1 X40.9995 Y-23.6667 Z0.1651 F75.
G1 X40.9995 Y-23.7431 Z0.1517 F21.
G1 X40.9995 Y-23.8368 Z0.1351
G1 X40.9995 Y-23.5419 Z0.1631 F22.
G1 X40.9995 Y-23.2462 Z0.1818
G1 X40.9995 Y-22.9501 Z0.1914
G1 X40.9995 Y-22.6539 Z0.1917
G1 X40.9995 Y-22.3578 Z0.1827
G1 X40.9995 Y-22.0621 Z0.1645
G1 X40.9995 Y-21.7671 Z0.1371
G0 Z0.3008
G0 X40.9995 Y-21.7671 
G0 Z0.3008
G0 X40.9995 Y-23.6667 
G1 X40.9995 Y-23.6667 Z0.1508 F75.
G1 X40.9995 Y-23.7431 Z0.1373 F21.
G1 X40.9995 Y-23.8368 Z0.1208
G1 X40.9995 Y-23.5419 Z0.1488 F22.
G1 X40.9995 Y-23.2462 Z0.1675
G1 X40.9995 Y-22.9501 Z0.1770
G1 X40.9995 Y-22.6539 Z0.1773
G1 X40.9995 Y-22.3578 Z0.1684
G1 X40.9995 Y-22.0621 Z0.1502
G1 X40.9995 Y-21.7671 Z0.1228
G0 Z0.2865
G0 X40.9995 Y-21.7671 
G0 Z0.2865
G0 X40.9995 Y-23.6667 
G1 X40.9995 Y-23.6667 Z0.1365 F75.
G1 X40.9995 Y-23.7431 Z0.1230 F21.
G1 X40.9995 Y-23.8368 Z0.1065
G1 X40.9995 Y-23.5419 Z0.1344 F22.
G1 X40.9995 Y-23.2462 Z0.1532
G1 X40.9995 Y-22.9501 Z0.1627
G1 X40.9995 Y-22.6539 Z0.1630
G1 X40.9995 Y-22.3578 Z0.1540
G1 X40.9995 Y-22.0621 Z0.1359
G1 X40.9995 Y-21.7671 Z0.1085
G0 Z0.3599
G0 X40.9995 Y-21.7671 
G0 Z0.3599
G0 X42.2030 Y-23.6505 
G1 X42.2030 Y-23.6505 Z0.2099 F75.
G1 X42.2030 Y-23.7283 Z0.1962 F21.
G1 X42.2030 Y-23.8206 Z0.1799
G1 X42.2030 Y-23.5303 Z0.2070 F22.
G1 X42.2030 Y-23.2392 Z0.2252
G1 X42.2030 Y-22.9477 Z0.2344
G1 X42.2030 Y-22.6561 Z0.2347
G1 X42.2030 Y-22.3646 Z0.2260
G1 X42.2030 Y-22.0735 Z0.2084
G1 X42.2030 Y-21.7831 Z0.1819
G0 Z0.3456
G0 X42.2030 Y-21.7831 
G0 Z0.3456
G0 X42.2030 Y-23.6505 
G1 X42.2030 Y-23.6505 Z0.1956 F75.
G1 X42.2030 Y-23.7283 Z0.1819 F21.
G1 X42.2030 Y-23.8206 Z0.1656
G1 X42.2030 Y-23.5303 Z0.1927 F22.
G1 X42.2030 Y-23.2392 Z0.2108
G1 X42.2030 Y-22.9477 Z0.2201
G1 X42.2030 Y-22.6561 Z0.2204
G1 X42.2030 Y-22.3646 Z0.2117
G1 X42.2030 Y-22.0735 Z0.1941
G1 X42.2030 Y-21.7831 Z0.1675
G0 Z0.3312
G0 X42.2030 Y-21.7831 
G0 Z0.3312
G0 X42.2030 Y-23.6505 
G1 X42.2030 Y-23.6505 Z0.1812 F75.
G1 X42.2030 Y-23.7283 Z0.1675 F21.
G1 X42.2030 Y-23.8206 Z0.1512
G1 X42.2030 Y-23.5303 Z0.1783 F22.
G1 X42.2030 Y-23.2392 Z0.1965
G1 X42.2030 Y-22.9477 Z0.2057
G1 X42.2030 Y-22.6561 Z0.2060
G1 X42.2030 Y-22.3646 Z0.1973
G1 X42.2030 Y-22.0735 Z0.1797
G1 X42.2030 Y-21.7831 Z0.1532
G0 Z0.3169
G0 X42.2030 Y-21.7831 
G0 Z0.3169
G0 X42.2030 Y-23.6505 
G1 X42.2030 Y-23.6505 Z0.1669 F75.
G1 X42.2030 Y-23.7283 Z0.1532 F21.
G1 X42.2030 Y-23.8206 Z0.1369
G1 X42.2030 Y-23.5303 Z0.1640 F22.
G1 X42.2030 Y-23.2392 Z0.1822
G1 X42.2030 Y-22.9477 Z0.1914
G1 X42.2030 Y-22.6561 Z0.1917
G1 X42.2030 Y-22.3646 Z0.1830
G1 X42.2030 Y-22.0735 Z0.1654
G1 X42.2030 Y-21.7831 Z0.1389
G0 Z0.3026
G0 X42.2030 Y-21.7831 
G0 Z0.3026
G0 X42.2030 Y-23.6505 
G1 X42.2030 Y-23.6505 Z0.1526 F75.
G1 X42.2030 Y-23.7283 Z0.1389 F21.
G1 X42.2030 Y-23.8206 Z0.1226
G1 X42.2030 Y-23.5303 Z0.1497 F22.
G1 X42.2030 Y-23.2392 Z0.1678
G1 X42.2030 Y-22.9477 Z0.1771
G1 X42.2030 Y-22.6561 Z0.1774
G1 X42.2030 Y-22.3646 Z0.1687
G1 X42.2030 Y-22.0735 Z0.1511
G1 X42.2030 Y-21.7831 Z0.1245
G0 Z0.2882
G0 X42.2030 Y-21.7831 
G0 Z0.2882
G0 X42.2030 Y-23.6505 
G1 X42.2030 Y-23.6505 Z0.1382 F75.
G1 X42.2030 Y-23.7283 Z0.1245 F21.
G1 X42.2030 Y-23.8206 Z0.1082
G1 X42.2030 Y-23.5303 Z0.1353 F22.
G1 X42.2030 Y-23.2392 Z0.1535
G1 X42.2030 Y-22.9477 Z0.1627
G1 X42.2030 Y-22.6561 Z0.1630
G1 X42.2030 Y-22.3646 Z0.1543
G1 X42.2030 Y-22.0735 Z0.1367
G1 X42.2030 Y-21.7831 Z0.1102
G0 Z0.3618
G0 X42.2030 Y-21.7831 
G0 Z0.3618
G0 X43.4780 Y-23.6334 
G1 X43.4780 Y-23.6334 Z0.2118 F75.
G1 X43.4780 Y-23.7084 Z0.1985 F21.
G1 X43.4780 Y-23.8035 Z0.1818
G1 X43.4780 Y-23.5180 Z0.2080 F22.
G1 X43.4780 Y-23.2318 Z0.2255
G1 X43.4780 Y-22.9452 Z0.2344
G1 X43.4780 Y-22.6584 Z0.2347
G1 X43.4780 Y-22.3718 Z0.2263
G1 X43.4780 Y-22.0856 Z0.2093
G1 X43.4780 Y-21.8000 Z0.1836
G0 Z0.3474
G0 X43.4780 Y-21.8000 
G0 Z0.3474
G0 X43.4780 Y-23.6334 
G1 X43.4780 Y-23.6334 Z0.1974 F75.
G1 X43.4780 Y-23.7084 Z0.1842 F21.
G1 X43.4780 Y-23.8035 Z0.1674
G1 X43.4780 Y-23.5180 Z0.1936 F22.
G1 X43.4780 Y-23.2318 Z0.2112
G1 X43.4780 Y-22.9452 Z0.2201
G1 X43.4780 Y-22.6584 Z0.2204
G1 X43.4780 Y-22.3718 Z0.2120
G1 X43.4780 Y-22.0856 Z0.1950
G1 X43.4780 Y-21.8000 Z0.1693
G0 Z0.3331
G0 X43.4780 Y-21.8000 
G0 Z0.3331
G0 X43.4780 Y-23.6334 
G1 X43.4780 Y-23.6334 Z0.1831 F75.
G1 X43.4780 Y-23.7084 Z0.1699 F21.
G1 X43.4780 Y-23.8035 Z0.1531
G1 X43.4780 Y-23.5180 Z0.1793 F22.
G1 X43.4780 Y-23.2318 Z0.1969
G1 X43.4780 Y-22.9452 Z0.2058
G1 X43.4780 Y-22.6584 Z0.2061
G1 X43.4780 Y-22.3718 Z0.1977
G1 X43.4780 Y-22.0856 Z0.1806
G1 X43.4780 Y-21.8000 Z0.1550
G0 Z0.3188
G0 X43.4780 Y-21.8000 
G0 Z0.3188
G0 X43.4780 Y-23.6334 
G1 X43.4780 Y-23.6334 Z0.1688 F75.
G1 X43.4780 Y-23.7084 Z0.1555 F21.
G1 X43.4780 Y-23.8035 Z0.1388
G1 X43.4780 Y-23.5180 Z0.1650 F22.
G1 X43.4780 Y-23.2318 Z0.1825
G1 X43.4780 Y-22.9452 Z0.1914
G1 X43.4780 Y-22.6584 Z0.1917
G1 X43.4780 Y-22.3718 Z0.1833
G1 X43.4780 Y-22.0856 Z0.1663
G1 X43.4780 Y-21.8000 Z0.1406
G0 Z0.3044
G0 X43.4780 Y-21.8000 
G0 Z0.3044
G0 X43.4780 Y-23.6334 
G1 X43.4780 Y-23.6334 Z0.1544 F75.
G1 X43.4780 Y-23.7084 Z0.1412 F21.
G1 X43.4780 Y-23.8035 Z0.1244
G1 X43.4780 Y-23.5180 Z0.1506 F22.
G1 X43.4780 Y-23.2318 Z0.1682
G1 X43.4780 Y-22.9452 Z0.1771
G1 X43.4780 Y-22.6584 Z0.1774
G1 X43.4780 Y-22.3718 Z0.1690
G1 X43.4780 Y-22.0856 Z0.1520
G1 X43.4780 Y-21.8000 Z0.1263
G0 Z0.2901
G0 X43.4780 Y-21.8000 
G0 Z0.2901
G0 X43.4780 Y-23.6334 
G1 X43.4780 Y-23.6334 Z0.1401 F75.
G1 X43.4780 Y-23.7084 Z0.1269 F21.
G1 X43.4780 Y-23.8035 Z0.1101
G1 X43.4780 Y-23.5180 Z0.1363 F22.
G1 X43.4780 Y-23.2318 Z0.1539
G1 X43.4780 Y-22.9452 Z0.1628
G1 X43.4780 Y-22.6584 Z0.1631
G1 X43.4780 Y-22.3718 Z0.1547
G1 X43.4780 Y-22.0856 Z0.1376
G1 X43.4780 Y-21.8000 Z0.1120
G0 Z0.3637
G0 X43.4780 Y-21.8000 
G0 Z0.3637
G0 X44.8289 Y-23.6152 
G1 X44.8289 Y-23.6152 Z0.2137 F75.
G1 X44.8289 Y-23.6920 Z0.2001 F21.
G1 X44.8289 Y-23.7853 Z0.1837
G1 X44.8289 Y-23.5049 Z0.2089 F22.
G1 X44.8289 Y-23.2239 Z0.2259
G1 X44.8289 Y-22.9425 Z0.2345
G1 X44.8289 Y-22.6609 Z0.2348
G1 X44.8289 Y-22.3795 Z0.2267
G1 X44.8289 Y-22.0984 Z0.2103
G1 X44.8289 Y-21.8180 Z0.1855
G0 Z0.3493
G0 X44.8289 Y-21.8180 
G0 Z0.3493
G0 X44.8289 Y-23.6152 
G1 X44.8289 Y-23.6152 Z0.1993 F75.
G1 X44.8289 Y-23.6920 Z0.1858 F21.
G1 X44.8289 Y-23.7853 Z0.1693
G1 X44.8289 Y-23.5049 Z0.1946 F22.
G1 X44.8289 Y-23.2239 Z0.2116
G1 X44.8289 Y-22.9425 Z0.2202
G1 X44.8289 Y-22.6609 Z0.2204
G1 X44.8289 Y-22.3795 Z0.2123
G1 X44.8289 Y-22.0984 Z0.1959
G1 X44.8289 Y-21.8180 Z0.1712
G0 Z0.3350
G0 X44.8289 Y-21.8180 
G0 Z0.3350
G0 X44.8289 Y-23.6152 
G1 X44.8289 Y-23.6152 Z0.1850 F75.
G1 X44.8289 Y-23.6920 Z0.1715 F21.
G1 X44.8289 Y-23.7853 Z0.1550
G1 X44.8289 Y-23.5049 Z0.1803 F22.
G1 X44.8289 Y-23.2239 Z0.1972
G1 X44.8289 Y-22.9425 Z0.2058
G1 X44.8289 Y-22.6609 Z0.2061
G1 X44.8289 Y-22.3795 Z0.1980
G1 X44.8289 Y-22.0984 Z0.1816
G1 X44.8289 Y-21.8180 Z0.1568
G0 Z0.3207
G0 X44.8289 Y-21.8180 
G0 Z0.3207
G0 X44.8289 Y-23.6152 
G1 X44.8289 Y-23.6152 Z0.1707 F75.
G1 X44.8289 Y-23.6920 Z0.1571 F21.
G1 X44.8289 Y-23.7853 Z0.1407
G1 X44.8289 Y-23.5049 Z0.1659 F22.
G1 X44.8289 Y-23.2239 Z0.1829
G1 X44.8289 Y-22.9425 Z0.1915
G1 X44.8289 Y-22.6609 Z0.1918
G1 X44.8289 Y-22.3795 Z0.1837
G1 X44.8289 Y-22.0984 Z0.1673
G1 X44.8289 Y-21.8180 Z0.1425
G0 Z0.3063
G0 X44.8289 Y-21.8180 
G0 Z0.3063
G0 X44.8289 Y-23.6152 
G1 X44.8289 Y-23.6152 Z0.1563 F75.
G1 X44.8289 Y-23.6920 Z0.1428 F21.
G1 X44.8289 Y-23.7853 Z0.1263
G1 X44.8289 Y-23.5049 Z0.1516 F22.
G1 X44.8289 Y-23.2239 Z0.1686
G1 X44.8289 Y-22.9425 Z0.1772
G1 X44.8289 Y-22.6609 Z0.1774
G1 X44.8289 Y-22.3795 Z0.1693
G1 X44.8289 Y-22.0984 Z0.1529
G1 X44.8289 Y-21.8180 Z0.1282
G0 Z0.2920
G0 X44.8289 Y-21.8180 
G0 Z0.2920
G0 X44.8289 Y-23.6152 
G1 X44.8289 Y-23.6152 Z0.1420 F75.
G1 X44.8289 Y-23.6920 Z0.1285 F21.
G1 X44.8289 Y-23.7853 Z0.1120
G1 X44.8289 Y-23.5049 Z0.1373 F22.
G1 X44.8289 Y-23.2239 Z0.1542
G1 X44.8289 Y-22.9425 Z0.1628
G1 X44.8289 Y-22.6609 Z0.1631
G1 X44.8289 Y-22.3795 Z0.1550
G1 X44.8289 Y-22.0984 Z0.1386
G1 X44.8289 Y-21.8180 Z0.1138
G0 Z4.0000
G0 X44.8289 Y-21.8180 
M5
G53 Z
X2Y0
