( MOP:  03-frets-r1016-s25PT5-NFrets22-StandardDepth-StandardKerf )
( FILE: G:\Shared drives\AlloyProjectFiles\Customer CAD files\Alloy-Standard-Builds-CAM\Fingerboards-in\03-frets-r1016-s25PT5-NFrets22-StandardDepth-StandardKerf.nc)
G90
(  BEGIN TOOL LIST )
(  TOOL 15 - Fretkerf PT025 - DESC: 0.0250 DIA, 2 FLUTE,  CARBIDE MAT )
(  ENDOF TOOL LIST )
( 03-frets-r1016-s25PT5-NFrets22-StandardDepth-StandardKerf)
T15
S14000
M3
G0 Z4.0000
G0 X27.9158 Y-23.8993 
G1 X27.9158 Y-23.8993 Z0.2098 F21.
G1 X27.9158 Y-23.9264 Z0.2050
G1 X27.9158 Y-24.0127 Z0.1898
G1 X27.9158 Y-23.9264 Z0.1961 F22.
G1 X27.9158 Y-23.8401 Z0.2019
G1 X27.9158 Y-23.7538 Z0.2073
G1 X27.9158 Y-23.6675 Z0.2122
G1 X27.9158 Y-23.5811 Z0.2167
G1 X27.9158 Y-23.4947 Z0.2206
G1 X27.9158 Y-23.4083 Z0.2242
G1 X27.9158 Y-23.3219 Z0.2272
G1 X27.9158 Y-23.2354 Z0.2298
G1 X27.9158 Y-23.1489 Z0.2319
G1 X27.9158 Y-23.0625 Z0.2335
G1 X27.9158 Y-22.9760 Z0.2347
G1 X27.9158 Y-22.8895 Z0.2354
G1 X27.9158 Y-22.8030 Z0.2357
G1 X27.9158 Y-22.7165 Z0.2354
G1 X27.9158 Y-22.6301 Z0.2348
G1 X27.9158 Y-22.5436 Z0.2336
G1 X27.9158 Y-22.4571 Z0.2320
G1 X27.9158 Y-22.3706 Z0.2299
G1 X27.9158 Y-22.2842 Z0.2273
G1 X27.9158 Y-22.1978 Z0.2243
G1 X27.9158 Y-22.1114 Z0.2208
G1 X27.9158 Y-22.0250 Z0.2168
G1 X27.9158 Y-21.9386 Z0.2124
G1 X27.9158 Y-21.8522 Z0.2075
G1 X27.9158 Y-21.7659 Z0.2021
G1 X27.9158 Y-21.6796 Z0.1963
G1 X27.9158 Y-21.5934 Z0.1900
G0 Z0.3704
G0 X27.9158 Y-21.5934 
G0 Z0.3704
G0 X27.9158 Y-23.8993 
G1 X27.9158 Y-23.8993 Z0.1954 F21.
G1 X27.9158 Y-23.9264 Z0.1906
G1 X27.9158 Y-24.0127 Z0.1754
G1 X27.9158 Y-23.9264 Z0.1818 F22.
G1 X27.9158 Y-23.8401 Z0.1876
G1 X27.9158 Y-23.7538 Z0.1930
G1 X27.9158 Y-23.6675 Z0.1979
G1 X27.9158 Y-23.5811 Z0.2023
G1 X27.9158 Y-23.4947 Z0.2063
G1 X27.9158 Y-23.4083 Z0.2098
G1 X27.9158 Y-23.3219 Z0.2129
G1 X27.9158 Y-23.2354 Z0.2155
G1 X27.9158 Y-23.1489 Z0.2176
G1 X27.9158 Y-23.0625 Z0.2192
G1 X27.9158 Y-22.9760 Z0.2204
G1 X27.9158 Y-22.8895 Z0.2211
G1 X27.9158 Y-22.8030 Z0.2213
G1 X27.9158 Y-22.7165 Z0.2211
G1 X27.9158 Y-22.6301 Z0.2204
G1 X27.9158 Y-22.5436 Z0.2193
G1 X27.9158 Y-22.4571 Z0.2176
G1 X27.9158 Y-22.3706 Z0.2155
G1 X27.9158 Y-22.2842 Z0.2130
G1 X27.9158 Y-22.1978 Z0.2099
G1 X27.9158 Y-22.1114 Z0.2064
G1 X27.9158 Y-22.0250 Z0.2025
G1 X27.9158 Y-21.9386 Z0.1981
G1 X27.9158 Y-21.8522 Z0.1932
G1 X27.9158 Y-21.7659 Z0.1878
G1 X27.9158 Y-21.6796 Z0.1820
G1 X27.9158 Y-21.5934 Z0.1757
G0 Z0.3561
G0 X27.9158 Y-21.5934 
G0 Z0.3561
G0 X27.9158 Y-23.8993 
G1 X27.9158 Y-23.8993 Z0.1811 F21.
G1 X27.9158 Y-23.9264 Z0.1763
G1 X27.9158 Y-24.0127 Z0.1611
G1 X27.9158 Y-23.9264 Z0.1674 F22.
G1 X27.9158 Y-23.8401 Z0.1733
G1 X27.9158 Y-23.7538 Z0.1786
G1 X27.9158 Y-23.6675 Z0.1836
G1 X27.9158 Y-23.5811 Z0.1880
G1 X27.9158 Y-23.4947 Z0.1920
G1 X27.9158 Y-23.4083 Z0.1955
G1 X27.9158 Y-23.3219 Z0.1985
G1 X27.9158 Y-23.2354 Z0.2011
G1 X27.9158 Y-23.1489 Z0.2032
G1 X27.9158 Y-23.0625 Z0.2049
G1 X27.9158 Y-22.9760 Z0.2061
G1 X27.9158 Y-22.8895 Z0.2068
G1 X27.9158 Y-22.8030 Z0.2070
G1 X27.9158 Y-22.7165 Z0.2068
G1 X27.9158 Y-22.6301 Z0.2061
G1 X27.9158 Y-22.5436 Z0.2049
G1 X27.9158 Y-22.4571 Z0.2033
G1 X27.9158 Y-22.3706 Z0.2012
G1 X27.9158 Y-22.2842 Z0.1986
G1 X27.9158 Y-22.1978 Z0.1956
G1 X27.9158 Y-22.1114 Z0.1921
G1 X27.9158 Y-22.0250 Z0.1881
G1 X27.9158 Y-21.9386 Z0.1837
G1 X27.9158 Y-21.8522 Z0.1788
G1 X27.9158 Y-21.7659 Z0.1735
G1 X27.9158 Y-21.6796 Z0.1676
G1 X27.9158 Y-21.5934 Z0.1613
G0 Z0.3418
G0 X27.9158 Y-21.5934 
G0 Z0.3418
G0 X27.9158 Y-23.8993 
G1 X27.9158 Y-23.8993 Z0.1668 F21.
G1 X27.9158 Y-23.9264 Z0.1620
G1 X27.9158 Y-24.0127 Z0.1468
G1 X27.9158 Y-23.9264 Z0.1531 F22.
G1 X27.9158 Y-23.8401 Z0.1589
G1 X27.9158 Y-23.7538 Z0.1643
G1 X27.9158 Y-23.6675 Z0.1692
G1 X27.9158 Y-23.5811 Z0.1737
G1 X27.9158 Y-23.4947 Z0.1776
G1 X27.9158 Y-23.4083 Z0.1812
G1 X27.9158 Y-23.3219 Z0.1842
G1 X27.9158 Y-23.2354 Z0.1868
G1 X27.9158 Y-23.1489 Z0.1889
G1 X27.9158 Y-23.0625 Z0.1905
G1 X27.9158 Y-22.9760 Z0.1917
G1 X27.9158 Y-22.8895 Z0.1924
G1 X27.9158 Y-22.8030 Z0.1927
G1 X27.9158 Y-22.7165 Z0.1924
G1 X27.9158 Y-22.6301 Z0.1918
G1 X27.9158 Y-22.5436 Z0.1906
G1 X27.9158 Y-22.4571 Z0.1890
G1 X27.9158 Y-22.3706 Z0.1869
G1 X27.9158 Y-22.2842 Z0.1843
G1 X27.9158 Y-22.1978 Z0.1813
G1 X27.9158 Y-22.1114 Z0.1778
G1 X27.9158 Y-22.0250 Z0.1738
G1 X27.9158 Y-21.9386 Z0.1694
G1 X27.9158 Y-21.8522 Z0.1645
G1 X27.9158 Y-21.7659 Z0.1591
G1 X27.9158 Y-21.6796 Z0.1533
G1 X27.9158 Y-21.5934 Z0.1470
G0 Z0.3274
G0 X27.9158 Y-21.5934 
G0 Z0.3274
G0 X27.9158 Y-23.8993 
G1 X27.9158 Y-23.8993 Z0.1524 F21.
G1 X27.9158 Y-23.9264 Z0.1476
G1 X27.9158 Y-24.0127 Z0.1324
G1 X27.9158 Y-23.9264 Z0.1388 F22.
G1 X27.9158 Y-23.8401 Z0.1446
G1 X27.9158 Y-23.7538 Z0.1500
G1 X27.9158 Y-23.6675 Z0.1549
G1 X27.9158 Y-23.5811 Z0.1593
G1 X27.9158 Y-23.4947 Z0.1633
G1 X27.9158 Y-23.4083 Z0.1668
G1 X27.9158 Y-23.3219 Z0.1699
G1 X27.9158 Y-23.2354 Z0.1725
G1 X27.9158 Y-23.1489 Z0.1746
G1 X27.9158 Y-23.0625 Z0.1762
G1 X27.9158 Y-22.9760 Z0.1774
G1 X27.9158 Y-22.8895 Z0.1781
G1 X27.9158 Y-22.8030 Z0.1783
G1 X27.9158 Y-22.7165 Z0.1781
G1 X27.9158 Y-22.6301 Z0.1774
G1 X27.9158 Y-22.5436 Z0.1763
G1 X27.9158 Y-22.4571 Z0.1746
G1 X27.9158 Y-22.3706 Z0.1725
G1 X27.9158 Y-22.2842 Z0.1700
G1 X27.9158 Y-22.1978 Z0.1669
G1 X27.9158 Y-22.1114 Z0.1634
G1 X27.9158 Y-22.0250 Z0.1595
G1 X27.9158 Y-21.9386 Z0.1551
G1 X27.9158 Y-21.8522 Z0.1502
G1 X27.9158 Y-21.7659 Z0.1448
G1 X27.9158 Y-21.6796 Z0.1390
G1 X27.9158 Y-21.5934 Z0.1327
G0 Z0.3131
G0 X27.9158 Y-21.5934 
G0 Z0.3131
G0 X27.9158 Y-23.8993 
G1 X27.9158 Y-23.8993 Z0.1381 F21.
G1 X27.9158 Y-23.9264 Z0.1333
G1 X27.9158 Y-24.0127 Z0.1181
G1 X27.9158 Y-23.9264 Z0.1244 F22.
G1 X27.9158 Y-23.8401 Z0.1303
G1 X27.9158 Y-23.7538 Z0.1356
G1 X27.9158 Y-23.6675 Z0.1406
G1 X27.9158 Y-23.5811 Z0.1450
G1 X27.9158 Y-23.4947 Z0.1490
G1 X27.9158 Y-23.4083 Z0.1525
G1 X27.9158 Y-23.3219 Z0.1555
G1 X27.9158 Y-23.2354 Z0.1581
G1 X27.9158 Y-23.1489 Z0.1602
G1 X27.9158 Y-23.0625 Z0.1619
G1 X27.9158 Y-22.9760 Z0.1631
G1 X27.9158 Y-22.8895 Z0.1638
G1 X27.9158 Y-22.8030 Z0.1640
G1 X27.9158 Y-22.7165 Z0.1638
G1 X27.9158 Y-22.6301 Z0.1631
G1 X27.9158 Y-22.5436 Z0.1619
G1 X27.9158 Y-22.4571 Z0.1603
G1 X27.9158 Y-22.3706 Z0.1582
G1 X27.9158 Y-22.2842 Z0.1556
G1 X27.9158 Y-22.1978 Z0.1526
G1 X27.9158 Y-22.1114 Z0.1491
G1 X27.9158 Y-22.0250 Z0.1451
G1 X27.9158 Y-21.9386 Z0.1407
G1 X27.9158 Y-21.8522 Z0.1358
G1 X27.9158 Y-21.7659 Z0.1305
G1 X27.9158 Y-21.6796 Z0.1246
G1 X27.9158 Y-21.5934 Z0.1183
G0 Z0.3848
G0 X27.9158 Y-21.5934 
G0 Z0.3848
G0 X28.3413 Y-23.8935 
G1 X28.3413 Y-23.8935 Z0.2098 F21.
G1 X28.3413 Y-23.9211 Z0.2049
G1 X28.3413 Y-24.0070 Z0.1898
G1 X28.3413 Y-23.9211 Z0.1961 F22.
G1 X28.3413 Y-23.8352 Z0.2019
G1 X28.3413 Y-23.7493 Z0.2073
G1 X28.3413 Y-23.6634 Z0.2123
G1 X28.3413 Y-23.5774 Z0.2167
G1 X28.3412 Y-23.4914 Z0.2207
G1 X28.3412 Y-23.4054 Z0.2242
G1 X28.3412 Y-23.3194 Z0.2273
G1 X28.3412 Y-23.2333 Z0.2299
G1 X28.3412 Y-23.1473 Z0.2320
G1 X28.3412 Y-23.0612 Z0.2336
G1 X28.3412 Y-22.9752 Z0.2348
G1 X28.3412 Y-22.8891 Z0.2355
G1 X28.3412 Y-22.8030 Z0.2358
G1 X28.3412 Y-22.7169 Z0.2355
G1 X28.3412 Y-22.6308 Z0.2349
G1 X28.3412 Y-22.5448 Z0.2337
G1 X28.3412 Y-22.4587 Z0.2321
G1 X28.3412 Y-22.3726 Z0.2300
G1 X28.3412 Y-22.2866 Z0.2274
G1 X28.3412 Y-22.2006 Z0.2243
G1 X28.3412 Y-22.1146 Z0.2208
G1 X28.3413 Y-22.0286 Z0.2169
G1 X28.3413 Y-21.9426 Z0.2124
G1 X28.3413 Y-21.8567 Z0.2075
G1 X28.3413 Y-21.7708 Z0.2021
G1 X28.3413 Y-21.6849 Z0.1963
G1 X28.3413 Y-21.5990 Z0.1900
G0 Z0.3704
G0 X28.3413 Y-21.5990 
G0 Z0.3704
G0 X28.3413 Y-23.8935 
G1 X28.3413 Y-23.8935 Z0.1954 F21.
G1 X28.3413 Y-23.9211 Z0.1906
G1 X28.3413 Y-24.0070 Z0.1754
G1 X28.3413 Y-23.9211 Z0.1818 F22.
G1 X28.3413 Y-23.8352 Z0.1876
G1 X28.3413 Y-23.7493 Z0.1930
G1 X28.3413 Y-23.6634 Z0.1979
G1 X28.3413 Y-23.5774 Z0.2024
G1 X28.3412 Y-23.4914 Z0.2064
G1 X28.3412 Y-23.4054 Z0.2099
G1 X28.3412 Y-23.3194 Z0.2130
G1 X28.3412 Y-23.2333 Z0.2155
G1 X28.3412 Y-23.1473 Z0.2177
G1 X28.3412 Y-23.0612 Z0.2193
G1 X28.3412 Y-22.9752 Z0.2205
G1 X28.3412 Y-22.8891 Z0.2212
G1 X28.3412 Y-22.8030 Z0.2214
G1 X28.3412 Y-22.7169 Z0.2212
G1 X28.3412 Y-22.6308 Z0.2205
G1 X28.3412 Y-22.5448 Z0.2194
G1 X28.3412 Y-22.4587 Z0.2177
G1 X28.3412 Y-22.3726 Z0.2156
G1 X28.3412 Y-22.2866 Z0.2131
G1 X28.3412 Y-22.2006 Z0.2100
G1 X28.3412 Y-22.1146 Z0.2065
G1 X28.3413 Y-22.0286 Z0.2025
G1 X28.3413 Y-21.9426 Z0.1981
G1 X28.3413 Y-21.8567 Z0.1932
G1 X28.3413 Y-21.7708 Z0.1878
G1 X28.3413 Y-21.6849 Z0.1820
G1 X28.3413 Y-21.5990 Z0.1756
G0 Z0.3561
G0 X28.3413 Y-21.5990 
G0 Z0.3561
G0 X28.3413 Y-23.8935 
G1 X28.3413 Y-23.8935 Z0.1811 F21.
G1 X28.3413 Y-23.9211 Z0.1762
G1 X28.3413 Y-24.0070 Z0.1611
G1 X28.3413 Y-23.9211 Z0.1674 F22.
G1 X28.3413 Y-23.8352 Z0.1733
G1 X28.3413 Y-23.7493 Z0.1787
G1 X28.3413 Y-23.6634 Z0.1836
G1 X28.3413 Y-23.5774 Z0.1881
G1 X28.3412 Y-23.4914 Z0.1920
G1 X28.3412 Y-23.4054 Z0.1956
G1 X28.3412 Y-23.3194 Z0.1986
G1 X28.3412 Y-23.2333 Z0.2012
G1 X28.3412 Y-23.1473 Z0.2033
G1 X28.3412 Y-23.0612 Z0.2050
G1 X28.3412 Y-22.9752 Z0.2062
G1 X28.3412 Y-22.8891 Z0.2069
G1 X28.3412 Y-22.8030 Z0.2071
G1 X28.3412 Y-22.7169 Z0.2069
G1 X28.3412 Y-22.6308 Z0.2062
G1 X28.3412 Y-22.5448 Z0.2050
G1 X28.3412 Y-22.4587 Z0.2034
G1 X28.3412 Y-22.3726 Z0.2013
G1 X28.3412 Y-22.2866 Z0.1987
G1 X28.3412 Y-22.2006 Z0.1957
G1 X28.3412 Y-22.1146 Z0.1922
G1 X28.3413 Y-22.0286 Z0.1882
G1 X28.3413 Y-21.9426 Z0.1838
G1 X28.3413 Y-21.8567 Z0.1788
G1 X28.3413 Y-21.7708 Z0.1735
G1 X28.3413 Y-21.6849 Z0.1676
G1 X28.3413 Y-21.5990 Z0.1613
G0 Z0.3418
G0 X28.3413 Y-21.5990 
G0 Z0.3418
G0 X28.3413 Y-23.8935 
G1 X28.3413 Y-23.8935 Z0.1668 F21.
G1 X28.3413 Y-23.9211 Z0.1619
G1 X28.3413 Y-24.0070 Z0.1468
G1 X28.3413 Y-23.9211 Z0.1531 F22.
G1 X28.3413 Y-23.8352 Z0.1589
G1 X28.3413 Y-23.7493 Z0.1643
G1 X28.3413 Y-23.6634 Z0.1693
G1 X28.3413 Y-23.5774 Z0.1737
G1 X28.3412 Y-23.4914 Z0.1777
G1 X28.3412 Y-23.4054 Z0.1812
G1 X28.3412 Y-23.3194 Z0.1843
G1 X28.3412 Y-23.2333 Z0.1869
G1 X28.3412 Y-23.1473 Z0.1890
G1 X28.3412 Y-23.0612 Z0.1906
G1 X28.3412 Y-22.9752 Z0.1918
G1 X28.3412 Y-22.8891 Z0.1925
G1 X28.3412 Y-22.8030 Z0.1928
G1 X28.3412 Y-22.7169 Z0.1925
G1 X28.3412 Y-22.6308 Z0.1919
G1 X28.3412 Y-22.5448 Z0.1907
G1 X28.3412 Y-22.4587 Z0.1891
G1 X28.3412 Y-22.3726 Z0.1870
G1 X28.3412 Y-22.2866 Z0.1844
G1 X28.3412 Y-22.2006 Z0.1813
G1 X28.3412 Y-22.1146 Z0.1778
G1 X28.3413 Y-22.0286 Z0.1739
G1 X28.3413 Y-21.9426 Z0.1694
G1 X28.3413 Y-21.8567 Z0.1645
G1 X28.3413 Y-21.7708 Z0.1591
G1 X28.3413 Y-21.6849 Z0.1533
G1 X28.3413 Y-21.5990 Z0.1470
G0 Z0.3274
G0 X28.3413 Y-21.5990 
G0 Z0.3274
G0 X28.3413 Y-23.8935 
G1 X28.3413 Y-23.8935 Z0.1524 F21.
G1 X28.3413 Y-23.9211 Z0.1476
G1 X28.3413 Y-24.0070 Z0.1324
G1 X28.3413 Y-23.9211 Z0.1388 F22.
G1 X28.3413 Y-23.8352 Z0.1446
G1 X28.3413 Y-23.7493 Z0.1500
G1 X28.3413 Y-23.6634 Z0.1549
G1 X28.3413 Y-23.5774 Z0.1594
G1 X28.3412 Y-23.4914 Z0.1634
G1 X28.3412 Y-23.4054 Z0.1669
G1 X28.3412 Y-23.3194 Z0.1700
G1 X28.3412 Y-23.2333 Z0.1725
G1 X28.3412 Y-23.1473 Z0.1747
G1 X28.3412 Y-23.0612 Z0.1763
G1 X28.3412 Y-22.9752 Z0.1775
G1 X28.3412 Y-22.8891 Z0.1782
G1 X28.3412 Y-22.8030 Z0.1784
G1 X28.3412 Y-22.7169 Z0.1782
G1 X28.3412 Y-22.6308 Z0.1775
G1 X28.3412 Y-22.5448 Z0.1764
G1 X28.3412 Y-22.4587 Z0.1747
G1 X28.3412 Y-22.3726 Z0.1726
G1 X28.3412 Y-22.2866 Z0.1701
G1 X28.3412 Y-22.2006 Z0.1670
G1 X28.3412 Y-22.1146 Z0.1635
G1 X28.3413 Y-22.0286 Z0.1595
G1 X28.3413 Y-21.9426 Z0.1551
G1 X28.3413 Y-21.8567 Z0.1502
G1 X28.3413 Y-21.7708 Z0.1448
G1 X28.3413 Y-21.6849 Z0.1390
G1 X28.3413 Y-21.5990 Z0.1326
G0 Z0.3131
G0 X28.3413 Y-21.5990 
G0 Z0.3131
G0 X28.3413 Y-23.8935 
G1 X28.3413 Y-23.8935 Z0.1381 F21.
G1 X28.3413 Y-23.9211 Z0.1332
G1 X28.3413 Y-24.0070 Z0.1181
G1 X28.3413 Y-23.9211 Z0.1244 F22.
G1 X28.3413 Y-23.8352 Z0.1303
G1 X28.3413 Y-23.7493 Z0.1357
G1 X28.3413 Y-23.6634 Z0.1406
G1 X28.3413 Y-23.5774 Z0.1451
G1 X28.3412 Y-23.4914 Z0.1490
G1 X28.3412 Y-23.4054 Z0.1526
G1 X28.3412 Y-23.3194 Z0.1556
G1 X28.3412 Y-23.2333 Z0.1582
G1 X28.3412 Y-23.1473 Z0.1603
G1 X28.3412 Y-23.0612 Z0.1620
G1 X28.3412 Y-22.9752 Z0.1632
G1 X28.3412 Y-22.8891 Z0.1639
G1 X28.3412 Y-22.8030 Z0.1641
G1 X28.3412 Y-22.7169 Z0.1639
G1 X28.3412 Y-22.6308 Z0.1632
G1 X28.3412 Y-22.5448 Z0.1620
G1 X28.3412 Y-22.4587 Z0.1604
G1 X28.3412 Y-22.3726 Z0.1583
G1 X28.3412 Y-22.2866 Z0.1557
G1 X28.3412 Y-22.2006 Z0.1527
G1 X28.3412 Y-22.1146 Z0.1492
G1 X28.3413 Y-22.0286 Z0.1452
G1 X28.3413 Y-21.9426 Z0.1408
G1 X28.3413 Y-21.8567 Z0.1358
G1 X28.3413 Y-21.7708 Z0.1305
G1 X28.3413 Y-21.6849 Z0.1246
G1 X28.3413 Y-21.5990 Z0.1183
G0 Z0.3847
G0 X28.3413 Y-21.5990 
G0 Z0.3847
G0 X28.7921 Y-23.8875 
G1 X28.7921 Y-23.8875 Z0.2097 F21.
G1 X28.7921 Y-24.0009 Z0.1897
G1 X28.7921 Y-23.8015 Z0.2038 F22.
G1 X28.7919 Y-23.5519 Z0.2177
G1 X28.7917 Y-23.3019 Z0.2277
G1 X28.7917 Y-23.0518 Z0.2337
G1 X28.7916 Y-22.8015 Z0.2357
G1 X28.7917 Y-22.5513 Z0.2337
G1 X28.7917 Y-22.3011 Z0.2277
G1 X28.7919 Y-22.0512 Z0.2177
G1 X28.7921 Y-21.8015 Z0.2038
G1 X28.7921 Y-21.6050 Z0.1900
G0 Z0.3704
G0 X28.7921 Y-21.6050 
G0 Z0.3704
G0 X28.7921 Y-23.8875 
G1 X28.7921 Y-23.8875 Z0.1954 F21.
G1 X28.7921 Y-24.0009 Z0.1754
G1 X28.7921 Y-23.8015 Z0.1894 F22.
G1 X28.7919 Y-23.5519 Z0.2034
G1 X28.7917 Y-23.3019 Z0.2134
G1 X28.7917 Y-23.0518 Z0.2193
G1 X28.7916 Y-22.8015 Z0.2213
G1 X28.7917 Y-22.5513 Z0.2193
G1 X28.7917 Y-22.3011 Z0.2134
G1 X28.7919 Y-22.0512 Z0.2034
G1 X28.7921 Y-21.8015 Z0.1894
G1 X28.7921 Y-21.6050 Z0.1756
G0 Z0.3561
G0 X28.7921 Y-21.6050 
G0 Z0.3561
G0 X28.7921 Y-23.8875 
G1 X28.7921 Y-23.8875 Z0.1811 F21.
G1 X28.7921 Y-24.0009 Z0.1611
G1 X28.7921 Y-23.8015 Z0.1751 F22.
G1 X28.7919 Y-23.5519 Z0.1890
G1 X28.7917 Y-23.3019 Z0.1990
G1 X28.7917 Y-23.0518 Z0.2050
G1 X28.7916 Y-22.8015 Z0.2070
G1 X28.7917 Y-22.5513 Z0.2050
G1 X28.7917 Y-22.3011 Z0.1990
G1 X28.7919 Y-22.0512 Z0.1890
G1 X28.7921 Y-21.8015 Z0.1751
G1 X28.7921 Y-21.6050 Z0.1613
G0 Z0.3417
G0 X28.7921 Y-21.6050 
G0 Z0.3417
G0 X28.7921 Y-23.8875 
G1 X28.7921 Y-23.8875 Z0.1667 F21.
G1 X28.7921 Y-24.0009 Z0.1467
G1 X28.7921 Y-23.8015 Z0.1608 F22.
G1 X28.7919 Y-23.5519 Z0.1747
G1 X28.7917 Y-23.3019 Z0.1847
G1 X28.7917 Y-23.0518 Z0.1907
G1 X28.7916 Y-22.8015 Z0.1927
G1 X28.7917 Y-22.5513 Z0.1907
G1 X28.7917 Y-22.3011 Z0.1847
G1 X28.7919 Y-22.0512 Z0.1747
G1 X28.7921 Y-21.8015 Z0.1608
G1 X28.7921 Y-21.6050 Z0.1470
G0 Z0.3274
G0 X28.7921 Y-21.6050 
G0 Z0.3274
G0 X28.7921 Y-23.8875 
G1 X28.7921 Y-23.8875 Z0.1524 F21.
G1 X28.7921 Y-24.0009 Z0.1324
G1 X28.7921 Y-23.8015 Z0.1464 F22.
G1 X28.7919 Y-23.5519 Z0.1604
G1 X28.7917 Y-23.3019 Z0.1704
G1 X28.7917 Y-23.0518 Z0.1763
G1 X28.7916 Y-22.8015 Z0.1783
G1 X28.7917 Y-22.5513 Z0.1763
G1 X28.7917 Y-22.3011 Z0.1704
G1 X28.7919 Y-22.0512 Z0.1604
G1 X28.7921 Y-21.8015 Z0.1464
G1 X28.7921 Y-21.6050 Z0.1326
G0 Z0.3131
G0 X28.7921 Y-21.6050 
G0 Z0.3131
G0 X28.7921 Y-23.8875 
G1 X28.7921 Y-23.8875 Z0.1381 F21.
G1 X28.7921 Y-24.0009 Z0.1181
G1 X28.7921 Y-23.8015 Z0.1321 F22.
G1 X28.7919 Y-23.5519 Z0.1460
G1 X28.7917 Y-23.3019 Z0.1560
G1 X28.7917 Y-23.0518 Z0.1620
G1 X28.7916 Y-22.8015 Z0.1640
G1 X28.7917 Y-22.5513 Z0.1620
G1 X28.7917 Y-22.3011 Z0.1560
G1 X28.7919 Y-22.0512 Z0.1460
G1 X28.7921 Y-21.8015 Z0.1321
G1 X28.7921 Y-21.6050 Z0.1183
G0 Z0.3847
G0 X28.7921 Y-21.6050 
G0 Z0.3847
G0 X29.2697 Y-23.8811 
G1 X29.2697 Y-23.8811 Z0.2097 F21.
G1 X29.2697 Y-23.9945 Z0.1897
G1 X29.2697 Y-23.5977 Z0.2152 F22.
G1 X29.2697 Y-23.2005 Z0.2305
G1 X29.2697 Y-22.8029 Z0.2357
G1 X29.2697 Y-22.4054 Z0.2306
G1 X29.2697 Y-22.0081 Z0.2154
G1 X29.2697 Y-21.6113 Z0.1899
G0 Z0.3704
G0 X29.2697 Y-21.6113 
G0 Z0.3704
G0 X29.2697 Y-23.8811 
G1 X29.2697 Y-23.8811 Z0.1954 F21.
G1 X29.2697 Y-23.9945 Z0.1754
G1 X29.2697 Y-23.5977 Z0.2009 F22.
G1 X29.2697 Y-23.2005 Z0.2162
G1 X29.2697 Y-22.8029 Z0.2213
G1 X29.2697 Y-22.4054 Z0.2163
G1 X29.2697 Y-22.0081 Z0.2010
G1 X29.2697 Y-21.6113 Z0.1756
G0 Z0.3561
G0 X29.2697 Y-21.6113 
G0 Z0.3561
G0 X29.2697 Y-23.8811 
G1 X29.2697 Y-23.8811 Z0.1811 F21.
G1 X29.2697 Y-23.9945 Z0.1611
G1 X29.2697 Y-23.5977 Z0.1866 F22.
G1 X29.2697 Y-23.2005 Z0.2019
G1 X29.2697 Y-22.8029 Z0.2070
G1 X29.2697 Y-22.4054 Z0.2019
G1 X29.2697 Y-22.0081 Z0.1867
G1 X29.2697 Y-21.6113 Z0.1613
G0 Z0.3417
G0 X29.2697 Y-21.6113 
G0 Z0.3417
G0 X29.2697 Y-23.8811 
G1 X29.2697 Y-23.8811 Z0.1667 F21.
G1 X29.2697 Y-23.9945 Z0.1467
G1 X29.2697 Y-23.5977 Z0.1722 F22.
G1 X29.2697 Y-23.2005 Z0.1875
G1 X29.2697 Y-22.8029 Z0.1927
G1 X29.2697 Y-22.4054 Z0.1876
G1 X29.2697 Y-22.0081 Z0.1724
G1 X29.2697 Y-21.6113 Z0.1469
G0 Z0.3274
G0 X29.2697 Y-21.6113 
G0 Z0.3274
G0 X29.2697 Y-23.8811 
G1 X29.2697 Y-23.8811 Z0.1524 F21.
G1 X29.2697 Y-23.9945 Z0.1324
G1 X29.2697 Y-23.5977 Z0.1579 F22.
G1 X29.2697 Y-23.2005 Z0.1732
G1 X29.2697 Y-22.8029 Z0.1783
G1 X29.2697 Y-22.4054 Z0.1733
G1 X29.2697 Y-22.0081 Z0.1580
G1 X29.2697 Y-21.6113 Z0.1326
G0 Z0.3131
G0 X29.2697 Y-21.6113 
G0 Z0.3131
G0 X29.2697 Y-23.8811 
G1 X29.2697 Y-23.8811 Z0.1381 F21.
G1 X29.2697 Y-23.9945 Z0.1181
G1 X29.2697 Y-23.5977 Z0.1436 F22.
G1 X29.2697 Y-23.2005 Z0.1589
G1 X29.2697 Y-22.8029 Z0.1640
G1 X29.2697 Y-22.4054 Z0.1589
G1 X29.2697 Y-22.0081 Z0.1437
G1 X29.2697 Y-21.6113 Z0.1183
G0 Z0.3847
G0 X29.2697 Y-21.6113 
G0 Z0.3847
G0 X29.7757 Y-23.8743 
G1 X29.7757 Y-23.8743 Z0.2097 F21.
G1 X29.7757 Y-23.9877 Z0.1897
G1 X29.7757 Y-23.5932 Z0.2152 F22.
G1 X29.7757 Y-23.1982 Z0.2305
G1 X29.7757 Y-22.8029 Z0.2357
G1 X29.7757 Y-22.4076 Z0.2306
G1 X29.7757 Y-22.0126 Z0.2154
G1 X29.7757 Y-21.6181 Z0.1899
G0 Z0.3704
G0 X29.7757 Y-21.6181 
G0 Z0.3704
G0 X29.7757 Y-23.8743 
G1 X29.7757 Y-23.8743 Z0.1954 F21.
G1 X29.7757 Y-23.9877 Z0.1754
G1 X29.7757 Y-23.5932 Z0.2009 F22.
G1 X29.7757 Y-23.1982 Z0.2162
G1 X29.7757 Y-22.8029 Z0.2213
G1 X29.7757 Y-22.4076 Z0.2163
G1 X29.7757 Y-22.0126 Z0.2010
G1 X29.7757 Y-21.6181 Z0.1756
G0 Z0.3560
G0 X29.7757 Y-21.6181 
G0 Z0.3560
G0 X29.7757 Y-23.8743 
G1 X29.7757 Y-23.8743 Z0.1810 F21.
G1 X29.7757 Y-23.9877 Z0.1610
G1 X29.7757 Y-23.5932 Z0.1865 F22.
G1 X29.7757 Y-23.1982 Z0.2019
G1 X29.7757 Y-22.8029 Z0.2070
G1 X29.7757 Y-22.4076 Z0.2019
G1 X29.7757 Y-22.0126 Z0.1867
G1 X29.7757 Y-21.6181 Z0.1612
G0 Z0.3417
G0 X29.7757 Y-21.6181 
G0 Z0.3417
G0 X29.7757 Y-23.8743 
G1 X29.7757 Y-23.8743 Z0.1667 F21.
G1 X29.7757 Y-23.9877 Z0.1467
G1 X29.7757 Y-23.5932 Z0.1722 F22.
G1 X29.7757 Y-23.1982 Z0.1875
G1 X29.7757 Y-22.8029 Z0.1927
G1 X29.7757 Y-22.4076 Z0.1876
G1 X29.7757 Y-22.0126 Z0.1724
G1 X29.7757 Y-21.6181 Z0.1469
G0 Z0.3274
G0 X29.7757 Y-21.6181 
G0 Z0.3274
G0 X29.7757 Y-23.8743 
G1 X29.7757 Y-23.8743 Z0.1524 F21.
G1 X29.7757 Y-23.9877 Z0.1324
G1 X29.7757 Y-23.5932 Z0.1579 F22.
G1 X29.7757 Y-23.1982 Z0.1732
G1 X29.7757 Y-22.8029 Z0.1783
G1 X29.7757 Y-22.4076 Z0.1733
G1 X29.7757 Y-22.0126 Z0.1580
G1 X29.7757 Y-21.6181 Z0.1326
G0 Z0.3130
G0 X29.7757 Y-21.6181 
G0 Z0.3130
G0 X29.7757 Y-23.8743 
G1 X29.7757 Y-23.8743 Z0.1380 F21.
G1 X29.7757 Y-23.9877 Z0.1180
G1 X29.7757 Y-23.5932 Z0.1435 F22.
G1 X29.7757 Y-23.1982 Z0.1589
G1 X29.7757 Y-22.8029 Z0.1640
G1 X29.7757 Y-22.4076 Z0.1589
G1 X29.7757 Y-22.0126 Z0.1437
G1 X29.7757 Y-21.6181 Z0.1182
G0 Z0.3847
G0 X29.7757 Y-21.6181 
G0 Z0.3847
G0 X30.3118 Y-23.8670 
G1 X30.3118 Y-23.8670 Z0.2097 F21.
G1 X30.3118 Y-23.9805 Z0.1897
G1 X30.3118 Y-23.5884 Z0.2152 F22.
G1 X30.3118 Y-23.1957 Z0.2305
G1 X30.3118 Y-22.8028 Z0.2357
G1 X30.3118 Y-22.4099 Z0.2306
G1 X30.3118 Y-22.0173 Z0.2153
G1 X30.3118 Y-21.6252 Z0.1899
G0 Z0.3704
G0 X30.3118 Y-21.6252 
G0 Z0.3704
G0 X30.3118 Y-23.8670 
G1 X30.3118 Y-23.8670 Z0.1954 F21.
G1 X30.3118 Y-23.9805 Z0.1754
G1 X30.3118 Y-23.5884 Z0.2009 F22.
G1 X30.3118 Y-23.1957 Z0.2162
G1 X30.3118 Y-22.8028 Z0.2213
G1 X30.3118 Y-22.4099 Z0.2163
G1 X30.3118 Y-22.0173 Z0.2010
G1 X30.3118 Y-21.6252 Z0.1756
G0 Z0.3560
G0 X30.3118 Y-21.6252 
G0 Z0.3560
G0 X30.3118 Y-23.8670 
G1 X30.3118 Y-23.8670 Z0.1810 F21.
G1 X30.3118 Y-23.9805 Z0.1610
G1 X30.3118 Y-23.5884 Z0.1865 F22.
G1 X30.3118 Y-23.1957 Z0.2019
G1 X30.3118 Y-22.8028 Z0.2070
G1 X30.3118 Y-22.4099 Z0.2019
G1 X30.3118 Y-22.0173 Z0.1867
G1 X30.3118 Y-21.6252 Z0.1612
G0 Z0.3417
G0 X30.3118 Y-21.6252 
G0 Z0.3417
G0 X30.3118 Y-23.8670 
G1 X30.3118 Y-23.8670 Z0.1667 F21.
G1 X30.3118 Y-23.9805 Z0.1467
G1 X30.3118 Y-23.5884 Z0.1722 F22.
G1 X30.3118 Y-23.1957 Z0.1875
G1 X30.3118 Y-22.8028 Z0.1927
G1 X30.3118 Y-22.4099 Z0.1876
G1 X30.3118 Y-22.0173 Z0.1723
G1 X30.3118 Y-21.6252 Z0.1469
G0 Z0.3274
G0 X30.3118 Y-21.6252 
G0 Z0.3274
G0 X30.3118 Y-23.8670 
G1 X30.3118 Y-23.8670 Z0.1524 F21.
G1 X30.3118 Y-23.9805 Z0.1324
G1 X30.3118 Y-23.5884 Z0.1579 F22.
G1 X30.3118 Y-23.1957 Z0.1732
G1 X30.3118 Y-22.8028 Z0.1783
G1 X30.3118 Y-22.4099 Z0.1733
G1 X30.3118 Y-22.0173 Z0.1580
G1 X30.3118 Y-21.6252 Z0.1326
G0 Z0.3130
G0 X30.3118 Y-21.6252 
G0 Z0.3130
G0 X30.3118 Y-23.8670 
G1 X30.3118 Y-23.8670 Z0.1380 F21.
G1 X30.3118 Y-23.9805 Z0.1180
G1 X30.3118 Y-23.5884 Z0.1435 F22.
G1 X30.3118 Y-23.1957 Z0.1589
G1 X30.3118 Y-22.8028 Z0.1640
G1 X30.3118 Y-22.4099 Z0.1589
G1 X30.3118 Y-22.0173 Z0.1437
G1 X30.3118 Y-21.6252 Z0.1182
G0 Z0.3847
G0 X30.3118 Y-21.6252 
G0 Z0.3847
G0 X30.8798 Y-23.8594 
G1 X30.8798 Y-23.8594 Z0.2097 F21.
G1 X30.8798 Y-23.9728 Z0.1897
G1 X30.8798 Y-23.5833 Z0.2152 F22.
G1 X30.8798 Y-23.1932 Z0.2305
G1 X30.8798 Y-22.8028 Z0.2357
G1 X30.8798 Y-22.4124 Z0.2306
G1 X30.8798 Y-22.0223 Z0.2153
G1 X30.8798 Y-21.6327 Z0.1899
G0 Z0.3703
G0 X30.8798 Y-21.6327 
G0 Z0.3703
G0 X30.8798 Y-23.8594 
G1 X30.8798 Y-23.8594 Z0.1953 F21.
G1 X30.8798 Y-23.9728 Z0.1753
G1 X30.8798 Y-23.5833 Z0.2009 F22.
G1 X30.8798 Y-23.1932 Z0.2162
G1 X30.8798 Y-22.8028 Z0.2213
G1 X30.8798 Y-22.4124 Z0.2163
G1 X30.8798 Y-22.0223 Z0.2010
G1 X30.8798 Y-21.6327 Z0.1755
G0 Z0.3560
G0 X30.8798 Y-21.6327 
G0 Z0.3560
G0 X30.8798 Y-23.8594 
G1 X30.8798 Y-23.8594 Z0.1810 F21.
G1 X30.8798 Y-23.9728 Z0.1610
G1 X30.8798 Y-23.5833 Z0.1865 F22.
G1 X30.8798 Y-23.1932 Z0.2019
G1 X30.8798 Y-22.8028 Z0.2070
G1 X30.8798 Y-22.4124 Z0.2019
G1 X30.8798 Y-22.0223 Z0.1867
G1 X30.8798 Y-21.6327 Z0.1612
G0 Z0.3417
G0 X30.8798 Y-21.6327 
G0 Z0.3417
G0 X30.8798 Y-23.8594 
G1 X30.8798 Y-23.8594 Z0.1667 F21.
G1 X30.8798 Y-23.9728 Z0.1467
G1 X30.8798 Y-23.5833 Z0.1722 F22.
G1 X30.8798 Y-23.1932 Z0.1875
G1 X30.8798 Y-22.8028 Z0.1927
G1 X30.8798 Y-22.4124 Z0.1876
G1 X30.8798 Y-22.0223 Z0.1723
G1 X30.8798 Y-21.6327 Z0.1469
G0 Z0.3273
G0 X30.8798 Y-21.6327 
G0 Z0.3273
G0 X30.8798 Y-23.8594 
G1 X30.8798 Y-23.8594 Z0.1523 F21.
G1 X30.8798 Y-23.9728 Z0.1323
G1 X30.8798 Y-23.5833 Z0.1579 F22.
G1 X30.8798 Y-23.1932 Z0.1732
G1 X30.8798 Y-22.8028 Z0.1783
G1 X30.8798 Y-22.4124 Z0.1733
G1 X30.8798 Y-22.0223 Z0.1580
G1 X30.8798 Y-21.6327 Z0.1325
G0 Z0.3130
G0 X30.8798 Y-21.6327 
G0 Z0.3130
G0 X30.8798 Y-23.8594 
G1 X30.8798 Y-23.8594 Z0.1380 F21.
G1 X30.8798 Y-23.9728 Z0.1180
G1 X30.8798 Y-23.5833 Z0.1435 F22.
G1 X30.8798 Y-23.1932 Z0.1589
G1 X30.8798 Y-22.8028 Z0.1640
G1 X30.8798 Y-22.4124 Z0.1589
G1 X30.8798 Y-22.0223 Z0.1437
G1 X30.8798 Y-21.6327 Z0.1182
G0 Z0.3846
G0 X30.8798 Y-21.6327 
G0 Z0.3846
G0 X31.4816 Y-23.8513 
G1 X31.4816 Y-23.8513 Z0.2096 F21.
G1 X31.4816 Y-23.9647 Z0.1896
G1 X31.4816 Y-23.5779 Z0.2152 F22.
G1 X31.4816 Y-23.1904 Z0.2305
G1 X31.4816 Y-22.8027 Z0.2357
G1 X31.4816 Y-22.4150 Z0.2306
G1 X31.4816 Y-22.0276 Z0.2153
G1 X31.4816 Y-21.6407 Z0.1898
G0 Z0.3703
G0 X31.4816 Y-21.6407 
G0 Z0.3703
G0 X31.4816 Y-23.8513 
G1 X31.4816 Y-23.8513 Z0.1953 F21.
G1 X31.4816 Y-23.9647 Z0.1753
G1 X31.4816 Y-23.5779 Z0.2009 F22.
G1 X31.4816 Y-23.1904 Z0.2162
G1 X31.4816 Y-22.8027 Z0.2213
G1 X31.4816 Y-22.4150 Z0.2163
G1 X31.4816 Y-22.0276 Z0.2010
G1 X31.4816 Y-21.6407 Z0.1755
G0 Z0.3560
G0 X31.4816 Y-21.6407 
G0 Z0.3560
G0 X31.4816 Y-23.8513 
G1 X31.4816 Y-23.8513 Z0.1810 F21.
G1 X31.4816 Y-23.9647 Z0.1610
G1 X31.4816 Y-23.5779 Z0.1865 F22.
G1 X31.4816 Y-23.1904 Z0.2019
G1 X31.4816 Y-22.8027 Z0.2070
G1 X31.4816 Y-22.4150 Z0.2019
G1 X31.4816 Y-22.0276 Z0.1866
G1 X31.4816 Y-21.6407 Z0.1612
G0 Z0.3416
G0 X31.4816 Y-21.6407 
G0 Z0.3416
G0 X31.4816 Y-23.8513 
G1 X31.4816 Y-23.8513 Z0.1666 F21.
G1 X31.4816 Y-23.9647 Z0.1466
G1 X31.4816 Y-23.5779 Z0.1722 F22.
G1 X31.4816 Y-23.1904 Z0.1875
G1 X31.4816 Y-22.8027 Z0.1927
G1 X31.4816 Y-22.4150 Z0.1876
G1 X31.4816 Y-22.0276 Z0.1723
G1 X31.4816 Y-21.6407 Z0.1468
G0 Z0.3273
G0 X31.4816 Y-21.6407 
G0 Z0.3273
G0 X31.4816 Y-23.8513 
G1 X31.4816 Y-23.8513 Z0.1523 F21.
G1 X31.4816 Y-23.9647 Z0.1323
G1 X31.4816 Y-23.5779 Z0.1579 F22.
G1 X31.4816 Y-23.1904 Z0.1732
G1 X31.4816 Y-22.8027 Z0.1783
G1 X31.4816 Y-22.4150 Z0.1733
G1 X31.4816 Y-22.0276 Z0.1580
G1 X31.4816 Y-21.6407 Z0.1325
G0 Z0.3130
G0 X31.4816 Y-21.6407 
G0 Z0.3130
G0 X31.4816 Y-23.8513 
G1 X31.4816 Y-23.8513 Z0.1380 F21.
G1 X31.4816 Y-23.9647 Z0.1180
G1 X31.4816 Y-23.5779 Z0.1435 F22.
G1 X31.4816 Y-23.1904 Z0.1589
G1 X31.4816 Y-22.8027 Z0.1640
G1 X31.4816 Y-22.4150 Z0.1589
G1 X31.4816 Y-22.0276 Z0.1436
G1 X31.4816 Y-21.6407 Z0.1182
G0 Z0.3846
G0 X31.4816 Y-21.6407 
G0 Z0.3846
G0 X32.1191 Y-23.8428 
G1 X32.1191 Y-23.8428 Z0.2096 F21.
G1 X32.1191 Y-23.9562 Z0.1896
G1 X32.1191 Y-23.8015 Z0.2011 F22.
G1 X32.1191 Y-23.5517 Z0.2163
G1 X32.1191 Y-23.3018 Z0.2270
G1 X32.1191 Y-23.0517 Z0.2335
G1 X32.1191 Y-22.8015 Z0.2357
G1 X32.1191 Y-22.5514 Z0.2335
G1 X32.1191 Y-22.3013 Z0.2270
G1 X32.1191 Y-22.0513 Z0.2163
G1 X32.1191 Y-21.8015 Z0.2011
G1 X32.1191 Y-21.6492 Z0.1898
G0 Z0.3703
G0 X32.1191 Y-21.6492 
G0 Z0.3703
G0 X32.1191 Y-23.8428 
G1 X32.1191 Y-23.8428 Z0.1953 F21.
G1 X32.1191 Y-23.9562 Z0.1753
G1 X32.1191 Y-23.8015 Z0.1868 F22.
G1 X32.1191 Y-23.5517 Z0.2019
G1 X32.1191 Y-23.3018 Z0.2127
G1 X32.1191 Y-23.0517 Z0.2192
G1 X32.1191 Y-22.8015 Z0.2213
G1 X32.1191 Y-22.5514 Z0.2192
G1 X32.1191 Y-22.3013 Z0.2127
G1 X32.1191 Y-22.0513 Z0.2019
G1 X32.1191 Y-21.8015 Z0.1868
G1 X32.1191 Y-21.6492 Z0.1755
G0 Z0.3560
G0 X32.1191 Y-21.6492 
G0 Z0.3560
G0 X32.1191 Y-23.8428 
G1 X32.1191 Y-23.8428 Z0.1810 F21.
G1 X32.1191 Y-23.9562 Z0.1610
G1 X32.1191 Y-23.8015 Z0.1725 F22.
G1 X32.1191 Y-23.5517 Z0.1876
G1 X32.1191 Y-23.3018 Z0.1984
G1 X32.1191 Y-23.0517 Z0.2048
G1 X32.1191 Y-22.8015 Z0.2070
G1 X32.1191 Y-22.5514 Z0.2048
G1 X32.1191 Y-22.3013 Z0.1984
G1 X32.1191 Y-22.0513 Z0.1876
G1 X32.1191 Y-21.8015 Z0.1725
G1 X32.1191 Y-21.6492 Z0.1611
G0 Z0.3416
G0 X32.1191 Y-21.6492 
G0 Z0.3416
G0 X32.1191 Y-23.8428 
G1 X32.1191 Y-23.8428 Z0.1666 F21.
G1 X32.1191 Y-23.9562 Z0.1466
G1 X32.1191 Y-23.8015 Z0.1581 F22.
G1 X32.1191 Y-23.5517 Z0.1733
G1 X32.1191 Y-23.3018 Z0.1840
G1 X32.1191 Y-23.0517 Z0.1905
G1 X32.1191 Y-22.8015 Z0.1927
G1 X32.1191 Y-22.5514 Z0.1905
G1 X32.1191 Y-22.3013 Z0.1840
G1 X32.1191 Y-22.0513 Z0.1733
G1 X32.1191 Y-21.8015 Z0.1581
G1 X32.1191 Y-21.6492 Z0.1468
G0 Z0.3273
G0 X32.1191 Y-21.6492 
G0 Z0.3273
G0 X32.1191 Y-23.8428 
G1 X32.1191 Y-23.8428 Z0.1523 F21.
G1 X32.1191 Y-23.9562 Z0.1323
G1 X32.1191 Y-23.8015 Z0.1438 F22.
G1 X32.1191 Y-23.5517 Z0.1589
G1 X32.1191 Y-23.3018 Z0.1697
G1 X32.1191 Y-23.0517 Z0.1762
G1 X32.1191 Y-22.8015 Z0.1783
G1 X32.1191 Y-22.5514 Z0.1762
G1 X32.1191 Y-22.3013 Z0.1697
G1 X32.1191 Y-22.0513 Z0.1589
G1 X32.1191 Y-21.8015 Z0.1438
G1 X32.1191 Y-21.6492 Z0.1325
G0 Z0.3130
G0 X32.1191 Y-21.6492 
G0 Z0.3130
G0 X32.1191 Y-23.8428 
G1 X32.1191 Y-23.8428 Z0.1380 F21.
G1 X32.1191 Y-23.9562 Z0.1180
G1 X32.1191 Y-23.8015 Z0.1295 F22.
G1 X32.1191 Y-23.5517 Z0.1446
G1 X32.1191 Y-23.3018 Z0.1554
G1 X32.1191 Y-23.0517 Z0.1618
G1 X32.1191 Y-22.8015 Z0.1640
G1 X32.1191 Y-22.5514 Z0.1618
G1 X32.1191 Y-22.3013 Z0.1554
G1 X32.1191 Y-22.0513 Z0.1446
G1 X32.1191 Y-21.8015 Z0.1295
G1 X32.1191 Y-21.6492 Z0.1181
G0 Z0.3846
G0 X32.1191 Y-21.6492 
G0 Z0.3846
G0 X32.7945 Y-23.8337 
G1 X32.7945 Y-23.8337 Z0.2096 F21.
G1 X32.7945 Y-23.9471 Z0.1896
G1 X32.7945 Y-23.8015 Z0.2006 F22.
G1 X32.7945 Y-23.5517 Z0.2159
G1 X32.7945 Y-23.3018 Z0.2269
G1 X32.7945 Y-23.0517 Z0.2335
G1 X32.7945 Y-22.8015 Z0.2357
G1 X32.7945 Y-22.5514 Z0.2335
G1 X32.7945 Y-22.3013 Z0.2269
G1 X32.7945 Y-22.0513 Z0.2159
G1 X32.7945 Y-21.8015 Z0.2006
G1 X32.7945 Y-21.6582 Z0.1898
G0 Z0.3703
G0 X32.7945 Y-21.6582 
G0 Z0.3703
G0 X32.7945 Y-23.8337 
G1 X32.7945 Y-23.8337 Z0.1953 F21.
G1 X32.7945 Y-23.9471 Z0.1753
G1 X32.7945 Y-23.8015 Z0.1862 F22.
G1 X32.7945 Y-23.5517 Z0.2016
G1 X32.7945 Y-23.3018 Z0.2126
G1 X32.7945 Y-23.0517 Z0.2191
G1 X32.7945 Y-22.8015 Z0.2213
G1 X32.7945 Y-22.5514 Z0.2191
G1 X32.7945 Y-22.3013 Z0.2126
G1 X32.7945 Y-22.0513 Z0.2016
G1 X32.7945 Y-21.8015 Z0.1862
G1 X32.7945 Y-21.6582 Z0.1754
G0 Z0.3559
G0 X32.7945 Y-21.6582 
G0 Z0.3559
G0 X32.7945 Y-23.8337 
G1 X32.7945 Y-23.8337 Z0.1809 F21.
G1 X32.7945 Y-23.9471 Z0.1609
G1 X32.7945 Y-23.8015 Z0.1719 F22.
G1 X32.7945 Y-23.5517 Z0.1873
G1 X32.7945 Y-23.3018 Z0.1982
G1 X32.7945 Y-23.0517 Z0.2048
G1 X32.7945 Y-22.8015 Z0.2070
G1 X32.7945 Y-22.5514 Z0.2048
G1 X32.7945 Y-22.3013 Z0.1982
G1 X32.7945 Y-22.0513 Z0.1873
G1 X32.7945 Y-21.8015 Z0.1719
G1 X32.7945 Y-21.6582 Z0.1611
G0 Z0.3416
G0 X32.7945 Y-21.6582 
G0 Z0.3416
G0 X32.7945 Y-23.8337 
G1 X32.7945 Y-23.8337 Z0.1666 F21.
G1 X32.7945 Y-23.9471 Z0.1466
G1 X32.7945 Y-23.8015 Z0.1576 F22.
G1 X32.7945 Y-23.5517 Z0.1729
G1 X32.7945 Y-23.3018 Z0.1839
G1 X32.7945 Y-23.0517 Z0.1905
G1 X32.7945 Y-22.8015 Z0.1927
G1 X32.7945 Y-22.5514 Z0.1905
G1 X32.7945 Y-22.3013 Z0.1839
G1 X32.7945 Y-22.0513 Z0.1729
G1 X32.7945 Y-21.8015 Z0.1576
G1 X32.7945 Y-21.6582 Z0.1468
G0 Z0.3273
G0 X32.7945 Y-21.6582 
G0 Z0.3273
G0 X32.7945 Y-23.8337 
G1 X32.7945 Y-23.8337 Z0.1523 F21.
G1 X32.7945 Y-23.9471 Z0.1323
G1 X32.7945 Y-23.8015 Z0.1432 F22.
G1 X32.7945 Y-23.5517 Z0.1586
G1 X32.7945 Y-23.3018 Z0.1696
G1 X32.7945 Y-23.0517 Z0.1761
G1 X32.7945 Y-22.8015 Z0.1783
G1 X32.7945 Y-22.5514 Z0.1761
G1 X32.7945 Y-22.3013 Z0.1696
G1 X32.7945 Y-22.0513 Z0.1586
G1 X32.7945 Y-21.8015 Z0.1432
G1 X32.7945 Y-21.6582 Z0.1324
G0 Z0.3129
G0 X32.7945 Y-21.6582 
G0 Z0.3129
G0 X32.7945 Y-23.8337 
G1 X32.7945 Y-23.8337 Z0.1379 F21.
G1 X32.7945 Y-23.9471 Z0.1179
G1 X32.7945 Y-23.8015 Z0.1289 F22.
G1 X32.7945 Y-23.5517 Z0.1443
G1 X32.7945 Y-23.3018 Z0.1552
G1 X32.7945 Y-23.0517 Z0.1618
G1 X32.7945 Y-22.8015 Z0.1640
G1 X32.7945 Y-22.5514 Z0.1618
G1 X32.7945 Y-22.3013 Z0.1552
G1 X32.7945 Y-22.0513 Z0.1443
G1 X32.7945 Y-21.8015 Z0.1289
G1 X32.7945 Y-21.6582 Z0.1181
G0 Z0.3846
G0 X32.7945 Y-21.6582 
G0 Z0.3846
G0 X33.5101 Y-23.8241 
G1 X33.5101 Y-23.8241 Z0.2096 F21.
G1 X33.5101 Y-23.9375 Z0.1896
G1 X33.5101 Y-23.8015 Z0.2000 F22.
G1 X33.5101 Y-23.5517 Z0.2156
G1 X33.5101 Y-23.3018 Z0.2267
G1 X33.5101 Y-23.0517 Z0.2334
G1 X33.5101 Y-22.8015 Z0.2357
G1 X33.5101 Y-22.5514 Z0.2334
G1 X33.5101 Y-22.3013 Z0.2267
G1 X33.5101 Y-22.0513 Z0.2156
G1 X33.5101 Y-21.8015 Z0.2000
G1 X33.5101 Y-21.6677 Z0.1897
G0 Z0.3702
G0 X33.5101 Y-21.6677 
G0 Z0.3702
G0 X33.5101 Y-23.8241 
G1 X33.5101 Y-23.8241 Z0.1952 F21.
G1 X33.5101 Y-23.9375 Z0.1752
G1 X33.5101 Y-23.8015 Z0.1856 F22.
G1 X33.5101 Y-23.5517 Z0.2013
G1 X33.5101 Y-23.3018 Z0.2124
G1 X33.5101 Y-23.0517 Z0.2191
G1 X33.5101 Y-22.8015 Z0.2213
G1 X33.5101 Y-22.5514 Z0.2191
G1 X33.5101 Y-22.3013 Z0.2124
G1 X33.5101 Y-22.0513 Z0.2013
G1 X33.5101 Y-21.8015 Z0.1856
G1 X33.5101 Y-21.6677 Z0.1754
G0 Z0.3559
G0 X33.5101 Y-21.6677 
G0 Z0.3559
G0 X33.5101 Y-23.8241 
G1 X33.5101 Y-23.8241 Z0.1809 F21.
G1 X33.5101 Y-23.9375 Z0.1609
G1 X33.5101 Y-23.8015 Z0.1713 F22.
G1 X33.5101 Y-23.5517 Z0.1869
G1 X33.5101 Y-23.3018 Z0.1981
G1 X33.5101 Y-23.0517 Z0.2048
G1 X33.5101 Y-22.8015 Z0.2070
G1 X33.5101 Y-22.5514 Z0.2048
G1 X33.5101 Y-22.3013 Z0.1981
G1 X33.5101 Y-22.0513 Z0.1869
G1 X33.5101 Y-21.8015 Z0.1713
G1 X33.5101 Y-21.6677 Z0.1611
G0 Z0.3416
G0 X33.5101 Y-21.6677 
G0 Z0.3416
G0 X33.5101 Y-23.8241 
G1 X33.5101 Y-23.8241 Z0.1666 F21.
G1 X33.5101 Y-23.9375 Z0.1466
G1 X33.5101 Y-23.8015 Z0.1570 F22.
G1 X33.5101 Y-23.5517 Z0.1726
G1 X33.5101 Y-23.3018 Z0.1837
G1 X33.5101 Y-23.0517 Z0.1904
G1 X33.5101 Y-22.8015 Z0.1927
G1 X33.5101 Y-22.5514 Z0.1904
G1 X33.5101 Y-22.3013 Z0.1837
G1 X33.5101 Y-22.0513 Z0.1726
G1 X33.5101 Y-21.8015 Z0.1570
G1 X33.5101 Y-21.6677 Z0.1467
G0 Z0.3272
G0 X33.5101 Y-21.6677 
G0 Z0.3272
G0 X33.5101 Y-23.8241 
G1 X33.5101 Y-23.8241 Z0.1522 F21.
G1 X33.5101 Y-23.9375 Z0.1322
G1 X33.5101 Y-23.8015 Z0.1426 F22.
G1 X33.5101 Y-23.5517 Z0.1583
G1 X33.5101 Y-23.3018 Z0.1694
G1 X33.5101 Y-23.0517 Z0.1761
G1 X33.5101 Y-22.8015 Z0.1783
G1 X33.5101 Y-22.5514 Z0.1761
G1 X33.5101 Y-22.3013 Z0.1694
G1 X33.5101 Y-22.0513 Z0.1583
G1 X33.5101 Y-21.8015 Z0.1426
G1 X33.5101 Y-21.6677 Z0.1324
G0 Z0.3129
G0 X33.5101 Y-21.6677 
G0 Z0.3129
G0 X33.5101 Y-23.8241 
G1 X33.5101 Y-23.8241 Z0.1379 F21.
G1 X33.5101 Y-23.9375 Z0.1179
G1 X33.5101 Y-23.8015 Z0.1283 F22.
G1 X33.5101 Y-23.5517 Z0.1439
G1 X33.5101 Y-23.3018 Z0.1551
G1 X33.5101 Y-23.0517 Z0.1618
G1 X33.5101 Y-22.8015 Z0.1640
G1 X33.5101 Y-22.5514 Z0.1618
G1 X33.5101 Y-22.3013 Z0.1551
G1 X33.5101 Y-22.0513 Z0.1439
G1 X33.5101 Y-21.8015 Z0.1283
G1 X33.5101 Y-21.6677 Z0.1181
G0 Z0.3845
G0 X33.5101 Y-21.6677 
G0 Z0.3845
G0 X34.2683 Y-23.8139 
G1 X34.2683 Y-23.8139 Z0.2095 F21.
G1 X34.2683 Y-23.9273 Z0.1895
G1 X34.2683 Y-23.8015 Z0.1993 F22.
G1 X34.2683 Y-23.5517 Z0.2152
G1 X34.2683 Y-23.3018 Z0.2266
G1 X34.2683 Y-23.0517 Z0.2334
G1 X34.2683 Y-22.8015 Z0.2357
G1 X34.2683 Y-22.5514 Z0.2334
G1 X34.2683 Y-22.3013 Z0.2266
G1 X34.2683 Y-22.0513 Z0.2152
G1 X34.2683 Y-21.8015 Z0.1993
G1 X34.2683 Y-21.6777 Z0.1897
G0 Z0.3702
G0 X34.2683 Y-21.6777 
G0 Z0.3702
G0 X34.2683 Y-23.8139 
G1 X34.2683 Y-23.8139 Z0.1952 F21.
G1 X34.2683 Y-23.9273 Z0.1752
G1 X34.2683 Y-23.8015 Z0.1850 F22.
G1 X34.2683 Y-23.5517 Z0.2009
G1 X34.2683 Y-23.3018 Z0.2122
G1 X34.2683 Y-23.0517 Z0.2191
G1 X34.2683 Y-22.8015 Z0.2213
G1 X34.2683 Y-22.5514 Z0.2191
G1 X34.2683 Y-22.3013 Z0.2122
G1 X34.2683 Y-22.0513 Z0.2009
G1 X34.2683 Y-21.8015 Z0.1850
G1 X34.2683 Y-21.6777 Z0.1754
G0 Z0.3559
G0 X34.2683 Y-21.6777 
G0 Z0.3559
G0 X34.2683 Y-23.8139 
G1 X34.2683 Y-23.8139 Z0.1809 F21.
G1 X34.2683 Y-23.9273 Z0.1609
G1 X34.2683 Y-23.8015 Z0.1706 F22.
G1 X34.2683 Y-23.5517 Z0.1865
G1 X34.2683 Y-23.3018 Z0.1979
G1 X34.2683 Y-23.0517 Z0.2047
G1 X34.2683 Y-22.8015 Z0.2070
G1 X34.2683 Y-22.5514 Z0.2047
G1 X34.2683 Y-22.3013 Z0.1979
G1 X34.2683 Y-22.0513 Z0.1865
G1 X34.2683 Y-21.8015 Z0.1706
G1 X34.2683 Y-21.6777 Z0.1610
G0 Z0.3415
G0 X34.2683 Y-21.6777 
G0 Z0.3415
G0 X34.2683 Y-23.8139 
G1 X34.2683 Y-23.8139 Z0.1665 F21.
G1 X34.2683 Y-23.9273 Z0.1465
G1 X34.2683 Y-23.8015 Z0.1563 F22.
G1 X34.2683 Y-23.5517 Z0.1722
G1 X34.2683 Y-23.3018 Z0.1836
G1 X34.2683 Y-23.0517 Z0.1904
G1 X34.2683 Y-22.8015 Z0.1927
G1 X34.2683 Y-22.5514 Z0.1904
G1 X34.2683 Y-22.3013 Z0.1836
G1 X34.2683 Y-22.0513 Z0.1722
G1 X34.2683 Y-21.8015 Z0.1563
G1 X34.2683 Y-21.6777 Z0.1467
G0 Z0.3272
G0 X34.2683 Y-21.6777 
G0 Z0.3272
G0 X34.2683 Y-23.8139 
G1 X34.2683 Y-23.8139 Z0.1522 F21.
G1 X34.2683 Y-23.9273 Z0.1322
G1 X34.2683 Y-23.8015 Z0.1420 F22.
G1 X34.2683 Y-23.5517 Z0.1579
G1 X34.2683 Y-23.3018 Z0.1692
G1 X34.2683 Y-23.0517 Z0.1761
G1 X34.2683 Y-22.8015 Z0.1783
G1 X34.2683 Y-22.5514 Z0.1761
G1 X34.2683 Y-22.3013 Z0.1692
G1 X34.2683 Y-22.0513 Z0.1579
G1 X34.2683 Y-21.8015 Z0.1420
G1 X34.2683 Y-21.6777 Z0.1324
G0 Z0.3129
G0 X34.2683 Y-21.6777 
G0 Z0.3129
G0 X34.2683 Y-23.8139 
G1 X34.2683 Y-23.8139 Z0.1379 F21.
G1 X34.2683 Y-23.9273 Z0.1179
G1 X34.2683 Y-23.8015 Z0.1276 F22.
G1 X34.2683 Y-23.5517 Z0.1435
G1 X34.2683 Y-23.3018 Z0.1549
G1 X34.2683 Y-23.0517 Z0.1617
G1 X34.2683 Y-22.8015 Z0.1640
G1 X34.2683 Y-22.5514 Z0.1617
G1 X34.2683 Y-22.3013 Z0.1549
G1 X34.2683 Y-22.0513 Z0.1435
G1 X34.2683 Y-21.8015 Z0.1276
G1 X34.2683 Y-21.6777 Z0.1180
G0 Z0.3845
G0 X34.2683 Y-21.6777 
G0 Z0.3845
G0 X35.0715 Y-23.8031 
G1 X35.0715 Y-23.8031 Z0.2095 F21.
G1 X35.0715 Y-23.9165 Z0.1895
G1 X35.0715 Y-23.8015 Z0.1986 F22.
G1 X35.0715 Y-23.5518 Z0.2148
G1 X35.0715 Y-23.3018 Z0.2264
G1 X35.0715 Y-23.0517 Z0.2334
G1 X35.0715 Y-22.8015 Z0.2357
G1 X35.0715 Y-22.5514 Z0.2334
G1 X35.0715 Y-22.3013 Z0.2264
G1 X35.0715 Y-22.0513 Z0.2148
G1 X35.0715 Y-21.8015 Z0.1986
G1 X35.0715 Y-21.6884 Z0.1897
G0 Z0.3702
G0 X35.0715 Y-21.6884 
G0 Z0.3702
G0 X35.0715 Y-23.8031 
G1 X35.0715 Y-23.8031 Z0.1952 F21.
G1 X35.0715 Y-23.9165 Z0.1752
G1 X35.0715 Y-23.8015 Z0.1842 F22.
G1 X35.0715 Y-23.5518 Z0.2005
G1 X35.0715 Y-23.3018 Z0.2121
G1 X35.0715 Y-23.0517 Z0.2190
G1 X35.0715 Y-22.8015 Z0.2213
G1 X35.0715 Y-22.5514 Z0.2190
G1 X35.0715 Y-22.3013 Z0.2121
G1 X35.0715 Y-22.0513 Z0.2005
G1 X35.0715 Y-21.8015 Z0.1842
G1 X35.0715 Y-21.6884 Z0.1753
G0 Z0.3559
G0 X35.0715 Y-21.6884 
G0 Z0.3559
G0 X35.0715 Y-23.8031 
G1 X35.0715 Y-23.8031 Z0.1809 F21.
G1 X35.0715 Y-23.9165 Z0.1609
G1 X35.0715 Y-23.8015 Z0.1699 F22.
G1 X35.0715 Y-23.5518 Z0.1861
G1 X35.0715 Y-23.3018 Z0.1977
G1 X35.0715 Y-23.0517 Z0.2047
G1 X35.0715 Y-22.8015 Z0.2070
G1 X35.0715 Y-22.5514 Z0.2047
G1 X35.0715 Y-22.3013 Z0.1977
G1 X35.0715 Y-22.0513 Z0.1861
G1 X35.0715 Y-21.8015 Z0.1699
G1 X35.0715 Y-21.6884 Z0.1610
G0 Z0.3415
G0 X35.0715 Y-21.6884 
G0 Z0.3415
G0 X35.0715 Y-23.8031 
G1 X35.0715 Y-23.8031 Z0.1665 F21.
G1 X35.0715 Y-23.9165 Z0.1465
G1 X35.0715 Y-23.8015 Z0.1556 F22.
G1 X35.0715 Y-23.5518 Z0.1718
G1 X35.0715 Y-23.3018 Z0.1834
G1 X35.0715 Y-23.0517 Z0.1904
G1 X35.0715 Y-22.8015 Z0.1927
G1 X35.0715 Y-22.5514 Z0.1904
G1 X35.0715 Y-22.3013 Z0.1834
G1 X35.0715 Y-22.0513 Z0.1718
G1 X35.0715 Y-21.8015 Z0.1556
G1 X35.0715 Y-21.6884 Z0.1467
G0 Z0.3272
G0 X35.0715 Y-21.6884 
G0 Z0.3272
G0 X35.0715 Y-23.8031 
G1 X35.0715 Y-23.8031 Z0.1522 F21.
G1 X35.0715 Y-23.9165 Z0.1322
G1 X35.0715 Y-23.8015 Z0.1412 F22.
G1 X35.0715 Y-23.5518 Z0.1575
G1 X35.0715 Y-23.3018 Z0.1691
G1 X35.0715 Y-23.0517 Z0.1760
G1 X35.0715 Y-22.8015 Z0.1783
G1 X35.0715 Y-22.5514 Z0.1760
G1 X35.0715 Y-22.3013 Z0.1691
G1 X35.0715 Y-22.0513 Z0.1575
G1 X35.0715 Y-21.8015 Z0.1412
G1 X35.0715 Y-21.6884 Z0.1323
G0 Z0.3129
G0 X35.0715 Y-21.6884 
G0 Z0.3129
G0 X35.0715 Y-23.8031 
G1 X35.0715 Y-23.8031 Z0.1379 F21.
G1 X35.0715 Y-23.9165 Z0.1179
G1 X35.0715 Y-23.8015 Z0.1269 F22.
G1 X35.0715 Y-23.5518 Z0.1431
G1 X35.0715 Y-23.3018 Z0.1547
G1 X35.0715 Y-23.0517 Z0.1617
G1 X35.0715 Y-22.8015 Z0.1640
G1 X35.0715 Y-22.5514 Z0.1617
G1 X35.0715 Y-22.3013 Z0.1547
G1 X35.0715 Y-22.0513 Z0.1431
G1 X35.0715 Y-21.8015 Z0.1269
G1 X35.0715 Y-21.6884 Z0.1180
G0 Z0.3845
G0 X35.0715 Y-21.6884 
G0 Z0.3845
G0 X35.9225 Y-23.7916 
G1 X35.9225 Y-23.7916 Z0.2095 F21.
G1 X35.9225 Y-23.8015 Z0.2077
G1 X35.9225 Y-23.9051 Z0.1895
G1 X35.9225 Y-23.8015 Z0.1978 F22.
G1 X35.9225 Y-23.5518 Z0.2143
G1 X35.9225 Y-23.3018 Z0.2262
G1 X35.9225 Y-23.0517 Z0.2333
G1 X35.9225 Y-22.8015 Z0.2357
G1 X35.9225 Y-22.5514 Z0.2333
G1 X35.9225 Y-22.3013 Z0.2262
G1 X35.9225 Y-22.0513 Z0.2143
G1 X35.9225 Y-21.8015 Z0.1978
G1 X35.9225 Y-21.6997 Z0.1896
G0 Z0.3702
G0 X35.9225 Y-21.6997 
G0 Z0.3702
G0 X35.9225 Y-23.7916 
G1 X35.9225 Y-23.7916 Z0.1952 F21.
G1 X35.9225 Y-23.8015 Z0.1934
G1 X35.9225 Y-23.9051 Z0.1752
G1 X35.9225 Y-23.8015 Z0.1834 F22.
G1 X35.9225 Y-23.5518 Z0.2000
G1 X35.9225 Y-23.3018 Z0.2119
G1 X35.9225 Y-23.0517 Z0.2190
G1 X35.9225 Y-22.8015 Z0.2213
G1 X35.9225 Y-22.5514 Z0.2190
G1 X35.9225 Y-22.3013 Z0.2119
G1 X35.9225 Y-22.0513 Z0.2000
G1 X35.9225 Y-21.8015 Z0.1834
G1 X35.9225 Y-21.6997 Z0.1753
G0 Z0.3558
G0 X35.9225 Y-21.6997 
G0 Z0.3558
G0 X35.9225 Y-23.7916 
G1 X35.9225 Y-23.7916 Z0.1808 F21.
G1 X35.9225 Y-23.8015 Z0.1791
G1 X35.9225 Y-23.9051 Z0.1608
G1 X35.9225 Y-23.8015 Z0.1691 F22.
G1 X35.9225 Y-23.5518 Z0.1857
G1 X35.9225 Y-23.3018 Z0.1975
G1 X35.9225 Y-23.0517 Z0.2046
G1 X35.9225 Y-22.8015 Z0.2070
G1 X35.9225 Y-22.5514 Z0.2046
G1 X35.9225 Y-22.3013 Z0.1975
G1 X35.9225 Y-22.0513 Z0.1857
G1 X35.9225 Y-21.8015 Z0.1691
G1 X35.9225 Y-21.6997 Z0.1610
G0 Z0.3415
G0 X35.9225 Y-21.6997 
G0 Z0.3415
G0 X35.9225 Y-23.7916 
G1 X35.9225 Y-23.7916 Z0.1665 F21.
G1 X35.9225 Y-23.8015 Z0.1647
G1 X35.9225 Y-23.9051 Z0.1465
G1 X35.9225 Y-23.8015 Z0.1548 F22.
G1 X35.9225 Y-23.5518 Z0.1713
G1 X35.9225 Y-23.3018 Z0.1832
G1 X35.9225 Y-23.0517 Z0.1903
G1 X35.9225 Y-22.8015 Z0.1927
G1 X35.9225 Y-22.5514 Z0.1903
G1 X35.9225 Y-22.3013 Z0.1832
G1 X35.9225 Y-22.0513 Z0.1713
G1 X35.9225 Y-21.8015 Z0.1548
G1 X35.9225 Y-21.6997 Z0.1466
G0 Z0.3272
G0 X35.9225 Y-21.6997 
G0 Z0.3272
G0 X35.9225 Y-23.7916 
G1 X35.9225 Y-23.7916 Z0.1522 F21.
G1 X35.9225 Y-23.8015 Z0.1504
G1 X35.9225 Y-23.9051 Z0.1322
G1 X35.9225 Y-23.8015 Z0.1404 F22.
G1 X35.9225 Y-23.5518 Z0.1570
G1 X35.9225 Y-23.3018 Z0.1689
G1 X35.9225 Y-23.0517 Z0.1760
G1 X35.9225 Y-22.8015 Z0.1783
G1 X35.9225 Y-22.5514 Z0.1760
G1 X35.9225 Y-22.3013 Z0.1689
G1 X35.9225 Y-22.0513 Z0.1570
G1 X35.9225 Y-21.8015 Z0.1404
G1 X35.9225 Y-21.6997 Z0.1323
G0 Z0.3128
G0 X35.9225 Y-21.6997 
G0 Z0.3128
G0 X35.9225 Y-23.7916 
G1 X35.9225 Y-23.7916 Z0.1378 F21.
G1 X35.9225 Y-23.8015 Z0.1361
G1 X35.9225 Y-23.9051 Z0.1178
G1 X35.9225 Y-23.8015 Z0.1261 F22.
G1 X35.9225 Y-23.5518 Z0.1427
G1 X35.9225 Y-23.3018 Z0.1545
G1 X35.9225 Y-23.0517 Z0.1616
G1 X35.9225 Y-22.8015 Z0.1640
G1 X35.9225 Y-22.5514 Z0.1616
G1 X35.9225 Y-22.3013 Z0.1545
G1 X35.9225 Y-22.0513 Z0.1427
G1 X35.9225 Y-21.8015 Z0.1261
G1 X35.9225 Y-21.6997 Z0.1180
G0 Z0.3844
G0 X35.9225 Y-21.6997 
G0 Z0.3844
G0 X36.8241 Y-23.7795 
G1 X36.8241 Y-23.7795 Z0.2094 F21.
G1 X36.8241 Y-23.8015 Z0.2056
G1 X36.8241 Y-23.8929 Z0.1894
G1 X36.8241 Y-23.8015 Z0.1969 F22.
G1 X36.8241 Y-23.5518 Z0.2138
G1 X36.8241 Y-23.3018 Z0.2260
G1 X36.8241 Y-23.0517 Z0.2332
G1 X36.8241 Y-22.8015 Z0.2357
G1 X36.8241 Y-22.5514 Z0.2332
G1 X36.8241 Y-22.3013 Z0.2260
G1 X36.8241 Y-22.0513 Z0.2138
G1 X36.8241 Y-21.8015 Z0.1969
G1 X36.8241 Y-21.7117 Z0.1896
G0 Z0.3701
G0 X36.8241 Y-21.7117 
G0 Z0.3701
G0 X36.8241 Y-23.7795 
G1 X36.8241 Y-23.7795 Z0.1951 F21.
G1 X36.8241 Y-23.8015 Z0.1912
G1 X36.8241 Y-23.8929 Z0.1751
G1 X36.8241 Y-23.8015 Z0.1825 F22.
G1 X36.8241 Y-23.5518 Z0.1995
G1 X36.8241 Y-23.3018 Z0.2116
G1 X36.8241 Y-23.0517 Z0.2189
G1 X36.8241 Y-22.8015 Z0.2213
G1 X36.8241 Y-22.5514 Z0.2189
G1 X36.8241 Y-22.3013 Z0.2116
G1 X36.8241 Y-22.0513 Z0.1995
G1 X36.8241 Y-21.8015 Z0.1825
G1 X36.8241 Y-21.7117 Z0.1752
G0 Z0.3558
G0 X36.8241 Y-21.7117 
G0 Z0.3558
G0 X36.8241 Y-23.7795 
G1 X36.8241 Y-23.7795 Z0.1808 F21.
G1 X36.8241 Y-23.8015 Z0.1769
G1 X36.8241 Y-23.8929 Z0.1608
G1 X36.8241 Y-23.8015 Z0.1682 F22.
G1 X36.8241 Y-23.5518 Z0.1852
G1 X36.8241 Y-23.3018 Z0.1973
G1 X36.8241 Y-23.0517 Z0.2046
G1 X36.8241 Y-22.8015 Z0.2070
G1 X36.8241 Y-22.5514 Z0.2046
G1 X36.8241 Y-22.3013 Z0.1973
G1 X36.8241 Y-22.0513 Z0.1852
G1 X36.8241 Y-21.8015 Z0.1682
G1 X36.8241 Y-21.7117 Z0.1609
G0 Z0.3414
G0 X36.8241 Y-21.7117 
G0 Z0.3414
G0 X36.8241 Y-23.7795 
G1 X36.8241 Y-23.7795 Z0.1664 F21.
G1 X36.8241 Y-23.8015 Z0.1626
G1 X36.8241 Y-23.8929 Z0.1464
G1 X36.8241 Y-23.8015 Z0.1539 F22.
G1 X36.8241 Y-23.5518 Z0.1708
G1 X36.8241 Y-23.3018 Z0.1830
G1 X36.8241 Y-23.0517 Z0.1902
G1 X36.8241 Y-22.8015 Z0.1927
G1 X36.8241 Y-22.5514 Z0.1902
G1 X36.8241 Y-22.3013 Z0.1830
G1 X36.8241 Y-22.0513 Z0.1708
G1 X36.8241 Y-21.8015 Z0.1539
G1 X36.8241 Y-21.7117 Z0.1466
G0 Z0.3271
G0 X36.8241 Y-21.7117 
G0 Z0.3271
G0 X36.8241 Y-23.7795 
G1 X36.8241 Y-23.7795 Z0.1521 F21.
G1 X36.8241 Y-23.8015 Z0.1482
G1 X36.8241 Y-23.8929 Z0.1321
G1 X36.8241 Y-23.8015 Z0.1395 F22.
G1 X36.8241 Y-23.5518 Z0.1565
G1 X36.8241 Y-23.3018 Z0.1686
G1 X36.8241 Y-23.0517 Z0.1759
G1 X36.8241 Y-22.8015 Z0.1783
G1 X36.8241 Y-22.5514 Z0.1759
G1 X36.8241 Y-22.3013 Z0.1686
G1 X36.8241 Y-22.0513 Z0.1565
G1 X36.8241 Y-21.8015 Z0.1395
G1 X36.8241 Y-21.7117 Z0.1322
G0 Z0.3128
G0 X36.8241 Y-21.7117 
G0 Z0.3128
G0 X36.8241 Y-23.7795 
G1 X36.8241 Y-23.7795 Z0.1378 F21.
G1 X36.8241 Y-23.8015 Z0.1339
G1 X36.8241 Y-23.8929 Z0.1178
G1 X36.8241 Y-23.8015 Z0.1252 F22.
G1 X36.8241 Y-23.5518 Z0.1422
G1 X36.8241 Y-23.3018 Z0.1543
G1 X36.8241 Y-23.0517 Z0.1616
G1 X36.8241 Y-22.8015 Z0.1640
G1 X36.8241 Y-22.5514 Z0.1616
G1 X36.8241 Y-22.3013 Z0.1543
G1 X36.8241 Y-22.0513 Z0.1422
G1 X36.8241 Y-21.8015 Z0.1252
G1 X36.8241 Y-21.7117 Z0.1179
G0 Z0.3844
G0 X36.8241 Y-21.7117 
G0 Z0.3844
G0 X37.7793 Y-23.7667 
G1 X37.7793 Y-23.7667 Z0.2094 F21.
G1 X37.7793 Y-23.8015 Z0.2033
G1 X37.7793 Y-23.8801 Z0.1894
G1 X37.7793 Y-23.8015 Z0.1959 F22.
G1 X37.7793 Y-23.5518 Z0.2133
G1 X37.7793 Y-23.3018 Z0.2257
G1 X37.7793 Y-23.0517 Z0.2332
G1 X37.7793 Y-22.8015 Z0.2357
G1 X37.7793 Y-22.5514 Z0.2332
G1 X37.7793 Y-22.3012 Z0.2257
G1 X37.7793 Y-22.0513 Z0.2133
G1 X37.7793 Y-21.8015 Z0.1959
G1 X37.7793 Y-21.7243 Z0.1895
G0 Z0.3701
G0 X37.7793 Y-21.7243 
G0 Z0.3701
G0 X37.7793 Y-23.7667 
G1 X37.7793 Y-23.7667 Z0.1951 F21.
G1 X37.7793 Y-23.8015 Z0.1889
G1 X37.7793 Y-23.8801 Z0.1751
G1 X37.7793 Y-23.8015 Z0.1816 F22.
G1 X37.7793 Y-23.5518 Z0.1990
G1 X37.7793 Y-23.3018 Z0.2114
G1 X37.7793 Y-23.0517 Z0.2189
G1 X37.7793 Y-22.8015 Z0.2213
G1 X37.7793 Y-22.5514 Z0.2189
G1 X37.7793 Y-22.3012 Z0.2114
G1 X37.7793 Y-22.0513 Z0.1990
G1 X37.7793 Y-21.8015 Z0.1816
G1 X37.7793 Y-21.7243 Z0.1752
G0 Z0.3557
G0 X37.7793 Y-21.7243 
G0 Z0.3557
G0 X37.7793 Y-23.7667 
G1 X37.7793 Y-23.7667 Z0.1807 F21.
G1 X37.7793 Y-23.8015 Z0.1746
G1 X37.7793 Y-23.8801 Z0.1607
G1 X37.7793 Y-23.8015 Z0.1672 F22.
G1 X37.7793 Y-23.5518 Z0.1846
G1 X37.7793 Y-23.3018 Z0.1971
G1 X37.7793 Y-23.0517 Z0.2045
G1 X37.7793 Y-22.8015 Z0.2070
G1 X37.7793 Y-22.5514 Z0.2045
G1 X37.7793 Y-22.3012 Z0.1971
G1 X37.7793 Y-22.0513 Z0.1846
G1 X37.7793 Y-21.8015 Z0.1672
G1 X37.7793 Y-21.7243 Z0.1609
G0 Z0.3414
G0 X37.7793 Y-21.7243 
G0 Z0.3414
G0 X37.7793 Y-23.7667 
G1 X37.7793 Y-23.7667 Z0.1664 F21.
G1 X37.7793 Y-23.8015 Z0.1603
G1 X37.7793 Y-23.8801 Z0.1464
G1 X37.7793 Y-23.8015 Z0.1529 F22.
G1 X37.7793 Y-23.5518 Z0.1703
G1 X37.7793 Y-23.3018 Z0.1827
G1 X37.7793 Y-23.0517 Z0.1902
G1 X37.7793 Y-22.8015 Z0.1927
G1 X37.7793 Y-22.5514 Z0.1902
G1 X37.7793 Y-22.3012 Z0.1827
G1 X37.7793 Y-22.0513 Z0.1703
G1 X37.7793 Y-21.8015 Z0.1529
G1 X37.7793 Y-21.7243 Z0.1465
G0 Z0.3271
G0 X37.7793 Y-21.7243 
G0 Z0.3271
G0 X37.7793 Y-23.7667 
G1 X37.7793 Y-23.7667 Z0.1521 F21.
G1 X37.7793 Y-23.8015 Z0.1459
G1 X37.7793 Y-23.8801 Z0.1321
G1 X37.7793 Y-23.8015 Z0.1386 F22.
G1 X37.7793 Y-23.5518 Z0.1560
G1 X37.7793 Y-23.3018 Z0.1684
G1 X37.7793 Y-23.0517 Z0.1759
G1 X37.7793 Y-22.8015 Z0.1783
G1 X37.7793 Y-22.5514 Z0.1759
G1 X37.7793 Y-22.3012 Z0.1684
G1 X37.7793 Y-22.0513 Z0.1560
G1 X37.7793 Y-21.8015 Z0.1386
G1 X37.7793 Y-21.7243 Z0.1322
G0 Z0.3127
G0 X37.7793 Y-21.7243 
G0 Z0.3127
G0 X37.7793 Y-23.7667 
G1 X37.7793 Y-23.7667 Z0.1377 F21.
G1 X37.7793 Y-23.8015 Z0.1316
G1 X37.7793 Y-23.8801 Z0.1177
G1 X37.7793 Y-23.8015 Z0.1242 F22.
G1 X37.7793 Y-23.5518 Z0.1416
G1 X37.7793 Y-23.3018 Z0.1541
G1 X37.7793 Y-23.0517 Z0.1615
G1 X37.7793 Y-22.8015 Z0.1640
G1 X37.7793 Y-22.5514 Z0.1615
G1 X37.7793 Y-22.3012 Z0.1541
G1 X37.7793 Y-22.0513 Z0.1416
G1 X37.7793 Y-21.8015 Z0.1242
G1 X37.7793 Y-21.7243 Z0.1179
G0 Z0.3844
G0 X37.7793 Y-21.7243 
G0 Z0.3844
G0 X38.7913 Y-23.7531 
G1 X38.7913 Y-23.7531 Z0.2094 F21.
G1 X38.7913 Y-23.8015 Z0.2008
G1 X38.7913 Y-23.8665 Z0.1894
G1 X38.7913 Y-23.8015 Z0.1949 F22.
G1 X38.7913 Y-23.5518 Z0.2127
G1 X38.7913 Y-23.3018 Z0.2255
G1 X38.7913 Y-23.0517 Z0.2331
G1 X38.7913 Y-22.8015 Z0.2357
G1 X38.7913 Y-22.5513 Z0.2331
G1 X38.7913 Y-22.3012 Z0.2255
G1 X38.7913 Y-22.0513 Z0.2127
G1 X38.7913 Y-21.8015 Z0.1949
G1 X38.7913 Y-21.7378 Z0.1895
G0 Z0.3700
G0 X38.7913 Y-21.7378 
G0 Z0.3700
G0 X38.7913 Y-23.7531 
G1 X38.7913 Y-23.7531 Z0.1950 F21.
G1 X38.7913 Y-23.8015 Z0.1865
G1 X38.7913 Y-23.8665 Z0.1750
G1 X38.7913 Y-23.8015 Z0.1805 F22.
G1 X38.7913 Y-23.5518 Z0.1984
G1 X38.7913 Y-23.3018 Z0.2111
G1 X38.7913 Y-23.0517 Z0.2188
G1 X38.7913 Y-22.8015 Z0.2213
G1 X38.7913 Y-22.5513 Z0.2188
G1 X38.7913 Y-22.3012 Z0.2111
G1 X38.7913 Y-22.0513 Z0.1984
G1 X38.7913 Y-21.8015 Z0.1805
G1 X38.7913 Y-21.7378 Z0.1751
G0 Z0.3557
G0 X38.7913 Y-21.7378 
G0 Z0.3557
G0 X38.7913 Y-23.7531 
G1 X38.7913 Y-23.7531 Z0.1807 F21.
G1 X38.7913 Y-23.8015 Z0.1722
G1 X38.7913 Y-23.8665 Z0.1607
G1 X38.7913 Y-23.8015 Z0.1662 F22.
G1 X38.7913 Y-23.5518 Z0.1840
G1 X38.7913 Y-23.3018 Z0.1968
G1 X38.7913 Y-23.0517 Z0.2045
G1 X38.7913 Y-22.8015 Z0.2070
G1 X38.7913 Y-22.5513 Z0.2045
G1 X38.7913 Y-22.3012 Z0.1968
G1 X38.7913 Y-22.0513 Z0.1840
G1 X38.7913 Y-21.8015 Z0.1662
G1 X38.7913 Y-21.7378 Z0.1608
G0 Z0.3414
G0 X38.7913 Y-21.7378 
G0 Z0.3414
G0 X38.7913 Y-23.7531 
G1 X38.7913 Y-23.7531 Z0.1664 F21.
G1 X38.7913 Y-23.8015 Z0.1578
G1 X38.7913 Y-23.8665 Z0.1464
G1 X38.7913 Y-23.8015 Z0.1519 F22.
G1 X38.7913 Y-23.5518 Z0.1697
G1 X38.7913 Y-23.3018 Z0.1825
G1 X38.7913 Y-23.0517 Z0.1901
G1 X38.7913 Y-22.8015 Z0.1927
G1 X38.7913 Y-22.5513 Z0.1901
G1 X38.7913 Y-22.3012 Z0.1825
G1 X38.7913 Y-22.0513 Z0.1697
G1 X38.7913 Y-21.8015 Z0.1519
G1 X38.7913 Y-21.7378 Z0.1465
G0 Z0.3270
G0 X38.7913 Y-21.7378 
G0 Z0.3270
G0 X38.7913 Y-23.7531 
G1 X38.7913 Y-23.7531 Z0.1520 F21.
G1 X38.7913 Y-23.8015 Z0.1435
G1 X38.7913 Y-23.8665 Z0.1320
G1 X38.7913 Y-23.8015 Z0.1375 F22.
G1 X38.7913 Y-23.5518 Z0.1554
G1 X38.7913 Y-23.3018 Z0.1681
G1 X38.7913 Y-23.0517 Z0.1758
G1 X38.7913 Y-22.8015 Z0.1783
G1 X38.7913 Y-22.5513 Z0.1758
G1 X38.7913 Y-22.3012 Z0.1681
G1 X38.7913 Y-22.0513 Z0.1554
G1 X38.7913 Y-21.8015 Z0.1375
G1 X38.7913 Y-21.7378 Z0.1321
G0 Z0.3127
G0 X38.7913 Y-21.7378 
G0 Z0.3127
G0 X38.7913 Y-23.7531 
G1 X38.7913 Y-23.7531 Z0.1377 F21.
G1 X38.7913 Y-23.8015 Z0.1292
G1 X38.7913 Y-23.8665 Z0.1177
G1 X38.7913 Y-23.8015 Z0.1232 F22.
G1 X38.7913 Y-23.5518 Z0.1410
G1 X38.7913 Y-23.3018 Z0.1538
G1 X38.7913 Y-23.0517 Z0.1615
G1 X38.7913 Y-22.8015 Z0.1640
G1 X38.7913 Y-22.5513 Z0.1615
G1 X38.7913 Y-22.3012 Z0.1538
G1 X38.7913 Y-22.0513 Z0.1410
G1 X38.7913 Y-21.8015 Z0.1232
G1 X38.7913 Y-21.7378 Z0.1178
G0 Z0.3843
G0 X38.7913 Y-21.7378 
G0 Z0.3843
G0 X39.8635 Y-23.7387 
G1 X39.8635 Y-23.7387 Z0.2093 F21.
G1 X39.8635 Y-23.8015 Z0.1982
G1 X39.8635 Y-23.8521 Z0.1893
G1 X39.8635 Y-23.8015 Z0.1937 F22.
G1 X39.8635 Y-23.5518 Z0.2121
G1 X39.8635 Y-23.3019 Z0.2252
G1 X39.8635 Y-23.0517 Z0.2330
G1 X39.8635 Y-22.8015 Z0.2357
G1 X39.8635 Y-22.5513 Z0.2330
G1 X39.8635 Y-22.3012 Z0.2252
G1 X39.8635 Y-22.0512 Z0.2121
G1 X39.8635 Y-21.8015 Z0.1937
G1 X39.8635 Y-21.7520 Z0.1894
G0 Z0.3700
G0 X39.8635 Y-21.7520 
G0 Z0.3700
G0 X39.8635 Y-23.7387 
G1 X39.8635 Y-23.7387 Z0.1950 F21.
G1 X39.8635 Y-23.8015 Z0.1839
G1 X39.8635 Y-23.8521 Z0.1750
G1 X39.8635 Y-23.8015 Z0.1794 F22.
G1 X39.8635 Y-23.5518 Z0.1977
G1 X39.8635 Y-23.3019 Z0.2108
G1 X39.8635 Y-23.0517 Z0.2187
G1 X39.8635 Y-22.8015 Z0.2213
G1 X39.8635 Y-22.5513 Z0.2187
G1 X39.8635 Y-22.3012 Z0.2108
G1 X39.8635 Y-22.0512 Z0.1977
G1 X39.8635 Y-21.8015 Z0.1794
G1 X39.8635 Y-21.7520 Z0.1751
G0 Z0.3557
G0 X39.8635 Y-21.7520 
G0 Z0.3557
G0 X39.8635 Y-23.7387 
G1 X39.8635 Y-23.7387 Z0.1807 F21.
G1 X39.8635 Y-23.8015 Z0.1696
G1 X39.8635 Y-23.8521 Z0.1607
G1 X39.8635 Y-23.8015 Z0.1650 F22.
G1 X39.8635 Y-23.5518 Z0.1834
G1 X39.8635 Y-23.3019 Z0.1965
G1 X39.8635 Y-23.0517 Z0.2044
G1 X39.8635 Y-22.8015 Z0.2070
G1 X39.8635 Y-22.5513 Z0.2044
G1 X39.8635 Y-22.3012 Z0.1965
G1 X39.8635 Y-22.0512 Z0.1834
G1 X39.8635 Y-21.8015 Z0.1650
G1 X39.8635 Y-21.7520 Z0.1608
G0 Z0.3413
G0 X39.8635 Y-21.7520 
G0 Z0.3413
G0 X39.8635 Y-23.7387 
G1 X39.8635 Y-23.7387 Z0.1663 F21.
G1 X39.8635 Y-23.8015 Z0.1552
G1 X39.8635 Y-23.8521 Z0.1463
G1 X39.8635 Y-23.8015 Z0.1507 F22.
G1 X39.8635 Y-23.5518 Z0.1691
G1 X39.8635 Y-23.3019 Z0.1822
G1 X39.8635 Y-23.0517 Z0.1900
G1 X39.8635 Y-22.8015 Z0.1927
G1 X39.8635 Y-22.5513 Z0.1900
G1 X39.8635 Y-22.3012 Z0.1822
G1 X39.8635 Y-22.0512 Z0.1691
G1 X39.8635 Y-21.8015 Z0.1507
G1 X39.8635 Y-21.7520 Z0.1464
G0 Z0.3270
G0 X39.8635 Y-21.7520 
G0 Z0.3270
G0 X39.8635 Y-23.7387 
G1 X39.8635 Y-23.7387 Z0.1520 F21.
G1 X39.8635 Y-23.8015 Z0.1409
G1 X39.8635 Y-23.8521 Z0.1320
G1 X39.8635 Y-23.8015 Z0.1364 F22.
G1 X39.8635 Y-23.5518 Z0.1547
G1 X39.8635 Y-23.3019 Z0.1678
G1 X39.8635 Y-23.0517 Z0.1757
G1 X39.8635 Y-22.8015 Z0.1783
G1 X39.8635 Y-22.5513 Z0.1757
G1 X39.8635 Y-22.3012 Z0.1678
G1 X39.8635 Y-22.0512 Z0.1547
G1 X39.8635 Y-21.8015 Z0.1364
G1 X39.8635 Y-21.7520 Z0.1321
G0 Z0.3127
G0 X39.8635 Y-21.7520 
G0 Z0.3127
G0 X39.8635 Y-23.7387 
G1 X39.8635 Y-23.7387 Z0.1377 F21.
G1 X39.8635 Y-23.8015 Z0.1266
G1 X39.8635 Y-23.8521 Z0.1177
G1 X39.8635 Y-23.8015 Z0.1220 F22.
G1 X39.8635 Y-23.5518 Z0.1404
G1 X39.8635 Y-23.3019 Z0.1535
G1 X39.8635 Y-23.0517 Z0.1614
G1 X39.8635 Y-22.8015 Z0.1640
G1 X39.8635 Y-22.5513 Z0.1614
G1 X39.8635 Y-22.3012 Z0.1535
G1 X39.8635 Y-22.0512 Z0.1404
G1 X39.8635 Y-21.8015 Z0.1220
G1 X39.8635 Y-21.7520 Z0.1178
G0 Z0.3843
G0 X39.8635 Y-21.7520 
G0 Z0.3843
G0 X40.9995 Y-23.7234 
G1 X40.9995 Y-23.7234 Z0.2093 F21.
G1 X40.9995 Y-23.8015 Z0.1955
G1 X40.9995 Y-23.8368 Z0.1893
G1 X40.9995 Y-23.8015 Z0.1924 F22.
G1 X40.9995 Y-23.5518 Z0.2113
G1 X40.9995 Y-23.3019 Z0.2249
G1 X40.9995 Y-23.0517 Z0.2330
G1 X40.9995 Y-22.8015 Z0.2357
G1 X40.9995 Y-22.5513 Z0.2330
G1 X40.9995 Y-22.3012 Z0.2249
G1 X40.9995 Y-22.0512 Z0.2113
G1 X40.9995 Y-21.8015 Z0.1924
G1 X40.9995 Y-21.7671 Z0.1894
G0 Z0.3699
G0 X40.9995 Y-21.7671 
G0 Z0.3699
G0 X40.9995 Y-23.7234 
G1 X40.9995 Y-23.7234 Z0.1949 F21.
G1 X40.9995 Y-23.8015 Z0.1812
G1 X40.9995 Y-23.8368 Z0.1749
G1 X40.9995 Y-23.8015 Z0.1781 F22.
G1 X40.9995 Y-23.5518 Z0.1970
G1 X40.9995 Y-23.3019 Z0.2105
G1 X40.9995 Y-23.0517 Z0.2186
G1 X40.9995 Y-22.8015 Z0.2213
G1 X40.9995 Y-22.5513 Z0.2186
G1 X40.9995 Y-22.3012 Z0.2105
G1 X40.9995 Y-22.0512 Z0.1970
G1 X40.9995 Y-21.8015 Z0.1781
G1 X40.9995 Y-21.7671 Z0.1750
G0 Z0.3556
G0 X40.9995 Y-21.7671 
G0 Z0.3556
G0 X40.9995 Y-23.7234 
G1 X40.9995 Y-23.7234 Z0.1806 F21.
G1 X40.9995 Y-23.8015 Z0.1668
G1 X40.9995 Y-23.8368 Z0.1606
G1 X40.9995 Y-23.8015 Z0.1637 F22.
G1 X40.9995 Y-23.5518 Z0.1827
G1 X40.9995 Y-23.3019 Z0.1962
G1 X40.9995 Y-23.0517 Z0.2043
G1 X40.9995 Y-22.8015 Z0.2070
G1 X40.9995 Y-22.5513 Z0.2043
G1 X40.9995 Y-22.3012 Z0.1962
G1 X40.9995 Y-22.0512 Z0.1827
G1 X40.9995 Y-21.8015 Z0.1637
G1 X40.9995 Y-21.7671 Z0.1607
G0 Z0.3413
G0 X40.9995 Y-21.7671 
G0 Z0.3413
G0 X40.9995 Y-23.7234 
G1 X40.9995 Y-23.7234 Z0.1663 F21.
G1 X40.9995 Y-23.8015 Z0.1525
G1 X40.9995 Y-23.8368 Z0.1463
G1 X40.9995 Y-23.8015 Z0.1494 F22.
G1 X40.9995 Y-23.5518 Z0.1683
G1 X40.9995 Y-23.3019 Z0.1819
G1 X40.9995 Y-23.0517 Z0.1900
G1 X40.9995 Y-22.8015 Z0.1927
G1 X40.9995 Y-22.5513 Z0.1900
G1 X40.9995 Y-22.3012 Z0.1819
G1 X40.9995 Y-22.0512 Z0.1683
G1 X40.9995 Y-21.8015 Z0.1494
G1 X40.9995 Y-21.7671 Z0.1464
G0 Z0.3269
G0 X40.9995 Y-21.7671 
G0 Z0.3269
G0 X40.9995 Y-23.7234 
G1 X40.9995 Y-23.7234 Z0.1519 F21.
G1 X40.9995 Y-23.8015 Z0.1382
G1 X40.9995 Y-23.8368 Z0.1319
G1 X40.9995 Y-23.8015 Z0.1351 F22.
G1 X40.9995 Y-23.5518 Z0.1540
G1 X40.9995 Y-23.3019 Z0.1675
G1 X40.9995 Y-23.0517 Z0.1756
G1 X40.9995 Y-22.8015 Z0.1783
G1 X40.9995 Y-22.5513 Z0.1756
G1 X40.9995 Y-22.3012 Z0.1675
G1 X40.9995 Y-22.0512 Z0.1540
G1 X40.9995 Y-21.8015 Z0.1351
G1 X40.9995 Y-21.7671 Z0.1320
G0 Z0.3126
G0 X40.9995 Y-21.7671 
G0 Z0.3126
G0 X40.9995 Y-23.7234 
G1 X40.9995 Y-23.7234 Z0.1376 F21.
G1 X40.9995 Y-23.8015 Z0.1238
G1 X40.9995 Y-23.8368 Z0.1176
G1 X40.9995 Y-23.8015 Z0.1207 F22.
G1 X40.9995 Y-23.5518 Z0.1397
G1 X40.9995 Y-23.3019 Z0.1532
G1 X40.9995 Y-23.0517 Z0.1613
G1 X40.9995 Y-22.8015 Z0.1640
G1 X40.9995 Y-22.5513 Z0.1613
G1 X40.9995 Y-22.3012 Z0.1532
G1 X40.9995 Y-22.0512 Z0.1397
G1 X40.9995 Y-21.8015 Z0.1207
G1 X40.9995 Y-21.7671 Z0.1177
G0 Z0.3842
G0 X40.9995 Y-21.7671 
G0 Z0.3842
G0 X42.2030 Y-23.7072 
G1 X42.2030 Y-23.7072 Z0.2092 F21.
G1 X42.2030 Y-23.7190 Z0.2071
G1 X42.2030 Y-23.8206 Z0.1892
G1 X42.2030 Y-23.4816 Z0.2150 F22.
G1 X42.2030 Y-23.1419 Z0.2305
G1 X42.2030 Y-22.8019 Z0.2357
G1 X42.2030 Y-22.4619 Z0.2305
G1 X42.2030 Y-22.1222 Z0.2151
G1 X42.2030 Y-21.7831 Z0.1893
G0 Z0.3699
G0 X42.2030 Y-21.7831 
G0 Z0.3699
G0 X42.2030 Y-23.7072 
G1 X42.2030 Y-23.7072 Z0.1949 F21.
G1 X42.2030 Y-23.7190 Z0.1928
G1 X42.2030 Y-23.8206 Z0.1749
G1 X42.2030 Y-23.4816 Z0.2007 F22.
G1 X42.2030 Y-23.1419 Z0.2162
G1 X42.2030 Y-22.8019 Z0.2213
G1 X42.2030 Y-22.4619 Z0.2162
G1 X42.2030 Y-22.1222 Z0.2007
G1 X42.2030 Y-21.7831 Z0.1750
G0 Z0.3556
G0 X42.2030 Y-21.7831 
G0 Z0.3556
G0 X42.2030 Y-23.7072 
G1 X42.2030 Y-23.7072 Z0.1806 F21.
G1 X42.2030 Y-23.7190 Z0.1785
G1 X42.2030 Y-23.8206 Z0.1606
G1 X42.2030 Y-23.4816 Z0.1863 F22.
G1 X42.2030 Y-23.1419 Z0.2018
G1 X42.2030 Y-22.8019 Z0.2070
G1 X42.2030 Y-22.4619 Z0.2019
G1 X42.2030 Y-22.1222 Z0.1864
G1 X42.2030 Y-21.7831 Z0.1606
G0 Z0.3412
G0 X42.2030 Y-21.7831 
G0 Z0.3412
G0 X42.2030 Y-23.7072 
G1 X42.2030 Y-23.7072 Z0.1662 F21.
G1 X42.2030 Y-23.7190 Z0.1641
G1 X42.2030 Y-23.8206 Z0.1462
G1 X42.2030 Y-23.4816 Z0.1720 F22.
G1 X42.2030 Y-23.1419 Z0.1875
G1 X42.2030 Y-22.8019 Z0.1927
G1 X42.2030 Y-22.4619 Z0.1875
G1 X42.2030 Y-22.1222 Z0.1721
G1 X42.2030 Y-21.7831 Z0.1463
G0 Z0.3269
G0 X42.2030 Y-21.7831 
G0 Z0.3269
G0 X42.2030 Y-23.7072 
G1 X42.2030 Y-23.7072 Z0.1519 F21.
G1 X42.2030 Y-23.7190 Z0.1498
G1 X42.2030 Y-23.8206 Z0.1319
G1 X42.2030 Y-23.4816 Z0.1577 F22.
G1 X42.2030 Y-23.1419 Z0.1732
G1 X42.2030 Y-22.8019 Z0.1783
G1 X42.2030 Y-22.4619 Z0.1732
G1 X42.2030 Y-22.1222 Z0.1577
G1 X42.2030 Y-21.7831 Z0.1320
G0 Z0.3126
G0 X42.2030 Y-21.7831 
G0 Z0.3126
G0 X42.2030 Y-23.7072 
G1 X42.2030 Y-23.7072 Z0.1376 F21.
G1 X42.2030 Y-23.7190 Z0.1355
G1 X42.2030 Y-23.8206 Z0.1176
G1 X42.2030 Y-23.4816 Z0.1433 F22.
G1 X42.2030 Y-23.1419 Z0.1588
G1 X42.2030 Y-22.8019 Z0.1640
G1 X42.2030 Y-22.4619 Z0.1589
G1 X42.2030 Y-22.1222 Z0.1434
G1 X42.2030 Y-21.7831 Z0.1176
G0 Z0.3842
G0 X42.2030 Y-21.7831 
G0 Z0.3842
G0 X43.4780 Y-23.6901 
G1 X43.4780 Y-23.6901 Z0.2092 F21.
G1 X43.4780 Y-23.7036 Z0.2068
G1 X43.4780 Y-23.8035 Z0.1892
G1 X43.4780 Y-23.4701 Z0.2150 F22.
G1 X43.4780 Y-23.1361 Z0.2305
G1 X43.4780 Y-22.8018 Z0.2357
G1 X43.4780 Y-22.4674 Z0.2305
G1 X43.4780 Y-22.1334 Z0.2150
G1 X43.4780 Y-21.8000 Z0.1892
G0 Z0.3698
G0 X43.4780 Y-21.8000 
G0 Z0.3698
G0 X43.4780 Y-23.6901 
G1 X43.4780 Y-23.6901 Z0.1948 F21.
G1 X43.4780 Y-23.7036 Z0.1925
G1 X43.4780 Y-23.8035 Z0.1748
G1 X43.4780 Y-23.4701 Z0.2007 F22.
G1 X43.4780 Y-23.1361 Z0.2162
G1 X43.4780 Y-22.8018 Z0.2213
G1 X43.4780 Y-22.4674 Z0.2162
G1 X43.4780 Y-22.1334 Z0.2007
G1 X43.4780 Y-21.8000 Z0.1749
G0 Z0.3555
G0 X43.4780 Y-21.8000 
G0 Z0.3555
G0 X43.4780 Y-23.6901 
G1 X43.4780 Y-23.6901 Z0.1805 F21.
G1 X43.4780 Y-23.7036 Z0.1781
G1 X43.4780 Y-23.8035 Z0.1605
G1 X43.4780 Y-23.4701 Z0.1863 F22.
G1 X43.4780 Y-23.1361 Z0.2018
G1 X43.4780 Y-22.8018 Z0.2070
G1 X43.4780 Y-22.4674 Z0.2018
G1 X43.4780 Y-22.1334 Z0.1864
G1 X43.4780 Y-21.8000 Z0.1605
G0 Z0.3412
G0 X43.4780 Y-21.8000 
G0 Z0.3412
G0 X43.4780 Y-23.6901 
G1 X43.4780 Y-23.6901 Z0.1662 F21.
G1 X43.4780 Y-23.7036 Z0.1638
G1 X43.4780 Y-23.8035 Z0.1462
G1 X43.4780 Y-23.4701 Z0.1720 F22.
G1 X43.4780 Y-23.1361 Z0.1875
G1 X43.4780 Y-22.8018 Z0.1927
G1 X43.4780 Y-22.4674 Z0.1875
G1 X43.4780 Y-22.1334 Z0.1720
G1 X43.4780 Y-21.8000 Z0.1462
G0 Z0.3268
G0 X43.4780 Y-21.8000 
G0 Z0.3268
G0 X43.4780 Y-23.6901 
G1 X43.4780 Y-23.6901 Z0.1518 F21.
G1 X43.4780 Y-23.7036 Z0.1495
G1 X43.4780 Y-23.8035 Z0.1318
G1 X43.4780 Y-23.4701 Z0.1577 F22.
G1 X43.4780 Y-23.1361 Z0.1732
G1 X43.4780 Y-22.8018 Z0.1783
G1 X43.4780 Y-22.4674 Z0.1732
G1 X43.4780 Y-22.1334 Z0.1577
G1 X43.4780 Y-21.8000 Z0.1319
G0 Z0.3125
G0 X43.4780 Y-21.8000 
G0 Z0.3125
G0 X43.4780 Y-23.6901 
G1 X43.4780 Y-23.6901 Z0.1375 F21.
G1 X43.4780 Y-23.7036 Z0.1351
G1 X43.4780 Y-23.8035 Z0.1175
G1 X43.4780 Y-23.4701 Z0.1433 F22.
G1 X43.4780 Y-23.1361 Z0.1588
G1 X43.4780 Y-22.8018 Z0.1640
G1 X43.4780 Y-22.4674 Z0.1588
G1 X43.4780 Y-22.1334 Z0.1434
G1 X43.4780 Y-21.8000 Z0.1175
G0 Z0.3841
G0 X43.4780 Y-21.8000 
G0 Z0.3841
G0 X44.8289 Y-23.6719 
G1 X44.8289 Y-23.6719 Z0.2091 F21.
G1 X44.8289 Y-23.6872 Z0.2064
G1 X44.8289 Y-23.7853 Z0.1891
G1 X44.8289 Y-23.4580 Z0.2150 F22.
G1 X44.8289 Y-23.1300 Z0.2305
G1 X44.8289 Y-22.8016 Z0.2357
G1 X44.8289 Y-22.4733 Z0.2305
G1 X44.8289 Y-22.1453 Z0.2150
G1 X44.8289 Y-21.8180 Z0.1891
G0 Z0.3698
G0 X44.8289 Y-21.8180 
G0 Z0.3698
G0 X44.8289 Y-23.6719 
G1 X44.8289 Y-23.6719 Z0.1948 F21.
G1 X44.8289 Y-23.6872 Z0.1921
G1 X44.8289 Y-23.7853 Z0.1748
G1 X44.8289 Y-23.4580 Z0.2006 F22.
G1 X44.8289 Y-23.1300 Z0.2162
G1 X44.8289 Y-22.8016 Z0.2213
G1 X44.8289 Y-22.4733 Z0.2162
G1 X44.8289 Y-22.1453 Z0.2006
G1 X44.8289 Y-21.8180 Z0.1748
G0 Z0.3554
G0 X44.8289 Y-21.8180 
G0 Z0.3554
G0 X44.8289 Y-23.6719 
G1 X44.8289 Y-23.6719 Z0.1804 F21.
G1 X44.8289 Y-23.6872 Z0.1777
G1 X44.8289 Y-23.7853 Z0.1604
G1 X44.8289 Y-23.4580 Z0.1863 F22.
G1 X44.8289 Y-23.1300 Z0.2018
G1 X44.8289 Y-22.8016 Z0.2070
G1 X44.8289 Y-22.4733 Z0.2018
G1 X44.8289 Y-22.1453 Z0.1863
G1 X44.8289 Y-21.8180 Z0.1605
G0 Z0.3411
G0 X44.8289 Y-21.8180 
G0 Z0.3411
G0 X44.8289 Y-23.6719 
G1 X44.8289 Y-23.6719 Z0.1661 F21.
G1 X44.8289 Y-23.6872 Z0.1634
G1 X44.8289 Y-23.7853 Z0.1461
G1 X44.8289 Y-23.4580 Z0.1720 F22.
G1 X44.8289 Y-23.1300 Z0.1875
G1 X44.8289 Y-22.8016 Z0.1927
G1 X44.8289 Y-22.4733 Z0.1875
G1 X44.8289 Y-22.1453 Z0.1720
G1 X44.8289 Y-21.8180 Z0.1461
G0 Z0.3268
G0 X44.8289 Y-21.8180 
G0 Z0.3268
G0 X44.8289 Y-23.6719 
G1 X44.8289 Y-23.6719 Z0.1518 F21.
G1 X44.8289 Y-23.6872 Z0.1491
G1 X44.8289 Y-23.7853 Z0.1318
G1 X44.8289 Y-23.4580 Z0.1576 F22.
G1 X44.8289 Y-23.1300 Z0.1732
G1 X44.8289 Y-22.8016 Z0.1783
G1 X44.8289 Y-22.4733 Z0.1732
G1 X44.8289 Y-22.1453 Z0.1576
G1 X44.8289 Y-21.8180 Z0.1318
G0 Z0.3124
G0 X44.8289 Y-21.8180 
G0 Z0.3124
G0 X44.8289 Y-23.6719 
G1 X44.8289 Y-23.6719 Z0.1374 F21.
G1 X44.8289 Y-23.6872 Z0.1347
G1 X44.8289 Y-23.7853 Z0.1174
G1 X44.8289 Y-23.4580 Z0.1433 F22.
G1 X44.8289 Y-23.1300 Z0.1588
G1 X44.8289 Y-22.8016 Z0.1640
G1 X44.8289 Y-22.4733 Z0.1588
G1 X44.8289 Y-22.1453 Z0.1433
G1 X44.8289 Y-21.8180 Z0.1175
G0 Z4.0000
G0 X44.8289 Y-21.8180 
M5
G53 Z
X2Y0
