( MOP:  03-frets-r1020-s25PT5-NFrets22-StandardDepth-StandardKerf )
( FILE: G:\Shared drives\AlloyProjectFiles\Customer CAD files\Alloy-Standard-Builds-CAM\Fingerboards-in\03-frets-r1020-s25PT5-NFrets22-StandardDepth-StandardKerf.nc)
G90
(  BEGIN TOOL LIST )
(  TOOL 15 - Fretkerf PT025 - DESC: 0.0250 DIA, 2 FLUTE,  CARBIDE MAT )
(  ENDOF TOOL LIST )
( 03-frets-r1020-s25PT5-NFrets22-StandardDepth-StandardKerf)
T15
S14000
M3
G0 Z4.0000
G0 X27.9158 Y-23.8993 
G1 X27.9158 Y-23.8993 Z0.2190 F21.
G1 X27.9158 Y-24.0127 Z0.1990
G1 X27.9158 Y-23.6097 Z0.2193 F22.
G1 X27.9158 Y-23.2065 Z0.2316
G1 X27.9158 Y-22.8030 Z0.2357
G1 X27.9158 Y-22.3996 Z0.2316
G1 X27.9158 Y-21.9963 Z0.2195
G1 X27.9158 Y-21.5934 Z0.1991
G0 Z0.3796
G0 X27.9158 Y-21.5934 
G0 Z0.3796
G0 X27.9158 Y-23.8993 
G1 X27.9158 Y-23.8993 Z0.2046 F21.
G1 X27.9158 Y-24.0127 Z0.1846
G1 X27.9158 Y-23.6097 Z0.2050 F22.
G1 X27.9158 Y-23.2065 Z0.2172
G1 X27.9158 Y-22.8030 Z0.2213
G1 X27.9158 Y-22.3996 Z0.2173
G1 X27.9158 Y-21.9963 Z0.2051
G1 X27.9158 Y-21.5934 Z0.1848
G0 Z0.3653
G0 X27.9158 Y-21.5934 
G0 Z0.3653
G0 X27.9158 Y-23.8993 
G1 X27.9158 Y-23.8993 Z0.1903 F21.
G1 X27.9158 Y-24.0127 Z0.1703
G1 X27.9158 Y-23.6097 Z0.1907 F22.
G1 X27.9158 Y-23.2065 Z0.2029
G1 X27.9158 Y-22.8030 Z0.2070
G1 X27.9158 Y-22.3996 Z0.2030
G1 X27.9158 Y-21.9963 Z0.1908
G1 X27.9158 Y-21.5934 Z0.1705
G0 Z0.3510
G0 X27.9158 Y-21.5934 
G0 Z0.3510
G0 X27.9158 Y-23.8993 
G1 X27.9158 Y-23.8993 Z0.1760 F21.
G1 X27.9158 Y-24.0127 Z0.1560
G1 X27.9158 Y-23.6097 Z0.1763 F22.
G1 X27.9158 Y-23.2065 Z0.1886
G1 X27.9158 Y-22.8030 Z0.1927
G1 X27.9158 Y-22.3996 Z0.1886
G1 X27.9158 Y-21.9963 Z0.1765
G1 X27.9158 Y-21.5934 Z0.1561
G0 Z0.3366
G0 X27.9158 Y-21.5934 
G0 Z0.3366
G0 X27.9158 Y-23.8993 
G1 X27.9158 Y-23.8993 Z0.1616 F21.
G1 X27.9158 Y-24.0127 Z0.1416
G1 X27.9158 Y-23.6097 Z0.1620 F22.
G1 X27.9158 Y-23.2065 Z0.1742
G1 X27.9158 Y-22.8030 Z0.1783
G1 X27.9158 Y-22.3996 Z0.1743
G1 X27.9158 Y-21.9963 Z0.1621
G1 X27.9158 Y-21.5934 Z0.1418
G0 Z0.3223
G0 X27.9158 Y-21.5934 
G0 Z0.3223
G0 X27.9158 Y-23.8993 
G1 X27.9158 Y-23.8993 Z0.1473 F21.
G1 X27.9158 Y-24.0127 Z0.1273
G1 X27.9158 Y-23.6097 Z0.1477 F22.
G1 X27.9158 Y-23.2065 Z0.1599
G1 X27.9158 Y-22.8030 Z0.1640
G1 X27.9158 Y-22.3996 Z0.1600
G1 X27.9158 Y-21.9963 Z0.1478
G1 X27.9158 Y-21.5934 Z0.1275
G0 Z0.3938
G0 X27.9158 Y-21.5934 
G0 Z0.3938
G0 X28.3413 Y-23.8935 
G1 X28.3413 Y-23.8935 Z0.2188 F21.
G1 X28.3413 Y-24.0070 Z0.1988
G1 X28.3413 Y-23.8015 Z0.2103 F22.
G1 X28.3412 Y-23.5517 Z0.2214
G1 X28.3411 Y-23.3018 Z0.2293
G1 X28.3411 Y-23.0517 Z0.2341
G1 X28.3411 Y-22.8015 Z0.2357
G1 X28.3411 Y-22.5514 Z0.2341
G1 X28.3411 Y-22.3013 Z0.2293
G1 X28.3412 Y-22.0513 Z0.2214
G1 X28.3413 Y-21.8015 Z0.2103
G1 X28.3413 Y-21.5990 Z0.1990
G0 Z0.3795
G0 X28.3413 Y-21.5990 
G0 Z0.3795
G0 X28.3413 Y-23.8935 
G1 X28.3413 Y-23.8935 Z0.2045 F21.
G1 X28.3413 Y-24.0070 Z0.1845
G1 X28.3413 Y-23.8015 Z0.1960 F22.
G1 X28.3412 Y-23.5517 Z0.2071
G1 X28.3411 Y-23.3018 Z0.2150
G1 X28.3411 Y-23.0517 Z0.2198
G1 X28.3411 Y-22.8015 Z0.2213
G1 X28.3411 Y-22.5514 Z0.2198
G1 X28.3411 Y-22.3013 Z0.2150
G1 X28.3412 Y-22.0513 Z0.2071
G1 X28.3413 Y-21.8015 Z0.1960
G1 X28.3413 Y-21.5990 Z0.1847
G0 Z0.3651
G0 X28.3413 Y-21.5990 
G0 Z0.3651
G0 X28.3413 Y-23.8935 
G1 X28.3413 Y-23.8935 Z0.1901 F21.
G1 X28.3413 Y-24.0070 Z0.1701
G1 X28.3413 Y-23.8015 Z0.1816 F22.
G1 X28.3412 Y-23.5517 Z0.1927
G1 X28.3411 Y-23.3018 Z0.2007
G1 X28.3411 Y-23.0517 Z0.2054
G1 X28.3411 Y-22.8015 Z0.2070
G1 X28.3411 Y-22.5514 Z0.2054
G1 X28.3411 Y-22.3013 Z0.2007
G1 X28.3412 Y-22.0513 Z0.1927
G1 X28.3413 Y-21.8015 Z0.1816
G1 X28.3413 Y-21.5990 Z0.1703
G0 Z0.3508
G0 X28.3413 Y-21.5990 
G0 Z0.3508
G0 X28.3413 Y-23.8935 
G1 X28.3413 Y-23.8935 Z0.1758 F21.
G1 X28.3413 Y-24.0070 Z0.1558
G1 X28.3413 Y-23.8015 Z0.1673 F22.
G1 X28.3412 Y-23.5517 Z0.1784
G1 X28.3411 Y-23.3018 Z0.1863
G1 X28.3411 Y-23.0517 Z0.1911
G1 X28.3411 Y-22.8015 Z0.1927
G1 X28.3411 Y-22.5514 Z0.1911
G1 X28.3411 Y-22.3013 Z0.1863
G1 X28.3412 Y-22.0513 Z0.1784
G1 X28.3413 Y-21.8015 Z0.1673
G1 X28.3413 Y-21.5990 Z0.1560
G0 Z0.3365
G0 X28.3413 Y-21.5990 
G0 Z0.3365
G0 X28.3413 Y-23.8935 
G1 X28.3413 Y-23.8935 Z0.1615 F21.
G1 X28.3413 Y-24.0070 Z0.1415
G1 X28.3413 Y-23.8015 Z0.1530 F22.
G1 X28.3412 Y-23.5517 Z0.1641
G1 X28.3411 Y-23.3018 Z0.1720
G1 X28.3411 Y-23.0517 Z0.1768
G1 X28.3411 Y-22.8015 Z0.1783
G1 X28.3411 Y-22.5514 Z0.1768
G1 X28.3411 Y-22.3013 Z0.1720
G1 X28.3412 Y-22.0513 Z0.1641
G1 X28.3413 Y-21.8015 Z0.1530
G1 X28.3413 Y-21.5990 Z0.1417
G0 Z0.3221
G0 X28.3413 Y-21.5990 
G0 Z0.3221
G0 X28.3413 Y-23.8935 
G1 X28.3413 Y-23.8935 Z0.1471 F21.
G1 X28.3413 Y-24.0070 Z0.1271
G1 X28.3413 Y-23.8015 Z0.1386 F22.
G1 X28.3412 Y-23.5517 Z0.1497
G1 X28.3411 Y-23.3018 Z0.1577
G1 X28.3411 Y-23.0517 Z0.1624
G1 X28.3411 Y-22.8015 Z0.1640
G1 X28.3411 Y-22.5514 Z0.1624
G1 X28.3411 Y-22.3013 Z0.1577
G1 X28.3412 Y-22.0513 Z0.1497
G1 X28.3413 Y-21.8015 Z0.1386
G1 X28.3413 Y-21.5990 Z0.1273
G0 Z0.3936
G0 X28.3413 Y-21.5990 
G0 Z0.3936
G0 X28.7921 Y-23.8875 
G1 X28.7921 Y-23.8875 Z0.2186 F21.
G1 X28.7921 Y-24.0009 Z0.1986
G1 X28.7921 Y-23.8015 Z0.2099 F22.
G1 X28.7919 Y-23.5518 Z0.2212
G1 X28.7917 Y-23.3018 Z0.2292
G1 X28.7916 Y-23.0517 Z0.2341
G1 X28.7916 Y-22.8015 Z0.2357
G1 X28.7916 Y-22.5514 Z0.2341
G1 X28.7917 Y-22.3013 Z0.2292
G1 X28.7919 Y-22.0513 Z0.2212
G1 X28.7921 Y-21.8015 Z0.2099
G1 X28.7921 Y-21.6050 Z0.1988
G0 Z0.3793
G0 X28.7921 Y-21.6050 
G0 Z0.3793
G0 X28.7921 Y-23.8875 
G1 X28.7921 Y-23.8875 Z0.2043 F21.
G1 X28.7921 Y-24.0009 Z0.1843
G1 X28.7921 Y-23.8015 Z0.1956 F22.
G1 X28.7919 Y-23.5518 Z0.2069
G1 X28.7917 Y-23.3018 Z0.2149
G1 X28.7916 Y-23.0517 Z0.2197
G1 X28.7916 Y-22.8015 Z0.2213
G1 X28.7916 Y-22.5514 Z0.2197
G1 X28.7917 Y-22.3013 Z0.2149
G1 X28.7919 Y-22.0513 Z0.2069
G1 X28.7921 Y-21.8015 Z0.1956
G1 X28.7921 Y-21.6050 Z0.1845
G0 Z0.3650
G0 X28.7921 Y-21.6050 
G0 Z0.3650
G0 X28.7921 Y-23.8875 
G1 X28.7921 Y-23.8875 Z0.1900 F21.
G1 X28.7921 Y-24.0009 Z0.1700
G1 X28.7921 Y-23.8015 Z0.1813 F22.
G1 X28.7919 Y-23.5518 Z0.1925
G1 X28.7917 Y-23.3018 Z0.2006
G1 X28.7916 Y-23.0517 Z0.2054
G1 X28.7916 Y-22.8015 Z0.2070
G1 X28.7916 Y-22.5514 Z0.2054
G1 X28.7917 Y-22.3013 Z0.2006
G1 X28.7919 Y-22.0513 Z0.1925
G1 X28.7921 Y-21.8015 Z0.1813
G1 X28.7921 Y-21.6050 Z0.1702
G0 Z0.3506
G0 X28.7921 Y-21.6050 
G0 Z0.3506
G0 X28.7921 Y-23.8875 
G1 X28.7921 Y-23.8875 Z0.1756 F21.
G1 X28.7921 Y-24.0009 Z0.1556
G1 X28.7921 Y-23.8015 Z0.1669 F22.
G1 X28.7919 Y-23.5518 Z0.1782
G1 X28.7917 Y-23.3018 Z0.1862
G1 X28.7916 Y-23.0517 Z0.1911
G1 X28.7916 Y-22.8015 Z0.1927
G1 X28.7916 Y-22.5514 Z0.1911
G1 X28.7917 Y-22.3013 Z0.1862
G1 X28.7919 Y-22.0513 Z0.1782
G1 X28.7921 Y-21.8015 Z0.1669
G1 X28.7921 Y-21.6050 Z0.1558
G0 Z0.3363
G0 X28.7921 Y-21.6050 
G0 Z0.3363
G0 X28.7921 Y-23.8875 
G1 X28.7921 Y-23.8875 Z0.1613 F21.
G1 X28.7921 Y-24.0009 Z0.1413
G1 X28.7921 Y-23.8015 Z0.1526 F22.
G1 X28.7919 Y-23.5518 Z0.1639
G1 X28.7917 Y-23.3018 Z0.1719
G1 X28.7916 Y-23.0517 Z0.1767
G1 X28.7916 Y-22.8015 Z0.1783
G1 X28.7916 Y-22.5514 Z0.1767
G1 X28.7917 Y-22.3013 Z0.1719
G1 X28.7919 Y-22.0513 Z0.1639
G1 X28.7921 Y-21.8015 Z0.1526
G1 X28.7921 Y-21.6050 Z0.1415
G0 Z0.3220
G0 X28.7921 Y-21.6050 
G0 Z0.3220
G0 X28.7921 Y-23.8875 
G1 X28.7921 Y-23.8875 Z0.1470 F21.
G1 X28.7921 Y-24.0009 Z0.1270
G1 X28.7921 Y-23.8015 Z0.1383 F22.
G1 X28.7919 Y-23.5518 Z0.1495
G1 X28.7917 Y-23.3018 Z0.1576
G1 X28.7916 Y-23.0517 Z0.1624
G1 X28.7916 Y-22.8015 Z0.1640
G1 X28.7916 Y-22.5514 Z0.1624
G1 X28.7917 Y-22.3013 Z0.1576
G1 X28.7919 Y-22.0513 Z0.1495
G1 X28.7921 Y-21.8015 Z0.1383
G1 X28.7921 Y-21.6050 Z0.1272
G0 Z0.3935
G0 X28.7921 Y-21.6050 
G0 Z0.3935
G0 X29.2697 Y-23.8811 
G1 X29.2697 Y-23.8811 Z0.2185 F21.
G1 X29.2697 Y-23.9945 Z0.1985
G1 X29.2697 Y-23.5976 Z0.2191 F22.
G1 X29.2697 Y-23.2003 Z0.2315
G1 X29.2697 Y-22.8029 Z0.2357
G1 X29.2697 Y-22.4055 Z0.2316
G1 X29.2697 Y-22.0083 Z0.2192
G1 X29.2697 Y-21.6113 Z0.1986
G0 Z0.3791
G0 X29.2697 Y-21.6113 
G0 Z0.3791
G0 X29.2697 Y-23.8811 
G1 X29.2697 Y-23.8811 Z0.2041 F21.
G1 X29.2697 Y-23.9945 Z0.1841
G1 X29.2697 Y-23.5976 Z0.2048 F22.
G1 X29.2697 Y-23.2003 Z0.2172
G1 X29.2697 Y-22.8029 Z0.2213
G1 X29.2697 Y-22.4055 Z0.2172
G1 X29.2697 Y-22.0083 Z0.2049
G1 X29.2697 Y-21.6113 Z0.1843
G0 Z0.3648
G0 X29.2697 Y-21.6113 
G0 Z0.3648
G0 X29.2697 Y-23.8811 
G1 X29.2697 Y-23.8811 Z0.1898 F21.
G1 X29.2697 Y-23.9945 Z0.1698
G1 X29.2697 Y-23.5976 Z0.1904 F22.
G1 X29.2697 Y-23.2003 Z0.2028
G1 X29.2697 Y-22.8029 Z0.2070
G1 X29.2697 Y-22.4055 Z0.2029
G1 X29.2697 Y-22.0083 Z0.1906
G1 X29.2697 Y-21.6113 Z0.1700
G0 Z0.3505
G0 X29.2697 Y-21.6113 
G0 Z0.3505
G0 X29.2697 Y-23.8811 
G1 X29.2697 Y-23.8811 Z0.1755 F21.
G1 X29.2697 Y-23.9945 Z0.1555
G1 X29.2697 Y-23.5976 Z0.1761 F22.
G1 X29.2697 Y-23.2003 Z0.1885
G1 X29.2697 Y-22.8029 Z0.1927
G1 X29.2697 Y-22.4055 Z0.1886
G1 X29.2697 Y-22.0083 Z0.1762
G1 X29.2697 Y-21.6113 Z0.1556
G0 Z0.3361
G0 X29.2697 Y-21.6113 
G0 Z0.3361
G0 X29.2697 Y-23.8811 
G1 X29.2697 Y-23.8811 Z0.1611 F21.
G1 X29.2697 Y-23.9945 Z0.1411
G1 X29.2697 Y-23.5976 Z0.1618 F22.
G1 X29.2697 Y-23.2003 Z0.1742
G1 X29.2697 Y-22.8029 Z0.1783
G1 X29.2697 Y-22.4055 Z0.1742
G1 X29.2697 Y-22.0083 Z0.1619
G1 X29.2697 Y-21.6113 Z0.1413
G0 Z0.3218
G0 X29.2697 Y-21.6113 
G0 Z0.3218
G0 X29.2697 Y-23.8811 
G1 X29.2697 Y-23.8811 Z0.1468 F21.
G1 X29.2697 Y-23.9945 Z0.1268
G1 X29.2697 Y-23.5976 Z0.1474 F22.
G1 X29.2697 Y-23.2003 Z0.1598
G1 X29.2697 Y-22.8029 Z0.1640
G1 X29.2697 Y-22.4055 Z0.1599
G1 X29.2697 Y-22.0083 Z0.1476
G1 X29.2697 Y-21.6113 Z0.1270
G0 Z0.3933
G0 X29.2697 Y-21.6113 
G0 Z0.3933
G0 X29.7757 Y-23.8743 
G1 X29.7757 Y-23.8743 Z0.2183 F21.
G1 X29.7757 Y-23.9877 Z0.1983
G1 X29.7757 Y-23.8015 Z0.2091 F22.
G1 X29.7757 Y-23.5516 Z0.2207
G1 X29.7757 Y-23.3017 Z0.2290
G1 X29.7757 Y-23.0516 Z0.2340
G1 X29.7757 Y-22.8015 Z0.2357
G1 X29.7757 Y-22.5515 Z0.2340
G1 X29.7757 Y-22.3014 Z0.2290
G1 X29.7757 Y-22.0514 Z0.2207
G1 X29.7757 Y-21.8015 Z0.2091
G1 X29.7757 Y-21.6181 Z0.1984
G0 Z0.3789
G0 X29.7757 Y-21.6181 
G0 Z0.3789
G0 X29.7757 Y-23.8743 
G1 X29.7757 Y-23.8743 Z0.2039 F21.
G1 X29.7757 Y-23.9877 Z0.1839
G1 X29.7757 Y-23.8015 Z0.1948 F22.
G1 X29.7757 Y-23.5516 Z0.2064
G1 X29.7757 Y-23.3017 Z0.2147
G1 X29.7757 Y-23.0516 Z0.2197
G1 X29.7757 Y-22.8015 Z0.2213
G1 X29.7757 Y-22.5515 Z0.2197
G1 X29.7757 Y-22.3014 Z0.2147
G1 X29.7757 Y-22.0514 Z0.2064
G1 X29.7757 Y-21.8015 Z0.1948
G1 X29.7757 Y-21.6181 Z0.1841
G0 Z0.3646
G0 X29.7757 Y-21.6181 
G0 Z0.3646
G0 X29.7757 Y-23.8743 
G1 X29.7757 Y-23.8743 Z0.1896 F21.
G1 X29.7757 Y-23.9877 Z0.1696
G1 X29.7757 Y-23.8015 Z0.1804 F22.
G1 X29.7757 Y-23.5516 Z0.1921
G1 X29.7757 Y-23.3017 Z0.2004
G1 X29.7757 Y-23.0516 Z0.2053
G1 X29.7757 Y-22.8015 Z0.2070
G1 X29.7757 Y-22.5515 Z0.2053
G1 X29.7757 Y-22.3014 Z0.2004
G1 X29.7757 Y-22.0514 Z0.1921
G1 X29.7757 Y-21.8015 Z0.1804
G1 X29.7757 Y-21.6181 Z0.1698
G0 Z0.3503
G0 X29.7757 Y-21.6181 
G0 Z0.3503
G0 X29.7757 Y-23.8743 
G1 X29.7757 Y-23.8743 Z0.1753 F21.
G1 X29.7757 Y-23.9877 Z0.1553
G1 X29.7757 Y-23.8015 Z0.1661 F22.
G1 X29.7757 Y-23.5516 Z0.1777
G1 X29.7757 Y-23.3017 Z0.1860
G1 X29.7757 Y-23.0516 Z0.1910
G1 X29.7757 Y-22.8015 Z0.1927
G1 X29.7757 Y-22.5515 Z0.1910
G1 X29.7757 Y-22.3014 Z0.1860
G1 X29.7757 Y-22.0514 Z0.1777
G1 X29.7757 Y-21.8015 Z0.1661
G1 X29.7757 Y-21.6181 Z0.1554
G0 Z0.3359
G0 X29.7757 Y-21.6181 
G0 Z0.3359
G0 X29.7757 Y-23.8743 
G1 X29.7757 Y-23.8743 Z0.1609 F21.
G1 X29.7757 Y-23.9877 Z0.1409
G1 X29.7757 Y-23.8015 Z0.1518 F22.
G1 X29.7757 Y-23.5516 Z0.1634
G1 X29.7757 Y-23.3017 Z0.1717
G1 X29.7757 Y-23.0516 Z0.1767
G1 X29.7757 Y-22.8015 Z0.1783
G1 X29.7757 Y-22.5515 Z0.1767
G1 X29.7757 Y-22.3014 Z0.1717
G1 X29.7757 Y-22.0514 Z0.1634
G1 X29.7757 Y-21.8015 Z0.1518
G1 X29.7757 Y-21.6181 Z0.1411
G0 Z0.3216
G0 X29.7757 Y-21.6181 
G0 Z0.3216
G0 X29.7757 Y-23.8743 
G1 X29.7757 Y-23.8743 Z0.1466 F21.
G1 X29.7757 Y-23.9877 Z0.1266
G1 X29.7757 Y-23.8015 Z0.1374 F22.
G1 X29.7757 Y-23.5516 Z0.1491
G1 X29.7757 Y-23.3017 Z0.1574
G1 X29.7757 Y-23.0516 Z0.1623
G1 X29.7757 Y-22.8015 Z0.1640
G1 X29.7757 Y-22.5515 Z0.1623
G1 X29.7757 Y-22.3014 Z0.1574
G1 X29.7757 Y-22.0514 Z0.1491
G1 X29.7757 Y-21.8015 Z0.1374
G1 X29.7757 Y-21.6181 Z0.1268
G0 Z0.3931
G0 X29.7757 Y-21.6181 
G0 Z0.3931
G0 X30.3118 Y-23.8670 
G1 X30.3118 Y-23.8670 Z0.2181 F21.
G1 X30.3118 Y-23.9805 Z0.1981
G1 X30.3118 Y-23.8015 Z0.2086 F22.
G1 X30.3118 Y-23.5517 Z0.2205
G1 X30.3118 Y-23.3017 Z0.2289
G1 X30.3118 Y-23.0516 Z0.2340
G1 X30.3118 Y-22.8015 Z0.2357
G1 X30.3118 Y-22.5514 Z0.2340
G1 X30.3118 Y-22.3014 Z0.2289
G1 X30.3118 Y-22.0514 Z0.2205
G1 X30.3118 Y-21.8015 Z0.2086
G1 X30.3118 Y-21.6252 Z0.1982
G0 Z0.3787
G0 X30.3118 Y-21.6252 
G0 Z0.3787
G0 X30.3118 Y-23.8670 
G1 X30.3118 Y-23.8670 Z0.2037 F21.
G1 X30.3118 Y-23.9805 Z0.1837
G1 X30.3118 Y-23.8015 Z0.1943 F22.
G1 X30.3118 Y-23.5517 Z0.2061
G1 X30.3118 Y-23.3017 Z0.2146
G1 X30.3118 Y-23.0516 Z0.2196
G1 X30.3118 Y-22.8015 Z0.2213
G1 X30.3118 Y-22.5514 Z0.2196
G1 X30.3118 Y-22.3014 Z0.2146
G1 X30.3118 Y-22.0514 Z0.2061
G1 X30.3118 Y-21.8015 Z0.1943
G1 X30.3118 Y-21.6252 Z0.1839
G0 Z0.3644
G0 X30.3118 Y-21.6252 
G0 Z0.3644
G0 X30.3118 Y-23.8670 
G1 X30.3118 Y-23.8670 Z0.1894 F21.
G1 X30.3118 Y-23.9805 Z0.1694
G1 X30.3118 Y-23.8015 Z0.1799 F22.
G1 X30.3118 Y-23.5517 Z0.1918
G1 X30.3118 Y-23.3017 Z0.2002
G1 X30.3118 Y-23.0516 Z0.2053
G1 X30.3118 Y-22.8015 Z0.2070
G1 X30.3118 Y-22.5514 Z0.2053
G1 X30.3118 Y-22.3014 Z0.2002
G1 X30.3118 Y-22.0514 Z0.1918
G1 X30.3118 Y-21.8015 Z0.1799
G1 X30.3118 Y-21.6252 Z0.1696
G0 Z0.3501
G0 X30.3118 Y-21.6252 
G0 Z0.3501
G0 X30.3118 Y-23.8670 
G1 X30.3118 Y-23.8670 Z0.1751 F21.
G1 X30.3118 Y-23.9805 Z0.1551
G1 X30.3118 Y-23.8015 Z0.1656 F22.
G1 X30.3118 Y-23.5517 Z0.1775
G1 X30.3118 Y-23.3017 Z0.1859
G1 X30.3118 Y-23.0516 Z0.1910
G1 X30.3118 Y-22.8015 Z0.1927
G1 X30.3118 Y-22.5514 Z0.1910
G1 X30.3118 Y-22.3014 Z0.1859
G1 X30.3118 Y-22.0514 Z0.1775
G1 X30.3118 Y-21.8015 Z0.1656
G1 X30.3118 Y-21.6252 Z0.1552
G0 Z0.3357
G0 X30.3118 Y-21.6252 
G0 Z0.3357
G0 X30.3118 Y-23.8670 
G1 X30.3118 Y-23.8670 Z0.1607 F21.
G1 X30.3118 Y-23.9805 Z0.1407
G1 X30.3118 Y-23.8015 Z0.1513 F22.
G1 X30.3118 Y-23.5517 Z0.1631
G1 X30.3118 Y-23.3017 Z0.1716
G1 X30.3118 Y-23.0516 Z0.1766
G1 X30.3118 Y-22.8015 Z0.1783
G1 X30.3118 Y-22.5514 Z0.1766
G1 X30.3118 Y-22.3014 Z0.1716
G1 X30.3118 Y-22.0514 Z0.1631
G1 X30.3118 Y-21.8015 Z0.1513
G1 X30.3118 Y-21.6252 Z0.1409
G0 Z0.3214
G0 X30.3118 Y-21.6252 
G0 Z0.3214
G0 X30.3118 Y-23.8670 
G1 X30.3118 Y-23.8670 Z0.1464 F21.
G1 X30.3118 Y-23.9805 Z0.1264
G1 X30.3118 Y-23.8015 Z0.1369 F22.
G1 X30.3118 Y-23.5517 Z0.1488
G1 X30.3118 Y-23.3017 Z0.1572
G1 X30.3118 Y-23.0516 Z0.1623
G1 X30.3118 Y-22.8015 Z0.1640
G1 X30.3118 Y-22.5514 Z0.1623
G1 X30.3118 Y-22.3014 Z0.1572
G1 X30.3118 Y-22.0514 Z0.1488
G1 X30.3118 Y-21.8015 Z0.1369
G1 X30.3118 Y-21.6252 Z0.1266
G0 Z0.3928
G0 X30.3118 Y-21.6252 
G0 Z0.3928
G0 X30.8798 Y-23.8594 
G1 X30.8798 Y-23.8594 Z0.2178 F21.
G1 X30.8798 Y-23.9728 Z0.1978
G1 X30.8798 Y-23.8015 Z0.2081 F22.
G1 X30.8798 Y-23.5517 Z0.2202
G1 X30.8798 Y-23.3017 Z0.2288
G1 X30.8798 Y-23.0516 Z0.2339
G1 X30.8798 Y-22.8015 Z0.2357
G1 X30.8798 Y-22.5514 Z0.2339
G1 X30.8798 Y-22.3014 Z0.2288
G1 X30.8798 Y-22.0514 Z0.2202
G1 X30.8798 Y-21.8015 Z0.2081
G1 X30.8798 Y-21.6327 Z0.1980
G0 Z0.3785
G0 X30.8798 Y-21.6327 
G0 Z0.3785
G0 X30.8798 Y-23.8594 
G1 X30.8798 Y-23.8594 Z0.2035 F21.
G1 X30.8798 Y-23.9728 Z0.1835
G1 X30.8798 Y-23.8015 Z0.1938 F22.
G1 X30.8798 Y-23.5517 Z0.2058
G1 X30.8798 Y-23.3017 Z0.2144
G1 X30.8798 Y-23.0516 Z0.2196
G1 X30.8798 Y-22.8015 Z0.2213
G1 X30.8798 Y-22.5514 Z0.2196
G1 X30.8798 Y-22.3014 Z0.2144
G1 X30.8798 Y-22.0514 Z0.2058
G1 X30.8798 Y-21.8015 Z0.1938
G1 X30.8798 Y-21.6327 Z0.1837
G0 Z0.3642
G0 X30.8798 Y-21.6327 
G0 Z0.3642
G0 X30.8798 Y-23.8594 
G1 X30.8798 Y-23.8594 Z0.1892 F21.
G1 X30.8798 Y-23.9728 Z0.1692
G1 X30.8798 Y-23.8015 Z0.1794 F22.
G1 X30.8798 Y-23.5517 Z0.1915
G1 X30.8798 Y-23.3017 Z0.2001
G1 X30.8798 Y-23.0516 Z0.2053
G1 X30.8798 Y-22.8015 Z0.2070
G1 X30.8798 Y-22.5514 Z0.2053
G1 X30.8798 Y-22.3014 Z0.2001
G1 X30.8798 Y-22.0514 Z0.1915
G1 X30.8798 Y-21.8015 Z0.1794
G1 X30.8798 Y-21.6327 Z0.1693
G0 Z0.3498
G0 X30.8798 Y-21.6327 
G0 Z0.3498
G0 X30.8798 Y-23.8594 
G1 X30.8798 Y-23.8594 Z0.1748 F21.
G1 X30.8798 Y-23.9728 Z0.1548
G1 X30.8798 Y-23.8015 Z0.1651 F22.
G1 X30.8798 Y-23.5517 Z0.1772
G1 X30.8798 Y-23.3017 Z0.1858
G1 X30.8798 Y-23.0516 Z0.1909
G1 X30.8798 Y-22.8015 Z0.1927
G1 X30.8798 Y-22.5514 Z0.1909
G1 X30.8798 Y-22.3014 Z0.1858
G1 X30.8798 Y-22.0514 Z0.1772
G1 X30.8798 Y-21.8015 Z0.1651
G1 X30.8798 Y-21.6327 Z0.1550
G0 Z0.3355
G0 X30.8798 Y-21.6327 
G0 Z0.3355
G0 X30.8798 Y-23.8594 
G1 X30.8798 Y-23.8594 Z0.1605 F21.
G1 X30.8798 Y-23.9728 Z0.1405
G1 X30.8798 Y-23.8015 Z0.1508 F22.
G1 X30.8798 Y-23.5517 Z0.1628
G1 X30.8798 Y-23.3017 Z0.1714
G1 X30.8798 Y-23.0516 Z0.1766
G1 X30.8798 Y-22.8015 Z0.1783
G1 X30.8798 Y-22.5514 Z0.1766
G1 X30.8798 Y-22.3014 Z0.1714
G1 X30.8798 Y-22.0514 Z0.1628
G1 X30.8798 Y-21.8015 Z0.1508
G1 X30.8798 Y-21.6327 Z0.1407
G0 Z0.3212
G0 X30.8798 Y-21.6327 
G0 Z0.3212
G0 X30.8798 Y-23.8594 
G1 X30.8798 Y-23.8594 Z0.1462 F21.
G1 X30.8798 Y-23.9728 Z0.1262
G1 X30.8798 Y-23.8015 Z0.1364 F22.
G1 X30.8798 Y-23.5517 Z0.1485
G1 X30.8798 Y-23.3017 Z0.1571
G1 X30.8798 Y-23.0516 Z0.1623
G1 X30.8798 Y-22.8015 Z0.1640
G1 X30.8798 Y-22.5514 Z0.1623
G1 X30.8798 Y-22.3014 Z0.1571
G1 X30.8798 Y-22.0514 Z0.1485
G1 X30.8798 Y-21.8015 Z0.1364
G1 X30.8798 Y-21.6327 Z0.1263
G0 Z0.3926
G0 X30.8798 Y-21.6327 
G0 Z0.3926
G0 X31.4816 Y-23.8513 
G1 X31.4816 Y-23.8513 Z0.2176 F21.
G1 X31.4816 Y-23.9647 Z0.1976
G1 X31.4816 Y-23.8015 Z0.2075 F22.
G1 X31.4816 Y-23.5517 Z0.2198
G1 X31.4816 Y-23.3017 Z0.2286
G1 X31.4816 Y-23.0516 Z0.2339
G1 X31.4816 Y-22.8015 Z0.2357
G1 X31.4816 Y-22.5514 Z0.2339
G1 X31.4816 Y-22.3014 Z0.2286
G1 X31.4816 Y-22.0514 Z0.2198
G1 X31.4816 Y-21.8015 Z0.2075
G1 X31.4816 Y-21.6407 Z0.1977
G0 Z0.3783
G0 X31.4816 Y-21.6407 
G0 Z0.3783
G0 X31.4816 Y-23.8513 
G1 X31.4816 Y-23.8513 Z0.2033 F21.
G1 X31.4816 Y-23.9647 Z0.1833
G1 X31.4816 Y-23.8015 Z0.1932 F22.
G1 X31.4816 Y-23.5517 Z0.2055
G1 X31.4816 Y-23.3017 Z0.2143
G1 X31.4816 Y-23.0516 Z0.2196
G1 X31.4816 Y-22.8015 Z0.2213
G1 X31.4816 Y-22.5514 Z0.2196
G1 X31.4816 Y-22.3014 Z0.2143
G1 X31.4816 Y-22.0514 Z0.2055
G1 X31.4816 Y-21.8015 Z0.1932
G1 X31.4816 Y-21.6407 Z0.1834
G0 Z0.3639
G0 X31.4816 Y-21.6407 
G0 Z0.3639
G0 X31.4816 Y-23.8513 
G1 X31.4816 Y-23.8513 Z0.1889 F21.
G1 X31.4816 Y-23.9647 Z0.1689
G1 X31.4816 Y-23.8015 Z0.1789 F22.
G1 X31.4816 Y-23.5517 Z0.1912
G1 X31.4816 Y-23.3017 Z0.2000
G1 X31.4816 Y-23.0516 Z0.2052
G1 X31.4816 Y-22.8015 Z0.2070
G1 X31.4816 Y-22.5514 Z0.2052
G1 X31.4816 Y-22.3014 Z0.2000
G1 X31.4816 Y-22.0514 Z0.1912
G1 X31.4816 Y-21.8015 Z0.1789
G1 X31.4816 Y-21.6407 Z0.1691
G0 Z0.3496
G0 X31.4816 Y-21.6407 
G0 Z0.3496
G0 X31.4816 Y-23.8513 
G1 X31.4816 Y-23.8513 Z0.1746 F21.
G1 X31.4816 Y-23.9647 Z0.1546
G1 X31.4816 Y-23.8015 Z0.1645 F22.
G1 X31.4816 Y-23.5517 Z0.1768
G1 X31.4816 Y-23.3017 Z0.1856
G1 X31.4816 Y-23.0516 Z0.1909
G1 X31.4816 Y-22.8015 Z0.1927
G1 X31.4816 Y-22.5514 Z0.1909
G1 X31.4816 Y-22.3014 Z0.1856
G1 X31.4816 Y-22.0514 Z0.1768
G1 X31.4816 Y-21.8015 Z0.1645
G1 X31.4816 Y-21.6407 Z0.1547
G0 Z0.3353
G0 X31.4816 Y-21.6407 
G0 Z0.3353
G0 X31.4816 Y-23.8513 
G1 X31.4816 Y-23.8513 Z0.1603 F21.
G1 X31.4816 Y-23.9647 Z0.1403
G1 X31.4816 Y-23.8015 Z0.1502 F22.
G1 X31.4816 Y-23.5517 Z0.1625
G1 X31.4816 Y-23.3017 Z0.1713
G1 X31.4816 Y-23.0516 Z0.1766
G1 X31.4816 Y-22.8015 Z0.1783
G1 X31.4816 Y-22.5514 Z0.1766
G1 X31.4816 Y-22.3014 Z0.1713
G1 X31.4816 Y-22.0514 Z0.1625
G1 X31.4816 Y-21.8015 Z0.1502
G1 X31.4816 Y-21.6407 Z0.1404
G0 Z0.3209
G0 X31.4816 Y-21.6407 
G0 Z0.3209
G0 X31.4816 Y-23.8513 
G1 X31.4816 Y-23.8513 Z0.1459 F21.
G1 X31.4816 Y-23.9647 Z0.1259
G1 X31.4816 Y-23.8015 Z0.1359 F22.
G1 X31.4816 Y-23.5517 Z0.1482
G1 X31.4816 Y-23.3017 Z0.1570
G1 X31.4816 Y-23.0516 Z0.1622
G1 X31.4816 Y-22.8015 Z0.1640
G1 X31.4816 Y-22.5514 Z0.1622
G1 X31.4816 Y-22.3014 Z0.1570
G1 X31.4816 Y-22.0514 Z0.1482
G1 X31.4816 Y-21.8015 Z0.1359
G1 X31.4816 Y-21.6407 Z0.1261
G0 Z0.3923
G0 X31.4816 Y-21.6407 
G0 Z0.3923
G0 X32.1191 Y-23.8428 
G1 X32.1191 Y-23.8428 Z0.2173 F21.
G1 X32.1191 Y-23.9562 Z0.1973
G1 X32.1191 Y-23.8015 Z0.2069 F22.
G1 X32.1191 Y-23.5517 Z0.2195
G1 X32.1191 Y-23.3017 Z0.2285
G1 X32.1191 Y-23.0516 Z0.2339
G1 X32.1191 Y-22.8015 Z0.2357
G1 X32.1191 Y-22.5514 Z0.2339
G1 X32.1191 Y-22.3014 Z0.2285
G1 X32.1191 Y-22.0514 Z0.2195
G1 X32.1191 Y-21.8015 Z0.2069
G1 X32.1191 Y-21.6492 Z0.1975
G0 Z0.3780
G0 X32.1191 Y-21.6492 
G0 Z0.3780
G0 X32.1191 Y-23.8428 
G1 X32.1191 Y-23.8428 Z0.2030 F21.
G1 X32.1191 Y-23.9562 Z0.1830
G1 X32.1191 Y-23.8015 Z0.1926 F22.
G1 X32.1191 Y-23.5517 Z0.2052
G1 X32.1191 Y-23.3017 Z0.2141
G1 X32.1191 Y-23.0516 Z0.2195
G1 X32.1191 Y-22.8015 Z0.2213
G1 X32.1191 Y-22.5514 Z0.2195
G1 X32.1191 Y-22.3014 Z0.2141
G1 X32.1191 Y-22.0514 Z0.2052
G1 X32.1191 Y-21.8015 Z0.1926
G1 X32.1191 Y-21.6492 Z0.1831
G0 Z0.3637
G0 X32.1191 Y-21.6492 
G0 Z0.3637
G0 X32.1191 Y-23.8428 
G1 X32.1191 Y-23.8428 Z0.1887 F21.
G1 X32.1191 Y-23.9562 Z0.1687
G1 X32.1191 Y-23.8015 Z0.1782 F22.
G1 X32.1191 Y-23.5517 Z0.1908
G1 X32.1191 Y-23.3017 Z0.1998
G1 X32.1191 Y-23.0516 Z0.2052
G1 X32.1191 Y-22.8015 Z0.2070
G1 X32.1191 Y-22.5514 Z0.2052
G1 X32.1191 Y-22.3014 Z0.1998
G1 X32.1191 Y-22.0514 Z0.1908
G1 X32.1191 Y-21.8015 Z0.1782
G1 X32.1191 Y-21.6492 Z0.1688
G0 Z0.3493
G0 X32.1191 Y-21.6492 
G0 Z0.3493
G0 X32.1191 Y-23.8428 
G1 X32.1191 Y-23.8428 Z0.1743 F21.
G1 X32.1191 Y-23.9562 Z0.1543
G1 X32.1191 Y-23.8015 Z0.1639 F22.
G1 X32.1191 Y-23.5517 Z0.1765
G1 X32.1191 Y-23.3017 Z0.1855
G1 X32.1191 Y-23.0516 Z0.1909
G1 X32.1191 Y-22.8015 Z0.1927
G1 X32.1191 Y-22.5514 Z0.1909
G1 X32.1191 Y-22.3014 Z0.1855
G1 X32.1191 Y-22.0514 Z0.1765
G1 X32.1191 Y-21.8015 Z0.1639
G1 X32.1191 Y-21.6492 Z0.1545
G0 Z0.3350
G0 X32.1191 Y-21.6492 
G0 Z0.3350
G0 X32.1191 Y-23.8428 
G1 X32.1191 Y-23.8428 Z0.1600 F21.
G1 X32.1191 Y-23.9562 Z0.1400
G1 X32.1191 Y-23.8015 Z0.1496 F22.
G1 X32.1191 Y-23.5517 Z0.1622
G1 X32.1191 Y-23.3017 Z0.1711
G1 X32.1191 Y-23.0516 Z0.1765
G1 X32.1191 Y-22.8015 Z0.1783
G1 X32.1191 Y-22.5514 Z0.1765
G1 X32.1191 Y-22.3014 Z0.1711
G1 X32.1191 Y-22.0514 Z0.1622
G1 X32.1191 Y-21.8015 Z0.1496
G1 X32.1191 Y-21.6492 Z0.1401
G0 Z0.3207
G0 X32.1191 Y-21.6492 
G0 Z0.3207
G0 X32.1191 Y-23.8428 
G1 X32.1191 Y-23.8428 Z0.1457 F21.
G1 X32.1191 Y-23.9562 Z0.1257
G1 X32.1191 Y-23.8015 Z0.1352 F22.
G1 X32.1191 Y-23.5517 Z0.1478
G1 X32.1191 Y-23.3017 Z0.1568
G1 X32.1191 Y-23.0516 Z0.1622
G1 X32.1191 Y-22.8015 Z0.1640
G1 X32.1191 Y-22.5514 Z0.1622
G1 X32.1191 Y-22.3014 Z0.1568
G1 X32.1191 Y-22.0514 Z0.1478
G1 X32.1191 Y-21.8015 Z0.1352
G1 X32.1191 Y-21.6492 Z0.1258
G0 Z0.3920
G0 X32.1191 Y-21.6492 
G0 Z0.3920
G0 X32.7945 Y-23.8337 
G1 X32.7945 Y-23.8337 Z0.2170 F21.
G1 X32.7945 Y-23.9471 Z0.1970
G1 X32.7945 Y-23.8015 Z0.2062 F22.
G1 X32.7945 Y-23.5517 Z0.2191
G1 X32.7945 Y-23.3017 Z0.2283
G1 X32.7945 Y-23.0516 Z0.2338
G1 X32.7945 Y-22.8015 Z0.2357
G1 X32.7945 Y-22.5514 Z0.2338
G1 X32.7945 Y-22.3014 Z0.2283
G1 X32.7945 Y-22.0514 Z0.2191
G1 X32.7945 Y-21.8015 Z0.2062
G1 X32.7945 Y-21.6582 Z0.1972
G0 Z0.3777
G0 X32.7945 Y-21.6582 
G0 Z0.3777
G0 X32.7945 Y-23.8337 
G1 X32.7945 Y-23.8337 Z0.2027 F21.
G1 X32.7945 Y-23.9471 Z0.1827
G1 X32.7945 Y-23.8015 Z0.1919 F22.
G1 X32.7945 Y-23.5517 Z0.2048
G1 X32.7945 Y-23.3017 Z0.2140
G1 X32.7945 Y-23.0516 Z0.2195
G1 X32.7945 Y-22.8015 Z0.2213
G1 X32.7945 Y-22.5514 Z0.2195
G1 X32.7945 Y-22.3014 Z0.2140
G1 X32.7945 Y-22.0514 Z0.2048
G1 X32.7945 Y-21.8015 Z0.1919
G1 X32.7945 Y-21.6582 Z0.1828
G0 Z0.3634
G0 X32.7945 Y-21.6582 
G0 Z0.3634
G0 X32.7945 Y-23.8337 
G1 X32.7945 Y-23.8337 Z0.1884 F21.
G1 X32.7945 Y-23.9471 Z0.1684
G1 X32.7945 Y-23.8015 Z0.1776 F22.
G1 X32.7945 Y-23.5517 Z0.1904
G1 X32.7945 Y-23.3017 Z0.1996
G1 X32.7945 Y-23.0516 Z0.2052
G1 X32.7945 Y-22.8015 Z0.2070
G1 X32.7945 Y-22.5514 Z0.2052
G1 X32.7945 Y-22.3014 Z0.1996
G1 X32.7945 Y-22.0514 Z0.1904
G1 X32.7945 Y-21.8015 Z0.1776
G1 X32.7945 Y-21.6582 Z0.1685
G0 Z0.3490
G0 X32.7945 Y-21.6582 
G0 Z0.3490
G0 X32.7945 Y-23.8337 
G1 X32.7945 Y-23.8337 Z0.1740 F21.
G1 X32.7945 Y-23.9471 Z0.1540
G1 X32.7945 Y-23.8015 Z0.1632 F22.
G1 X32.7945 Y-23.5517 Z0.1761
G1 X32.7945 Y-23.3017 Z0.1853
G1 X32.7945 Y-23.0516 Z0.1908
G1 X32.7945 Y-22.8015 Z0.1927
G1 X32.7945 Y-22.5514 Z0.1908
G1 X32.7945 Y-22.3014 Z0.1853
G1 X32.7945 Y-22.0514 Z0.1761
G1 X32.7945 Y-21.8015 Z0.1632
G1 X32.7945 Y-21.6582 Z0.1542
G0 Z0.3347
G0 X32.7945 Y-21.6582 
G0 Z0.3347
G0 X32.7945 Y-23.8337 
G1 X32.7945 Y-23.8337 Z0.1597 F21.
G1 X32.7945 Y-23.9471 Z0.1397
G1 X32.7945 Y-23.8015 Z0.1489 F22.
G1 X32.7945 Y-23.5517 Z0.1618
G1 X32.7945 Y-23.3017 Z0.1710
G1 X32.7945 Y-23.0516 Z0.1765
G1 X32.7945 Y-22.8015 Z0.1783
G1 X32.7945 Y-22.5514 Z0.1765
G1 X32.7945 Y-22.3014 Z0.1710
G1 X32.7945 Y-22.0514 Z0.1618
G1 X32.7945 Y-21.8015 Z0.1489
G1 X32.7945 Y-21.6582 Z0.1398
G0 Z0.3204
G0 X32.7945 Y-21.6582 
G0 Z0.3204
G0 X32.7945 Y-23.8337 
G1 X32.7945 Y-23.8337 Z0.1454 F21.
G1 X32.7945 Y-23.9471 Z0.1254
G1 X32.7945 Y-23.8015 Z0.1346 F22.
G1 X32.7945 Y-23.5517 Z0.1474
G1 X32.7945 Y-23.3017 Z0.1566
G1 X32.7945 Y-23.0516 Z0.1622
G1 X32.7945 Y-22.8015 Z0.1640
G1 X32.7945 Y-22.5514 Z0.1622
G1 X32.7945 Y-22.3014 Z0.1566
G1 X32.7945 Y-22.0514 Z0.1474
G1 X32.7945 Y-21.8015 Z0.1346
G1 X32.7945 Y-21.6582 Z0.1255
G0 Z0.3917
G0 X32.7945 Y-21.6582 
G0 Z0.3917
G0 X33.5101 Y-23.8241 
G1 X33.5101 Y-23.8241 Z0.2167 F21.
G1 X33.5101 Y-23.9375 Z0.1967
G1 X33.5101 Y-23.8015 Z0.2055 F22.
G1 X33.5101 Y-23.5517 Z0.2187
G1 X33.5101 Y-23.3017 Z0.2281
G1 X33.5101 Y-23.0516 Z0.2338
G1 X33.5101 Y-22.8015 Z0.2357
G1 X33.5101 Y-22.5514 Z0.2338
G1 X33.5101 Y-22.3014 Z0.2281
G1 X33.5101 Y-22.0514 Z0.2187
G1 X33.5101 Y-21.8015 Z0.2055
G1 X33.5101 Y-21.6677 Z0.1969
G0 Z0.3774
G0 X33.5101 Y-21.6677 
G0 Z0.3774
G0 X33.5101 Y-23.8241 
G1 X33.5101 Y-23.8241 Z0.2024 F21.
G1 X33.5101 Y-23.9375 Z0.1824
G1 X33.5101 Y-23.8015 Z0.1912 F22.
G1 X33.5101 Y-23.5517 Z0.2044
G1 X33.5101 Y-23.3017 Z0.2138
G1 X33.5101 Y-23.0516 Z0.2194
G1 X33.5101 Y-22.8015 Z0.2213
G1 X33.5101 Y-22.5514 Z0.2194
G1 X33.5101 Y-22.3014 Z0.2138
G1 X33.5101 Y-22.0514 Z0.2044
G1 X33.5101 Y-21.8015 Z0.1912
G1 X33.5101 Y-21.6677 Z0.1825
G0 Z0.3630
G0 X33.5101 Y-21.6677 
G0 Z0.3630
G0 X33.5101 Y-23.8241 
G1 X33.5101 Y-23.8241 Z0.1880 F21.
G1 X33.5101 Y-23.9375 Z0.1680
G1 X33.5101 Y-23.8015 Z0.1768 F22.
G1 X33.5101 Y-23.5517 Z0.1900
G1 X33.5101 Y-23.3017 Z0.1995
G1 X33.5101 Y-23.0516 Z0.2051
G1 X33.5101 Y-22.8015 Z0.2070
G1 X33.5101 Y-22.5514 Z0.2051
G1 X33.5101 Y-22.3014 Z0.1995
G1 X33.5101 Y-22.0514 Z0.1900
G1 X33.5101 Y-21.8015 Z0.1768
G1 X33.5101 Y-21.6677 Z0.1682
G0 Z0.3487
G0 X33.5101 Y-21.6677 
G0 Z0.3487
G0 X33.5101 Y-23.8241 
G1 X33.5101 Y-23.8241 Z0.1737 F21.
G1 X33.5101 Y-23.9375 Z0.1537
G1 X33.5101 Y-23.8015 Z0.1625 F22.
G1 X33.5101 Y-23.5517 Z0.1757
G1 X33.5101 Y-23.3017 Z0.1851
G1 X33.5101 Y-23.0516 Z0.1908
G1 X33.5101 Y-22.8015 Z0.1927
G1 X33.5101 Y-22.5514 Z0.1908
G1 X33.5101 Y-22.3014 Z0.1851
G1 X33.5101 Y-22.0514 Z0.1757
G1 X33.5101 Y-21.8015 Z0.1625
G1 X33.5101 Y-21.6677 Z0.1539
G0 Z0.3344
G0 X33.5101 Y-21.6677 
G0 Z0.3344
G0 X33.5101 Y-23.8241 
G1 X33.5101 Y-23.8241 Z0.1594 F21.
G1 X33.5101 Y-23.9375 Z0.1394
G1 X33.5101 Y-23.8015 Z0.1482 F22.
G1 X33.5101 Y-23.5517 Z0.1614
G1 X33.5101 Y-23.3017 Z0.1708
G1 X33.5101 Y-23.0516 Z0.1764
G1 X33.5101 Y-22.8015 Z0.1783
G1 X33.5101 Y-22.5514 Z0.1764
G1 X33.5101 Y-22.3014 Z0.1708
G1 X33.5101 Y-22.0514 Z0.1614
G1 X33.5101 Y-21.8015 Z0.1482
G1 X33.5101 Y-21.6677 Z0.1395
G0 Z0.3200
G0 X33.5101 Y-21.6677 
G0 Z0.3200
G0 X33.5101 Y-23.8241 
G1 X33.5101 Y-23.8241 Z0.1450 F21.
G1 X33.5101 Y-23.9375 Z0.1250
G1 X33.5101 Y-23.8015 Z0.1338 F22.
G1 X33.5101 Y-23.5517 Z0.1470
G1 X33.5101 Y-23.3017 Z0.1565
G1 X33.5101 Y-23.0516 Z0.1621
G1 X33.5101 Y-22.8015 Z0.1640
G1 X33.5101 Y-22.5514 Z0.1621
G1 X33.5101 Y-22.3014 Z0.1565
G1 X33.5101 Y-22.0514 Z0.1470
G1 X33.5101 Y-21.8015 Z0.1338
G1 X33.5101 Y-21.6677 Z0.1252
G0 Z0.3914
G0 X33.5101 Y-21.6677 
G0 Z0.3914
G0 X34.2683 Y-23.8139 
G1 X34.2683 Y-23.8139 Z0.2164 F21.
G1 X34.2683 Y-23.9273 Z0.1964
G1 X34.2683 Y-23.8015 Z0.2047 F22.
G1 X34.2683 Y-23.5517 Z0.2182
G1 X34.2683 Y-23.3017 Z0.2279
G1 X34.2683 Y-23.0516 Z0.2337
G1 X34.2683 Y-22.8015 Z0.2357
G1 X34.2683 Y-22.5514 Z0.2337
G1 X34.2683 Y-22.3014 Z0.2279
G1 X34.2683 Y-22.0514 Z0.2182
G1 X34.2683 Y-21.8015 Z0.2047
G1 X34.2683 Y-21.6777 Z0.1965
G0 Z0.3770
G0 X34.2683 Y-21.6777 
G0 Z0.3770
G0 X34.2683 Y-23.8139 
G1 X34.2683 Y-23.8139 Z0.2020 F21.
G1 X34.2683 Y-23.9273 Z0.1820
G1 X34.2683 Y-23.8015 Z0.1903 F22.
G1 X34.2683 Y-23.5517 Z0.2039
G1 X34.2683 Y-23.3017 Z0.2136
G1 X34.2683 Y-23.0516 Z0.2194
G1 X34.2683 Y-22.8015 Z0.2213
G1 X34.2683 Y-22.5514 Z0.2194
G1 X34.2683 Y-22.3014 Z0.2136
G1 X34.2683 Y-22.0514 Z0.2039
G1 X34.2683 Y-21.8015 Z0.1903
G1 X34.2683 Y-21.6777 Z0.1822
G0 Z0.3627
G0 X34.2683 Y-21.6777 
G0 Z0.3627
G0 X34.2683 Y-23.8139 
G1 X34.2683 Y-23.8139 Z0.1877 F21.
G1 X34.2683 Y-23.9273 Z0.1677
G1 X34.2683 Y-23.8015 Z0.1760 F22.
G1 X34.2683 Y-23.5517 Z0.1896
G1 X34.2683 Y-23.3017 Z0.1993
G1 X34.2683 Y-23.0516 Z0.2051
G1 X34.2683 Y-22.8015 Z0.2070
G1 X34.2683 Y-22.5514 Z0.2051
G1 X34.2683 Y-22.3014 Z0.1993
G1 X34.2683 Y-22.0514 Z0.1896
G1 X34.2683 Y-21.8015 Z0.1760
G1 X34.2683 Y-21.6777 Z0.1678
G0 Z0.3484
G0 X34.2683 Y-21.6777 
G0 Z0.3484
G0 X34.2683 Y-23.8139 
G1 X34.2683 Y-23.8139 Z0.1734 F21.
G1 X34.2683 Y-23.9273 Z0.1534
G1 X34.2683 Y-23.8015 Z0.1617 F22.
G1 X34.2683 Y-23.5517 Z0.1752
G1 X34.2683 Y-23.3017 Z0.1849
G1 X34.2683 Y-23.0516 Z0.1907
G1 X34.2683 Y-22.8015 Z0.1927
G1 X34.2683 Y-22.5514 Z0.1907
G1 X34.2683 Y-22.3014 Z0.1849
G1 X34.2683 Y-22.0514 Z0.1752
G1 X34.2683 Y-21.8015 Z0.1617
G1 X34.2683 Y-21.6777 Z0.1535
G0 Z0.3340
G0 X34.2683 Y-21.6777 
G0 Z0.3340
G0 X34.2683 Y-23.8139 
G1 X34.2683 Y-23.8139 Z0.1590 F21.
G1 X34.2683 Y-23.9273 Z0.1390
G1 X34.2683 Y-23.8015 Z0.1473 F22.
G1 X34.2683 Y-23.5517 Z0.1609
G1 X34.2683 Y-23.3017 Z0.1706
G1 X34.2683 Y-23.0516 Z0.1764
G1 X34.2683 Y-22.8015 Z0.1783
G1 X34.2683 Y-22.5514 Z0.1764
G1 X34.2683 Y-22.3014 Z0.1706
G1 X34.2683 Y-22.0514 Z0.1609
G1 X34.2683 Y-21.8015 Z0.1473
G1 X34.2683 Y-21.6777 Z0.1392
G0 Z0.3197
G0 X34.2683 Y-21.6777 
G0 Z0.3197
G0 X34.2683 Y-23.8139 
G1 X34.2683 Y-23.8139 Z0.1447 F21.
G1 X34.2683 Y-23.9273 Z0.1247
G1 X34.2683 Y-23.8015 Z0.1330 F22.
G1 X34.2683 Y-23.5517 Z0.1466
G1 X34.2683 Y-23.3017 Z0.1563
G1 X34.2683 Y-23.0516 Z0.1621
G1 X34.2683 Y-22.8015 Z0.1640
G1 X34.2683 Y-22.5514 Z0.1621
G1 X34.2683 Y-22.3014 Z0.1563
G1 X34.2683 Y-22.0514 Z0.1466
G1 X34.2683 Y-21.8015 Z0.1330
G1 X34.2683 Y-21.6777 Z0.1248
G0 Z0.3910
G0 X34.2683 Y-21.6777 
G0 Z0.3910
G0 X35.0715 Y-23.8031 
G1 X35.0715 Y-23.8031 Z0.2160 F21.
G1 X35.0715 Y-23.9165 Z0.1960
G1 X35.0715 Y-23.8015 Z0.2038 F22.
G1 X35.0715 Y-23.5517 Z0.2177
G1 X35.0715 Y-23.3017 Z0.2277
G1 X35.0715 Y-23.0516 Z0.2337
G1 X35.0715 Y-22.8015 Z0.2357
G1 X35.0715 Y-22.5514 Z0.2337
G1 X35.0715 Y-22.3013 Z0.2277
G1 X35.0715 Y-22.0514 Z0.2177
G1 X35.0715 Y-21.8015 Z0.2038
G1 X35.0715 Y-21.6884 Z0.1961
G0 Z0.3767
G0 X35.0715 Y-21.6884 
G0 Z0.3767
G0 X35.0715 Y-23.8031 
G1 X35.0715 Y-23.8031 Z0.2017 F21.
G1 X35.0715 Y-23.9165 Z0.1817
G1 X35.0715 Y-23.8015 Z0.1894 F22.
G1 X35.0715 Y-23.5517 Z0.2034
G1 X35.0715 Y-23.3017 Z0.2134
G1 X35.0715 Y-23.0516 Z0.2193
G1 X35.0715 Y-22.8015 Z0.2213
G1 X35.0715 Y-22.5514 Z0.2193
G1 X35.0715 Y-22.3013 Z0.2134
G1 X35.0715 Y-22.0514 Z0.2034
G1 X35.0715 Y-21.8015 Z0.1894
G1 X35.0715 Y-21.6884 Z0.1818
G0 Z0.3623
G0 X35.0715 Y-21.6884 
G0 Z0.3623
G0 X35.0715 Y-23.8031 
G1 X35.0715 Y-23.8031 Z0.1873 F21.
G1 X35.0715 Y-23.9165 Z0.1673
G1 X35.0715 Y-23.8015 Z0.1751 F22.
G1 X35.0715 Y-23.5517 Z0.1891
G1 X35.0715 Y-23.3017 Z0.1990
G1 X35.0715 Y-23.0516 Z0.2050
G1 X35.0715 Y-22.8015 Z0.2070
G1 X35.0715 Y-22.5514 Z0.2050
G1 X35.0715 Y-22.3013 Z0.1990
G1 X35.0715 Y-22.0514 Z0.1891
G1 X35.0715 Y-21.8015 Z0.1751
G1 X35.0715 Y-21.6884 Z0.1675
G0 Z0.3480
G0 X35.0715 Y-21.6884 
G0 Z0.3480
G0 X35.0715 Y-23.8031 
G1 X35.0715 Y-23.8031 Z0.1730 F21.
G1 X35.0715 Y-23.9165 Z0.1530
G1 X35.0715 Y-23.8015 Z0.1608 F22.
G1 X35.0715 Y-23.5517 Z0.1747
G1 X35.0715 Y-23.3017 Z0.1847
G1 X35.0715 Y-23.0516 Z0.1907
G1 X35.0715 Y-22.8015 Z0.1927
G1 X35.0715 Y-22.5514 Z0.1907
G1 X35.0715 Y-22.3013 Z0.1847
G1 X35.0715 Y-22.0514 Z0.1747
G1 X35.0715 Y-21.8015 Z0.1608
G1 X35.0715 Y-21.6884 Z0.1531
G0 Z0.3337
G0 X35.0715 Y-21.6884 
G0 Z0.3337
G0 X35.0715 Y-23.8031 
G1 X35.0715 Y-23.8031 Z0.1587 F21.
G1 X35.0715 Y-23.9165 Z0.1387
G1 X35.0715 Y-23.8015 Z0.1464 F22.
G1 X35.0715 Y-23.5517 Z0.1604
G1 X35.0715 Y-23.3017 Z0.1704
G1 X35.0715 Y-23.0516 Z0.1763
G1 X35.0715 Y-22.8015 Z0.1783
G1 X35.0715 Y-22.5514 Z0.1763
G1 X35.0715 Y-22.3013 Z0.1704
G1 X35.0715 Y-22.0514 Z0.1604
G1 X35.0715 Y-21.8015 Z0.1464
G1 X35.0715 Y-21.6884 Z0.1388
G0 Z0.3193
G0 X35.0715 Y-21.6884 
G0 Z0.3193
G0 X35.0715 Y-23.8031 
G1 X35.0715 Y-23.8031 Z0.1443 F21.
G1 X35.0715 Y-23.9165 Z0.1243
G1 X35.0715 Y-23.8015 Z0.1321 F22.
G1 X35.0715 Y-23.5517 Z0.1461
G1 X35.0715 Y-23.3017 Z0.1560
G1 X35.0715 Y-23.0516 Z0.1620
G1 X35.0715 Y-22.8015 Z0.1640
G1 X35.0715 Y-22.5514 Z0.1620
G1 X35.0715 Y-22.3013 Z0.1560
G1 X35.0715 Y-22.0514 Z0.1461
G1 X35.0715 Y-21.8015 Z0.1321
G1 X35.0715 Y-21.6884 Z0.1245
G0 Z0.3906
G0 X35.0715 Y-21.6884 
G0 Z0.3906
G0 X35.9225 Y-23.7916 
G1 X35.9225 Y-23.7916 Z0.2156 F21.
G1 X35.9225 Y-23.8015 Z0.2138
G1 X35.9225 Y-23.9051 Z0.1956
G1 X35.9225 Y-23.8015 Z0.2028 F22.
G1 X35.9225 Y-23.5517 Z0.2172
G1 X35.9225 Y-23.3017 Z0.2274
G1 X35.9225 Y-23.0517 Z0.2336
G1 X35.9225 Y-22.8015 Z0.2357
G1 X35.9225 Y-22.5514 Z0.2336
G1 X35.9225 Y-22.3013 Z0.2274
G1 X35.9225 Y-22.0514 Z0.2172
G1 X35.9225 Y-21.8015 Z0.2028
G1 X35.9225 Y-21.6997 Z0.1957
G0 Z0.3762
G0 X35.9225 Y-21.6997 
G0 Z0.3762
G0 X35.9225 Y-23.7916 
G1 X35.9225 Y-23.7916 Z0.2012 F21.
G1 X35.9225 Y-23.8015 Z0.1995
G1 X35.9225 Y-23.9051 Z0.1812
G1 X35.9225 Y-23.8015 Z0.1884 F22.
G1 X35.9225 Y-23.5517 Z0.2028
G1 X35.9225 Y-23.3017 Z0.2131
G1 X35.9225 Y-23.0517 Z0.2193
G1 X35.9225 Y-22.8015 Z0.2213
G1 X35.9225 Y-22.5514 Z0.2193
G1 X35.9225 Y-22.3013 Z0.2131
G1 X35.9225 Y-22.0514 Z0.2028
G1 X35.9225 Y-21.8015 Z0.1884
G1 X35.9225 Y-21.6997 Z0.1814
G0 Z0.3619
G0 X35.9225 Y-21.6997 
G0 Z0.3619
G0 X35.9225 Y-23.7916 
G1 X35.9225 Y-23.7916 Z0.1869 F21.
G1 X35.9225 Y-23.8015 Z0.1852
G1 X35.9225 Y-23.9051 Z0.1669
G1 X35.9225 Y-23.8015 Z0.1741 F22.
G1 X35.9225 Y-23.5517 Z0.1885
G1 X35.9225 Y-23.3017 Z0.1988
G1 X35.9225 Y-23.0517 Z0.2049
G1 X35.9225 Y-22.8015 Z0.2070
G1 X35.9225 Y-22.5514 Z0.2049
G1 X35.9225 Y-22.3013 Z0.1988
G1 X35.9225 Y-22.0514 Z0.1885
G1 X35.9225 Y-21.8015 Z0.1741
G1 X35.9225 Y-21.6997 Z0.1670
G0 Z0.3476
G0 X35.9225 Y-21.6997 
G0 Z0.3476
G0 X35.9225 Y-23.7916 
G1 X35.9225 Y-23.7916 Z0.1726 F21.
G1 X35.9225 Y-23.8015 Z0.1708
G1 X35.9225 Y-23.9051 Z0.1526
G1 X35.9225 Y-23.8015 Z0.1598 F22.
G1 X35.9225 Y-23.5517 Z0.1742
G1 X35.9225 Y-23.3017 Z0.1844
G1 X35.9225 Y-23.0517 Z0.1906
G1 X35.9225 Y-22.8015 Z0.1927
G1 X35.9225 Y-22.5514 Z0.1906
G1 X35.9225 Y-22.3013 Z0.1844
G1 X35.9225 Y-22.0514 Z0.1742
G1 X35.9225 Y-21.8015 Z0.1598
G1 X35.9225 Y-21.6997 Z0.1527
G0 Z0.3332
G0 X35.9225 Y-21.6997 
G0 Z0.3332
G0 X35.9225 Y-23.7916 
G1 X35.9225 Y-23.7916 Z0.1582 F21.
G1 X35.9225 Y-23.8015 Z0.1565
G1 X35.9225 Y-23.9051 Z0.1382
G1 X35.9225 Y-23.8015 Z0.1454 F22.
G1 X35.9225 Y-23.5517 Z0.1598
G1 X35.9225 Y-23.3017 Z0.1701
G1 X35.9225 Y-23.0517 Z0.1763
G1 X35.9225 Y-22.8015 Z0.1783
G1 X35.9225 Y-22.5514 Z0.1763
G1 X35.9225 Y-22.3013 Z0.1701
G1 X35.9225 Y-22.0514 Z0.1598
G1 X35.9225 Y-21.8015 Z0.1454
G1 X35.9225 Y-21.6997 Z0.1384
G0 Z0.3189
G0 X35.9225 Y-21.6997 
G0 Z0.3189
G0 X35.9225 Y-23.7916 
G1 X35.9225 Y-23.7916 Z0.1439 F21.
G1 X35.9225 Y-23.8015 Z0.1422
G1 X35.9225 Y-23.9051 Z0.1239
G1 X35.9225 Y-23.8015 Z0.1311 F22.
G1 X35.9225 Y-23.5517 Z0.1455
G1 X35.9225 Y-23.3017 Z0.1558
G1 X35.9225 Y-23.0517 Z0.1619
G1 X35.9225 Y-22.8015 Z0.1640
G1 X35.9225 Y-22.5514 Z0.1619
G1 X35.9225 Y-22.3013 Z0.1558
G1 X35.9225 Y-22.0514 Z0.1455
G1 X35.9225 Y-21.8015 Z0.1311
G1 X35.9225 Y-21.6997 Z0.1240
G0 Z0.3901
G0 X35.9225 Y-21.6997 
G0 Z0.3901
G0 X36.8241 Y-23.7795 
G1 X36.8241 Y-23.7795 Z0.2151 F21.
G1 X36.8241 Y-23.8015 Z0.2112
G1 X36.8241 Y-23.8929 Z0.1951
G1 X36.8241 Y-23.8015 Z0.2016 F22.
G1 X36.8241 Y-23.5517 Z0.2165
G1 X36.8241 Y-23.3017 Z0.2272
G1 X36.8241 Y-23.0517 Z0.2335
G1 X36.8241 Y-22.8015 Z0.2357
G1 X36.8241 Y-22.5514 Z0.2335
G1 X36.8241 Y-22.3013 Z0.2272
G1 X36.8241 Y-22.0513 Z0.2165
G1 X36.8241 Y-21.8015 Z0.2016
G1 X36.8241 Y-21.7117 Z0.1952
G0 Z0.3758
G0 X36.8241 Y-21.7117 
G0 Z0.3758
G0 X36.8241 Y-23.7795 
G1 X36.8241 Y-23.7795 Z0.2008 F21.
G1 X36.8241 Y-23.8015 Z0.1969
G1 X36.8241 Y-23.8929 Z0.1808
G1 X36.8241 Y-23.8015 Z0.1873 F22.
G1 X36.8241 Y-23.5517 Z0.2022
G1 X36.8241 Y-23.3017 Z0.2128
G1 X36.8241 Y-23.0517 Z0.2192
G1 X36.8241 Y-22.8015 Z0.2213
G1 X36.8241 Y-22.5514 Z0.2192
G1 X36.8241 Y-22.3013 Z0.2128
G1 X36.8241 Y-22.0513 Z0.2022
G1 X36.8241 Y-21.8015 Z0.1873
G1 X36.8241 Y-21.7117 Z0.1809
G0 Z0.3615
G0 X36.8241 Y-21.7117 
G0 Z0.3615
G0 X36.8241 Y-23.7795 
G1 X36.8241 Y-23.7795 Z0.1865 F21.
G1 X36.8241 Y-23.8015 Z0.1826
G1 X36.8241 Y-23.8929 Z0.1665
G1 X36.8241 Y-23.8015 Z0.1730 F22.
G1 X36.8241 Y-23.5517 Z0.1879
G1 X36.8241 Y-23.3017 Z0.1985
G1 X36.8241 Y-23.0517 Z0.2049
G1 X36.8241 Y-22.8015 Z0.2070
G1 X36.8241 Y-22.5514 Z0.2049
G1 X36.8241 Y-22.3013 Z0.1985
G1 X36.8241 Y-22.0513 Z0.1879
G1 X36.8241 Y-21.8015 Z0.1730
G1 X36.8241 Y-21.7117 Z0.1666
G0 Z0.3471
G0 X36.8241 Y-21.7117 
G0 Z0.3471
G0 X36.8241 Y-23.7795 
G1 X36.8241 Y-23.7795 Z0.1721 F21.
G1 X36.8241 Y-23.8015 Z0.1682
G1 X36.8241 Y-23.8929 Z0.1521
G1 X36.8241 Y-23.8015 Z0.1586 F22.
G1 X36.8241 Y-23.5517 Z0.1735
G1 X36.8241 Y-23.3017 Z0.1842
G1 X36.8241 Y-23.0517 Z0.1905
G1 X36.8241 Y-22.8015 Z0.1927
G1 X36.8241 Y-22.5514 Z0.1905
G1 X36.8241 Y-22.3013 Z0.1842
G1 X36.8241 Y-22.0513 Z0.1735
G1 X36.8241 Y-21.8015 Z0.1586
G1 X36.8241 Y-21.7117 Z0.1522
G0 Z0.3328
G0 X36.8241 Y-21.7117 
G0 Z0.3328
G0 X36.8241 Y-23.7795 
G1 X36.8241 Y-23.7795 Z0.1578 F21.
G1 X36.8241 Y-23.8015 Z0.1539
G1 X36.8241 Y-23.8929 Z0.1378
G1 X36.8241 Y-23.8015 Z0.1443 F22.
G1 X36.8241 Y-23.5517 Z0.1592
G1 X36.8241 Y-23.3017 Z0.1698
G1 X36.8241 Y-23.0517 Z0.1762
G1 X36.8241 Y-22.8015 Z0.1783
G1 X36.8241 Y-22.5514 Z0.1762
G1 X36.8241 Y-22.3013 Z0.1698
G1 X36.8241 Y-22.0513 Z0.1592
G1 X36.8241 Y-21.8015 Z0.1443
G1 X36.8241 Y-21.7117 Z0.1379
G0 Z0.3185
G0 X36.8241 Y-21.7117 
G0 Z0.3185
G0 X36.8241 Y-23.7795 
G1 X36.8241 Y-23.7795 Z0.1435 F21.
G1 X36.8241 Y-23.8015 Z0.1396
G1 X36.8241 Y-23.8929 Z0.1235
G1 X36.8241 Y-23.8015 Z0.1300 F22.
G1 X36.8241 Y-23.5517 Z0.1449
G1 X36.8241 Y-23.3017 Z0.1555
G1 X36.8241 Y-23.0517 Z0.1619
G1 X36.8241 Y-22.8015 Z0.1640
G1 X36.8241 Y-22.5514 Z0.1619
G1 X36.8241 Y-22.3013 Z0.1555
G1 X36.8241 Y-22.0513 Z0.1449
G1 X36.8241 Y-21.8015 Z0.1300
G1 X36.8241 Y-21.7117 Z0.1236
G0 Z0.3896
G0 X36.8241 Y-21.7117 
G0 Z0.3896
G0 X37.7793 Y-23.7667 
G1 X37.7793 Y-23.7667 Z0.2146 F21.
G1 X37.7793 Y-23.8015 Z0.2085
G1 X37.7793 Y-23.8801 Z0.1946
G1 X37.7793 Y-23.8015 Z0.2004 F22.
G1 X37.7793 Y-23.5517 Z0.2158
G1 X37.7793 Y-23.3018 Z0.2268
G1 X37.7793 Y-23.0517 Z0.2335
G1 X37.7793 Y-22.8015 Z0.2357
G1 X37.7793 Y-22.5514 Z0.2335
G1 X37.7793 Y-22.3013 Z0.2268
G1 X37.7793 Y-22.0513 Z0.2158
G1 X37.7793 Y-21.8015 Z0.2004
G1 X37.7793 Y-21.7243 Z0.1947
G0 Z0.3753
G0 X37.7793 Y-21.7243 
G0 Z0.3753
G0 X37.7793 Y-23.7667 
G1 X37.7793 Y-23.7667 Z0.2003 F21.
G1 X37.7793 Y-23.8015 Z0.1941
G1 X37.7793 Y-23.8801 Z0.1803
G1 X37.7793 Y-23.8015 Z0.1861 F22.
G1 X37.7793 Y-23.5517 Z0.2015
G1 X37.7793 Y-23.3018 Z0.2125
G1 X37.7793 Y-23.0517 Z0.2191
G1 X37.7793 Y-22.8015 Z0.2213
G1 X37.7793 Y-22.5514 Z0.2191
G1 X37.7793 Y-22.3013 Z0.2125
G1 X37.7793 Y-22.0513 Z0.2015
G1 X37.7793 Y-21.8015 Z0.1861
G1 X37.7793 Y-21.7243 Z0.1804
G0 Z0.3610
G0 X37.7793 Y-21.7243 
G0 Z0.3610
G0 X37.7793 Y-23.7667 
G1 X37.7793 Y-23.7667 Z0.1860 F21.
G1 X37.7793 Y-23.8015 Z0.1798
G1 X37.7793 Y-23.8801 Z0.1660
G1 X37.7793 Y-23.8015 Z0.1717 F22.
G1 X37.7793 Y-23.5517 Z0.1872
G1 X37.7793 Y-23.3018 Z0.1982
G1 X37.7793 Y-23.0517 Z0.2048
G1 X37.7793 Y-22.8015 Z0.2070
G1 X37.7793 Y-22.5514 Z0.2048
G1 X37.7793 Y-22.3013 Z0.1982
G1 X37.7793 Y-22.0513 Z0.1872
G1 X37.7793 Y-21.8015 Z0.1717
G1 X37.7793 Y-21.7243 Z0.1661
G0 Z0.3466
G0 X37.7793 Y-21.7243 
G0 Z0.3466
G0 X37.7793 Y-23.7667 
G1 X37.7793 Y-23.7667 Z0.1716 F21.
G1 X37.7793 Y-23.8015 Z0.1655
G1 X37.7793 Y-23.8801 Z0.1516
G1 X37.7793 Y-23.8015 Z0.1574 F22.
G1 X37.7793 Y-23.5517 Z0.1728
G1 X37.7793 Y-23.3018 Z0.1838
G1 X37.7793 Y-23.0517 Z0.1905
G1 X37.7793 Y-22.8015 Z0.1927
G1 X37.7793 Y-22.5514 Z0.1905
G1 X37.7793 Y-22.3013 Z0.1838
G1 X37.7793 Y-22.0513 Z0.1728
G1 X37.7793 Y-21.8015 Z0.1574
G1 X37.7793 Y-21.7243 Z0.1517
G0 Z0.3323
G0 X37.7793 Y-21.7243 
G0 Z0.3323
G0 X37.7793 Y-23.7667 
G1 X37.7793 Y-23.7667 Z0.1573 F21.
G1 X37.7793 Y-23.8015 Z0.1511
G1 X37.7793 Y-23.8801 Z0.1373
G1 X37.7793 Y-23.8015 Z0.1431 F22.
G1 X37.7793 Y-23.5517 Z0.1585
G1 X37.7793 Y-23.3018 Z0.1695
G1 X37.7793 Y-23.0517 Z0.1761
G1 X37.7793 Y-22.8015 Z0.1783
G1 X37.7793 Y-22.5514 Z0.1761
G1 X37.7793 Y-22.3013 Z0.1695
G1 X37.7793 Y-22.0513 Z0.1585
G1 X37.7793 Y-21.8015 Z0.1431
G1 X37.7793 Y-21.7243 Z0.1374
G0 Z0.3180
G0 X37.7793 Y-21.7243 
G0 Z0.3180
G0 X37.7793 Y-23.7667 
G1 X37.7793 Y-23.7667 Z0.1430 F21.
G1 X37.7793 Y-23.8015 Z0.1368
G1 X37.7793 Y-23.8801 Z0.1230
G1 X37.7793 Y-23.8015 Z0.1287 F22.
G1 X37.7793 Y-23.5517 Z0.1442
G1 X37.7793 Y-23.3018 Z0.1552
G1 X37.7793 Y-23.0517 Z0.1618
G1 X37.7793 Y-22.8015 Z0.1640
G1 X37.7793 Y-22.5514 Z0.1618
G1 X37.7793 Y-22.3013 Z0.1552
G1 X37.7793 Y-22.0513 Z0.1442
G1 X37.7793 Y-21.8015 Z0.1287
G1 X37.7793 Y-21.7243 Z0.1231
G0 Z0.3891
G0 X37.7793 Y-21.7243 
G0 Z0.3891
G0 X38.7913 Y-23.7531 
G1 X38.7913 Y-23.7531 Z0.2141 F21.
G1 X38.7913 Y-23.8015 Z0.2055
G1 X38.7913 Y-23.8665 Z0.1941
G1 X38.7913 Y-23.8015 Z0.1990 F22.
G1 X38.7913 Y-23.5517 Z0.2150
G1 X38.7913 Y-23.3018 Z0.2265
G1 X38.7913 Y-23.0517 Z0.2334
G1 X38.7913 Y-22.8015 Z0.2357
G1 X38.7913 Y-22.5514 Z0.2334
G1 X38.7913 Y-22.3013 Z0.2265
G1 X38.7913 Y-22.0513 Z0.2150
G1 X38.7913 Y-21.8015 Z0.1990
G1 X38.7913 Y-21.7378 Z0.1942
G0 Z0.3747
G0 X38.7913 Y-21.7378 
G0 Z0.3747
G0 X38.7913 Y-23.7531 
G1 X38.7913 Y-23.7531 Z0.1997 F21.
G1 X38.7913 Y-23.8015 Z0.1912
G1 X38.7913 Y-23.8665 Z0.1797
G1 X38.7913 Y-23.8015 Z0.1847 F22.
G1 X38.7913 Y-23.5517 Z0.2007
G1 X38.7913 Y-23.3018 Z0.2122
G1 X38.7913 Y-23.0517 Z0.2190
G1 X38.7913 Y-22.8015 Z0.2213
G1 X38.7913 Y-22.5514 Z0.2190
G1 X38.7913 Y-22.3013 Z0.2122
G1 X38.7913 Y-22.0513 Z0.2007
G1 X38.7913 Y-21.8015 Z0.1847
G1 X38.7913 Y-21.7378 Z0.1798
G0 Z0.3604
G0 X38.7913 Y-21.7378 
G0 Z0.3604
G0 X38.7913 Y-23.7531 
G1 X38.7913 Y-23.7531 Z0.1854 F21.
G1 X38.7913 Y-23.8015 Z0.1769
G1 X38.7913 Y-23.8665 Z0.1654
G1 X38.7913 Y-23.8015 Z0.1703 F22.
G1 X38.7913 Y-23.5517 Z0.1864
G1 X38.7913 Y-23.3018 Z0.1978
G1 X38.7913 Y-23.0517 Z0.2047
G1 X38.7913 Y-22.8015 Z0.2070
G1 X38.7913 Y-22.5514 Z0.2047
G1 X38.7913 Y-22.3013 Z0.1978
G1 X38.7913 Y-22.0513 Z0.1864
G1 X38.7913 Y-21.8015 Z0.1703
G1 X38.7913 Y-21.7378 Z0.1655
G0 Z0.3461
G0 X38.7913 Y-21.7378 
G0 Z0.3461
G0 X38.7913 Y-23.7531 
G1 X38.7913 Y-23.7531 Z0.1711 F21.
G1 X38.7913 Y-23.8015 Z0.1625
G1 X38.7913 Y-23.8665 Z0.1511
G1 X38.7913 Y-23.8015 Z0.1560 F22.
G1 X38.7913 Y-23.5517 Z0.1720
G1 X38.7913 Y-23.3018 Z0.1835
G1 X38.7913 Y-23.0517 Z0.1904
G1 X38.7913 Y-22.8015 Z0.1927
G1 X38.7913 Y-22.5514 Z0.1904
G1 X38.7913 Y-22.3013 Z0.1835
G1 X38.7913 Y-22.0513 Z0.1720
G1 X38.7913 Y-21.8015 Z0.1560
G1 X38.7913 Y-21.7378 Z0.1512
G0 Z0.3317
G0 X38.7913 Y-21.7378 
G0 Z0.3317
G0 X38.7913 Y-23.7531 
G1 X38.7913 Y-23.7531 Z0.1567 F21.
G1 X38.7913 Y-23.8015 Z0.1482
G1 X38.7913 Y-23.8665 Z0.1367
G1 X38.7913 Y-23.8015 Z0.1417 F22.
G1 X38.7913 Y-23.5517 Z0.1577
G1 X38.7913 Y-23.3018 Z0.1692
G1 X38.7913 Y-23.0517 Z0.1760
G1 X38.7913 Y-22.8015 Z0.1783
G1 X38.7913 Y-22.5514 Z0.1760
G1 X38.7913 Y-22.3013 Z0.1692
G1 X38.7913 Y-22.0513 Z0.1577
G1 X38.7913 Y-21.8015 Z0.1417
G1 X38.7913 Y-21.7378 Z0.1368
G0 Z0.3174
G0 X38.7913 Y-21.7378 
G0 Z0.3174
G0 X38.7913 Y-23.7531 
G1 X38.7913 Y-23.7531 Z0.1424 F21.
G1 X38.7913 Y-23.8015 Z0.1339
G1 X38.7913 Y-23.8665 Z0.1224
G1 X38.7913 Y-23.8015 Z0.1273 F22.
G1 X38.7913 Y-23.5517 Z0.1434
G1 X38.7913 Y-23.3018 Z0.1548
G1 X38.7913 Y-23.0517 Z0.1617
G1 X38.7913 Y-22.8015 Z0.1640
G1 X38.7913 Y-22.5514 Z0.1617
G1 X38.7913 Y-22.3013 Z0.1548
G1 X38.7913 Y-22.0513 Z0.1434
G1 X38.7913 Y-21.8015 Z0.1273
G1 X38.7913 Y-21.7378 Z0.1225
G0 Z0.3884
G0 X38.7913 Y-21.7378 
G0 Z0.3884
G0 X39.8635 Y-23.7387 
G1 X39.8635 Y-23.7387 Z0.2134 F21.
G1 X39.8635 Y-23.8015 Z0.2024
G1 X39.8635 Y-23.8521 Z0.1934
G1 X39.8635 Y-23.8015 Z0.1974 F22.
G1 X39.8635 Y-23.5518 Z0.2142
G1 X39.8635 Y-23.3018 Z0.2261
G1 X39.8635 Y-23.0517 Z0.2333
G1 X39.8635 Y-22.8015 Z0.2357
G1 X39.8635 Y-22.5514 Z0.2333
G1 X39.8635 Y-22.3013 Z0.2261
G1 X39.8635 Y-22.0513 Z0.2142
G1 X39.8635 Y-21.8015 Z0.1974
G1 X39.8635 Y-21.7520 Z0.1935
G0 Z0.3741
G0 X39.8635 Y-21.7520 
G0 Z0.3741
G0 X39.8635 Y-23.7387 
G1 X39.8635 Y-23.7387 Z0.1991 F21.
G1 X39.8635 Y-23.8015 Z0.1880
G1 X39.8635 Y-23.8521 Z0.1791
G1 X39.8635 Y-23.8015 Z0.1831 F22.
G1 X39.8635 Y-23.5518 Z0.1998
G1 X39.8635 Y-23.3018 Z0.2118
G1 X39.8635 Y-23.0517 Z0.2189
G1 X39.8635 Y-22.8015 Z0.2213
G1 X39.8635 Y-22.5514 Z0.2189
G1 X39.8635 Y-22.3013 Z0.2118
G1 X39.8635 Y-22.0513 Z0.1998
G1 X39.8635 Y-21.8015 Z0.1831
G1 X39.8635 Y-21.7520 Z0.1792
G0 Z0.3598
G0 X39.8635 Y-21.7520 
G0 Z0.3598
G0 X39.8635 Y-23.7387 
G1 X39.8635 Y-23.7387 Z0.1848 F21.
G1 X39.8635 Y-23.8015 Z0.1737
G1 X39.8635 Y-23.8521 Z0.1648
G1 X39.8635 Y-23.8015 Z0.1688 F22.
G1 X39.8635 Y-23.5518 Z0.1855
G1 X39.8635 Y-23.3018 Z0.1974
G1 X39.8635 Y-23.0517 Z0.2046
G1 X39.8635 Y-22.8015 Z0.2070
G1 X39.8635 Y-22.5514 Z0.2046
G1 X39.8635 Y-22.3013 Z0.1974
G1 X39.8635 Y-22.0513 Z0.1855
G1 X39.8635 Y-21.8015 Z0.1688
G1 X39.8635 Y-21.7520 Z0.1649
G0 Z0.3454
G0 X39.8635 Y-21.7520 
G0 Z0.3454
G0 X39.8635 Y-23.7387 
G1 X39.8635 Y-23.7387 Z0.1704 F21.
G1 X39.8635 Y-23.8015 Z0.1594
G1 X39.8635 Y-23.8521 Z0.1504
G1 X39.8635 Y-23.8015 Z0.1544 F22.
G1 X39.8635 Y-23.5518 Z0.1712
G1 X39.8635 Y-23.3018 Z0.1831
G1 X39.8635 Y-23.0517 Z0.1903
G1 X39.8635 Y-22.8015 Z0.1927
G1 X39.8635 Y-22.5514 Z0.1903
G1 X39.8635 Y-22.3013 Z0.1831
G1 X39.8635 Y-22.0513 Z0.1712
G1 X39.8635 Y-21.8015 Z0.1544
G1 X39.8635 Y-21.7520 Z0.1505
G0 Z0.3311
G0 X39.8635 Y-21.7520 
G0 Z0.3311
G0 X39.8635 Y-23.7387 
G1 X39.8635 Y-23.7387 Z0.1561 F21.
G1 X39.8635 Y-23.8015 Z0.1450
G1 X39.8635 Y-23.8521 Z0.1361
G1 X39.8635 Y-23.8015 Z0.1401 F22.
G1 X39.8635 Y-23.5518 Z0.1568
G1 X39.8635 Y-23.3018 Z0.1688
G1 X39.8635 Y-23.0517 Z0.1759
G1 X39.8635 Y-22.8015 Z0.1783
G1 X39.8635 Y-22.5514 Z0.1759
G1 X39.8635 Y-22.3013 Z0.1688
G1 X39.8635 Y-22.0513 Z0.1568
G1 X39.8635 Y-21.8015 Z0.1401
G1 X39.8635 Y-21.7520 Z0.1362
G0 Z0.3168
G0 X39.8635 Y-21.7520 
G0 Z0.3168
G0 X39.8635 Y-23.7387 
G1 X39.8635 Y-23.7387 Z0.1418 F21.
G1 X39.8635 Y-23.8015 Z0.1307
G1 X39.8635 Y-23.8521 Z0.1218
G1 X39.8635 Y-23.8015 Z0.1258 F22.
G1 X39.8635 Y-23.5518 Z0.1425
G1 X39.8635 Y-23.3018 Z0.1544
G1 X39.8635 Y-23.0517 Z0.1616
G1 X39.8635 Y-22.8015 Z0.1640
G1 X39.8635 Y-22.5514 Z0.1616
G1 X39.8635 Y-22.3013 Z0.1544
G1 X39.8635 Y-22.0513 Z0.1425
G1 X39.8635 Y-21.8015 Z0.1258
G1 X39.8635 Y-21.7520 Z0.1219
G0 Z0.3878
G0 X39.8635 Y-21.7520 
G0 Z0.3878
G0 X40.9995 Y-23.7234 
G1 X40.9995 Y-23.7234 Z0.2128 F21.
G1 X40.9995 Y-23.8015 Z0.1990
G1 X40.9995 Y-23.8368 Z0.1928
G1 X40.9995 Y-23.8015 Z0.1956 F22.
G1 X40.9995 Y-23.5518 Z0.2132
G1 X40.9995 Y-23.3018 Z0.2257
G1 X40.9995 Y-23.0517 Z0.2332
G1 X40.9995 Y-22.8015 Z0.2357
G1 X40.9995 Y-22.5513 Z0.2332
G1 X40.9995 Y-22.3012 Z0.2257
G1 X40.9995 Y-22.0513 Z0.2132
G1 X40.9995 Y-21.8015 Z0.1956
G1 X40.9995 Y-21.7671 Z0.1928
G0 Z0.3734
G0 X40.9995 Y-21.7671 
G0 Z0.3734
G0 X40.9995 Y-23.7234 
G1 X40.9995 Y-23.7234 Z0.1984 F21.
G1 X40.9995 Y-23.8015 Z0.1847
G1 X40.9995 Y-23.8368 Z0.1784
G1 X40.9995 Y-23.8015 Z0.1813 F22.
G1 X40.9995 Y-23.5518 Z0.1988
G1 X40.9995 Y-23.3018 Z0.2113
G1 X40.9995 Y-23.0517 Z0.2188
G1 X40.9995 Y-22.8015 Z0.2213
G1 X40.9995 Y-22.5513 Z0.2188
G1 X40.9995 Y-22.3012 Z0.2113
G1 X40.9995 Y-22.0513 Z0.1988
G1 X40.9995 Y-21.8015 Z0.1813
G1 X40.9995 Y-21.7671 Z0.1785
G0 Z0.3591
G0 X40.9995 Y-21.7671 
G0 Z0.3591
G0 X40.9995 Y-23.7234 
G1 X40.9995 Y-23.7234 Z0.1841 F21.
G1 X40.9995 Y-23.8015 Z0.1703
G1 X40.9995 Y-23.8368 Z0.1641
G1 X40.9995 Y-23.8015 Z0.1670 F22.
G1 X40.9995 Y-23.5518 Z0.1845
G1 X40.9995 Y-23.3018 Z0.1970
G1 X40.9995 Y-23.0517 Z0.2045
G1 X40.9995 Y-22.8015 Z0.2070
G1 X40.9995 Y-22.5513 Z0.2045
G1 X40.9995 Y-22.3012 Z0.1970
G1 X40.9995 Y-22.0513 Z0.1845
G1 X40.9995 Y-21.8015 Z0.1670
G1 X40.9995 Y-21.7671 Z0.1642
G0 Z0.3448
G0 X40.9995 Y-21.7671 
G0 Z0.3448
G0 X40.9995 Y-23.7234 
G1 X40.9995 Y-23.7234 Z0.1698 F21.
G1 X40.9995 Y-23.8015 Z0.1560
G1 X40.9995 Y-23.8368 Z0.1498
G1 X40.9995 Y-23.8015 Z0.1526 F22.
G1 X40.9995 Y-23.5518 Z0.1702
G1 X40.9995 Y-23.3018 Z0.1827
G1 X40.9995 Y-23.0517 Z0.1902
G1 X40.9995 Y-22.8015 Z0.1927
G1 X40.9995 Y-22.5513 Z0.1902
G1 X40.9995 Y-22.3012 Z0.1827
G1 X40.9995 Y-22.0513 Z0.1702
G1 X40.9995 Y-21.8015 Z0.1526
G1 X40.9995 Y-21.7671 Z0.1498
G0 Z0.3304
G0 X40.9995 Y-21.7671 
G0 Z0.3304
G0 X40.9995 Y-23.7234 
G1 X40.9995 Y-23.7234 Z0.1554 F21.
G1 X40.9995 Y-23.8015 Z0.1417
G1 X40.9995 Y-23.8368 Z0.1354
G1 X40.9995 Y-23.8015 Z0.1383 F22.
G1 X40.9995 Y-23.5518 Z0.1558
G1 X40.9995 Y-23.3018 Z0.1683
G1 X40.9995 Y-23.0517 Z0.1758
G1 X40.9995 Y-22.8015 Z0.1783
G1 X40.9995 Y-22.5513 Z0.1758
G1 X40.9995 Y-22.3012 Z0.1683
G1 X40.9995 Y-22.0513 Z0.1558
G1 X40.9995 Y-21.8015 Z0.1383
G1 X40.9995 Y-21.7671 Z0.1355
G0 Z0.3161
G0 X40.9995 Y-21.7671 
G0 Z0.3161
G0 X40.9995 Y-23.7234 
G1 X40.9995 Y-23.7234 Z0.1411 F21.
G1 X40.9995 Y-23.8015 Z0.1273
G1 X40.9995 Y-23.8368 Z0.1211
G1 X40.9995 Y-23.8015 Z0.1240 F22.
G1 X40.9995 Y-23.5518 Z0.1415
G1 X40.9995 Y-23.3018 Z0.1540
G1 X40.9995 Y-23.0517 Z0.1615
G1 X40.9995 Y-22.8015 Z0.1640
G1 X40.9995 Y-22.5513 Z0.1615
G1 X40.9995 Y-22.3012 Z0.1540
G1 X40.9995 Y-22.0513 Z0.1415
G1 X40.9995 Y-21.8015 Z0.1240
G1 X40.9995 Y-21.7671 Z0.1212
G0 Z0.3870
G0 X40.9995 Y-21.7671 
G0 Z0.3870
G0 X42.2030 Y-23.7072 
G1 X42.2030 Y-23.7072 Z0.2120 F21.
G1 X42.2030 Y-23.8015 Z0.1954
G1 X42.2030 Y-23.8206 Z0.1920
G1 X42.2030 Y-23.8015 Z0.1936 F22.
G1 X42.2030 Y-23.5518 Z0.2120
G1 X42.2030 Y-23.3019 Z0.2252
G1 X42.2030 Y-23.0517 Z0.2330
G1 X42.2030 Y-22.8015 Z0.2357
G1 X42.2030 Y-22.5513 Z0.2330
G1 X42.2030 Y-22.3012 Z0.2252
G1 X42.2030 Y-22.0512 Z0.2120
G1 X42.2030 Y-21.8015 Z0.1936
G1 X42.2030 Y-21.7831 Z0.1921
G0 Z0.3727
G0 X42.2030 Y-21.7831 
G0 Z0.3727
G0 X42.2030 Y-23.7072 
G1 X42.2030 Y-23.7072 Z0.1977 F21.
G1 X42.2030 Y-23.8015 Z0.1810
G1 X42.2030 Y-23.8206 Z0.1777
G1 X42.2030 Y-23.8015 Z0.1793 F22.
G1 X42.2030 Y-23.5518 Z0.1977
G1 X42.2030 Y-23.3019 Z0.2108
G1 X42.2030 Y-23.0517 Z0.2187
G1 X42.2030 Y-22.8015 Z0.2213
G1 X42.2030 Y-22.5513 Z0.2187
G1 X42.2030 Y-22.3012 Z0.2108
G1 X42.2030 Y-22.0512 Z0.1977
G1 X42.2030 Y-21.8015 Z0.1793
G1 X42.2030 Y-21.7831 Z0.1777
G0 Z0.3583
G0 X42.2030 Y-21.7831 
G0 Z0.3583
G0 X42.2030 Y-23.7072 
G1 X42.2030 Y-23.7072 Z0.1833 F21.
G1 X42.2030 Y-23.8015 Z0.1667
G1 X42.2030 Y-23.8206 Z0.1633
G1 X42.2030 Y-23.8015 Z0.1650 F22.
G1 X42.2030 Y-23.5518 Z0.1833
G1 X42.2030 Y-23.3019 Z0.1965
G1 X42.2030 Y-23.0517 Z0.2044
G1 X42.2030 Y-22.8015 Z0.2070
G1 X42.2030 Y-22.5513 Z0.2044
G1 X42.2030 Y-22.3012 Z0.1965
G1 X42.2030 Y-22.0512 Z0.1833
G1 X42.2030 Y-21.8015 Z0.1650
G1 X42.2030 Y-21.7831 Z0.1634
G0 Z0.3440
G0 X42.2030 Y-21.7831 
G0 Z0.3440
G0 X42.2030 Y-23.7072 
G1 X42.2030 Y-23.7072 Z0.1690 F21.
G1 X42.2030 Y-23.8015 Z0.1524
G1 X42.2030 Y-23.8206 Z0.1490
G1 X42.2030 Y-23.8015 Z0.1506 F22.
G1 X42.2030 Y-23.5518 Z0.1690
G1 X42.2030 Y-23.3019 Z0.1822
G1 X42.2030 Y-23.0517 Z0.1900
G1 X42.2030 Y-22.8015 Z0.1927
G1 X42.2030 Y-22.5513 Z0.1900
G1 X42.2030 Y-22.3012 Z0.1822
G1 X42.2030 Y-22.0512 Z0.1690
G1 X42.2030 Y-21.8015 Z0.1506
G1 X42.2030 Y-21.7831 Z0.1491
G0 Z0.3297
G0 X42.2030 Y-21.7831 
G0 Z0.3297
G0 X42.2030 Y-23.7072 
G1 X42.2030 Y-23.7072 Z0.1547 F21.
G1 X42.2030 Y-23.8015 Z0.1380
G1 X42.2030 Y-23.8206 Z0.1347
G1 X42.2030 Y-23.8015 Z0.1363 F22.
G1 X42.2030 Y-23.5518 Z0.1547
G1 X42.2030 Y-23.3019 Z0.1678
G1 X42.2030 Y-23.0517 Z0.1757
G1 X42.2030 Y-22.8015 Z0.1783
G1 X42.2030 Y-22.5513 Z0.1757
G1 X42.2030 Y-22.3012 Z0.1678
G1 X42.2030 Y-22.0512 Z0.1547
G1 X42.2030 Y-21.8015 Z0.1363
G1 X42.2030 Y-21.7831 Z0.1347
G0 Z0.3153
G0 X42.2030 Y-21.7831 
G0 Z0.3153
G0 X42.2030 Y-23.7072 
G1 X42.2030 Y-23.7072 Z0.1403 F21.
G1 X42.2030 Y-23.8015 Z0.1237
G1 X42.2030 Y-23.8206 Z0.1203
G1 X42.2030 Y-23.8015 Z0.1220 F22.
G1 X42.2030 Y-23.5518 Z0.1403
G1 X42.2030 Y-23.3019 Z0.1535
G1 X42.2030 Y-23.0517 Z0.1614
G1 X42.2030 Y-22.8015 Z0.1640
G1 X42.2030 Y-22.5513 Z0.1614
G1 X42.2030 Y-22.3012 Z0.1535
G1 X42.2030 Y-22.0512 Z0.1403
G1 X42.2030 Y-21.8015 Z0.1220
G1 X42.2030 Y-21.7831 Z0.1204
G0 Z0.3861
G0 X42.2030 Y-21.7831 
G0 Z0.3861
G0 X43.4780 Y-23.6901 
G1 X43.4780 Y-23.6901 Z0.2111 F21.
G1 X43.4780 Y-23.8015 Z0.1915
G1 X43.4780 Y-23.8035 Z0.1911
G1 X43.4780 Y-23.8015 Z0.1913 F22.
G1 X43.4780 Y-23.5519 Z0.2107
G1 X43.4780 Y-23.3019 Z0.2246
G1 X43.4780 Y-23.0518 Z0.2329
G1 X43.4780 Y-22.8015 Z0.2357
G1 X43.4780 Y-22.5513 Z0.2329
G1 X43.4780 Y-22.3012 Z0.2246
G1 X43.4780 Y-22.0512 Z0.2107
G1 X43.4780 Y-21.8015 Z0.1913
G1 X43.4780 Y-21.8000 Z0.1912
G0 Z0.3718
G0 X43.4780 Y-21.8000 
G0 Z0.3718
G0 X43.4780 Y-23.6901 
G1 X43.4780 Y-23.6901 Z0.1968 F21.
G1 X43.4780 Y-23.8015 Z0.1771
G1 X43.4780 Y-23.8035 Z0.1768
G1 X43.4780 Y-23.8015 Z0.1770 F22.
G1 X43.4780 Y-23.5519 Z0.1964
G1 X43.4780 Y-23.3019 Z0.2102
G1 X43.4780 Y-23.0518 Z0.2186
G1 X43.4780 Y-22.8015 Z0.2213
G1 X43.4780 Y-22.5513 Z0.2186
G1 X43.4780 Y-22.3012 Z0.2102
G1 X43.4780 Y-22.0512 Z0.1964
G1 X43.4780 Y-21.8015 Z0.1770
G1 X43.4780 Y-21.8000 Z0.1768
G0 Z0.3575
G0 X43.4780 Y-21.8000 
G0 Z0.3575
G0 X43.4780 Y-23.6901 
G1 X43.4780 Y-23.6901 Z0.1825 F21.
G1 X43.4780 Y-23.8015 Z0.1628
G1 X43.4780 Y-23.8035 Z0.1625
G1 X43.4780 Y-23.8015 Z0.1626 F22.
G1 X43.4780 Y-23.5519 Z0.1820
G1 X43.4780 Y-23.3019 Z0.1959
G1 X43.4780 Y-23.0518 Z0.2042
G1 X43.4780 Y-22.8015 Z0.2070
G1 X43.4780 Y-22.5513 Z0.2042
G1 X43.4780 Y-22.3012 Z0.1959
G1 X43.4780 Y-22.0512 Z0.1820
G1 X43.4780 Y-21.8015 Z0.1626
G1 X43.4780 Y-21.8000 Z0.1625
G0 Z0.3431
G0 X43.4780 Y-21.8000 
G0 Z0.3431
G0 X43.4780 Y-23.6901 
G1 X43.4780 Y-23.6901 Z0.1681 F21.
G1 X43.4780 Y-23.8015 Z0.1485
G1 X43.4780 Y-23.8035 Z0.1481
G1 X43.4780 Y-23.8015 Z0.1483 F22.
G1 X43.4780 Y-23.5519 Z0.1677
G1 X43.4780 Y-23.3019 Z0.1816
G1 X43.4780 Y-23.0518 Z0.1899
G1 X43.4780 Y-22.8015 Z0.1927
G1 X43.4780 Y-22.5513 Z0.1899
G1 X43.4780 Y-22.3012 Z0.1816
G1 X43.4780 Y-22.0512 Z0.1677
G1 X43.4780 Y-21.8015 Z0.1483
G1 X43.4780 Y-21.8000 Z0.1482
G0 Z0.3288
G0 X43.4780 Y-21.8000 
G0 Z0.3288
G0 X43.4780 Y-23.6901 
G1 X43.4780 Y-23.6901 Z0.1538 F21.
G1 X43.4780 Y-23.8015 Z0.1341
G1 X43.4780 Y-23.8035 Z0.1338
G1 X43.4780 Y-23.8015 Z0.1340 F22.
G1 X43.4780 Y-23.5519 Z0.1534
G1 X43.4780 Y-23.3019 Z0.1672
G1 X43.4780 Y-23.0518 Z0.1756
G1 X43.4780 Y-22.8015 Z0.1783
G1 X43.4780 Y-22.5513 Z0.1756
G1 X43.4780 Y-22.3012 Z0.1672
G1 X43.4780 Y-22.0512 Z0.1534
G1 X43.4780 Y-21.8015 Z0.1340
G1 X43.4780 Y-21.8000 Z0.1338
G0 Z0.3145
G0 X43.4780 Y-21.8000 
G0 Z0.3145
G0 X43.4780 Y-23.6901 
G1 X43.4780 Y-23.6901 Z0.1395 F21.
G1 X43.4780 Y-23.8015 Z0.1198
G1 X43.4780 Y-23.8035 Z0.1195
G1 X43.4780 Y-23.8015 Z0.1196 F22.
G1 X43.4780 Y-23.5519 Z0.1390
G1 X43.4780 Y-23.3019 Z0.1529
G1 X43.4780 Y-23.0518 Z0.1612
G1 X43.4780 Y-22.8015 Z0.1640
G1 X43.4780 Y-22.5513 Z0.1612
G1 X43.4780 Y-22.3012 Z0.1529
G1 X43.4780 Y-22.0512 Z0.1390
G1 X43.4780 Y-21.8015 Z0.1196
G1 X43.4780 Y-21.8000 Z0.1195
G0 Z0.3852
G0 X43.4780 Y-21.8000 
G0 Z0.3852
G0 X44.8289 Y-23.6719 
G1 X44.8289 Y-23.6719 Z0.2102 F21.
G1 X44.8289 Y-23.6872 Z0.2075
G1 X44.8289 Y-23.7853 Z0.1902
G1 X44.8289 Y-23.4580 Z0.2154 F22.
G1 X44.8289 Y-23.1300 Z0.2306
G1 X44.8289 Y-22.8016 Z0.2357
G1 X44.8289 Y-22.4733 Z0.2306
G1 X44.8289 Y-22.1453 Z0.2154
G1 X44.8289 Y-21.8180 Z0.1902
G0 Z0.3708
G0 X44.8289 Y-21.8180 
G0 Z0.3708
G0 X44.8289 Y-23.6719 
G1 X44.8289 Y-23.6719 Z0.1958 F21.
G1 X44.8289 Y-23.6872 Z0.1931
G1 X44.8289 Y-23.7853 Z0.1758
G1 X44.8289 Y-23.4580 Z0.2011 F22.
G1 X44.8289 Y-23.1300 Z0.2163
G1 X44.8289 Y-22.8016 Z0.2213
G1 X44.8289 Y-22.4733 Z0.2163
G1 X44.8289 Y-22.1453 Z0.2011
G1 X44.8289 Y-21.8180 Z0.1758
G0 Z0.3565
G0 X44.8289 Y-21.8180 
G0 Z0.3565
G0 X44.8289 Y-23.6719 
G1 X44.8289 Y-23.6719 Z0.1815 F21.
G1 X44.8289 Y-23.6872 Z0.1788
G1 X44.8289 Y-23.7853 Z0.1615
G1 X44.8289 Y-23.4580 Z0.1868 F22.
G1 X44.8289 Y-23.1300 Z0.2019
G1 X44.8289 Y-22.8016 Z0.2070
G1 X44.8289 Y-22.4733 Z0.2019
G1 X44.8289 Y-22.1453 Z0.1868
G1 X44.8289 Y-21.8180 Z0.1615
G0 Z0.3422
G0 X44.8289 Y-21.8180 
G0 Z0.3422
G0 X44.8289 Y-23.6719 
G1 X44.8289 Y-23.6719 Z0.1672 F21.
G1 X44.8289 Y-23.6872 Z0.1645
G1 X44.8289 Y-23.7853 Z0.1472
G1 X44.8289 Y-23.4580 Z0.1724 F22.
G1 X44.8289 Y-23.1300 Z0.1876
G1 X44.8289 Y-22.8016 Z0.1927
G1 X44.8289 Y-22.4733 Z0.1876
G1 X44.8289 Y-22.1453 Z0.1724
G1 X44.8289 Y-21.8180 Z0.1472
G0 Z0.3278
G0 X44.8289 Y-21.8180 
G0 Z0.3278
G0 X44.8289 Y-23.6719 
G1 X44.8289 Y-23.6719 Z0.1528 F21.
G1 X44.8289 Y-23.6872 Z0.1501
G1 X44.8289 Y-23.7853 Z0.1328
G1 X44.8289 Y-23.4580 Z0.1581 F22.
G1 X44.8289 Y-23.1300 Z0.1733
G1 X44.8289 Y-22.8016 Z0.1783
G1 X44.8289 Y-22.4733 Z0.1733
G1 X44.8289 Y-22.1453 Z0.1581
G1 X44.8289 Y-21.8180 Z0.1328
G0 Z0.3135
G0 X44.8289 Y-21.8180 
G0 Z0.3135
G0 X44.8289 Y-23.6719 
G1 X44.8289 Y-23.6719 Z0.1385 F21.
G1 X44.8289 Y-23.6872 Z0.1358
G1 X44.8289 Y-23.7853 Z0.1185
G1 X44.8289 Y-23.4580 Z0.1438 F22.
G1 X44.8289 Y-23.1300 Z0.1589
G1 X44.8289 Y-22.8016 Z0.1640
G1 X44.8289 Y-22.4733 Z0.1589
G1 X44.8289 Y-22.1453 Z0.1438
G1 X44.8289 Y-21.8180 Z0.1185
G0 Z4.0000
G0 X44.8289 Y-21.8180 
M5
G53 Z
X2Y0
