( MOP:  03-frets-r12-s27-NFrets22-JumboDepth-StandardKerf )
( FILE: G:\Shared drives\AlloyProjectFiles\Customer CAD files\Alloy-Standard-Builds-CAM\Fingerboards-in\03-frets-r12-s27-NFrets22-JumboDepth-StandardKerf.nc)
G90
(  BEGIN TOOL LIST )
(  TOOL 15 - Fretkerf PT025 - DESC: 0.0250 DIA, 2 FLUTE,  CARBIDE MAT )
(  ENDOF TOOL LIST )
( 03-frets-r12-s27-NFrets22-JumboDepth-StandardKerf)
T15
S14000
M3
G0 Z2.0000
G0 X26.8370 Y-23.7996 
G1 X26.8370 Y-23.7996 Z0.2090 F21.
G1 X26.8370 Y-23.8639 Z0.1976
G1 X26.8370 Y-23.9698 Z0.1790
G1 X26.8370 Y-23.6367 Z0.2070 F22.
G1 X26.8370 Y-23.3030 Z0.2257
G1 X26.8370 Y-22.9689 Z0.2351
G1 X26.8370 Y-22.6347 Z0.2352
G1 X26.8370 Y-22.3006 Z0.2260
G1 X26.8370 Y-21.9669 Z0.2075
G1 X26.8370 Y-21.6338 Z0.1797
G0 Z0.3750
G0 X26.8370 Y-21.6338 
G0 Z0.3750
G0 X26.8370 Y-23.7996 
G1 X26.8370 Y-23.7996 Z0.1952 F21.
G1 X26.8370 Y-23.8639 Z0.1839
G1 X26.8370 Y-23.9698 Z0.1652
G1 X26.8370 Y-23.6367 Z0.1932 F22.
G1 X26.8370 Y-23.3030 Z0.2119
G1 X26.8370 Y-22.9689 Z0.2214
G1 X26.8370 Y-22.6347 Z0.2215
G1 X26.8370 Y-22.3006 Z0.2123
G1 X26.8370 Y-21.9669 Z0.1937
G1 X26.8370 Y-21.6338 Z0.1659
G0 Z0.3750
G0 X26.8370 Y-21.6338 
G0 Z0.3750
G0 X26.8370 Y-23.7996 
G1 X26.8370 Y-23.7996 Z0.1815 F21.
G1 X26.8370 Y-23.8639 Z0.1702
G1 X26.8370 Y-23.9698 Z0.1515
G1 X26.8370 Y-23.6367 Z0.1795 F22.
G1 X26.8370 Y-23.3030 Z0.1982
G1 X26.8370 Y-22.9689 Z0.2076
G1 X26.8370 Y-22.6347 Z0.2077
G1 X26.8370 Y-22.3006 Z0.1985
G1 X26.8370 Y-21.9669 Z0.1800
G1 X26.8370 Y-21.6338 Z0.1522
G0 Z0.3750
G0 X26.8370 Y-21.6338 
G0 Z0.3750
G0 X26.8370 Y-23.7996 
G1 X26.8370 Y-23.7996 Z0.1678 F21.
G1 X26.8370 Y-23.8639 Z0.1565
G1 X26.8370 Y-23.9698 Z0.1378
G1 X26.8370 Y-23.6367 Z0.1658 F22.
G1 X26.8370 Y-23.3030 Z0.1845
G1 X26.8370 Y-22.9689 Z0.1939
G1 X26.8370 Y-22.6347 Z0.1940
G1 X26.8370 Y-22.3006 Z0.1848
G1 X26.8370 Y-21.9669 Z0.1663
G1 X26.8370 Y-21.6338 Z0.1385
G0 Z0.3750
G0 X26.8370 Y-21.6338 
G0 Z0.3750
G0 X26.8370 Y-23.7996 
G1 X26.8370 Y-23.7996 Z0.1541 F21.
G1 X26.8370 Y-23.8639 Z0.1428
G1 X26.8370 Y-23.9698 Z0.1241
G1 X26.8370 Y-23.6367 Z0.1521 F22.
G1 X26.8370 Y-23.3030 Z0.1708
G1 X26.8370 Y-22.9689 Z0.1802
G1 X26.8370 Y-22.6347 Z0.1803
G1 X26.8370 Y-22.3006 Z0.1711
G1 X26.8370 Y-21.9669 Z0.1526
G1 X26.8370 Y-21.6338 Z0.1248
G0 Z0.3750
G0 X26.8370 Y-21.6338 
G0 Z0.3750
G0 X26.8370 Y-23.7996 
G1 X26.8370 Y-23.7996 Z0.1404 F21.
G1 X26.8370 Y-23.8639 Z0.1291
G1 X26.8370 Y-23.9698 Z0.1104
G1 X26.8370 Y-23.6367 Z0.1384 F22.
G1 X26.8370 Y-23.3030 Z0.1571
G1 X26.8370 Y-22.9689 Z0.1665
G1 X26.8370 Y-22.6347 Z0.1666
G1 X26.8370 Y-22.3006 Z0.1574
G1 X26.8370 Y-21.9669 Z0.1389
G1 X26.8370 Y-21.6338 Z0.1111
G0 Z0.3750
G0 X26.8370 Y-21.6338 
G0 Z0.3750
G0 X26.8370 Y-23.7996 
G1 X26.8370 Y-23.7996 Z0.1267 F21.
G1 X26.8370 Y-23.8639 Z0.1153
G1 X26.8370 Y-23.9698 Z0.0967
G1 X26.8370 Y-23.6367 Z0.1247 F22.
G1 X26.8370 Y-23.3030 Z0.1434
G1 X26.8370 Y-22.9689 Z0.1528
G1 X26.8370 Y-22.6347 Z0.1529
G1 X26.8370 Y-22.3006 Z0.1437
G1 X26.8370 Y-21.9669 Z0.1252
G1 X26.8370 Y-21.6338 Z0.0974
G0 Z0.3374
G0 X26.8370 Y-21.6338 
G0 Z0.3374
G0 X27.2876 Y-23.7965 
G1 X27.2876 Y-23.7965 Z0.2093 F21.
G1 X27.2876 Y-23.8611 Z0.1979
G1 X27.2876 Y-23.9667 Z0.1793
G1 X27.2876 Y-23.6345 Z0.2071 F22.
G1 X27.2876 Y-23.3017 Z0.2257
G1 X27.2876 Y-22.9685 Z0.2351
G1 X27.2876 Y-22.6351 Z0.2352
G1 X27.2876 Y-22.3019 Z0.2260
G1 X27.2876 Y-21.9691 Z0.2076
G1 X27.2876 Y-21.6369 Z0.1800
G0 Z0.3750
G0 X27.2876 Y-21.6369 
G0 Z0.3750
G0 X27.2876 Y-23.7965 
G1 X27.2876 Y-23.7965 Z0.1955 F21.
G1 X27.2876 Y-23.8611 Z0.1842
G1 X27.2876 Y-23.9667 Z0.1655
G1 X27.2876 Y-23.6345 Z0.1934 F22.
G1 X27.2876 Y-23.3017 Z0.2120
G1 X27.2876 Y-22.9685 Z0.2214
G1 X27.2876 Y-22.6351 Z0.2215
G1 X27.2876 Y-22.3019 Z0.2123
G1 X27.2876 Y-21.9691 Z0.1939
G1 X27.2876 Y-21.6369 Z0.1662
G0 Z0.3750
G0 X27.2876 Y-21.6369 
G0 Z0.3750
G0 X27.2876 Y-23.7965 
G1 X27.2876 Y-23.7965 Z0.1818 F21.
G1 X27.2876 Y-23.8611 Z0.1705
G1 X27.2876 Y-23.9667 Z0.1518
G1 X27.2876 Y-23.6345 Z0.1797 F22.
G1 X27.2876 Y-23.3017 Z0.1983
G1 X27.2876 Y-22.9685 Z0.2076
G1 X27.2876 Y-22.6351 Z0.2077
G1 X27.2876 Y-22.3019 Z0.1986
G1 X27.2876 Y-21.9691 Z0.1802
G1 X27.2876 Y-21.6369 Z0.1525
G0 Z0.3750
G0 X27.2876 Y-21.6369 
G0 Z0.3750
G0 X27.2876 Y-23.7965 
G1 X27.2876 Y-23.7965 Z0.1681 F21.
G1 X27.2876 Y-23.8611 Z0.1567
G1 X27.2876 Y-23.9667 Z0.1381
G1 X27.2876 Y-23.6345 Z0.1660 F22.
G1 X27.2876 Y-23.3017 Z0.1846
G1 X27.2876 Y-22.9685 Z0.1939
G1 X27.2876 Y-22.6351 Z0.1940
G1 X27.2876 Y-22.3019 Z0.1849
G1 X27.2876 Y-21.9691 Z0.1665
G1 X27.2876 Y-21.6369 Z0.1388
G0 Z0.3750
G0 X27.2876 Y-21.6369 
G0 Z0.3750
G0 X27.2876 Y-23.7965 
G1 X27.2876 Y-23.7965 Z0.1544 F21.
G1 X27.2876 Y-23.8611 Z0.1430
G1 X27.2876 Y-23.9667 Z0.1244
G1 X27.2876 Y-23.6345 Z0.1523 F22.
G1 X27.2876 Y-23.3017 Z0.1709
G1 X27.2876 Y-22.9685 Z0.1802
G1 X27.2876 Y-22.6351 Z0.1803
G1 X27.2876 Y-22.3019 Z0.1712
G1 X27.2876 Y-21.9691 Z0.1528
G1 X27.2876 Y-21.6369 Z0.1251
G0 Z0.3750
G0 X27.2876 Y-21.6369 
G0 Z0.3750
G0 X27.2876 Y-23.7965 
G1 X27.2876 Y-23.7965 Z0.1407 F21.
G1 X27.2876 Y-23.8611 Z0.1293
G1 X27.2876 Y-23.9667 Z0.1107
G1 X27.2876 Y-23.6345 Z0.1385 F22.
G1 X27.2876 Y-23.3017 Z0.1571
G1 X27.2876 Y-22.9685 Z0.1665
G1 X27.2876 Y-22.6351 Z0.1666
G1 X27.2876 Y-22.3019 Z0.1574
G1 X27.2876 Y-21.9691 Z0.1390
G1 X27.2876 Y-21.6369 Z0.1114
G0 Z0.3750
G0 X27.2876 Y-21.6369 
G0 Z0.3750
G0 X27.2876 Y-23.7965 
G1 X27.2876 Y-23.7965 Z0.1270 F21.
G1 X27.2876 Y-23.8611 Z0.1156
G1 X27.2876 Y-23.9667 Z0.0970
G1 X27.2876 Y-23.6345 Z0.1248 F22.
G1 X27.2876 Y-23.3017 Z0.1434
G1 X27.2876 Y-22.9685 Z0.1528
G1 X27.2876 Y-22.6351 Z0.1529
G1 X27.2876 Y-22.3019 Z0.1437
G1 X27.2876 Y-21.9691 Z0.1253
G1 X27.2876 Y-21.6369 Z0.0977
G0 Z0.3374
G0 X27.2876 Y-21.6369 
G0 Z0.3374
G0 X27.7649 Y-23.7932 
G1 X27.7649 Y-23.7932 Z0.2096 F21.
G1 X27.7649 Y-23.8581 Z0.1982
G1 X27.7649 Y-23.9634 Z0.1796
G1 X27.7649 Y-23.6321 Z0.2073 F22.
G1 X27.7649 Y-23.3003 Z0.2258
G1 X27.7649 Y-22.9680 Z0.2351
G1 X27.7649 Y-22.6356 Z0.2352
G1 X27.7649 Y-22.3033 Z0.2261
G1 X27.7649 Y-21.9715 Z0.2078
G1 X27.7649 Y-21.6402 Z0.1803
G0 Z0.3750
G0 X27.7649 Y-21.6402 
G0 Z0.3750
G0 X27.7649 Y-23.7932 
G1 X27.7649 Y-23.7932 Z0.1959 F21.
G1 X27.7649 Y-23.8581 Z0.1844
G1 X27.7649 Y-23.9634 Z0.1659
G1 X27.7649 Y-23.6321 Z0.1936 F22.
G1 X27.7649 Y-23.3003 Z0.2121
G1 X27.7649 Y-22.9680 Z0.2214
G1 X27.7649 Y-22.6356 Z0.2215
G1 X27.7649 Y-22.3033 Z0.2124
G1 X27.7649 Y-21.9715 Z0.1941
G1 X27.7649 Y-21.6402 Z0.1666
G0 Z0.3750
G0 X27.7649 Y-21.6402 
G0 Z0.3750
G0 X27.7649 Y-23.7932 
G1 X27.7649 Y-23.7932 Z0.1822 F21.
G1 X27.7649 Y-23.8581 Z0.1707
G1 X27.7649 Y-23.9634 Z0.1522
G1 X27.7649 Y-23.6321 Z0.1798 F22.
G1 X27.7649 Y-23.3003 Z0.1983
G1 X27.7649 Y-22.9680 Z0.2077
G1 X27.7649 Y-22.6356 Z0.2078
G1 X27.7649 Y-22.3033 Z0.1987
G1 X27.7649 Y-21.9715 Z0.1803
G1 X27.7649 Y-21.6402 Z0.1529
G0 Z0.3750
G0 X27.7649 Y-21.6402 
G0 Z0.3750
G0 X27.7649 Y-23.7932 
G1 X27.7649 Y-23.7932 Z0.1684 F21.
G1 X27.7649 Y-23.8581 Z0.1570
G1 X27.7649 Y-23.9634 Z0.1384
G1 X27.7649 Y-23.6321 Z0.1661 F22.
G1 X27.7649 Y-23.3003 Z0.1846
G1 X27.7649 Y-22.9680 Z0.1939
G1 X27.7649 Y-22.6356 Z0.1940
G1 X27.7649 Y-22.3033 Z0.1849
G1 X27.7649 Y-21.9715 Z0.1666
G1 X27.7649 Y-21.6402 Z0.1391
G0 Z0.3750
G0 X27.7649 Y-21.6402 
G0 Z0.3750
G0 X27.7649 Y-23.7932 
G1 X27.7649 Y-23.7932 Z0.1547 F21.
G1 X27.7649 Y-23.8581 Z0.1433
G1 X27.7649 Y-23.9634 Z0.1247
G1 X27.7649 Y-23.6321 Z0.1524 F22.
G1 X27.7649 Y-23.3003 Z0.1709
G1 X27.7649 Y-22.9680 Z0.1802
G1 X27.7649 Y-22.6356 Z0.1803
G1 X27.7649 Y-22.3033 Z0.1712
G1 X27.7649 Y-21.9715 Z0.1529
G1 X27.7649 Y-21.6402 Z0.1254
G0 Z0.3750
G0 X27.7649 Y-21.6402 
G0 Z0.3750
G0 X27.7649 Y-23.7932 
G1 X27.7649 Y-23.7932 Z0.1410 F21.
G1 X27.7649 Y-23.8581 Z0.1296
G1 X27.7649 Y-23.9634 Z0.1110
G1 X27.7649 Y-23.6321 Z0.1387 F22.
G1 X27.7649 Y-23.3003 Z0.1572
G1 X27.7649 Y-22.9680 Z0.1665
G1 X27.7649 Y-22.6356 Z0.1666
G1 X27.7649 Y-22.3033 Z0.1575
G1 X27.7649 Y-21.9715 Z0.1392
G1 X27.7649 Y-21.6402 Z0.1117
G0 Z0.3750
G0 X27.7649 Y-21.6402 
G0 Z0.3750
G0 X27.7649 Y-23.7932 
G1 X27.7649 Y-23.7932 Z0.1273 F21.
G1 X27.7649 Y-23.8581 Z0.1159
G1 X27.7649 Y-23.9634 Z0.0973
G1 X27.7649 Y-23.6321 Z0.1250 F22.
G1 X27.7649 Y-23.3003 Z0.1435
G1 X27.7649 Y-22.9680 Z0.1528
G1 X27.7649 Y-22.6356 Z0.1529
G1 X27.7649 Y-22.3033 Z0.1438
G1 X27.7649 Y-21.9715 Z0.1255
G1 X27.7649 Y-21.6402 Z0.0980
G0 Z0.3375
G0 X27.7649 Y-21.6402 
G0 Z0.3375
G0 X28.2706 Y-23.7897 
G1 X28.2706 Y-23.7897 Z0.2099 F21.
G1 X28.2706 Y-23.8549 Z0.1984
G1 X28.2706 Y-23.9599 Z0.1799
G1 X28.2706 Y-23.6296 Z0.2074 F22.
G1 X28.2706 Y-23.2987 Z0.2258
G1 X28.2706 Y-22.9675 Z0.2351
G1 X28.2706 Y-22.6361 Z0.2352
G1 X28.2706 Y-22.3049 Z0.2261
G1 X28.2706 Y-21.9740 Z0.2079
G1 X28.2706 Y-21.6437 Z0.1806
G0 Z0.3750
G0 X28.2706 Y-21.6437 
G0 Z0.3750
G0 X28.2706 Y-23.7897 
G1 X28.2706 Y-23.7897 Z0.1962 F21.
G1 X28.2706 Y-23.8549 Z0.1847
G1 X28.2706 Y-23.9599 Z0.1662
G1 X28.2706 Y-23.6296 Z0.1937 F22.
G1 X28.2706 Y-23.2987 Z0.2121
G1 X28.2706 Y-22.9675 Z0.2214
G1 X28.2706 Y-22.6361 Z0.2215
G1 X28.2706 Y-22.3049 Z0.2124
G1 X28.2706 Y-21.9740 Z0.1942
G1 X28.2706 Y-21.6437 Z0.1669
G0 Z0.3750
G0 X28.2706 Y-21.6437 
G0 Z0.3750
G0 X28.2706 Y-23.7897 
G1 X28.2706 Y-23.7897 Z0.1825 F21.
G1 X28.2706 Y-23.8549 Z0.1710
G1 X28.2706 Y-23.9599 Z0.1525
G1 X28.2706 Y-23.6296 Z0.1800 F22.
G1 X28.2706 Y-23.2987 Z0.1984
G1 X28.2706 Y-22.9675 Z0.2077
G1 X28.2706 Y-22.6361 Z0.2078
G1 X28.2706 Y-22.3049 Z0.1987
G1 X28.2706 Y-21.9740 Z0.1805
G1 X28.2706 Y-21.6437 Z0.1532
G0 Z0.3750
G0 X28.2706 Y-21.6437 
G0 Z0.3750
G0 X28.2706 Y-23.7897 
G1 X28.2706 Y-23.7897 Z0.1688 F21.
G1 X28.2706 Y-23.8549 Z0.1573
G1 X28.2706 Y-23.9599 Z0.1388
G1 X28.2706 Y-23.6296 Z0.1663 F22.
G1 X28.2706 Y-23.2987 Z0.1847
G1 X28.2706 Y-22.9675 Z0.1939
G1 X28.2706 Y-22.6361 Z0.1940
G1 X28.2706 Y-22.3049 Z0.1850
G1 X28.2706 Y-21.9740 Z0.1668
G1 X28.2706 Y-21.6437 Z0.1395
G0 Z0.3750
G0 X28.2706 Y-21.6437 
G0 Z0.3750
G0 X28.2706 Y-23.7897 
G1 X28.2706 Y-23.7897 Z0.1551 F21.
G1 X28.2706 Y-23.8549 Z0.1436
G1 X28.2706 Y-23.9599 Z0.1251
G1 X28.2706 Y-23.6296 Z0.1526 F22.
G1 X28.2706 Y-23.2987 Z0.1710
G1 X28.2706 Y-22.9675 Z0.1802
G1 X28.2706 Y-22.6361 Z0.1803
G1 X28.2706 Y-22.3049 Z0.1713
G1 X28.2706 Y-21.9740 Z0.1531
G1 X28.2706 Y-21.6437 Z0.1258
G0 Z0.3750
G0 X28.2706 Y-21.6437 
G0 Z0.3750
G0 X28.2706 Y-23.7897 
G1 X28.2706 Y-23.7897 Z0.1414 F21.
G1 X28.2706 Y-23.8549 Z0.1299
G1 X28.2706 Y-23.9599 Z0.1114
G1 X28.2706 Y-23.6296 Z0.1389 F22.
G1 X28.2706 Y-23.2987 Z0.1573
G1 X28.2706 Y-22.9675 Z0.1665
G1 X28.2706 Y-22.6361 Z0.1666
G1 X28.2706 Y-22.3049 Z0.1576
G1 X28.2706 Y-21.9740 Z0.1394
G1 X28.2706 Y-21.6437 Z0.1121
G0 Z0.3750
G0 X28.2706 Y-21.6437 
G0 Z0.3750
G0 X28.2706 Y-23.7897 
G1 X28.2706 Y-23.7897 Z0.1276 F21.
G1 X28.2706 Y-23.8549 Z0.1162
G1 X28.2706 Y-23.9599 Z0.0976
G1 X28.2706 Y-23.6296 Z0.1252 F22.
G1 X28.2706 Y-23.2987 Z0.1436
G1 X28.2706 Y-22.9675 Z0.1528
G1 X28.2706 Y-22.6361 Z0.1529
G1 X28.2706 Y-22.3049 Z0.1439
G1 X28.2706 Y-21.9740 Z0.1257
G1 X28.2706 Y-21.6437 Z0.0983
G0 Z0.3376
G0 X28.2706 Y-21.6437 
G0 Z0.3376
G0 X28.8063 Y-23.7860 
G1 X28.8063 Y-23.7860 Z0.2103 F21.
G1 X28.8063 Y-23.8515 Z0.1987
G1 X28.8063 Y-23.9561 Z0.1803
G1 X28.8063 Y-23.6270 Z0.2076 F22.
G1 X28.8063 Y-23.2971 Z0.2259
G1 X28.8063 Y-22.9670 Z0.2351
G1 X28.8063 Y-22.6366 Z0.2352
G1 X28.8063 Y-22.3064 Z0.2262
G1 X28.8063 Y-21.9766 Z0.2081
G1 X28.8063 Y-21.6474 Z0.1810
G0 Z0.3750
G0 X28.8063 Y-21.6474 
G0 Z0.3750
G0 X28.8063 Y-23.7860 
G1 X28.8063 Y-23.7860 Z0.1966 F21.
G1 X28.8063 Y-23.8515 Z0.1850
G1 X28.8063 Y-23.9561 Z0.1666
G1 X28.8063 Y-23.6270 Z0.1939 F22.
G1 X28.8063 Y-23.2971 Z0.2122
G1 X28.8063 Y-22.9670 Z0.2214
G1 X28.8063 Y-22.6366 Z0.2215
G1 X28.8063 Y-22.3064 Z0.2125
G1 X28.8063 Y-21.9766 Z0.1944
G1 X28.8063 Y-21.6474 Z0.1673
G0 Z0.3750
G0 X28.8063 Y-21.6474 
G0 Z0.3750
G0 X28.8063 Y-23.7860 
G1 X28.8063 Y-23.7860 Z0.1829 F21.
G1 X28.8063 Y-23.8515 Z0.1713
G1 X28.8063 Y-23.9561 Z0.1529
G1 X28.8063 Y-23.6270 Z0.1802 F22.
G1 X28.8063 Y-23.2971 Z0.1985
G1 X28.8063 Y-22.9670 Z0.2077
G1 X28.8063 Y-22.6366 Z0.2078
G1 X28.8063 Y-22.3064 Z0.1988
G1 X28.8063 Y-21.9766 Z0.1807
G1 X28.8063 Y-21.6474 Z0.1536
G0 Z0.3750
G0 X28.8063 Y-21.6474 
G0 Z0.3750
G0 X28.8063 Y-23.7860 
G1 X28.8063 Y-23.7860 Z0.1691 F21.
G1 X28.8063 Y-23.8515 Z0.1576
G1 X28.8063 Y-23.9561 Z0.1391
G1 X28.8063 Y-23.6270 Z0.1665 F22.
G1 X28.8063 Y-23.2971 Z0.1848
G1 X28.8063 Y-22.9670 Z0.1940
G1 X28.8063 Y-22.6366 Z0.1941
G1 X28.8063 Y-22.3064 Z0.1851
G1 X28.8063 Y-21.9766 Z0.1670
G1 X28.8063 Y-21.6474 Z0.1398
G0 Z0.3750
G0 X28.8063 Y-21.6474 
G0 Z0.3750
G0 X28.8063 Y-23.7860 
G1 X28.8063 Y-23.7860 Z0.1554 F21.
G1 X28.8063 Y-23.8515 Z0.1439
G1 X28.8063 Y-23.9561 Z0.1254
G1 X28.8063 Y-23.6270 Z0.1528 F22.
G1 X28.8063 Y-23.2971 Z0.1711
G1 X28.8063 Y-22.9670 Z0.1802
G1 X28.8063 Y-22.6366 Z0.1803
G1 X28.8063 Y-22.3064 Z0.1713
G1 X28.8063 Y-21.9766 Z0.1533
G1 X28.8063 Y-21.6474 Z0.1261
G0 Z0.3750
G0 X28.8063 Y-21.6474 
G0 Z0.3750
G0 X28.8063 Y-23.7860 
G1 X28.8063 Y-23.7860 Z0.1417 F21.
G1 X28.8063 Y-23.8515 Z0.1302
G1 X28.8063 Y-23.9561 Z0.1117
G1 X28.8063 Y-23.6270 Z0.1391 F22.
G1 X28.8063 Y-23.2971 Z0.1573
G1 X28.8063 Y-22.9670 Z0.1665
G1 X28.8063 Y-22.6366 Z0.1666
G1 X28.8063 Y-22.3064 Z0.1576
G1 X28.8063 Y-21.9766 Z0.1396
G1 X28.8063 Y-21.6474 Z0.1124
G0 Z0.3750
G0 X28.8063 Y-21.6474 
G0 Z0.3750
G0 X28.8063 Y-23.7860 
G1 X28.8063 Y-23.7860 Z0.1280 F21.
G1 X28.8063 Y-23.8515 Z0.1165
G1 X28.8063 Y-23.9561 Z0.0980
G1 X28.8063 Y-23.6270 Z0.1253 F22.
G1 X28.8063 Y-23.2971 Z0.1436
G1 X28.8063 Y-22.9670 Z0.1528
G1 X28.8063 Y-22.6366 Z0.1529
G1 X28.8063 Y-22.3064 Z0.1439
G1 X28.8063 Y-21.9766 Z0.1258
G1 X28.8063 Y-21.6474 Z0.0987
G0 Z0.3377
G0 X28.8063 Y-21.6474 
G0 Z0.3377
G0 X29.3740 Y-23.7821 
G1 X29.3740 Y-23.7821 Z0.2107 F21.
G1 X29.3740 Y-23.8479 Z0.1991
G1 X29.3740 Y-23.9522 Z0.1807
G1 X29.3740 Y-23.6241 Z0.2078 F22.
G1 X29.3740 Y-23.2955 Z0.2260
G1 X29.3740 Y-22.9664 Z0.2351
G1 X29.3740 Y-22.6372 Z0.2352
G1 X29.3740 Y-22.3081 Z0.2263
G1 X29.3740 Y-21.9794 Z0.2083
G1 X29.3740 Y-21.6514 Z0.1814
G0 Z0.3750
G0 X29.3740 Y-21.6514 
G0 Z0.3750
G0 X29.3740 Y-23.7821 
G1 X29.3740 Y-23.7821 Z0.1970 F21.
G1 X29.3740 Y-23.8479 Z0.1853
G1 X29.3740 Y-23.9522 Z0.1670
G1 X29.3740 Y-23.6241 Z0.1941 F22.
G1 X29.3740 Y-23.2955 Z0.2123
G1 X29.3740 Y-22.9664 Z0.2214
G1 X29.3740 Y-22.6372 Z0.2215
G1 X29.3740 Y-22.3081 Z0.2126
G1 X29.3740 Y-21.9794 Z0.1946
G1 X29.3740 Y-21.6514 Z0.1676
G0 Z0.3750
G0 X29.3740 Y-21.6514 
G0 Z0.3750
G0 X29.3740 Y-23.7821 
G1 X29.3740 Y-23.7821 Z0.1832 F21.
G1 X29.3740 Y-23.8479 Z0.1716
G1 X29.3740 Y-23.9522 Z0.1532
G1 X29.3740 Y-23.6241 Z0.1804 F22.
G1 X29.3740 Y-23.2955 Z0.1985
G1 X29.3740 Y-22.9664 Z0.2077
G1 X29.3740 Y-22.6372 Z0.2078
G1 X29.3740 Y-22.3081 Z0.1988
G1 X29.3740 Y-21.9794 Z0.1809
G1 X29.3740 Y-21.6514 Z0.1539
G0 Z0.3750
G0 X29.3740 Y-21.6514 
G0 Z0.3750
G0 X29.3740 Y-23.7821 
G1 X29.3740 Y-23.7821 Z0.1695 F21.
G1 X29.3740 Y-23.8479 Z0.1579
G1 X29.3740 Y-23.9522 Z0.1395
G1 X29.3740 Y-23.6241 Z0.1667 F22.
G1 X29.3740 Y-23.2955 Z0.1848
G1 X29.3740 Y-22.9664 Z0.1940
G1 X29.3740 Y-22.6372 Z0.1941
G1 X29.3740 Y-22.3081 Z0.1851
G1 X29.3740 Y-21.9794 Z0.1672
G1 X29.3740 Y-21.6514 Z0.1402
G0 Z0.3750
G0 X29.3740 Y-21.6514 
G0 Z0.3750
G0 X29.3740 Y-23.7821 
G1 X29.3740 Y-23.7821 Z0.1558 F21.
G1 X29.3740 Y-23.8479 Z0.1442
G1 X29.3740 Y-23.9522 Z0.1258
G1 X29.3740 Y-23.6241 Z0.1530 F22.
G1 X29.3740 Y-23.2955 Z0.1711
G1 X29.3740 Y-22.9664 Z0.1802
G1 X29.3740 Y-22.6372 Z0.1803
G1 X29.3740 Y-22.3081 Z0.1714
G1 X29.3740 Y-21.9794 Z0.1535
G1 X29.3740 Y-21.6514 Z0.1265
G0 Z0.3750
G0 X29.3740 Y-21.6514 
G0 Z0.3750
G0 X29.3740 Y-23.7821 
G1 X29.3740 Y-23.7821 Z0.1421 F21.
G1 X29.3740 Y-23.8479 Z0.1305
G1 X29.3740 Y-23.9522 Z0.1121
G1 X29.3740 Y-23.6241 Z0.1393 F22.
G1 X29.3740 Y-23.2955 Z0.1574
G1 X29.3740 Y-22.9664 Z0.1665
G1 X29.3740 Y-22.6372 Z0.1666
G1 X29.3740 Y-22.3081 Z0.1577
G1 X29.3740 Y-21.9794 Z0.1398
G1 X29.3740 Y-21.6514 Z0.1128
G0 Z0.3750
G0 X29.3740 Y-21.6514 
G0 Z0.3750
G0 X29.3740 Y-23.7821 
G1 X29.3740 Y-23.7821 Z0.1284 F21.
G1 X29.3740 Y-23.8479 Z0.1168
G1 X29.3740 Y-23.9522 Z0.0984
G1 X29.3740 Y-23.6241 Z0.1255 F22.
G1 X29.3740 Y-23.2955 Z0.1437
G1 X29.3740 Y-22.9664 Z0.1528
G1 X29.3740 Y-22.6372 Z0.1529
G1 X29.3740 Y-22.3081 Z0.1440
G1 X29.3740 Y-21.9794 Z0.1260
G1 X29.3740 Y-21.6514 Z0.0991
G0 Z0.3379
G0 X29.3740 Y-21.6514 
G0 Z0.3379
G0 X29.9753 Y-23.7779 
G1 X29.9753 Y-23.7779 Z0.2111 F21.
G1 X29.9753 Y-23.8441 Z0.1994
G1 X29.9753 Y-23.9480 Z0.1811
G1 X29.9753 Y-23.6212 Z0.2080 F22.
G1 X29.9753 Y-23.2937 Z0.2261
G1 X29.9753 Y-22.9658 Z0.2351
G1 X29.9753 Y-22.6378 Z0.2352
G1 X29.9753 Y-22.3099 Z0.2263
G1 X29.9753 Y-21.9824 Z0.2085
G1 X29.9753 Y-21.6555 Z0.1818
G0 Z0.3750
G0 X29.9753 Y-21.6555 
G0 Z0.3750
G0 X29.9753 Y-23.7779 
G1 X29.9753 Y-23.7779 Z0.1974 F21.
G1 X29.9753 Y-23.8441 Z0.1857
G1 X29.9753 Y-23.9480 Z0.1674
G1 X29.9753 Y-23.6212 Z0.1943 F22.
G1 X29.9753 Y-23.2937 Z0.2123
G1 X29.9753 Y-22.9658 Z0.2214
G1 X29.9753 Y-22.6378 Z0.2215
G1 X29.9753 Y-22.3099 Z0.2126
G1 X29.9753 Y-21.9824 Z0.1948
G1 X29.9753 Y-21.6555 Z0.1680
G0 Z0.3750
G0 X29.9753 Y-21.6555 
G0 Z0.3750
G0 X29.9753 Y-23.7779 
G1 X29.9753 Y-23.7779 Z0.1836 F21.
G1 X29.9753 Y-23.8441 Z0.1720
G1 X29.9753 Y-23.9480 Z0.1536
G1 X29.9753 Y-23.6212 Z0.1806 F22.
G1 X29.9753 Y-23.2937 Z0.1986
G1 X29.9753 Y-22.9658 Z0.2077
G1 X29.9753 Y-22.6378 Z0.2078
G1 X29.9753 Y-22.3099 Z0.1989
G1 X29.9753 Y-21.9824 Z0.1811
G1 X29.9753 Y-21.6555 Z0.1543
G0 Z0.3750
G0 X29.9753 Y-21.6555 
G0 Z0.3750
G0 X29.9753 Y-23.7779 
G1 X29.9753 Y-23.7779 Z0.1699 F21.
G1 X29.9753 Y-23.8441 Z0.1582
G1 X29.9753 Y-23.9480 Z0.1399
G1 X29.9753 Y-23.6212 Z0.1669 F22.
G1 X29.9753 Y-23.2937 Z0.1849
G1 X29.9753 Y-22.9658 Z0.1940
G1 X29.9753 Y-22.6378 Z0.1941
G1 X29.9753 Y-22.3099 Z0.1852
G1 X29.9753 Y-21.9824 Z0.1674
G1 X29.9753 Y-21.6555 Z0.1406
G0 Z0.3750
G0 X29.9753 Y-21.6555 
G0 Z0.3750
G0 X29.9753 Y-23.7779 
G1 X29.9753 Y-23.7779 Z0.1562 F21.
G1 X29.9753 Y-23.8441 Z0.1445
G1 X29.9753 Y-23.9480 Z0.1262
G1 X29.9753 Y-23.6212 Z0.1532 F22.
G1 X29.9753 Y-23.2937 Z0.1712
G1 X29.9753 Y-22.9658 Z0.1803
G1 X29.9753 Y-22.6378 Z0.1804
G1 X29.9753 Y-22.3099 Z0.1715
G1 X29.9753 Y-21.9824 Z0.1537
G1 X29.9753 Y-21.6555 Z0.1269
G0 Z0.3750
G0 X29.9753 Y-21.6555 
G0 Z0.3750
G0 X29.9753 Y-23.7779 
G1 X29.9753 Y-23.7779 Z0.1425 F21.
G1 X29.9753 Y-23.8441 Z0.1308
G1 X29.9753 Y-23.9480 Z0.1125
G1 X29.9753 Y-23.6212 Z0.1395 F22.
G1 X29.9753 Y-23.2937 Z0.1575
G1 X29.9753 Y-22.9658 Z0.1665
G1 X29.9753 Y-22.6378 Z0.1666
G1 X29.9753 Y-22.3099 Z0.1578
G1 X29.9753 Y-21.9824 Z0.1400
G1 X29.9753 Y-21.6555 Z0.1132
G0 Z0.3750
G0 X29.9753 Y-21.6555 
G0 Z0.3750
G0 X29.9753 Y-23.7779 
G1 X29.9753 Y-23.7779 Z0.1288 F21.
G1 X29.9753 Y-23.8441 Z0.1171
G1 X29.9753 Y-23.9480 Z0.0988
G1 X29.9753 Y-23.6212 Z0.1257 F22.
G1 X29.9753 Y-23.2937 Z0.1438
G1 X29.9753 Y-22.9658 Z0.1528
G1 X29.9753 Y-22.6378 Z0.1529
G1 X29.9753 Y-22.3099 Z0.1441
G1 X29.9753 Y-21.9824 Z0.1262
G1 X29.9753 Y-21.6555 Z0.0995
G0 Z0.3381
G0 X29.9753 Y-21.6555 
G0 Z0.3381
G0 X30.6125 Y-23.7735 
G1 X30.6125 Y-23.7735 Z0.2115 F21.
G1 X30.6125 Y-23.8401 Z0.1997
G1 X30.6125 Y-23.9436 Z0.1815
G1 X30.6125 Y-23.6180 Z0.2082 F22.
G1 X30.6125 Y-23.2918 Z0.2261
G1 X30.6125 Y-22.9652 Z0.2351
G1 X30.6125 Y-22.6384 Z0.2352
G1 X30.6125 Y-22.3118 Z0.2264
G1 X30.6125 Y-21.9856 Z0.2087
G1 X30.6125 Y-21.6599 Z0.1822
G0 Z0.3750
G0 X30.6125 Y-21.6599 
G0 Z0.3750
G0 X30.6125 Y-23.7735 
G1 X30.6125 Y-23.7735 Z0.1978 F21.
G1 X30.6125 Y-23.8401 Z0.1860
G1 X30.6125 Y-23.9436 Z0.1678
G1 X30.6125 Y-23.6180 Z0.1945 F22.
G1 X30.6125 Y-23.2918 Z0.2124
G1 X30.6125 Y-22.9652 Z0.2214
G1 X30.6125 Y-22.6384 Z0.2215
G1 X30.6125 Y-22.3118 Z0.2127
G1 X30.6125 Y-21.9856 Z0.1950
G1 X30.6125 Y-21.6599 Z0.1685
G0 Z0.3750
G0 X30.6125 Y-21.6599 
G0 Z0.3750
G0 X30.6125 Y-23.7735 
G1 X30.6125 Y-23.7735 Z0.1841 F21.
G1 X30.6125 Y-23.8401 Z0.1723
G1 X30.6125 Y-23.9436 Z0.1541
G1 X30.6125 Y-23.6180 Z0.1808 F22.
G1 X30.6125 Y-23.2918 Z0.1987
G1 X30.6125 Y-22.9652 Z0.2077
G1 X30.6125 Y-22.6384 Z0.2078
G1 X30.6125 Y-22.3118 Z0.1990
G1 X30.6125 Y-21.9856 Z0.1813
G1 X30.6125 Y-21.6599 Z0.1548
G0 Z0.3750
G0 X30.6125 Y-21.6599 
G0 Z0.3750
G0 X30.6125 Y-23.7735 
G1 X30.6125 Y-23.7735 Z0.1703 F21.
G1 X30.6125 Y-23.8401 Z0.1586
G1 X30.6125 Y-23.9436 Z0.1403
G1 X30.6125 Y-23.6180 Z0.1671 F22.
G1 X30.6125 Y-23.2918 Z0.1850
G1 X30.6125 Y-22.9652 Z0.1940
G1 X30.6125 Y-22.6384 Z0.1941
G1 X30.6125 Y-22.3118 Z0.1853
G1 X30.6125 Y-21.9856 Z0.1676
G1 X30.6125 Y-21.6599 Z0.1410
G0 Z0.3750
G0 X30.6125 Y-21.6599 
G0 Z0.3750
G0 X30.6125 Y-23.7735 
G1 X30.6125 Y-23.7735 Z0.1566 F21.
G1 X30.6125 Y-23.8401 Z0.1449
G1 X30.6125 Y-23.9436 Z0.1266
G1 X30.6125 Y-23.6180 Z0.1534 F22.
G1 X30.6125 Y-23.2918 Z0.1713
G1 X30.6125 Y-22.9652 Z0.1803
G1 X30.6125 Y-22.6384 Z0.1804
G1 X30.6125 Y-22.3118 Z0.1716
G1 X30.6125 Y-21.9856 Z0.1539
G1 X30.6125 Y-21.6599 Z0.1273
G0 Z0.3750
G0 X30.6125 Y-21.6599 
G0 Z0.3750
G0 X30.6125 Y-23.7735 
G1 X30.6125 Y-23.7735 Z0.1429 F21.
G1 X30.6125 Y-23.8401 Z0.1312
G1 X30.6125 Y-23.9436 Z0.1129
G1 X30.6125 Y-23.6180 Z0.1397 F22.
G1 X30.6125 Y-23.2918 Z0.1576
G1 X30.6125 Y-22.9652 Z0.1666
G1 X30.6125 Y-22.6384 Z0.1667
G1 X30.6125 Y-22.3118 Z0.1579
G1 X30.6125 Y-21.9856 Z0.1402
G1 X30.6125 Y-21.6599 Z0.1136
G0 Z0.3750
G0 X30.6125 Y-21.6599 
G0 Z0.3750
G0 X30.6125 Y-23.7735 
G1 X30.6125 Y-23.7735 Z0.1292 F21.
G1 X30.6125 Y-23.8401 Z0.1175
G1 X30.6125 Y-23.9436 Z0.0992
G1 X30.6125 Y-23.6180 Z0.1260 F22.
G1 X30.6125 Y-23.2918 Z0.1438
G1 X30.6125 Y-22.9652 Z0.1528
G1 X30.6125 Y-22.6384 Z0.1529
G1 X30.6125 Y-22.3118 Z0.1441
G1 X30.6125 Y-21.9856 Z0.1265
G1 X30.6125 Y-21.6599 Z0.0999
G0 Z0.3383
G0 X30.6125 Y-21.6599 
G0 Z0.3383
G0 X31.2875 Y-23.7688 
G1 X31.2875 Y-23.7688 Z0.2119 F21.
G1 X31.2875 Y-23.8359 Z0.2001
G1 X31.2875 Y-23.9390 Z0.1819
G1 X31.2875 Y-23.6147 Z0.2085 F22.
G1 X31.2875 Y-23.2898 Z0.2262
G1 X31.2875 Y-22.9645 Z0.2351
G1 X31.2875 Y-22.6391 Z0.2352
G1 X31.2875 Y-22.3138 Z0.2265
G1 X31.2875 Y-21.9889 Z0.2090
G1 X31.2875 Y-21.6646 Z0.1826
G0 Z0.3750
G0 X31.2875 Y-21.6646 
G0 Z0.3750
G0 X31.2875 Y-23.7688 
G1 X31.2875 Y-23.7688 Z0.1982 F21.
G1 X31.2875 Y-23.8359 Z0.1864
G1 X31.2875 Y-23.9390 Z0.1682
G1 X31.2875 Y-23.6147 Z0.1948 F22.
G1 X31.2875 Y-23.2898 Z0.2125
G1 X31.2875 Y-22.9645 Z0.2214
G1 X31.2875 Y-22.6391 Z0.2215
G1 X31.2875 Y-22.3138 Z0.2128
G1 X31.2875 Y-21.9889 Z0.1953
G1 X31.2875 Y-21.6646 Z0.1689
G0 Z0.3750
G0 X31.2875 Y-21.6646 
G0 Z0.3750
G0 X31.2875 Y-23.7688 
G1 X31.2875 Y-23.7688 Z0.1845 F21.
G1 X31.2875 Y-23.8359 Z0.1727
G1 X31.2875 Y-23.9390 Z0.1545
G1 X31.2875 Y-23.6147 Z0.1810 F22.
G1 X31.2875 Y-23.2898 Z0.1988
G1 X31.2875 Y-22.9645 Z0.2077
G1 X31.2875 Y-22.6391 Z0.2078
G1 X31.2875 Y-22.3138 Z0.1991
G1 X31.2875 Y-21.9889 Z0.1815
G1 X31.2875 Y-21.6646 Z0.1552
G0 Z0.3750
G0 X31.2875 Y-21.6646 
G0 Z0.3750
G0 X31.2875 Y-23.7688 
G1 X31.2875 Y-23.7688 Z0.1708 F21.
G1 X31.2875 Y-23.8359 Z0.1590
G1 X31.2875 Y-23.9390 Z0.1408
G1 X31.2875 Y-23.6147 Z0.1673 F22.
G1 X31.2875 Y-23.2898 Z0.1851
G1 X31.2875 Y-22.9645 Z0.1940
G1 X31.2875 Y-22.6391 Z0.1941
G1 X31.2875 Y-22.3138 Z0.1854
G1 X31.2875 Y-21.9889 Z0.1678
G1 X31.2875 Y-21.6646 Z0.1415
G0 Z0.3750
G0 X31.2875 Y-21.6646 
G0 Z0.3750
G0 X31.2875 Y-23.7688 
G1 X31.2875 Y-23.7688 Z0.1571 F21.
G1 X31.2875 Y-23.8359 Z0.1453
G1 X31.2875 Y-23.9390 Z0.1271
G1 X31.2875 Y-23.6147 Z0.1536 F22.
G1 X31.2875 Y-23.2898 Z0.1714
G1 X31.2875 Y-22.9645 Z0.1803
G1 X31.2875 Y-22.6391 Z0.1804
G1 X31.2875 Y-22.3138 Z0.1717
G1 X31.2875 Y-21.9889 Z0.1541
G1 X31.2875 Y-21.6646 Z0.1278
G0 Z0.3750
G0 X31.2875 Y-21.6646 
G0 Z0.3750
G0 X31.2875 Y-23.7688 
G1 X31.2875 Y-23.7688 Z0.1434 F21.
G1 X31.2875 Y-23.8359 Z0.1315
G1 X31.2875 Y-23.9390 Z0.1134
G1 X31.2875 Y-23.6147 Z0.1399 F22.
G1 X31.2875 Y-23.2898 Z0.1576
G1 X31.2875 Y-22.9645 Z0.1666
G1 X31.2875 Y-22.6391 Z0.1667
G1 X31.2875 Y-22.3138 Z0.1579
G1 X31.2875 Y-21.9889 Z0.1404
G1 X31.2875 Y-21.6646 Z0.1141
G0 Z0.3750
G0 X31.2875 Y-21.6646 
G0 Z0.3750
G0 X31.2875 Y-23.7688 
G1 X31.2875 Y-23.7688 Z0.1297 F21.
G1 X31.2875 Y-23.8359 Z0.1178
G1 X31.2875 Y-23.9390 Z0.0997
G1 X31.2875 Y-23.6147 Z0.1262 F22.
G1 X31.2875 Y-23.2898 Z0.1439
G1 X31.2875 Y-22.9645 Z0.1528
G1 X31.2875 Y-22.6391 Z0.1529
G1 X31.2875 Y-22.3138 Z0.1442
G1 X31.2875 Y-21.9889 Z0.1267
G1 X31.2875 Y-21.6646 Z0.1003
G0 Z0.3385
G0 X31.2875 Y-21.6646 
G0 Z0.3385
G0 X32.0026 Y-23.7639 
G1 X32.0026 Y-23.7639 Z0.2124 F21.
G1 X32.0026 Y-23.8265 Z0.2014
G1 X32.0026 Y-23.9340 Z0.1824
G1 X32.0026 Y-23.6111 Z0.2087 F22.
G1 X32.0026 Y-23.2876 Z0.2263
G1 X32.0026 Y-22.9638 Z0.2351
G1 X32.0026 Y-22.6398 Z0.2352
G1 X32.0026 Y-22.3160 Z0.2266
G1 X32.0026 Y-21.9925 Z0.2092
G1 X32.0026 Y-21.6696 Z0.1831
G0 Z0.3749
G0 X32.0026 Y-21.6696 
G0 Z0.3749
G0 X32.0026 Y-23.7639 
G1 X32.0026 Y-23.7639 Z0.1987 F21.
G1 X32.0026 Y-23.8265 Z0.1877
G1 X32.0026 Y-23.9340 Z0.1687
G1 X32.0026 Y-23.6111 Z0.1950 F22.
G1 X32.0026 Y-23.2876 Z0.2126
G1 X32.0026 Y-22.9638 Z0.2214
G1 X32.0026 Y-22.6398 Z0.2215
G1 X32.0026 Y-22.3160 Z0.2129
G1 X32.0026 Y-21.9925 Z0.1955
G1 X32.0026 Y-21.6696 Z0.1694
G0 Z0.3749
G0 X32.0026 Y-21.6696 
G0 Z0.3749
G0 X32.0026 Y-23.7639 
G1 X32.0026 Y-23.7639 Z0.1850 F21.
G1 X32.0026 Y-23.8265 Z0.1739
G1 X32.0026 Y-23.9340 Z0.1550
G1 X32.0026 Y-23.6111 Z0.1813 F22.
G1 X32.0026 Y-23.2876 Z0.1989
G1 X32.0026 Y-22.9638 Z0.2077
G1 X32.0026 Y-22.6398 Z0.2078
G1 X32.0026 Y-22.3160 Z0.1992
G1 X32.0026 Y-21.9925 Z0.1818
G1 X32.0026 Y-21.6696 Z0.1557
G0 Z0.3749
G0 X32.0026 Y-21.6696 
G0 Z0.3749
G0 X32.0026 Y-23.7639 
G1 X32.0026 Y-23.7639 Z0.1713 F21.
G1 X32.0026 Y-23.8265 Z0.1602
G1 X32.0026 Y-23.9340 Z0.1413
G1 X32.0026 Y-23.6111 Z0.1676 F22.
G1 X32.0026 Y-23.2876 Z0.1852
G1 X32.0026 Y-22.9638 Z0.1940
G1 X32.0026 Y-22.6398 Z0.1941
G1 X32.0026 Y-22.3160 Z0.1855
G1 X32.0026 Y-21.9925 Z0.1681
G1 X32.0026 Y-21.6696 Z0.1420
G0 Z0.3749
G0 X32.0026 Y-21.6696 
G0 Z0.3749
G0 X32.0026 Y-23.7639 
G1 X32.0026 Y-23.7639 Z0.1576 F21.
G1 X32.0026 Y-23.8265 Z0.1465
G1 X32.0026 Y-23.9340 Z0.1276
G1 X32.0026 Y-23.6111 Z0.1539 F22.
G1 X32.0026 Y-23.2876 Z0.1714
G1 X32.0026 Y-22.9638 Z0.1803
G1 X32.0026 Y-22.6398 Z0.1804
G1 X32.0026 Y-22.3160 Z0.1717
G1 X32.0026 Y-21.9925 Z0.1543
G1 X32.0026 Y-21.6696 Z0.1282
G0 Z0.3749
G0 X32.0026 Y-21.6696 
G0 Z0.3749
G0 X32.0026 Y-23.7639 
G1 X32.0026 Y-23.7639 Z0.1438 F21.
G1 X32.0026 Y-23.8265 Z0.1328
G1 X32.0026 Y-23.9340 Z0.1138
G1 X32.0026 Y-23.6111 Z0.1401 F22.
G1 X32.0026 Y-23.2876 Z0.1577
G1 X32.0026 Y-22.9638 Z0.1666
G1 X32.0026 Y-22.6398 Z0.1667
G1 X32.0026 Y-22.3160 Z0.1580
G1 X32.0026 Y-21.9925 Z0.1406
G1 X32.0026 Y-21.6696 Z0.1145
G0 Z0.3749
G0 X32.0026 Y-21.6696 
G0 Z0.3749
G0 X32.0026 Y-23.7639 
G1 X32.0026 Y-23.7639 Z0.1301 F21.
G1 X32.0026 Y-23.8265 Z0.1191
G1 X32.0026 Y-23.9340 Z0.1001
G1 X32.0026 Y-23.6111 Z0.1264 F22.
G1 X32.0026 Y-23.2876 Z0.1440
G1 X32.0026 Y-22.9638 Z0.1529
G1 X32.0026 Y-22.6398 Z0.1530
G1 X32.0026 Y-22.3160 Z0.1443
G1 X32.0026 Y-21.9925 Z0.1269
G1 X32.0026 Y-21.6696 Z0.1008
G0 Z0.3388
G0 X32.0026 Y-21.6696 
G0 Z0.3388
G0 X32.7603 Y-23.7586 
G1 X32.7603 Y-23.7586 Z0.2129 F21.
G1 X32.7603 Y-23.8217 Z0.2018
G1 X32.7603 Y-23.9288 Z0.1829
G1 X32.7603 Y-23.6074 Z0.2090 F22.
G1 X32.7603 Y-23.2854 Z0.2264
G1 X32.7603 Y-22.9630 Z0.2352
G1 X32.7603 Y-22.6406 Z0.2353
G1 X32.7603 Y-22.3182 Z0.2267
G1 X32.7603 Y-21.9962 Z0.2095
G1 X32.7603 Y-21.6748 Z0.1836
G0 Z0.3749
G0 X32.7603 Y-21.6748 
G0 Z0.3749
G0 X32.7603 Y-23.7586 
G1 X32.7603 Y-23.7586 Z0.1992 F21.
G1 X32.7603 Y-23.8217 Z0.1881
G1 X32.7603 Y-23.9288 Z0.1692
G1 X32.7603 Y-23.6074 Z0.1953 F22.
G1 X32.7603 Y-23.2854 Z0.2127
G1 X32.7603 Y-22.9630 Z0.2214
G1 X32.7603 Y-22.6406 Z0.2215
G1 X32.7603 Y-22.3182 Z0.2130
G1 X32.7603 Y-21.9962 Z0.1957
G1 X32.7603 Y-21.6748 Z0.1699
G0 Z0.3749
G0 X32.7603 Y-21.6748 
G0 Z0.3749
G0 X32.7603 Y-23.7586 
G1 X32.7603 Y-23.7586 Z0.1855 F21.
G1 X32.7603 Y-23.8217 Z0.1744
G1 X32.7603 Y-23.9288 Z0.1555
G1 X32.7603 Y-23.6074 Z0.1815 F22.
G1 X32.7603 Y-23.2854 Z0.1990
G1 X32.7603 Y-22.9630 Z0.2077
G1 X32.7603 Y-22.6406 Z0.2078
G1 X32.7603 Y-22.3182 Z0.1993
G1 X32.7603 Y-21.9962 Z0.1820
G1 X32.7603 Y-21.6748 Z0.1562
G0 Z0.3749
G0 X32.7603 Y-21.6748 
G0 Z0.3749
G0 X32.7603 Y-23.7586 
G1 X32.7603 Y-23.7586 Z0.1718 F21.
G1 X32.7603 Y-23.8217 Z0.1606
G1 X32.7603 Y-23.9288 Z0.1418
G1 X32.7603 Y-23.6074 Z0.1678 F22.
G1 X32.7603 Y-23.2854 Z0.1852
G1 X32.7603 Y-22.9630 Z0.1940
G1 X32.7603 Y-22.6406 Z0.1941
G1 X32.7603 Y-22.3182 Z0.1855
G1 X32.7603 Y-21.9962 Z0.1683
G1 X32.7603 Y-21.6748 Z0.1424
G0 Z0.3749
G0 X32.7603 Y-21.6748 
G0 Z0.3749
G0 X32.7603 Y-23.7586 
G1 X32.7603 Y-23.7586 Z0.1581 F21.
G1 X32.7603 Y-23.8217 Z0.1469
G1 X32.7603 Y-23.9288 Z0.1281
G1 X32.7603 Y-23.6074 Z0.1541 F22.
G1 X32.7603 Y-23.2854 Z0.1715
G1 X32.7603 Y-22.9630 Z0.1803
G1 X32.7603 Y-22.6406 Z0.1804
G1 X32.7603 Y-22.3182 Z0.1718
G1 X32.7603 Y-21.9962 Z0.1546
G1 X32.7603 Y-21.6748 Z0.1287
G0 Z0.3749
G0 X32.7603 Y-21.6748 
G0 Z0.3749
G0 X32.7603 Y-23.7586 
G1 X32.7603 Y-23.7586 Z0.1443 F21.
G1 X32.7603 Y-23.8217 Z0.1332
G1 X32.7603 Y-23.9288 Z0.1143
G1 X32.7603 Y-23.6074 Z0.1404 F22.
G1 X32.7603 Y-23.2854 Z0.1578
G1 X32.7603 Y-22.9630 Z0.1666
G1 X32.7603 Y-22.6406 Z0.1667
G1 X32.7603 Y-22.3182 Z0.1581
G1 X32.7603 Y-21.9962 Z0.1409
G1 X32.7603 Y-21.6748 Z0.1150
G0 Z0.3749
G0 X32.7603 Y-21.6748 
G0 Z0.3749
G0 X32.7603 Y-23.7586 
G1 X32.7603 Y-23.7586 Z0.1306 F21.
G1 X32.7603 Y-23.8217 Z0.1195
G1 X32.7603 Y-23.9288 Z0.1006
G1 X32.7603 Y-23.6074 Z0.1267 F22.
G1 X32.7603 Y-23.2854 Z0.1441
G1 X32.7603 Y-22.9630 Z0.1529
G1 X32.7603 Y-22.6406 Z0.1530
G1 X32.7603 Y-22.3182 Z0.1444
G1 X32.7603 Y-21.9962 Z0.1272
G1 X32.7603 Y-21.6748 Z0.1013
G0 Z0.3391
G0 X32.7603 Y-21.6748 
G0 Z0.3391
G0 X33.5631 Y-23.7531 
G1 X33.5631 Y-23.7531 Z0.2134 F21.
G1 X33.5631 Y-23.8167 Z0.2022
G1 X33.5631 Y-23.9232 Z0.1834
G1 X33.5631 Y-23.6034 Z0.2092 F22.
G1 X33.5631 Y-23.2830 Z0.2265
G1 X33.5631 Y-22.9622 Z0.2352
G1 X33.5631 Y-22.6414 Z0.2353
G1 X33.5631 Y-22.3206 Z0.2268
G1 X33.5631 Y-22.0002 Z0.2097
G1 X33.5631 Y-21.6804 Z0.1841
G0 Z0.3749
G0 X33.5631 Y-21.6804 
G0 Z0.3749
G0 X33.5631 Y-23.7531 
G1 X33.5631 Y-23.7531 Z0.1997 F21.
G1 X33.5631 Y-23.8167 Z0.1885
G1 X33.5631 Y-23.9232 Z0.1697
G1 X33.5631 Y-23.6034 Z0.1955 F22.
G1 X33.5631 Y-23.2830 Z0.2128
G1 X33.5631 Y-22.9622 Z0.2214
G1 X33.5631 Y-22.6414 Z0.2215
G1 X33.5631 Y-22.3206 Z0.2131
G1 X33.5631 Y-22.0002 Z0.1960
G1 X33.5631 Y-21.6804 Z0.1704
G0 Z0.3749
G0 X33.5631 Y-21.6804 
G0 Z0.3749
G0 X33.5631 Y-23.7531 
G1 X33.5631 Y-23.7531 Z0.1860 F21.
G1 X33.5631 Y-23.8167 Z0.1748
G1 X33.5631 Y-23.9232 Z0.1560
G1 X33.5631 Y-23.6034 Z0.1818 F22.
G1 X33.5631 Y-23.2830 Z0.1991
G1 X33.5631 Y-22.9622 Z0.2077
G1 X33.5631 Y-22.6414 Z0.2078
G1 X33.5631 Y-22.3206 Z0.1994
G1 X33.5631 Y-22.0002 Z0.1823
G1 X33.5631 Y-21.6804 Z0.1567
G0 Z0.3749
G0 X33.5631 Y-21.6804 
G0 Z0.3749
G0 X33.5631 Y-23.7531 
G1 X33.5631 Y-23.7531 Z0.1723 F21.
G1 X33.5631 Y-23.8167 Z0.1611
G1 X33.5631 Y-23.9232 Z0.1423
G1 X33.5631 Y-23.6034 Z0.1681 F22.
G1 X33.5631 Y-23.2830 Z0.1853
G1 X33.5631 Y-22.9622 Z0.1940
G1 X33.5631 Y-22.6414 Z0.1941
G1 X33.5631 Y-22.3206 Z0.1856
G1 X33.5631 Y-22.0002 Z0.1686
G1 X33.5631 Y-21.6804 Z0.1430
G0 Z0.3749
G0 X33.5631 Y-21.6804 
G0 Z0.3749
G0 X33.5631 Y-23.7531 
G1 X33.5631 Y-23.7531 Z0.1586 F21.
G1 X33.5631 Y-23.8167 Z0.1474
G1 X33.5631 Y-23.9232 Z0.1286
G1 X33.5631 Y-23.6034 Z0.1544 F22.
G1 X33.5631 Y-23.2830 Z0.1716
G1 X33.5631 Y-22.9622 Z0.1803
G1 X33.5631 Y-22.6414 Z0.1804
G1 X33.5631 Y-22.3206 Z0.1719
G1 X33.5631 Y-22.0002 Z0.1549
G1 X33.5631 Y-21.6804 Z0.1293
G0 Z0.3749
G0 X33.5631 Y-21.6804 
G0 Z0.3749
G0 X33.5631 Y-23.7531 
G1 X33.5631 Y-23.7531 Z0.1449 F21.
G1 X33.5631 Y-23.8167 Z0.1336
G1 X33.5631 Y-23.9232 Z0.1149
G1 X33.5631 Y-23.6034 Z0.1407 F22.
G1 X33.5631 Y-23.2830 Z0.1579
G1 X33.5631 Y-22.9622 Z0.1666
G1 X33.5631 Y-22.6414 Z0.1667
G1 X33.5631 Y-22.3206 Z0.1582
G1 X33.5631 Y-22.0002 Z0.1412
G1 X33.5631 Y-21.6804 Z0.1155
G0 Z0.3749
G0 X33.5631 Y-21.6804 
G0 Z0.3749
G0 X33.5631 Y-23.7531 
G1 X33.5631 Y-23.7531 Z0.1311 F21.
G1 X33.5631 Y-23.8167 Z0.1199
G1 X33.5631 Y-23.9232 Z0.1011
G1 X33.5631 Y-23.6034 Z0.1270 F22.
G1 X33.5631 Y-23.2830 Z0.1442
G1 X33.5631 Y-22.9622 Z0.1529
G1 X33.5631 Y-22.6414 Z0.1530
G1 X33.5631 Y-22.3206 Z0.1445
G1 X33.5631 Y-22.0002 Z0.1274
G1 X33.5631 Y-21.6804 Z0.1018
G0 Z0.3394
G0 X33.5631 Y-21.6804 
G0 Z0.3394
G0 X34.4135 Y-23.7472 
G1 X34.4135 Y-23.7472 Z0.2140 F21.
G1 X34.4135 Y-23.8113 Z0.2027
G1 X34.4135 Y-23.9173 Z0.1840
G1 X34.4135 Y-23.5992 Z0.2095 F22.
G1 X34.4135 Y-23.2804 Z0.2266
G1 X34.4135 Y-22.9614 Z0.2352
G1 X34.4135 Y-22.6422 Z0.2353
G1 X34.4135 Y-22.3232 Z0.2269
G1 X34.4135 Y-22.0044 Z0.2100
G1 X34.4135 Y-21.6863 Z0.1847
G0 Z0.3749
G0 X34.4135 Y-21.6863 
G0 Z0.3749
G0 X34.4135 Y-23.7472 
G1 X34.4135 Y-23.7472 Z0.2003 F21.
G1 X34.4135 Y-23.8113 Z0.1890
G1 X34.4135 Y-23.9173 Z0.1703
G1 X34.4135 Y-23.5992 Z0.1958 F22.
G1 X34.4135 Y-23.2804 Z0.2129
G1 X34.4135 Y-22.9614 Z0.2215
G1 X34.4135 Y-22.6422 Z0.2216
G1 X34.4135 Y-22.3232 Z0.2132
G1 X34.4135 Y-22.0044 Z0.1963
G1 X34.4135 Y-21.6863 Z0.1709
G0 Z0.3749
G0 X34.4135 Y-21.6863 
G0 Z0.3749
G0 X34.4135 Y-23.7472 
G1 X34.4135 Y-23.7472 Z0.1866 F21.
G1 X34.4135 Y-23.8113 Z0.1752
G1 X34.4135 Y-23.9173 Z0.1566
G1 X34.4135 Y-23.5992 Z0.1821 F22.
G1 X34.4135 Y-23.2804 Z0.1992
G1 X34.4135 Y-22.9614 Z0.2077
G1 X34.4135 Y-22.6422 Z0.2078
G1 X34.4135 Y-22.3232 Z0.1995
G1 X34.4135 Y-22.0044 Z0.1826
G1 X34.4135 Y-21.6863 Z0.1572
G0 Z0.3749
G0 X34.4135 Y-21.6863 
G0 Z0.3749
G0 X34.4135 Y-23.7472 
G1 X34.4135 Y-23.7472 Z0.1728 F21.
G1 X34.4135 Y-23.8113 Z0.1615
G1 X34.4135 Y-23.9173 Z0.1428
G1 X34.4135 Y-23.5992 Z0.1684 F22.
G1 X34.4135 Y-23.2804 Z0.1854
G1 X34.4135 Y-22.9614 Z0.1940
G1 X34.4135 Y-22.6422 Z0.1941
G1 X34.4135 Y-22.3232 Z0.1857
G1 X34.4135 Y-22.0044 Z0.1689
G1 X34.4135 Y-21.6863 Z0.1435
G0 Z0.3749
G0 X34.4135 Y-21.6863 
G0 Z0.3749
G0 X34.4135 Y-23.7472 
G1 X34.4135 Y-23.7472 Z0.1591 F21.
G1 X34.4135 Y-23.8113 Z0.1478
G1 X34.4135 Y-23.9173 Z0.1291
G1 X34.4135 Y-23.5992 Z0.1547 F22.
G1 X34.4135 Y-23.2804 Z0.1717
G1 X34.4135 Y-22.9614 Z0.1803
G1 X34.4135 Y-22.6422 Z0.1804
G1 X34.4135 Y-22.3232 Z0.1720
G1 X34.4135 Y-22.0044 Z0.1551
G1 X34.4135 Y-21.6863 Z0.1298
G0 Z0.3749
G0 X34.4135 Y-21.6863 
G0 Z0.3749
G0 X34.4135 Y-23.7472 
G1 X34.4135 Y-23.7472 Z0.1454 F21.
G1 X34.4135 Y-23.8113 Z0.1341
G1 X34.4135 Y-23.9173 Z0.1154
G1 X34.4135 Y-23.5992 Z0.1410 F22.
G1 X34.4135 Y-23.2804 Z0.1580
G1 X34.4135 Y-22.9614 Z0.1666
G1 X34.4135 Y-22.6422 Z0.1667
G1 X34.4135 Y-22.3232 Z0.1583
G1 X34.4135 Y-22.0044 Z0.1414
G1 X34.4135 Y-21.6863 Z0.1161
G0 Z0.3749
G0 X34.4135 Y-21.6863 
G0 Z0.3749
G0 X34.4135 Y-23.7472 
G1 X34.4135 Y-23.7472 Z0.1317 F21.
G1 X34.4135 Y-23.8113 Z0.1204
G1 X34.4135 Y-23.9173 Z0.1017
G1 X34.4135 Y-23.5992 Z0.1272 F22.
G1 X34.4135 Y-23.2804 Z0.1443
G1 X34.4135 Y-22.9614 Z0.1529
G1 X34.4135 Y-22.6422 Z0.1530
G1 X34.4135 Y-22.3232 Z0.1446
G1 X34.4135 Y-22.0044 Z0.1277
G1 X34.4135 Y-21.6863 Z0.1024
G0 Z0.3398
G0 X34.4135 Y-21.6863 
G0 Z0.3398
G0 X35.3146 Y-23.7409 
G1 X35.3146 Y-23.7409 Z0.2146 F21.
G1 X35.3146 Y-23.8057 Z0.2032
G1 X35.3146 Y-23.9111 Z0.1846
G1 X35.3146 Y-23.5947 Z0.2098 F22.
G1 X35.3146 Y-23.2778 Z0.2267
G1 X35.3146 Y-22.9605 Z0.2352
G1 X35.3146 Y-22.6431 Z0.2353
G1 X35.3146 Y-22.3258 Z0.2270
G1 X35.3146 Y-22.0089 Z0.2103
G1 X35.3146 Y-21.6925 Z0.1852
G0 Z0.3749
G0 X35.3146 Y-21.6925 
G0 Z0.3749
G0 X35.3146 Y-23.7409 
G1 X35.3146 Y-23.7409 Z0.2009 F21.
G1 X35.3146 Y-23.8057 Z0.1894
G1 X35.3146 Y-23.9111 Z0.1709
G1 X35.3146 Y-23.5947 Z0.1961 F22.
G1 X35.3146 Y-23.2778 Z0.2130
G1 X35.3146 Y-22.9605 Z0.2215
G1 X35.3146 Y-22.6431 Z0.2216
G1 X35.3146 Y-22.3258 Z0.2133
G1 X35.3146 Y-22.0089 Z0.1966
G1 X35.3146 Y-21.6925 Z0.1715
G0 Z0.3749
G0 X35.3146 Y-21.6925 
G0 Z0.3749
G0 X35.3146 Y-23.7409 
G1 X35.3146 Y-23.7409 Z0.1871 F21.
G1 X35.3146 Y-23.8057 Z0.1757
G1 X35.3146 Y-23.9111 Z0.1571
G1 X35.3146 Y-23.5947 Z0.1824 F22.
G1 X35.3146 Y-23.2778 Z0.1993
G1 X35.3146 Y-22.9605 Z0.2078
G1 X35.3146 Y-22.6431 Z0.2079
G1 X35.3146 Y-22.3258 Z0.1996
G1 X35.3146 Y-22.0089 Z0.1829
G1 X35.3146 Y-21.6925 Z0.1578
G0 Z0.3749
G0 X35.3146 Y-21.6925 
G0 Z0.3749
G0 X35.3146 Y-23.7409 
G1 X35.3146 Y-23.7409 Z0.1734 F21.
G1 X35.3146 Y-23.8057 Z0.1620
G1 X35.3146 Y-23.9111 Z0.1434
G1 X35.3146 Y-23.5947 Z0.1687 F22.
G1 X35.3146 Y-23.2778 Z0.1856
G1 X35.3146 Y-22.9605 Z0.1940
G1 X35.3146 Y-22.6431 Z0.1941
G1 X35.3146 Y-22.3258 Z0.1858
G1 X35.3146 Y-22.0089 Z0.1692
G1 X35.3146 Y-21.6925 Z0.1441
G0 Z0.3749
G0 X35.3146 Y-21.6925 
G0 Z0.3749
G0 X35.3146 Y-23.7409 
G1 X35.3146 Y-23.7409 Z0.1597 F21.
G1 X35.3146 Y-23.8057 Z0.1483
G1 X35.3146 Y-23.9111 Z0.1297
G1 X35.3146 Y-23.5947 Z0.1550 F22.
G1 X35.3146 Y-23.2778 Z0.1718
G1 X35.3146 Y-22.9605 Z0.1803
G1 X35.3146 Y-22.6431 Z0.1804
G1 X35.3146 Y-22.3258 Z0.1721
G1 X35.3146 Y-22.0089 Z0.1554
G1 X35.3146 Y-21.6925 Z0.1304
G0 Z0.3749
G0 X35.3146 Y-21.6925 
G0 Z0.3749
G0 X35.3146 Y-23.7409 
G1 X35.3146 Y-23.7409 Z0.1460 F21.
G1 X35.3146 Y-23.8057 Z0.1346
G1 X35.3146 Y-23.9111 Z0.1160
G1 X35.3146 Y-23.5947 Z0.1413 F22.
G1 X35.3146 Y-23.2778 Z0.1581
G1 X35.3146 Y-22.9605 Z0.1666
G1 X35.3146 Y-22.6431 Z0.1667
G1 X35.3146 Y-22.3258 Z0.1584
G1 X35.3146 Y-22.0089 Z0.1417
G1 X35.3146 Y-21.6925 Z0.1167
G0 Z0.3749
G0 X35.3146 Y-21.6925 
G0 Z0.3749
G0 X35.3146 Y-23.7409 
G1 X35.3146 Y-23.7409 Z0.1323 F21.
G1 X35.3146 Y-23.8057 Z0.1209
G1 X35.3146 Y-23.9111 Z0.1023
G1 X35.3146 Y-23.5947 Z0.1275 F22.
G1 X35.3146 Y-23.2778 Z0.1444
G1 X35.3146 Y-22.9605 Z0.1529
G1 X35.3146 Y-22.6431 Z0.1530
G1 X35.3146 Y-22.3258 Z0.1447
G1 X35.3146 Y-22.0089 Z0.1280
G1 X35.3146 Y-21.6925 Z0.1030
G0 Z0.3402
G0 X35.3146 Y-21.6925 
G0 Z0.3402
G0 X36.2692 Y-23.7343 
G1 X36.2692 Y-23.7343 Z0.2152 F21.
G1 X36.2692 Y-23.7997 Z0.2037
G1 X36.2692 Y-23.9045 Z0.1852
G1 X36.2692 Y-23.5900 Z0.2101 F22.
G1 X36.2692 Y-23.2749 Z0.2268
G1 X36.2692 Y-22.9595 Z0.2352
G1 X36.2692 Y-22.6441 Z0.2353
G1 X36.2692 Y-22.3287 Z0.2271
G1 X36.2692 Y-22.0136 Z0.2106
G1 X36.2692 Y-21.6991 Z0.1858
G0 Z0.3749
G0 X36.2692 Y-21.6991 
G0 Z0.3749
G0 X36.2692 Y-23.7343 
G1 X36.2692 Y-23.7343 Z0.2015 F21.
G1 X36.2692 Y-23.7997 Z0.1899
G1 X36.2692 Y-23.9045 Z0.1715
G1 X36.2692 Y-23.5900 Z0.1964 F22.
G1 X36.2692 Y-23.2749 Z0.2131
G1 X36.2692 Y-22.9595 Z0.2215
G1 X36.2692 Y-22.6441 Z0.2216
G1 X36.2692 Y-22.3287 Z0.2134
G1 X36.2692 Y-22.0136 Z0.1969
G1 X36.2692 Y-21.6991 Z0.1721
G0 Z0.3749
G0 X36.2692 Y-21.6991 
G0 Z0.3749
G0 X36.2692 Y-23.7343 
G1 X36.2692 Y-23.7343 Z0.1878 F21.
G1 X36.2692 Y-23.7997 Z0.1762
G1 X36.2692 Y-23.9045 Z0.1578
G1 X36.2692 Y-23.5900 Z0.1827 F22.
G1 X36.2692 Y-23.2749 Z0.1994
G1 X36.2692 Y-22.9595 Z0.2078
G1 X36.2692 Y-22.6441 Z0.2079
G1 X36.2692 Y-22.3287 Z0.1997
G1 X36.2692 Y-22.0136 Z0.1832
G1 X36.2692 Y-21.6991 Z0.1584
G0 Z0.3749
G0 X36.2692 Y-21.6991 
G0 Z0.3749
G0 X36.2692 Y-23.7343 
G1 X36.2692 Y-23.7343 Z0.1740 F21.
G1 X36.2692 Y-23.7997 Z0.1625
G1 X36.2692 Y-23.9045 Z0.1440
G1 X36.2692 Y-23.5900 Z0.1690 F22.
G1 X36.2692 Y-23.2749 Z0.1857
G1 X36.2692 Y-22.9595 Z0.1941
G1 X36.2692 Y-22.6441 Z0.1942
G1 X36.2692 Y-22.3287 Z0.1860
G1 X36.2692 Y-22.0136 Z0.1695
G1 X36.2692 Y-21.6991 Z0.1447
G0 Z0.3749
G0 X36.2692 Y-21.6991 
G0 Z0.3749
G0 X36.2692 Y-23.7343 
G1 X36.2692 Y-23.7343 Z0.1603 F21.
G1 X36.2692 Y-23.7997 Z0.1488
G1 X36.2692 Y-23.9045 Z0.1303
G1 X36.2692 Y-23.5900 Z0.1553 F22.
G1 X36.2692 Y-23.2749 Z0.1720
G1 X36.2692 Y-22.9595 Z0.1803
G1 X36.2692 Y-22.6441 Z0.1804
G1 X36.2692 Y-22.3287 Z0.1722
G1 X36.2692 Y-22.0136 Z0.1558
G1 X36.2692 Y-21.6991 Z0.1310
G0 Z0.3749
G0 X36.2692 Y-21.6991 
G0 Z0.3749
G0 X36.2692 Y-23.7343 
G1 X36.2692 Y-23.7343 Z0.1466 F21.
G1 X36.2692 Y-23.7997 Z0.1351
G1 X36.2692 Y-23.9045 Z0.1166
G1 X36.2692 Y-23.5900 Z0.1416 F22.
G1 X36.2692 Y-23.2749 Z0.1582
G1 X36.2692 Y-22.9595 Z0.1666
G1 X36.2692 Y-22.6441 Z0.1667
G1 X36.2692 Y-22.3287 Z0.1585
G1 X36.2692 Y-22.0136 Z0.1420
G1 X36.2692 Y-21.6991 Z0.1173
G0 Z0.3749
G0 X36.2692 Y-21.6991 
G0 Z0.3749
G0 X36.2692 Y-23.7343 
G1 X36.2692 Y-23.7343 Z0.1329 F21.
G1 X36.2692 Y-23.7997 Z0.1214
G1 X36.2692 Y-23.9045 Z0.1029
G1 X36.2692 Y-23.5900 Z0.1278 F22.
G1 X36.2692 Y-23.2749 Z0.1445
G1 X36.2692 Y-22.9595 Z0.1529
G1 X36.2692 Y-22.6441 Z0.1530
G1 X36.2692 Y-22.3287 Z0.1448
G1 X36.2692 Y-22.0136 Z0.1283
G1 X36.2692 Y-21.6991 Z0.1036
G0 Z0.3406
G0 X36.2692 Y-21.6991 
G0 Z0.3406
G0 X37.2806 Y-23.7273 
G1 X37.2806 Y-23.7273 Z0.2158 F21.
G1 X37.2806 Y-23.7934 Z0.2042
G1 X37.2806 Y-23.8974 Z0.1858
G1 X37.2806 Y-23.5849 Z0.2105 F22.
G1 X37.2806 Y-23.2719 Z0.2269
G1 X37.2806 Y-22.9585 Z0.2352
G1 X37.2806 Y-22.6451 Z0.2353
G1 X37.2806 Y-22.3317 Z0.2272
G1 X37.2806 Y-22.0186 Z0.2109
G1 X37.2806 Y-21.7061 Z0.1865
G0 Z0.3749
G0 X37.2806 Y-21.7061 
G0 Z0.3749
G0 X37.2806 Y-23.7273 
G1 X37.2806 Y-23.7273 Z0.2021 F21.
G1 X37.2806 Y-23.7934 Z0.1905
G1 X37.2806 Y-23.8974 Z0.1721
G1 X37.2806 Y-23.5849 Z0.1968 F22.
G1 X37.2806 Y-23.2719 Z0.2132
G1 X37.2806 Y-22.9585 Z0.2215
G1 X37.2806 Y-22.6451 Z0.2216
G1 X37.2806 Y-22.3317 Z0.2135
G1 X37.2806 Y-22.0186 Z0.1972
G1 X37.2806 Y-21.7061 Z0.1728
G0 Z0.3749
G0 X37.2806 Y-21.7061 
G0 Z0.3749
G0 X37.2806 Y-23.7273 
G1 X37.2806 Y-23.7273 Z0.1884 F21.
G1 X37.2806 Y-23.7934 Z0.1768
G1 X37.2806 Y-23.8974 Z0.1584
G1 X37.2806 Y-23.5849 Z0.1830 F22.
G1 X37.2806 Y-23.2719 Z0.1995
G1 X37.2806 Y-22.9585 Z0.2078
G1 X37.2806 Y-22.6451 Z0.2079
G1 X37.2806 Y-22.3317 Z0.1998
G1 X37.2806 Y-22.0186 Z0.1835
G1 X37.2806 Y-21.7061 Z0.1591
G0 Z0.3749
G0 X37.2806 Y-21.7061 
G0 Z0.3749
G0 X37.2806 Y-23.7273 
G1 X37.2806 Y-23.7273 Z0.1747 F21.
G1 X37.2806 Y-23.7934 Z0.1630
G1 X37.2806 Y-23.8974 Z0.1447
G1 X37.2806 Y-23.5849 Z0.1693 F22.
G1 X37.2806 Y-23.2719 Z0.1858
G1 X37.2806 Y-22.9585 Z0.1941
G1 X37.2806 Y-22.6451 Z0.1942
G1 X37.2806 Y-22.3317 Z0.1861
G1 X37.2806 Y-22.0186 Z0.1698
G1 X37.2806 Y-21.7061 Z0.1453
G0 Z0.3749
G0 X37.2806 Y-21.7061 
G0 Z0.3749
G0 X37.2806 Y-23.7273 
G1 X37.2806 Y-23.7273 Z0.1610 F21.
G1 X37.2806 Y-23.7934 Z0.1493
G1 X37.2806 Y-23.8974 Z0.1310
G1 X37.2806 Y-23.5849 Z0.1556 F22.
G1 X37.2806 Y-23.2719 Z0.1721
G1 X37.2806 Y-22.9585 Z0.1804
G1 X37.2806 Y-22.6451 Z0.1805
G1 X37.2806 Y-22.3317 Z0.1724
G1 X37.2806 Y-22.0186 Z0.1561
G1 X37.2806 Y-21.7061 Z0.1316
G0 Z0.3749
G0 X37.2806 Y-21.7061 
G0 Z0.3749
G0 X37.2806 Y-23.7273 
G1 X37.2806 Y-23.7273 Z0.1473 F21.
G1 X37.2806 Y-23.7934 Z0.1356
G1 X37.2806 Y-23.8974 Z0.1173
G1 X37.2806 Y-23.5849 Z0.1419 F22.
G1 X37.2806 Y-23.2719 Z0.1584
G1 X37.2806 Y-22.9585 Z0.1666
G1 X37.2806 Y-22.6451 Z0.1667
G1 X37.2806 Y-22.3317 Z0.1586
G1 X37.2806 Y-22.0186 Z0.1424
G1 X37.2806 Y-21.7061 Z0.1179
G0 Z0.3749
G0 X37.2806 Y-21.7061 
G0 Z0.3749
G0 X37.2806 Y-23.7273 
G1 X37.2806 Y-23.7273 Z0.1335 F21.
G1 X37.2806 Y-23.7934 Z0.1219
G1 X37.2806 Y-23.8974 Z0.1035
G1 X37.2806 Y-23.5849 Z0.1282 F22.
G1 X37.2806 Y-23.2719 Z0.1446
G1 X37.2806 Y-22.9585 Z0.1529
G1 X37.2806 Y-22.6451 Z0.1530
G1 X37.2806 Y-22.3317 Z0.1449
G1 X37.2806 Y-22.0186 Z0.1287
G1 X37.2806 Y-21.7061 Z0.1042
G0 Z0.3411
G0 X37.2806 Y-21.7061 
G0 Z0.3411
G0 X38.3521 Y-23.7199 
G1 X38.3521 Y-23.7199 Z0.2165 F21.
G1 X38.3521 Y-23.7866 Z0.2047
G1 X38.3521 Y-23.8900 Z0.1865
G1 X38.3521 Y-23.5796 Z0.2108 F22.
G1 X38.3521 Y-23.2687 Z0.2271
G1 X38.3521 Y-22.9575 Z0.2352
G1 X38.3521 Y-22.6461 Z0.2353
G1 X38.3521 Y-22.3349 Z0.2273
G1 X38.3521 Y-22.0240 Z0.2113
G1 X38.3521 Y-21.7135 Z0.1872
G0 Z0.3749
G0 X38.3521 Y-21.7135 
G0 Z0.3749
G0 X38.3521 Y-23.7199 
G1 X38.3521 Y-23.7199 Z0.2028 F21.
G1 X38.3521 Y-23.7866 Z0.1910
G1 X38.3521 Y-23.8900 Z0.1728
G1 X38.3521 Y-23.5796 Z0.1971 F22.
G1 X38.3521 Y-23.2687 Z0.2133
G1 X38.3521 Y-22.9575 Z0.2215
G1 X38.3521 Y-22.6461 Z0.2216
G1 X38.3521 Y-22.3349 Z0.2136
G1 X38.3521 Y-22.0240 Z0.1976
G1 X38.3521 Y-21.7135 Z0.1735
G0 Z0.3749
G0 X38.3521 Y-21.7135 
G0 Z0.3749
G0 X38.3521 Y-23.7199 
G1 X38.3521 Y-23.7199 Z0.1891 F21.
G1 X38.3521 Y-23.7866 Z0.1773
G1 X38.3521 Y-23.8900 Z0.1591
G1 X38.3521 Y-23.5796 Z0.1834 F22.
G1 X38.3521 Y-23.2687 Z0.1996
G1 X38.3521 Y-22.9575 Z0.2078
G1 X38.3521 Y-22.6461 Z0.2079
G1 X38.3521 Y-22.3349 Z0.1999
G1 X38.3521 Y-22.0240 Z0.1839
G1 X38.3521 Y-21.7135 Z0.1597
G0 Z0.3749
G0 X38.3521 Y-21.7135 
G0 Z0.3749
G0 X38.3521 Y-23.7199 
G1 X38.3521 Y-23.7199 Z0.1754 F21.
G1 X38.3521 Y-23.7866 Z0.1636
G1 X38.3521 Y-23.8900 Z0.1454
G1 X38.3521 Y-23.5796 Z0.1697 F22.
G1 X38.3521 Y-23.2687 Z0.1859
G1 X38.3521 Y-22.9575 Z0.1941
G1 X38.3521 Y-22.6461 Z0.1942
G1 X38.3521 Y-22.3349 Z0.1862
G1 X38.3521 Y-22.0240 Z0.1701
G1 X38.3521 Y-21.7135 Z0.1460
G0 Z0.3749
G0 X38.3521 Y-21.7135 
G0 Z0.3749
G0 X38.3521 Y-23.7199 
G1 X38.3521 Y-23.7199 Z0.1617 F21.
G1 X38.3521 Y-23.7866 Z0.1499
G1 X38.3521 Y-23.8900 Z0.1317
G1 X38.3521 Y-23.5796 Z0.1560 F22.
G1 X38.3521 Y-23.2687 Z0.1722
G1 X38.3521 Y-22.9575 Z0.1804
G1 X38.3521 Y-22.6461 Z0.1805
G1 X38.3521 Y-22.3349 Z0.1725
G1 X38.3521 Y-22.0240 Z0.1564
G1 X38.3521 Y-21.7135 Z0.1323
G0 Z0.3749
G0 X38.3521 Y-21.7135 
G0 Z0.3749
G0 X38.3521 Y-23.7199 
G1 X38.3521 Y-23.7199 Z0.1479 F21.
G1 X38.3521 Y-23.7866 Z0.1362
G1 X38.3521 Y-23.8900 Z0.1179
G1 X38.3521 Y-23.5796 Z0.1422 F22.
G1 X38.3521 Y-23.2687 Z0.1585
G1 X38.3521 Y-22.9575 Z0.1667
G1 X38.3521 Y-22.6461 Z0.1668
G1 X38.3521 Y-22.3349 Z0.1588
G1 X38.3521 Y-22.0240 Z0.1427
G1 X38.3521 Y-21.7135 Z0.1186
G0 Z0.3749
G0 X38.3521 Y-21.7135 
G0 Z0.3749
G0 X38.3521 Y-23.7199 
G1 X38.3521 Y-23.7199 Z0.1342 F21.
G1 X38.3521 Y-23.7866 Z0.1225
G1 X38.3521 Y-23.8900 Z0.1042
G1 X38.3521 Y-23.5796 Z0.1285 F22.
G1 X38.3521 Y-23.2687 Z0.1448
G1 X38.3521 Y-22.9575 Z0.1529
G1 X38.3521 Y-22.6461 Z0.1530
G1 X38.3521 Y-22.3349 Z0.1451
G1 X38.3521 Y-22.0240 Z0.1290
G1 X38.3521 Y-21.7135 Z0.1049
G0 Z0.3416
G0 X38.3521 Y-21.7135 
G0 Z0.3416
G0 X39.4874 Y-23.7120 
G1 X39.4874 Y-23.7120 Z0.2172 F21.
G1 X39.4874 Y-23.7744 Z0.2062
G1 X39.4874 Y-23.8822 Z0.1872
G1 X39.4874 Y-23.5226 Z0.2144 F22.
G1 X39.4874 Y-23.1624 Z0.2308
G1 X39.4874 Y-22.8018 Z0.2363
G1 X39.4874 Y-22.4412 Z0.2310
G1 X39.4874 Y-22.0810 Z0.2148
G1 X39.4874 Y-21.7214 Z0.1879
G0 Z0.3750
G0 X39.4874 Y-21.7214 
G0 Z0.3750
G0 X39.4874 Y-23.7120 
G1 X39.4874 Y-23.7120 Z0.2035 F21.
G1 X39.4874 Y-23.7744 Z0.1925
G1 X39.4874 Y-23.8822 Z0.1735
G1 X39.4874 Y-23.5226 Z0.2007 F22.
G1 X39.4874 Y-23.1624 Z0.2170
G1 X39.4874 Y-22.8018 Z0.2226
G1 X39.4874 Y-22.4412 Z0.2173
G1 X39.4874 Y-22.0810 Z0.2011
G1 X39.4874 Y-21.7214 Z0.1742
G0 Z0.3750
G0 X39.4874 Y-21.7214 
G0 Z0.3750
G0 X39.4874 Y-23.7120 
G1 X39.4874 Y-23.7120 Z0.1898 F21.
G1 X39.4874 Y-23.7744 Z0.1788
G1 X39.4874 Y-23.8822 Z0.1598
G1 X39.4874 Y-23.5226 Z0.1870 F22.
G1 X39.4874 Y-23.1624 Z0.2033
G1 X39.4874 Y-22.8018 Z0.2089
G1 X39.4874 Y-22.4412 Z0.2035
G1 X39.4874 Y-22.0810 Z0.1874
G1 X39.4874 Y-21.7214 Z0.1604
G0 Z0.3750
G0 X39.4874 Y-21.7214 
G0 Z0.3750
G0 X39.4874 Y-23.7120 
G1 X39.4874 Y-23.7120 Z0.1761 F21.
G1 X39.4874 Y-23.7744 Z0.1651
G1 X39.4874 Y-23.8822 Z0.1461
G1 X39.4874 Y-23.5226 Z0.1733 F22.
G1 X39.4874 Y-23.1624 Z0.1896
G1 X39.4874 Y-22.8018 Z0.1951
G1 X39.4874 Y-22.4412 Z0.1898
G1 X39.4874 Y-22.0810 Z0.1737
G1 X39.4874 Y-21.7214 Z0.1467
G0 Z0.3750
G0 X39.4874 Y-21.7214 
G0 Z0.3750
G0 X39.4874 Y-23.7120 
G1 X39.4874 Y-23.7120 Z0.1624 F21.
G1 X39.4874 Y-23.7744 Z0.1514
G1 X39.4874 Y-23.8822 Z0.1324
G1 X39.4874 Y-23.5226 Z0.1595 F22.
G1 X39.4874 Y-23.1624 Z0.1759
G1 X39.4874 Y-22.8018 Z0.1814
G1 X39.4874 Y-22.4412 Z0.1761
G1 X39.4874 Y-22.0810 Z0.1600
G1 X39.4874 Y-21.7214 Z0.1330
G0 Z0.3750
G0 X39.4874 Y-21.7214 
G0 Z0.3750
G0 X39.4874 Y-23.7120 
G1 X39.4874 Y-23.7120 Z0.1487 F21.
G1 X39.4874 Y-23.7744 Z0.1377
G1 X39.4874 Y-23.8822 Z0.1187
G1 X39.4874 Y-23.5226 Z0.1458 F22.
G1 X39.4874 Y-23.1624 Z0.1622
G1 X39.4874 Y-22.8018 Z0.1677
G1 X39.4874 Y-22.4412 Z0.1624
G1 X39.4874 Y-22.0810 Z0.1463
G1 X39.4874 Y-21.7214 Z0.1193
G0 Z0.3750
G0 X39.4874 Y-21.7214 
G0 Z0.3750
G0 X39.4874 Y-23.7120 
G1 X39.4874 Y-23.7120 Z0.1349 F21.
G1 X39.4874 Y-23.7744 Z0.1239
G1 X39.4874 Y-23.8822 Z0.1049
G1 X39.4874 Y-23.5226 Z0.1321 F22.
G1 X39.4874 Y-23.1624 Z0.1485
G1 X39.4874 Y-22.8018 Z0.1540
G1 X39.4874 Y-22.4412 Z0.1487
G1 X39.4874 Y-22.0810 Z0.1325
G1 X39.4874 Y-21.7214 Z0.1056
G0 Z0.3421
G0 X39.4874 Y-21.7214 
G0 Z0.3421
G0 X40.6901 Y-23.7037 
G1 X40.6901 Y-23.7037 Z0.2180 F21.
G1 X40.6901 Y-23.7669 Z0.2068
G1 X40.6901 Y-23.8738 Z0.1880
G1 X40.6901 Y-23.5170 Z0.2147 F22.
G1 X40.6901 Y-23.1596 Z0.2308
G1 X40.6901 Y-22.8018 Z0.2363
G1 X40.6901 Y-22.4440 Z0.2311
G1 X40.6901 Y-22.0866 Z0.2152
G1 X40.6901 Y-21.7297 Z0.1886
G0 Z0.3750
G0 X40.6901 Y-21.7297 
G0 Z0.3750
G0 X40.6901 Y-23.7037 
G1 X40.6901 Y-23.7037 Z0.2043 F21.
G1 X40.6901 Y-23.7669 Z0.1931
G1 X40.6901 Y-23.8738 Z0.1743
G1 X40.6901 Y-23.5170 Z0.2010 F22.
G1 X40.6901 Y-23.1596 Z0.2171
G1 X40.6901 Y-22.8018 Z0.2226
G1 X40.6901 Y-22.4440 Z0.2173
G1 X40.6901 Y-22.0866 Z0.2015
G1 X40.6901 Y-21.7297 Z0.1749
G0 Z0.3750
G0 X40.6901 Y-21.7297 
G0 Z0.3750
G0 X40.6901 Y-23.7037 
G1 X40.6901 Y-23.7037 Z0.1906 F21.
G1 X40.6901 Y-23.7669 Z0.1794
G1 X40.6901 Y-23.8738 Z0.1606
G1 X40.6901 Y-23.5170 Z0.1873 F22.
G1 X40.6901 Y-23.1596 Z0.2034
G1 X40.6901 Y-22.8018 Z0.2089
G1 X40.6901 Y-22.4440 Z0.2036
G1 X40.6901 Y-22.0866 Z0.1877
G1 X40.6901 Y-21.7297 Z0.1612
G0 Z0.3750
G0 X40.6901 Y-21.7297 
G0 Z0.3750
G0 X40.6901 Y-23.7037 
G1 X40.6901 Y-23.7037 Z0.1768 F21.
G1 X40.6901 Y-23.7669 Z0.1657
G1 X40.6901 Y-23.8738 Z0.1468
G1 X40.6901 Y-23.5170 Z0.1736 F22.
G1 X40.6901 Y-23.1596 Z0.1897
G1 X40.6901 Y-22.8018 Z0.1951
G1 X40.6901 Y-22.4440 Z0.1899
G1 X40.6901 Y-22.0866 Z0.1740
G1 X40.6901 Y-21.7297 Z0.1475
G0 Z0.3750
G0 X40.6901 Y-21.7297 
G0 Z0.3750
G0 X40.6901 Y-23.7037 
G1 X40.6901 Y-23.7037 Z0.1631 F21.
G1 X40.6901 Y-23.7669 Z0.1520
G1 X40.6901 Y-23.8738 Z0.1331
G1 X40.6901 Y-23.5170 Z0.1599 F22.
G1 X40.6901 Y-23.1596 Z0.1760
G1 X40.6901 Y-22.8018 Z0.1814
G1 X40.6901 Y-22.4440 Z0.1762
G1 X40.6901 Y-22.0866 Z0.1603
G1 X40.6901 Y-21.7297 Z0.1338
G0 Z0.3750
G0 X40.6901 Y-21.7297 
G0 Z0.3750
G0 X40.6901 Y-23.7037 
G1 X40.6901 Y-23.7037 Z0.1494 F21.
G1 X40.6901 Y-23.7669 Z0.1383
G1 X40.6901 Y-23.8738 Z0.1194
G1 X40.6901 Y-23.5170 Z0.1462 F22.
G1 X40.6901 Y-23.1596 Z0.1623
G1 X40.6901 Y-22.8018 Z0.1677
G1 X40.6901 Y-22.4440 Z0.1625
G1 X40.6901 Y-22.0866 Z0.1466
G1 X40.6901 Y-21.7297 Z0.1201
G0 Z0.3750
G0 X40.6901 Y-21.7297 
G0 Z0.3750
G0 X40.6901 Y-23.7037 
G1 X40.6901 Y-23.7037 Z0.1357 F21.
G1 X40.6901 Y-23.7669 Z0.1246
G1 X40.6901 Y-23.8738 Z0.1057
G1 X40.6901 Y-23.5170 Z0.1324 F22.
G1 X40.6901 Y-23.1596 Z0.1486
G1 X40.6901 Y-22.8018 Z0.1540
G1 X40.6901 Y-22.4440 Z0.1488
G1 X40.6901 Y-22.0866 Z0.1329
G1 X40.6901 Y-21.7297 Z0.1063
G0 Z0.3427
G0 X40.6901 Y-21.7297 
G0 Z0.3427
G0 X41.9644 Y-23.6949 
G1 X41.9644 Y-23.6949 Z0.2188 F21.
G1 X41.9644 Y-23.7589 Z0.2075
G1 X41.9644 Y-23.8650 Z0.1888
G1 X41.9644 Y-23.5111 Z0.2151 F22.
G1 X41.9644 Y-23.1566 Z0.2309
G1 X41.9644 Y-22.8018 Z0.2363
G1 X41.9644 Y-22.4470 Z0.2311
G1 X41.9644 Y-22.0925 Z0.2155
G1 X41.9644 Y-21.7386 Z0.1894
G0 Z0.3750
G0 X41.9644 Y-21.7386 
G0 Z0.3750
G0 X41.9644 Y-23.6949 
G1 X41.9644 Y-23.6949 Z0.2051 F21.
G1 X41.9644 Y-23.7589 Z0.1938
G1 X41.9644 Y-23.8650 Z0.1751
G1 X41.9644 Y-23.5111 Z0.2014 F22.
G1 X41.9644 Y-23.1566 Z0.2172
G1 X41.9644 Y-22.8018 Z0.2226
G1 X41.9644 Y-22.4470 Z0.2174
G1 X41.9644 Y-22.0925 Z0.2018
G1 X41.9644 Y-21.7386 Z0.1757
G0 Z0.3750
G0 X41.9644 Y-21.7386 
G0 Z0.3750
G0 X41.9644 Y-23.6949 
G1 X41.9644 Y-23.6949 Z0.1913 F21.
G1 X41.9644 Y-23.7589 Z0.1800
G1 X41.9644 Y-23.8650 Z0.1613
G1 X41.9644 Y-23.5111 Z0.1877 F22.
G1 X41.9644 Y-23.1566 Z0.2035
G1 X41.9644 Y-22.8018 Z0.2089
G1 X41.9644 Y-22.4470 Z0.2037
G1 X41.9644 Y-22.0925 Z0.1881
G1 X41.9644 Y-21.7386 Z0.1620
G0 Z0.3750
G0 X41.9644 Y-21.7386 
G0 Z0.3750
G0 X41.9644 Y-23.6949 
G1 X41.9644 Y-23.6949 Z0.1776 F21.
G1 X41.9644 Y-23.7589 Z0.1663
G1 X41.9644 Y-23.8650 Z0.1476
G1 X41.9644 Y-23.5111 Z0.1739 F22.
G1 X41.9644 Y-23.1566 Z0.1898
G1 X41.9644 Y-22.8018 Z0.1951
G1 X41.9644 Y-22.4470 Z0.1900
G1 X41.9644 Y-22.0925 Z0.1744
G1 X41.9644 Y-21.7386 Z0.1483
G0 Z0.3750
G0 X41.9644 Y-21.7386 
G0 Z0.3750
G0 X41.9644 Y-23.6949 
G1 X41.9644 Y-23.6949 Z0.1639 F21.
G1 X41.9644 Y-23.7589 Z0.1526
G1 X41.9644 Y-23.8650 Z0.1339
G1 X41.9644 Y-23.5111 Z0.1602 F22.
G1 X41.9644 Y-23.1566 Z0.1761
G1 X41.9644 Y-22.8018 Z0.1814
G1 X41.9644 Y-22.4470 Z0.1763
G1 X41.9644 Y-22.0925 Z0.1607
G1 X41.9644 Y-21.7386 Z0.1346
G0 Z0.3750
G0 X41.9644 Y-21.7386 
G0 Z0.3750
G0 X41.9644 Y-23.6949 
G1 X41.9644 Y-23.6949 Z0.1502 F21.
G1 X41.9644 Y-23.7589 Z0.1389
G1 X41.9644 Y-23.8650 Z0.1202
G1 X41.9644 Y-23.5111 Z0.1465 F22.
G1 X41.9644 Y-23.1566 Z0.1624
G1 X41.9644 Y-22.8018 Z0.1677
G1 X41.9644 Y-22.4470 Z0.1626
G1 X41.9644 Y-22.0925 Z0.1469
G1 X41.9644 Y-21.7386 Z0.1208
G0 Z0.3750
G0 X41.9644 Y-21.7386 
G0 Z0.3750
G0 X41.9644 Y-23.6949 
G1 X41.9644 Y-23.6949 Z0.1365 F21.
G1 X41.9644 Y-23.7589 Z0.1252
G1 X41.9644 Y-23.8650 Z0.1065
G1 X41.9644 Y-23.5111 Z0.1328 F22.
G1 X41.9644 Y-23.1566 Z0.1486
G1 X41.9644 Y-22.8018 Z0.1540
G1 X41.9644 Y-22.4470 Z0.1489
G1 X41.9644 Y-22.0925 Z0.1332
G1 X41.9644 Y-21.7386 Z0.1071
G0 Z0.3434
G0 X41.9644 Y-21.7386 
G0 Z0.3434
G0 X43.3144 Y-23.6855 
G1 X43.3144 Y-23.6855 Z0.2196 F21.
G1 X43.3144 Y-23.7505 Z0.2081
G1 X43.3144 Y-23.8557 Z0.1896
G1 X43.3144 Y-23.5049 Z0.2155 F22.
G1 X43.3144 Y-23.1535 Z0.2310
G1 X43.3144 Y-22.8018 Z0.2363
G1 X43.3144 Y-22.4501 Z0.2312
G1 X43.3144 Y-22.0987 Z0.2159
G1 X43.3144 Y-21.7479 Z0.1902
G0 Z0.3750
G0 X43.3144 Y-21.7479 
G0 Z0.3750
G0 X43.3144 Y-23.6855 
G1 X43.3144 Y-23.6855 Z0.2059 F21.
G1 X43.3144 Y-23.7505 Z0.1944
G1 X43.3144 Y-23.8557 Z0.1759
G1 X43.3144 Y-23.5049 Z0.2017 F22.
G1 X43.3144 Y-23.1535 Z0.2173
G1 X43.3144 Y-22.8018 Z0.2226
G1 X43.3144 Y-22.4501 Z0.2175
G1 X43.3144 Y-22.0987 Z0.2022
G1 X43.3144 Y-21.7479 Z0.1765
G0 Z0.3750
G0 X43.3144 Y-21.7479 
G0 Z0.3750
G0 X43.3144 Y-23.6855 
G1 X43.3144 Y-23.6855 Z0.1922 F21.
G1 X43.3144 Y-23.7505 Z0.1807
G1 X43.3144 Y-23.8557 Z0.1622
G1 X43.3144 Y-23.5049 Z0.1880 F22.
G1 X43.3144 Y-23.1535 Z0.2036
G1 X43.3144 Y-22.8018 Z0.2089
G1 X43.3144 Y-22.4501 Z0.2038
G1 X43.3144 Y-22.0987 Z0.1885
G1 X43.3144 Y-21.7479 Z0.1628
G0 Z0.3750
G0 X43.3144 Y-21.7479 
G0 Z0.3750
G0 X43.3144 Y-23.6855 
G1 X43.3144 Y-23.6855 Z0.1785 F21.
G1 X43.3144 Y-23.7505 Z0.1670
G1 X43.3144 Y-23.8557 Z0.1485
G1 X43.3144 Y-23.5049 Z0.1743 F22.
G1 X43.3144 Y-23.1535 Z0.1899
G1 X43.3144 Y-22.8018 Z0.1951
G1 X43.3144 Y-22.4501 Z0.1901
G1 X43.3144 Y-22.0987 Z0.1747
G1 X43.3144 Y-21.7479 Z0.1491
G0 Z0.3750
G0 X43.3144 Y-21.7479 
G0 Z0.3750
G0 X43.3144 Y-23.6855 
G1 X43.3144 Y-23.6855 Z0.1647 F21.
G1 X43.3144 Y-23.7505 Z0.1533
G1 X43.3144 Y-23.8557 Z0.1347
G1 X43.3144 Y-23.5049 Z0.1606 F22.
G1 X43.3144 Y-23.1535 Z0.1762
G1 X43.3144 Y-22.8018 Z0.1814
G1 X43.3144 Y-22.4501 Z0.1764
G1 X43.3144 Y-22.0987 Z0.1610
G1 X43.3144 Y-21.7479 Z0.1354
G0 Z0.3750
G0 X43.3144 Y-21.7479 
G0 Z0.3750
G0 X43.3144 Y-23.6855 
G1 X43.3144 Y-23.6855 Z0.1510 F21.
G1 X43.3144 Y-23.7505 Z0.1396
G1 X43.3144 Y-23.8557 Z0.1210
G1 X43.3144 Y-23.5049 Z0.1469 F22.
G1 X43.3144 Y-23.1535 Z0.1625
G1 X43.3144 Y-22.8018 Z0.1677
G1 X43.3144 Y-22.4501 Z0.1627
G1 X43.3144 Y-22.0987 Z0.1473
G1 X43.3144 Y-21.7479 Z0.1217
G0 Z0.3750
G0 X43.3144 Y-21.7479 
G0 Z0.3750
G0 X43.3144 Y-23.6855 
G1 X43.3144 Y-23.6855 Z0.1373 F21.
G1 X43.3144 Y-23.7505 Z0.1259
G1 X43.3144 Y-23.8557 Z0.1073
G1 X43.3144 Y-23.5049 Z0.1332 F22.
G1 X43.3144 Y-23.1535 Z0.1487
G1 X43.3144 Y-22.8018 Z0.1540
G1 X43.3144 Y-22.4501 Z0.1490
G1 X43.3144 Y-22.0987 Z0.1336
G1 X43.3144 Y-21.7479 Z0.1080
G0 Z0.3440
G0 X43.3144 Y-21.7479 
G0 Z0.3440
G0 X44.7448 Y-23.6756 
G1 X44.7448 Y-23.6756 Z0.2205 F21.
G1 X44.7448 Y-23.7416 Z0.2088
G1 X44.7448 Y-23.8457 Z0.1905
G1 X44.7448 Y-23.4983 Z0.2158 F22.
G1 X44.7448 Y-23.1502 Z0.2311
G1 X44.7448 Y-22.8018 Z0.2363
G1 X44.7448 Y-22.4534 Z0.2313
G1 X44.7448 Y-22.1053 Z0.2163
G1 X44.7448 Y-21.7578 Z0.1911
G0 Z0.3750
G0 X44.7448 Y-21.7578 
G0 Z0.3750
G0 X44.7448 Y-23.6756 
G1 X44.7448 Y-23.6756 Z0.2068 F21.
G1 X44.7448 Y-23.7416 Z0.1951
G1 X44.7448 Y-23.8457 Z0.1768
G1 X44.7448 Y-23.4983 Z0.2021 F22.
G1 X44.7448 Y-23.1502 Z0.2174
G1 X44.7448 Y-22.8018 Z0.2226
G1 X44.7448 Y-22.4534 Z0.2176
G1 X44.7448 Y-22.1053 Z0.2026
G1 X44.7448 Y-21.7578 Z0.1774
G0 Z0.3750
G0 X44.7448 Y-21.7578 
G0 Z0.3750
G0 X44.7448 Y-23.6756 
G1 X44.7448 Y-23.6756 Z0.1930 F21.
G1 X44.7448 Y-23.7416 Z0.1814
G1 X44.7448 Y-23.8457 Z0.1630
G1 X44.7448 Y-23.4983 Z0.1884 F22.
G1 X44.7448 Y-23.1502 Z0.2037
G1 X44.7448 Y-22.8018 Z0.2089
G1 X44.7448 Y-22.4534 Z0.2039
G1 X44.7448 Y-22.1053 Z0.1888
G1 X44.7448 Y-21.7578 Z0.1637
G0 Z0.3750
G0 X44.7448 Y-21.7578 
G0 Z0.3750
G0 X44.7448 Y-23.6756 
G1 X44.7448 Y-23.6756 Z0.1793 F21.
G1 X44.7448 Y-23.7416 Z0.1677
G1 X44.7448 Y-23.8457 Z0.1493
G1 X44.7448 Y-23.4983 Z0.1747 F22.
G1 X44.7448 Y-23.1502 Z0.1900
G1 X44.7448 Y-22.8018 Z0.1951
G1 X44.7448 Y-22.4534 Z0.1902
G1 X44.7448 Y-22.1053 Z0.1751
G1 X44.7448 Y-21.7578 Z0.1500
G0 Z0.3750
G0 X44.7448 Y-21.7578 
G0 Z0.3750
G0 X44.7448 Y-23.6756 
G1 X44.7448 Y-23.6756 Z0.1656 F21.
G1 X44.7448 Y-23.7416 Z0.1540
G1 X44.7448 Y-23.8457 Z0.1356
G1 X44.7448 Y-23.4983 Z0.1610 F22.
G1 X44.7448 Y-23.1502 Z0.1763
G1 X44.7448 Y-22.8018 Z0.1814
G1 X44.7448 Y-22.4534 Z0.1765
G1 X44.7448 Y-22.1053 Z0.1614
G1 X44.7448 Y-21.7578 Z0.1362
G0 Z0.3750
G0 X44.7448 Y-21.7578 
G0 Z0.3750
G0 X44.7448 Y-23.6756 
G1 X44.7448 Y-23.6756 Z0.1519 F21.
G1 X44.7448 Y-23.7416 Z0.1403
G1 X44.7448 Y-23.8457 Z0.1219
G1 X44.7448 Y-23.4983 Z0.1473 F22.
G1 X44.7448 Y-23.1502 Z0.1626
G1 X44.7448 Y-22.8018 Z0.1677
G1 X44.7448 Y-22.4534 Z0.1628
G1 X44.7448 Y-22.1053 Z0.1477
G1 X44.7448 Y-21.7578 Z0.1225
G0 Z0.3750
G0 X44.7448 Y-21.7578 
G0 Z0.3750
G0 X44.7448 Y-23.6756 
G1 X44.7448 Y-23.6756 Z0.1382 F21.
G1 X44.7448 Y-23.7416 Z0.1266
G1 X44.7448 Y-23.8457 Z0.1082
G1 X44.7448 Y-23.4983 Z0.1336 F22.
G1 X44.7448 Y-23.1502 Z0.1488
G1 X44.7448 Y-22.8018 Z0.1540
G1 X44.7448 Y-22.4534 Z0.1490
G1 X44.7448 Y-22.1053 Z0.1340
G1 X44.7448 Y-21.7578 Z0.1088
G0 Z2.0000
G0 X44.7448 Y-21.7578 
M5
G53 Z
X2Y0
