( MOP:  03-frets-r9PT5-s25PT5-NFrets21-JumboDepth-StandardKerf )
( FILE: G:\Shared drives\AlloyProjectFiles\Customer CAD files\Alloy-Standard-Builds-CAM\Fingerboards-in\03-frets-r9PT5-s25PT5-NFrets21-JumboDepth-StandardKerf.nc)
G90
(  BEGIN TOOL LIST )
(  TOOL 15 - Fretkerf PT025 - DESC: 0.0250 DIA, 2 FLUTE,  CARBIDE MAT )
(  ENDOF TOOL LIST )
( 03-frets-r9PT5-s25PT5-NFrets21-JumboDepth-StandardKerf)
T15
S14000
M3
G0 Z1.0000
G0 X28.3413 Y-23.8935 
G1 X28.3413 Y-23.8935 Z0.1784 F21.
G1 X28.3413 Y-23.9148 Z0.1746
G1 X28.3413 Y-24.0070 Z0.1584
G1 X28.3413 Y-23.7071 Z0.1922 F22.
G1 X28.3413 Y-23.4063 Z0.2165
G1 X28.3413 Y-23.1048 Z0.2312
G1 X28.3413 Y-22.8031 Z0.2363
G1 X28.3413 Y-22.5013 Z0.2318
G1 X28.3413 Y-22.1998 Z0.2178
G1 X28.3413 Y-21.8990 Z0.1941
G1 X28.3413 Y-21.5990 Z0.1610
G0 Z0.3397
G0 X28.3413 Y-21.5990 
G0 Z0.3397
G0 X28.3413 Y-23.8935 
G1 X28.3413 Y-23.8935 Z0.1647 F21.
G1 X28.3413 Y-23.9148 Z0.1609
G1 X28.3413 Y-24.0070 Z0.1447
G1 X28.3413 Y-23.7071 Z0.1785 F22.
G1 X28.3413 Y-23.4063 Z0.2028
G1 X28.3413 Y-23.1048 Z0.2175
G1 X28.3413 Y-22.8031 Z0.2226
G1 X28.3413 Y-22.5013 Z0.2181
G1 X28.3413 Y-22.1998 Z0.2040
G1 X28.3413 Y-21.8990 Z0.1804
G1 X28.3413 Y-21.5990 Z0.1473
G0 Z0.3260
G0 X28.3413 Y-21.5990 
G0 Z0.3260
G0 X28.3413 Y-23.8935 
G1 X28.3413 Y-23.8935 Z0.1510 F21.
G1 X28.3413 Y-23.9148 Z0.1472
G1 X28.3413 Y-24.0070 Z0.1310
G1 X28.3413 Y-23.7071 Z0.1648 F22.
G1 X28.3413 Y-23.4063 Z0.1890
G1 X28.3413 Y-23.1048 Z0.2037
G1 X28.3413 Y-22.8031 Z0.2089
G1 X28.3413 Y-22.5013 Z0.2044
G1 X28.3413 Y-22.1998 Z0.1903
G1 X28.3413 Y-21.8990 Z0.1667
G1 X28.3413 Y-21.5990 Z0.1335
G0 Z0.3122
G0 X28.3413 Y-21.5990 
G0 Z0.3122
G0 X28.3413 Y-23.8935 
G1 X28.3413 Y-23.8935 Z0.1372 F21.
G1 X28.3413 Y-23.9148 Z0.1335
G1 X28.3413 Y-24.0070 Z0.1172
G1 X28.3413 Y-23.7071 Z0.1511 F22.
G1 X28.3413 Y-23.4063 Z0.1753
G1 X28.3413 Y-23.1048 Z0.1900
G1 X28.3413 Y-22.8031 Z0.1951
G1 X28.3413 Y-22.5013 Z0.1907
G1 X28.3413 Y-22.1998 Z0.1766
G1 X28.3413 Y-21.8990 Z0.1530
G1 X28.3413 Y-21.5990 Z0.1198
G0 Z0.2985
G0 X28.3413 Y-21.5990 
G0 Z0.2985
G0 X28.3413 Y-23.8935 
G1 X28.3413 Y-23.8935 Z0.1235 F21.
G1 X28.3413 Y-23.9148 Z0.1198
G1 X28.3413 Y-24.0070 Z0.1035
G1 X28.3413 Y-23.7071 Z0.1373 F22.
G1 X28.3413 Y-23.4063 Z0.1616
G1 X28.3413 Y-23.1048 Z0.1763
G1 X28.3413 Y-22.8031 Z0.1814
G1 X28.3413 Y-22.5013 Z0.1770
G1 X28.3413 Y-22.1998 Z0.1629
G1 X28.3413 Y-21.8990 Z0.1393
G1 X28.3413 Y-21.5990 Z0.1061
G0 Z0.2848
G0 X28.3413 Y-21.5990 
G0 Z0.2848
G0 X28.3413 Y-23.8935 
G1 X28.3413 Y-23.8935 Z0.1098 F21.
G1 X28.3413 Y-23.9148 Z0.1061
G1 X28.3413 Y-24.0070 Z0.0898
G1 X28.3413 Y-23.7071 Z0.1236 F22.
G1 X28.3413 Y-23.4063 Z0.1479
G1 X28.3413 Y-23.1048 Z0.1626
G1 X28.3413 Y-22.8031 Z0.1677
G1 X28.3413 Y-22.5013 Z0.1632
G1 X28.3413 Y-22.1998 Z0.1492
G1 X28.3413 Y-21.8990 Z0.1256
G1 X28.3413 Y-21.5990 Z0.0924
G0 Z0.2711
G0 X28.3413 Y-21.5990 
G0 Z0.2711
G0 X28.3413 Y-23.8935 
G1 X28.3413 Y-23.8935 Z0.0961 F21.
G1 X28.3413 Y-23.9148 Z0.0924
G1 X28.3413 Y-24.0070 Z0.0761
G1 X28.3413 Y-23.7071 Z0.1099 F22.
G1 X28.3413 Y-23.4063 Z0.1342
G1 X28.3413 Y-23.1048 Z0.1489
G1 X28.3413 Y-22.8031 Z0.1540
G1 X28.3413 Y-22.5013 Z0.1495
G1 X28.3413 Y-22.1998 Z0.1355
G1 X28.3413 Y-21.8990 Z0.1119
G1 X28.3413 Y-21.5990 Z0.0787
G0 Z0.3542
G0 X28.3413 Y-21.5990 
G0 Z0.3542
G0 X28.7921 Y-23.8875 
G1 X28.7921 Y-23.8875 Z0.1792 F21.
G1 X28.7921 Y-23.9092 Z0.1753
G1 X28.7921 Y-24.0009 Z0.1592
G1 X28.7921 Y-23.7025 Z0.1926 F22.
G1 X28.7921 Y-23.4032 Z0.2167
G1 X28.7921 Y-23.1033 Z0.2312
G1 X28.7921 Y-22.8030 Z0.2363
G1 X28.7921 Y-22.5028 Z0.2319
G1 X28.7921 Y-22.2028 Z0.2179
G1 X28.7921 Y-21.9035 Z0.1946
G1 X28.7921 Y-21.6050 Z0.1617
G0 Z0.3405
G0 X28.7921 Y-21.6050 
G0 Z0.3405
G0 X28.7921 Y-23.8875 
G1 X28.7921 Y-23.8875 Z0.1655 F21.
G1 X28.7921 Y-23.9092 Z0.1616
G1 X28.7921 Y-24.0009 Z0.1455
G1 X28.7921 Y-23.7025 Z0.1789 F22.
G1 X28.7921 Y-23.4032 Z0.2029
G1 X28.7921 Y-23.1033 Z0.2175
G1 X28.7921 Y-22.8030 Z0.2226
G1 X28.7921 Y-22.5028 Z0.2181
G1 X28.7921 Y-22.2028 Z0.2042
G1 X28.7921 Y-21.9035 Z0.1809
G1 X28.7921 Y-21.6050 Z0.1480
G0 Z0.3267
G0 X28.7921 Y-21.6050 
G0 Z0.3267
G0 X28.7921 Y-23.8875 
G1 X28.7921 Y-23.8875 Z0.1517 F21.
G1 X28.7921 Y-23.9092 Z0.1479
G1 X28.7921 Y-24.0009 Z0.1317
G1 X28.7921 Y-23.7025 Z0.1652 F22.
G1 X28.7921 Y-23.4032 Z0.1892
G1 X28.7921 Y-23.1033 Z0.2038
G1 X28.7921 Y-22.8030 Z0.2089
G1 X28.7921 Y-22.5028 Z0.2044
G1 X28.7921 Y-22.2028 Z0.1905
G1 X28.7921 Y-21.9035 Z0.1671
G1 X28.7921 Y-21.6050 Z0.1343
G0 Z0.3130
G0 X28.7921 Y-21.6050 
G0 Z0.3130
G0 X28.7921 Y-23.8875 
G1 X28.7921 Y-23.8875 Z0.1380 F21.
G1 X28.7921 Y-23.9092 Z0.1342
G1 X28.7921 Y-24.0009 Z0.1180
G1 X28.7921 Y-23.7025 Z0.1515 F22.
G1 X28.7921 Y-23.4032 Z0.1755
G1 X28.7921 Y-23.1033 Z0.1901
G1 X28.7921 Y-22.8030 Z0.1951
G1 X28.7921 Y-22.5028 Z0.1907
G1 X28.7921 Y-22.2028 Z0.1768
G1 X28.7921 Y-21.9035 Z0.1534
G1 X28.7921 Y-21.6050 Z0.1206
G0 Z0.2993
G0 X28.7921 Y-21.6050 
G0 Z0.2993
G0 X28.7921 Y-23.8875 
G1 X28.7921 Y-23.8875 Z0.1243 F21.
G1 X28.7921 Y-23.9092 Z0.1205
G1 X28.7921 Y-24.0009 Z0.1043
G1 X28.7921 Y-23.7025 Z0.1378 F22.
G1 X28.7921 Y-23.4032 Z0.1618
G1 X28.7921 Y-23.1033 Z0.1764
G1 X28.7921 Y-22.8030 Z0.1814
G1 X28.7921 Y-22.5028 Z0.1770
G1 X28.7921 Y-22.2028 Z0.1631
G1 X28.7921 Y-21.9035 Z0.1397
G1 X28.7921 Y-21.6050 Z0.1069
G0 Z0.2856
G0 X28.7921 Y-21.6050 
G0 Z0.2856
G0 X28.7921 Y-23.8875 
G1 X28.7921 Y-23.8875 Z0.1106 F21.
G1 X28.7921 Y-23.9092 Z0.1068
G1 X28.7921 Y-24.0009 Z0.0906
G1 X28.7921 Y-23.7025 Z0.1241 F22.
G1 X28.7921 Y-23.4032 Z0.1481
G1 X28.7921 Y-23.1033 Z0.1626
G1 X28.7921 Y-22.8030 Z0.1677
G1 X28.7921 Y-22.5028 Z0.1633
G1 X28.7921 Y-22.2028 Z0.1494
G1 X28.7921 Y-21.9035 Z0.1260
G1 X28.7921 Y-21.6050 Z0.0932
G0 Z0.2719
G0 X28.7921 Y-21.6050 
G0 Z0.2719
G0 X28.7921 Y-23.8875 
G1 X28.7921 Y-23.8875 Z0.0969 F21.
G1 X28.7921 Y-23.9092 Z0.0930
G1 X28.7921 Y-24.0009 Z0.0769
G1 X28.7921 Y-23.7025 Z0.1104 F22.
G1 X28.7921 Y-23.4032 Z0.1344
G1 X28.7921 Y-23.1033 Z0.1489
G1 X28.7921 Y-22.8030 Z0.1540
G1 X28.7921 Y-22.5028 Z0.1496
G1 X28.7921 Y-22.2028 Z0.1357
G1 X28.7921 Y-21.9035 Z0.1123
G1 X28.7921 Y-21.6050 Z0.0794
G0 Z0.3550
G0 X28.7921 Y-21.6050 
G0 Z0.3550
G0 X29.2697 Y-23.8811 
G1 X29.2697 Y-23.8811 Z0.1800 F21.
G1 X29.2697 Y-23.9033 Z0.1761
G1 X29.2697 Y-23.9945 Z0.1600
G1 X29.2697 Y-23.6977 Z0.1931 F22.
G1 X29.2697 Y-23.3999 Z0.2169
G1 X29.2697 Y-23.1016 Z0.2313
G1 X29.2697 Y-22.8030 Z0.2363
G1 X29.2697 Y-22.5044 Z0.2319
G1 X29.2697 Y-22.2060 Z0.2181
G1 X29.2697 Y-21.9082 Z0.1950
G1 X29.2697 Y-21.6113 Z0.1625
G0 Z0.3413
G0 X29.2697 Y-21.6113 
G0 Z0.3413
G0 X29.2697 Y-23.8811 
G1 X29.2697 Y-23.8811 Z0.1663 F21.
G1 X29.2697 Y-23.9033 Z0.1624
G1 X29.2697 Y-23.9945 Z0.1463
G1 X29.2697 Y-23.6977 Z0.1794 F22.
G1 X29.2697 Y-23.3999 Z0.2032
G1 X29.2697 Y-23.1016 Z0.2176
G1 X29.2697 Y-22.8030 Z0.2226
G1 X29.2697 Y-22.5044 Z0.2182
G1 X29.2697 Y-22.2060 Z0.2044
G1 X29.2697 Y-21.9082 Z0.1813
G1 X29.2697 Y-21.6113 Z0.1488
G0 Z0.3276
G0 X29.2697 Y-21.6113 
G0 Z0.3276
G0 X29.2697 Y-23.8811 
G1 X29.2697 Y-23.8811 Z0.1526 F21.
G1 X29.2697 Y-23.9033 Z0.1486
G1 X29.2697 Y-23.9945 Z0.1326
G1 X29.2697 Y-23.6977 Z0.1657 F22.
G1 X29.2697 Y-23.3999 Z0.1894
G1 X29.2697 Y-23.1016 Z0.2038
G1 X29.2697 Y-22.8030 Z0.2089
G1 X29.2697 Y-22.5044 Z0.2045
G1 X29.2697 Y-22.2060 Z0.1907
G1 X29.2697 Y-21.9082 Z0.1676
G1 X29.2697 Y-21.6113 Z0.1351
G0 Z0.3138
G0 X29.2697 Y-21.6113 
G0 Z0.3138
G0 X29.2697 Y-23.8811 
G1 X29.2697 Y-23.8811 Z0.1388 F21.
G1 X29.2697 Y-23.9033 Z0.1349
G1 X29.2697 Y-23.9945 Z0.1188
G1 X29.2697 Y-23.6977 Z0.1520 F22.
G1 X29.2697 Y-23.3999 Z0.1757
G1 X29.2697 Y-23.1016 Z0.1901
G1 X29.2697 Y-22.8030 Z0.1951
G1 X29.2697 Y-22.5044 Z0.1908
G1 X29.2697 Y-22.2060 Z0.1770
G1 X29.2697 Y-21.9082 Z0.1539
G1 X29.2697 Y-21.6113 Z0.1214
G0 Z0.3001
G0 X29.2697 Y-21.6113 
G0 Z0.3001
G0 X29.2697 Y-23.8811 
G1 X29.2697 Y-23.8811 Z0.1251 F21.
G1 X29.2697 Y-23.9033 Z0.1212
G1 X29.2697 Y-23.9945 Z0.1051
G1 X29.2697 Y-23.6977 Z0.1382 F22.
G1 X29.2697 Y-23.3999 Z0.1620
G1 X29.2697 Y-23.1016 Z0.1764
G1 X29.2697 Y-22.8030 Z0.1814
G1 X29.2697 Y-22.5044 Z0.1771
G1 X29.2697 Y-22.2060 Z0.1633
G1 X29.2697 Y-21.9082 Z0.1402
G1 X29.2697 Y-21.6113 Z0.1077
G0 Z0.2864
G0 X29.2697 Y-21.6113 
G0 Z0.2864
G0 X29.2697 Y-23.8811 
G1 X29.2697 Y-23.8811 Z0.1114 F21.
G1 X29.2697 Y-23.9033 Z0.1075
G1 X29.2697 Y-23.9945 Z0.0914
G1 X29.2697 Y-23.6977 Z0.1245 F22.
G1 X29.2697 Y-23.3999 Z0.1483
G1 X29.2697 Y-23.1016 Z0.1627
G1 X29.2697 Y-22.8030 Z0.1677
G1 X29.2697 Y-22.5044 Z0.1633
G1 X29.2697 Y-22.2060 Z0.1496
G1 X29.2697 Y-21.9082 Z0.1264
G1 X29.2697 Y-21.6113 Z0.0940
G0 Z0.2727
G0 X29.2697 Y-21.6113 
G0 Z0.2727
G0 X29.2697 Y-23.8811 
G1 X29.2697 Y-23.8811 Z0.0977 F21.
G1 X29.2697 Y-23.9033 Z0.0938
G1 X29.2697 Y-23.9945 Z0.0777
G1 X29.2697 Y-23.6977 Z0.1108 F22.
G1 X29.2697 Y-23.3999 Z0.1346
G1 X29.2697 Y-23.1016 Z0.1490
G1 X29.2697 Y-22.8030 Z0.1540
G1 X29.2697 Y-22.5044 Z0.1496
G1 X29.2697 Y-22.2060 Z0.1359
G1 X29.2697 Y-21.9082 Z0.1127
G1 X29.2697 Y-21.6113 Z0.0802
G0 Z0.3559
G0 X29.2697 Y-21.6113 
G0 Z0.3559
G0 X29.7757 Y-23.8743 
G1 X29.7757 Y-23.8743 Z0.1809 F21.
G1 X29.7757 Y-23.8933 Z0.1775
G1 X29.7757 Y-23.9877 Z0.1609
G1 X29.7757 Y-23.6925 Z0.1936 F22.
G1 X29.7757 Y-23.3965 Z0.2171
G1 X29.7757 Y-23.0999 Z0.2313
G1 X29.7757 Y-22.8030 Z0.2363
G1 X29.7757 Y-22.5060 Z0.2320
G1 X29.7757 Y-22.2094 Z0.2184
G1 X29.7757 Y-21.9133 Z0.1955
G1 X29.7757 Y-21.6181 Z0.1634
G0 Z0.3421
G0 X29.7757 Y-21.6181 
G0 Z0.3421
G0 X29.7757 Y-23.8743 
G1 X29.7757 Y-23.8743 Z0.1671 F21.
G1 X29.7757 Y-23.8933 Z0.1638
G1 X29.7757 Y-23.9877 Z0.1471
G1 X29.7757 Y-23.6925 Z0.1799 F22.
G1 X29.7757 Y-23.3965 Z0.2034
G1 X29.7757 Y-23.0999 Z0.2176
G1 X29.7757 Y-22.8030 Z0.2226
G1 X29.7757 Y-22.5060 Z0.2182
G1 X29.7757 Y-22.2094 Z0.2046
G1 X29.7757 Y-21.9133 Z0.1818
G1 X29.7757 Y-21.6181 Z0.1497
G0 Z0.3284
G0 X29.7757 Y-21.6181 
G0 Z0.3284
G0 X29.7757 Y-23.8743 
G1 X29.7757 Y-23.8743 Z0.1534 F21.
G1 X29.7757 Y-23.8933 Z0.1501
G1 X29.7757 Y-23.9877 Z0.1334
G1 X29.7757 Y-23.6925 Z0.1662 F22.
G1 X29.7757 Y-23.3965 Z0.1897
G1 X29.7757 Y-23.0999 Z0.2039
G1 X29.7757 Y-22.8030 Z0.2089
G1 X29.7757 Y-22.5060 Z0.2045
G1 X29.7757 Y-22.2094 Z0.1909
G1 X29.7757 Y-21.9133 Z0.1681
G1 X29.7757 Y-21.6181 Z0.1359
G0 Z0.3147
G0 X29.7757 Y-21.6181 
G0 Z0.3147
G0 X29.7757 Y-23.8743 
G1 X29.7757 Y-23.8743 Z0.1397 F21.
G1 X29.7757 Y-23.8933 Z0.1363
G1 X29.7757 Y-23.9877 Z0.1197
G1 X29.7757 Y-23.6925 Z0.1524 F22.
G1 X29.7757 Y-23.3965 Z0.1759
G1 X29.7757 Y-23.0999 Z0.1902
G1 X29.7757 Y-22.8030 Z0.1951
G1 X29.7757 Y-22.5060 Z0.1908
G1 X29.7757 Y-22.2094 Z0.1772
G1 X29.7757 Y-21.9133 Z0.1543
G1 X29.7757 Y-21.6181 Z0.1222
G0 Z0.3010
G0 X29.7757 Y-21.6181 
G0 Z0.3010
G0 X29.7757 Y-23.8743 
G1 X29.7757 Y-23.8743 Z0.1260 F21.
G1 X29.7757 Y-23.8933 Z0.1226
G1 X29.7757 Y-23.9877 Z0.1060
G1 X29.7757 Y-23.6925 Z0.1387 F22.
G1 X29.7757 Y-23.3965 Z0.1622
G1 X29.7757 Y-23.0999 Z0.1765
G1 X29.7757 Y-22.8030 Z0.1814
G1 X29.7757 Y-22.5060 Z0.1771
G1 X29.7757 Y-22.2094 Z0.1635
G1 X29.7757 Y-21.9133 Z0.1406
G1 X29.7757 Y-21.6181 Z0.1085
G0 Z0.2873
G0 X29.7757 Y-21.6181 
G0 Z0.2873
G0 X29.7757 Y-23.8743 
G1 X29.7757 Y-23.8743 Z0.1123 F21.
G1 X29.7757 Y-23.8933 Z0.1089
G1 X29.7757 Y-23.9877 Z0.0923
G1 X29.7757 Y-23.6925 Z0.1250 F22.
G1 X29.7757 Y-23.3965 Z0.1485
G1 X29.7757 Y-23.0999 Z0.1628
G1 X29.7757 Y-22.8030 Z0.1677
G1 X29.7757 Y-22.5060 Z0.1634
G1 X29.7757 Y-22.2094 Z0.1498
G1 X29.7757 Y-21.9133 Z0.1269
G1 X29.7757 Y-21.6181 Z0.0948
G0 Z0.2736
G0 X29.7757 Y-21.6181 
G0 Z0.2736
G0 X29.7757 Y-23.8743 
G1 X29.7757 Y-23.8743 Z0.0986 F21.
G1 X29.7757 Y-23.8933 Z0.0952
G1 X29.7757 Y-23.9877 Z0.0786
G1 X29.7757 Y-23.6925 Z0.1113 F22.
G1 X29.7757 Y-23.3965 Z0.1348
G1 X29.7757 Y-23.0999 Z0.1490
G1 X29.7757 Y-22.8030 Z0.1540
G1 X29.7757 Y-22.5060 Z0.1497
G1 X29.7757 Y-22.2094 Z0.1361
G1 X29.7757 Y-21.9133 Z0.1132
G1 X29.7757 Y-21.6181 Z0.0811
G0 Z0.3568
G0 X29.7757 Y-21.6181 
G0 Z0.3568
G0 X30.3118 Y-23.8670 
G1 X30.3118 Y-23.8670 Z0.1818 F21.
G1 X30.3118 Y-23.8867 Z0.1783
G1 X30.3118 Y-23.9805 Z0.1618
G1 X30.3118 Y-23.6871 Z0.1941 F22.
G1 X30.3118 Y-23.3928 Z0.2173
G1 X30.3118 Y-23.0980 Z0.2314
G1 X30.3118 Y-22.8029 Z0.2363
G1 X30.3118 Y-22.5078 Z0.2320
G1 X30.3118 Y-22.2129 Z0.2186
G1 X30.3118 Y-21.9186 Z0.1960
G1 X30.3118 Y-21.6252 Z0.1643
G0 Z0.3430
G0 X30.3118 Y-21.6252 
G0 Z0.3430
G0 X30.3118 Y-23.8670 
G1 X30.3118 Y-23.8670 Z0.1680 F21.
G1 X30.3118 Y-23.8867 Z0.1646
G1 X30.3118 Y-23.9805 Z0.1480
G1 X30.3118 Y-23.6871 Z0.1804 F22.
G1 X30.3118 Y-23.3928 Z0.2036
G1 X30.3118 Y-23.0980 Z0.2177
G1 X30.3118 Y-22.8029 Z0.2226
G1 X30.3118 Y-22.5078 Z0.2183
G1 X30.3118 Y-22.2129 Z0.2049
G1 X30.3118 Y-21.9186 Z0.1823
G1 X30.3118 Y-21.6252 Z0.1505
G0 Z0.3293
G0 X30.3118 Y-21.6252 
G0 Z0.3293
G0 X30.3118 Y-23.8670 
G1 X30.3118 Y-23.8670 Z0.1543 F21.
G1 X30.3118 Y-23.8867 Z0.1509
G1 X30.3118 Y-23.9805 Z0.1343
G1 X30.3118 Y-23.6871 Z0.1667 F22.
G1 X30.3118 Y-23.3928 Z0.1899
G1 X30.3118 Y-23.0980 Z0.2040
G1 X30.3118 Y-22.8029 Z0.2089
G1 X30.3118 Y-22.5078 Z0.2046
G1 X30.3118 Y-22.2129 Z0.1911
G1 X30.3118 Y-21.9186 Z0.1686
G1 X30.3118 Y-21.6252 Z0.1368
G0 Z0.3156
G0 X30.3118 Y-21.6252 
G0 Z0.3156
G0 X30.3118 Y-23.8670 
G1 X30.3118 Y-23.8670 Z0.1406 F21.
G1 X30.3118 Y-23.8867 Z0.1372
G1 X30.3118 Y-23.9805 Z0.1206
G1 X30.3118 Y-23.6871 Z0.1530 F22.
G1 X30.3118 Y-23.3928 Z0.1762
G1 X30.3118 Y-23.0980 Z0.1902
G1 X30.3118 Y-22.8029 Z0.1951
G1 X30.3118 Y-22.5078 Z0.1909
G1 X30.3118 Y-22.2129 Z0.1774
G1 X30.3118 Y-21.9186 Z0.1548
G1 X30.3118 Y-21.6252 Z0.1231
G0 Z0.3019
G0 X30.3118 Y-21.6252 
G0 Z0.3019
G0 X30.3118 Y-23.8670 
G1 X30.3118 Y-23.8670 Z0.1269 F21.
G1 X30.3118 Y-23.8867 Z0.1234
G1 X30.3118 Y-23.9805 Z0.1069
G1 X30.3118 Y-23.6871 Z0.1393 F22.
G1 X30.3118 Y-23.3928 Z0.1625
G1 X30.3118 Y-23.0980 Z0.1765
G1 X30.3118 Y-22.8029 Z0.1814
G1 X30.3118 Y-22.5078 Z0.1772
G1 X30.3118 Y-22.2129 Z0.1637
G1 X30.3118 Y-21.9186 Z0.1411
G1 X30.3118 Y-21.6252 Z0.1094
G0 Z0.2882
G0 X30.3118 Y-21.6252 
G0 Z0.2882
G0 X30.3118 Y-23.8670 
G1 X30.3118 Y-23.8670 Z0.1132 F21.
G1 X30.3118 Y-23.8867 Z0.1097
G1 X30.3118 Y-23.9805 Z0.0932
G1 X30.3118 Y-23.6871 Z0.1255 F22.
G1 X30.3118 Y-23.3928 Z0.1488
G1 X30.3118 Y-23.0980 Z0.1628
G1 X30.3118 Y-22.8029 Z0.1677
G1 X30.3118 Y-22.5078 Z0.1634
G1 X30.3118 Y-22.2129 Z0.1500
G1 X30.3118 Y-21.9186 Z0.1274
G1 X30.3118 Y-21.6252 Z0.0957
G0 Z0.2745
G0 X30.3118 Y-21.6252 
G0 Z0.2745
G0 X30.3118 Y-23.8670 
G1 X30.3118 Y-23.8670 Z0.0995 F21.
G1 X30.3118 Y-23.8867 Z0.0960
G1 X30.3118 Y-23.9805 Z0.0795
G1 X30.3118 Y-23.6871 Z0.1118 F22.
G1 X30.3118 Y-23.3928 Z0.1350
G1 X30.3118 Y-23.0980 Z0.1491
G1 X30.3118 Y-22.8029 Z0.1540
G1 X30.3118 Y-22.5078 Z0.1497
G1 X30.3118 Y-22.2129 Z0.1363
G1 X30.3118 Y-21.9186 Z0.1137
G1 X30.3118 Y-21.6252 Z0.0820
G0 Z0.3577
G0 X30.3118 Y-21.6252 
G0 Z0.3577
G0 X30.8798 Y-23.8594 
G1 X30.8798 Y-23.8594 Z0.1827 F21.
G1 X30.8798 Y-23.8797 Z0.1792
G1 X30.8798 Y-23.9728 Z0.1627
G1 X30.8798 Y-23.6813 Z0.1947 F22.
G1 X30.8798 Y-23.3890 Z0.2176
G1 X30.8798 Y-23.0961 Z0.2314
G1 X30.8798 Y-22.8029 Z0.2363
G1 X30.8798 Y-22.5096 Z0.2321
G1 X30.8798 Y-22.2167 Z0.2188
G1 X30.8798 Y-21.9243 Z0.1965
G1 X30.8798 Y-21.6327 Z0.1652
G0 Z0.3440
G0 X30.8798 Y-21.6327 
G0 Z0.3440
G0 X30.8798 Y-23.8594 
G1 X30.8798 Y-23.8594 Z0.1690 F21.
G1 X30.8798 Y-23.8797 Z0.1654
G1 X30.8798 Y-23.9728 Z0.1490
G1 X30.8798 Y-23.6813 Z0.1809 F22.
G1 X30.8798 Y-23.3890 Z0.2039
G1 X30.8798 Y-23.0961 Z0.2177
G1 X30.8798 Y-22.8029 Z0.2226
G1 X30.8798 Y-22.5096 Z0.2184
G1 X30.8798 Y-22.2167 Z0.2051
G1 X30.8798 Y-21.9243 Z0.1828
G1 X30.8798 Y-21.6327 Z0.1515
G0 Z0.3303
G0 X30.8798 Y-21.6327 
G0 Z0.3303
G0 X30.8798 Y-23.8594 
G1 X30.8798 Y-23.8594 Z0.1553 F21.
G1 X30.8798 Y-23.8797 Z0.1517
G1 X30.8798 Y-23.9728 Z0.1353
G1 X30.8798 Y-23.6813 Z0.1672 F22.
G1 X30.8798 Y-23.3890 Z0.1901
G1 X30.8798 Y-23.0961 Z0.2040
G1 X30.8798 Y-22.8029 Z0.2089
G1 X30.8798 Y-22.5096 Z0.2046
G1 X30.8798 Y-22.2167 Z0.1914
G1 X30.8798 Y-21.9243 Z0.1691
G1 X30.8798 Y-21.6327 Z0.1378
G0 Z0.3166
G0 X30.8798 Y-21.6327 
G0 Z0.3166
G0 X30.8798 Y-23.8594 
G1 X30.8798 Y-23.8594 Z0.1416 F21.
G1 X30.8798 Y-23.8797 Z0.1380
G1 X30.8798 Y-23.9728 Z0.1216
G1 X30.8798 Y-23.6813 Z0.1535 F22.
G1 X30.8798 Y-23.3890 Z0.1764
G1 X30.8798 Y-23.0961 Z0.1903
G1 X30.8798 Y-22.8029 Z0.1951
G1 X30.8798 Y-22.5096 Z0.1909
G1 X30.8798 Y-22.2167 Z0.1777
G1 X30.8798 Y-21.9243 Z0.1554
G1 X30.8798 Y-21.6327 Z0.1240
G0 Z0.3029
G0 X30.8798 Y-21.6327 
G0 Z0.3029
G0 X30.8798 Y-23.8594 
G1 X30.8798 Y-23.8594 Z0.1279 F21.
G1 X30.8798 Y-23.8797 Z0.1243
G1 X30.8798 Y-23.9728 Z0.1079
G1 X30.8798 Y-23.6813 Z0.1398 F22.
G1 X30.8798 Y-23.3890 Z0.1627
G1 X30.8798 Y-23.0961 Z0.1766
G1 X30.8798 Y-22.8029 Z0.1814
G1 X30.8798 Y-22.5096 Z0.1772
G1 X30.8798 Y-22.2167 Z0.1639
G1 X30.8798 Y-21.9243 Z0.1416
G1 X30.8798 Y-21.6327 Z0.1103
G0 Z0.2891
G0 X30.8798 Y-21.6327 
G0 Z0.2891
G0 X30.8798 Y-23.8594 
G1 X30.8798 Y-23.8594 Z0.1141 F21.
G1 X30.8798 Y-23.8797 Z0.1106
G1 X30.8798 Y-23.9728 Z0.0941
G1 X30.8798 Y-23.6813 Z0.1261 F22.
G1 X30.8798 Y-23.3890 Z0.1490
G1 X30.8798 Y-23.0961 Z0.1629
G1 X30.8798 Y-22.8029 Z0.1677
G1 X30.8798 Y-22.5096 Z0.1635
G1 X30.8798 Y-22.2167 Z0.1502
G1 X30.8798 Y-21.9243 Z0.1279
G1 X30.8798 Y-21.6327 Z0.0966
G0 Z0.2754
G0 X30.8798 Y-21.6327 
G0 Z0.2754
G0 X30.8798 Y-23.8594 
G1 X30.8798 Y-23.8594 Z0.1004 F21.
G1 X30.8798 Y-23.8797 Z0.0969
G1 X30.8798 Y-23.9728 Z0.0804
G1 X30.8798 Y-23.6813 Z0.1124 F22.
G1 X30.8798 Y-23.3890 Z0.1353
G1 X30.8798 Y-23.0961 Z0.1492
G1 X30.8798 Y-22.8029 Z0.1540
G1 X30.8798 Y-22.5096 Z0.1498
G1 X30.8798 Y-22.2167 Z0.1365
G1 X30.8798 Y-21.9243 Z0.1142
G1 X30.8798 Y-21.6327 Z0.0829
G0 Z0.3587
G0 X30.8798 Y-21.6327 
G0 Z0.3587
G0 X31.4816 Y-23.8513 
G1 X31.4816 Y-23.8513 Z0.1837 F21.
G1 X31.4816 Y-23.8722 Z0.1800
G1 X31.4816 Y-23.9647 Z0.1637
G1 X31.4816 Y-23.6752 Z0.1952 F22.
G1 X31.4816 Y-23.3849 Z0.2178
G1 X31.4816 Y-23.0940 Z0.2315
G1 X31.4816 Y-22.8028 Z0.2363
G1 X31.4816 Y-22.5116 Z0.2321
G1 X31.4816 Y-22.2207 Z0.2190
G1 X31.4816 Y-21.9303 Z0.1971
G1 X31.4816 Y-21.6407 Z0.1662
G0 Z0.3450
G0 X31.4816 Y-21.6407 
G0 Z0.3450
G0 X31.4816 Y-23.8513 
G1 X31.4816 Y-23.8513 Z0.1700 F21.
G1 X31.4816 Y-23.8722 Z0.1663
G1 X31.4816 Y-23.9647 Z0.1500
G1 X31.4816 Y-23.6752 Z0.1815 F22.
G1 X31.4816 Y-23.3849 Z0.2041
G1 X31.4816 Y-23.0940 Z0.2178
G1 X31.4816 Y-22.8028 Z0.2226
G1 X31.4816 Y-22.5116 Z0.2184
G1 X31.4816 Y-22.2207 Z0.2053
G1 X31.4816 Y-21.9303 Z0.1833
G1 X31.4816 Y-21.6407 Z0.1525
G0 Z0.3313
G0 X31.4816 Y-21.6407 
G0 Z0.3313
G0 X31.4816 Y-23.8513 
G1 X31.4816 Y-23.8513 Z0.1563 F21.
G1 X31.4816 Y-23.8722 Z0.1526
G1 X31.4816 Y-23.9647 Z0.1363
G1 X31.4816 Y-23.6752 Z0.1678 F22.
G1 X31.4816 Y-23.3849 Z0.1904
G1 X31.4816 Y-23.0940 Z0.2041
G1 X31.4816 Y-22.8028 Z0.2089
G1 X31.4816 Y-22.5116 Z0.2047
G1 X31.4816 Y-22.2207 Z0.1916
G1 X31.4816 Y-21.9303 Z0.1696
G1 X31.4816 Y-21.6407 Z0.1387
G0 Z0.3176
G0 X31.4816 Y-21.6407 
G0 Z0.3176
G0 X31.4816 Y-23.8513 
G1 X31.4816 Y-23.8513 Z0.1426 F21.
G1 X31.4816 Y-23.8722 Z0.1389
G1 X31.4816 Y-23.9647 Z0.1226
G1 X31.4816 Y-23.6752 Z0.1541 F22.
G1 X31.4816 Y-23.3849 Z0.1767
G1 X31.4816 Y-23.0940 Z0.1904
G1 X31.4816 Y-22.8028 Z0.1951
G1 X31.4816 Y-22.5116 Z0.1910
G1 X31.4816 Y-22.2207 Z0.1779
G1 X31.4816 Y-21.9303 Z0.1559
G1 X31.4816 Y-21.6407 Z0.1250
G0 Z0.3039
G0 X31.4816 Y-21.6407 
G0 Z0.3039
G0 X31.4816 Y-23.8513 
G1 X31.4816 Y-23.8513 Z0.1289 F21.
G1 X31.4816 Y-23.8722 Z0.1252
G1 X31.4816 Y-23.9647 Z0.1089
G1 X31.4816 Y-23.6752 Z0.1404 F22.
G1 X31.4816 Y-23.3849 Z0.1630
G1 X31.4816 Y-23.0940 Z0.1767
G1 X31.4816 Y-22.8028 Z0.1814
G1 X31.4816 Y-22.5116 Z0.1773
G1 X31.4816 Y-22.2207 Z0.1642
G1 X31.4816 Y-21.9303 Z0.1422
G1 X31.4816 Y-21.6407 Z0.1113
G0 Z0.2902
G0 X31.4816 Y-21.6407 
G0 Z0.2902
G0 X31.4816 Y-23.8513 
G1 X31.4816 Y-23.8513 Z0.1152 F21.
G1 X31.4816 Y-23.8722 Z0.1115
G1 X31.4816 Y-23.9647 Z0.0952
G1 X31.4816 Y-23.6752 Z0.1266 F22.
G1 X31.4816 Y-23.3849 Z0.1493
G1 X31.4816 Y-23.0940 Z0.1629
G1 X31.4816 Y-22.8028 Z0.1677
G1 X31.4816 Y-22.5116 Z0.1636
G1 X31.4816 Y-22.2207 Z0.1505
G1 X31.4816 Y-21.9303 Z0.1285
G1 X31.4816 Y-21.6407 Z0.0976
G0 Z0.2764
G0 X31.4816 Y-21.6407 
G0 Z0.2764
G0 X31.4816 Y-23.8513 
G1 X31.4816 Y-23.8513 Z0.1014 F21.
G1 X31.4816 Y-23.8722 Z0.0978
G1 X31.4816 Y-23.9647 Z0.0814
G1 X31.4816 Y-23.6752 Z0.1129 F22.
G1 X31.4816 Y-23.3849 Z0.1355
G1 X31.4816 Y-23.0940 Z0.1492
G1 X31.4816 Y-22.8028 Z0.1540
G1 X31.4816 Y-22.5116 Z0.1498
G1 X31.4816 Y-22.2207 Z0.1368
G1 X31.4816 Y-21.9303 Z0.1148
G1 X31.4816 Y-21.6407 Z0.0839
G0 Z0.3598
G0 X31.4816 Y-21.6407 
G0 Z0.3598
G0 X32.1191 Y-23.8428 
G1 X32.1191 Y-23.8428 Z0.1848 F21.
G1 X32.1191 Y-23.8643 Z0.1810
G1 X32.1191 Y-23.9562 Z0.1648
G1 X32.1191 Y-23.6688 Z0.1958 F22.
G1 X32.1191 Y-23.3806 Z0.2181
G1 X32.1191 Y-23.0918 Z0.2316
G1 X32.1191 Y-22.8028 Z0.2363
G1 X32.1191 Y-22.5137 Z0.2322
G1 X32.1191 Y-22.2249 Z0.2193
G1 X32.1191 Y-21.9367 Z0.1976
G1 X32.1191 Y-21.6492 Z0.1672
G0 Z0.3461
G0 X32.1191 Y-21.6492 
G0 Z0.3461
G0 X32.1191 Y-23.8428 
G1 X32.1191 Y-23.8428 Z0.1711 F21.
G1 X32.1191 Y-23.8643 Z0.1673
G1 X32.1191 Y-23.9562 Z0.1511
G1 X32.1191 Y-23.6688 Z0.1821 F22.
G1 X32.1191 Y-23.3806 Z0.2044
G1 X32.1191 Y-23.0918 Z0.2179
G1 X32.1191 Y-22.8028 Z0.2226
G1 X32.1191 Y-22.5137 Z0.2185
G1 X32.1191 Y-22.2249 Z0.2056
G1 X32.1191 Y-21.9367 Z0.1839
G1 X32.1191 Y-21.6492 Z0.1535
G0 Z0.3324
G0 X32.1191 Y-21.6492 
G0 Z0.3324
G0 X32.1191 Y-23.8428 
G1 X32.1191 Y-23.8428 Z0.1574 F21.
G1 X32.1191 Y-23.8643 Z0.1536
G1 X32.1191 Y-23.9562 Z0.1374
G1 X32.1191 Y-23.6688 Z0.1684 F22.
G1 X32.1191 Y-23.3806 Z0.1907
G1 X32.1191 Y-23.0918 Z0.2042
G1 X32.1191 Y-22.8028 Z0.2089
G1 X32.1191 Y-22.5137 Z0.2048
G1 X32.1191 Y-22.2249 Z0.1919
G1 X32.1191 Y-21.9367 Z0.1702
G1 X32.1191 Y-21.6492 Z0.1398
G0 Z0.3186
G0 X32.1191 Y-21.6492 
G0 Z0.3186
G0 X32.1191 Y-23.8428 
G1 X32.1191 Y-23.8428 Z0.1436 F21.
G1 X32.1191 Y-23.8643 Z0.1398
G1 X32.1191 Y-23.9562 Z0.1236
G1 X32.1191 Y-23.6688 Z0.1547 F22.
G1 X32.1191 Y-23.3806 Z0.1769
G1 X32.1191 Y-23.0918 Z0.1904
G1 X32.1191 Y-22.8028 Z0.1951
G1 X32.1191 Y-22.5137 Z0.1910
G1 X32.1191 Y-22.2249 Z0.1782
G1 X32.1191 Y-21.9367 Z0.1565
G1 X32.1191 Y-21.6492 Z0.1261
G0 Z0.3049
G0 X32.1191 Y-21.6492 
G0 Z0.3049
G0 X32.1191 Y-23.8428 
G1 X32.1191 Y-23.8428 Z0.1299 F21.
G1 X32.1191 Y-23.8643 Z0.1261
G1 X32.1191 Y-23.9562 Z0.1099
G1 X32.1191 Y-23.6688 Z0.1410 F22.
G1 X32.1191 Y-23.3806 Z0.1632
G1 X32.1191 Y-23.0918 Z0.1767
G1 X32.1191 Y-22.8028 Z0.1814
G1 X32.1191 Y-22.5137 Z0.1773
G1 X32.1191 Y-22.2249 Z0.1644
G1 X32.1191 Y-21.9367 Z0.1428
G1 X32.1191 Y-21.6492 Z0.1123
G0 Z0.2912
G0 X32.1191 Y-21.6492 
G0 Z0.2912
G0 X32.1191 Y-23.8428 
G1 X32.1191 Y-23.8428 Z0.1162 F21.
G1 X32.1191 Y-23.8643 Z0.1124
G1 X32.1191 Y-23.9562 Z0.0962
G1 X32.1191 Y-23.6688 Z0.1273 F22.
G1 X32.1191 Y-23.3806 Z0.1495
G1 X32.1191 Y-23.0918 Z0.1630
G1 X32.1191 Y-22.8028 Z0.1677
G1 X32.1191 Y-22.5137 Z0.1636
G1 X32.1191 Y-22.2249 Z0.1507
G1 X32.1191 Y-21.9367 Z0.1291
G1 X32.1191 Y-21.6492 Z0.0986
G0 Z0.2775
G0 X32.1191 Y-21.6492 
G0 Z0.2775
G0 X32.1191 Y-23.8428 
G1 X32.1191 Y-23.8428 Z0.1025 F21.
G1 X32.1191 Y-23.8643 Z0.0987
G1 X32.1191 Y-23.9562 Z0.0825
G1 X32.1191 Y-23.6688 Z0.1135 F22.
G1 X32.1191 Y-23.3806 Z0.1358
G1 X32.1191 Y-23.0918 Z0.1493
G1 X32.1191 Y-22.8028 Z0.1540
G1 X32.1191 Y-22.5137 Z0.1499
G1 X32.1191 Y-22.2249 Z0.1370
G1 X32.1191 Y-21.9367 Z0.1153
G1 X32.1191 Y-21.6492 Z0.0849
G0 Z0.3609
G0 X32.1191 Y-21.6492 
G0 Z0.3609
G0 X32.7945 Y-23.8337 
G1 X32.7945 Y-23.8337 Z0.1859 F21.
G1 X32.7945 Y-23.8521 Z0.1827
G1 X32.7945 Y-23.9471 Z0.1659
G1 X32.7945 Y-23.6619 Z0.1965 F22.
G1 X32.7945 Y-23.3760 Z0.2184
G1 X32.7945 Y-23.0895 Z0.2317
G1 X32.7945 Y-22.8027 Z0.2363
G1 X32.7945 Y-22.5159 Z0.2323
G1 X32.7945 Y-22.2294 Z0.2196
G1 X32.7945 Y-21.9434 Z0.1982
G1 X32.7945 Y-21.6582 Z0.1683
G0 Z0.3472
G0 X32.7945 Y-21.6582 
G0 Z0.3472
G0 X32.7945 Y-23.8337 
G1 X32.7945 Y-23.8337 Z0.1722 F21.
G1 X32.7945 Y-23.8521 Z0.1689
G1 X32.7945 Y-23.9471 Z0.1522
G1 X32.7945 Y-23.6619 Z0.1827 F22.
G1 X32.7945 Y-23.3760 Z0.2047
G1 X32.7945 Y-23.0895 Z0.2179
G1 X32.7945 Y-22.8027 Z0.2226
G1 X32.7945 Y-22.5159 Z0.2185
G1 X32.7945 Y-22.2294 Z0.2059
G1 X32.7945 Y-21.9434 Z0.1845
G1 X32.7945 Y-21.6582 Z0.1546
G0 Z0.3335
G0 X32.7945 Y-21.6582 
G0 Z0.3335
G0 X32.7945 Y-23.8337 
G1 X32.7945 Y-23.8337 Z0.1585 F21.
G1 X32.7945 Y-23.8521 Z0.1552
G1 X32.7945 Y-23.9471 Z0.1385
G1 X32.7945 Y-23.6619 Z0.1690 F22.
G1 X32.7945 Y-23.3760 Z0.1909
G1 X32.7945 Y-23.0895 Z0.2042
G1 X32.7945 Y-22.8027 Z0.2089
G1 X32.7945 Y-22.5159 Z0.2048
G1 X32.7945 Y-22.2294 Z0.1921
G1 X32.7945 Y-21.9434 Z0.1708
G1 X32.7945 Y-21.6582 Z0.1409
G0 Z0.3198
G0 X32.7945 Y-21.6582 
G0 Z0.3198
G0 X32.7945 Y-23.8337 
G1 X32.7945 Y-23.8337 Z0.1448 F21.
G1 X32.7945 Y-23.8521 Z0.1415
G1 X32.7945 Y-23.9471 Z0.1248
G1 X32.7945 Y-23.6619 Z0.1553 F22.
G1 X32.7945 Y-23.3760 Z0.1772
G1 X32.7945 Y-23.0895 Z0.1905
G1 X32.7945 Y-22.8027 Z0.1951
G1 X32.7945 Y-22.5159 Z0.1911
G1 X32.7945 Y-22.2294 Z0.1784
G1 X32.7945 Y-21.9434 Z0.1571
G1 X32.7945 Y-21.6582 Z0.1271
G0 Z0.3061
G0 X32.7945 Y-21.6582 
G0 Z0.3061
G0 X32.7945 Y-23.8337 
G1 X32.7945 Y-23.8337 Z0.1311 F21.
G1 X32.7945 Y-23.8521 Z0.1278
G1 X32.7945 Y-23.9471 Z0.1111
G1 X32.7945 Y-23.6619 Z0.1416 F22.
G1 X32.7945 Y-23.3760 Z0.1635
G1 X32.7945 Y-23.0895 Z0.1768
G1 X32.7945 Y-22.8027 Z0.1814
G1 X32.7945 Y-22.5159 Z0.1774
G1 X32.7945 Y-22.2294 Z0.1647
G1 X32.7945 Y-21.9434 Z0.1434
G1 X32.7945 Y-21.6582 Z0.1134
G0 Z0.2923
G0 X32.7945 Y-21.6582 
G0 Z0.2923
G0 X32.7945 Y-23.8337 
G1 X32.7945 Y-23.8337 Z0.1173 F21.
G1 X32.7945 Y-23.8521 Z0.1141
G1 X32.7945 Y-23.9471 Z0.0973
G1 X32.7945 Y-23.6619 Z0.1279 F22.
G1 X32.7945 Y-23.3760 Z0.1498
G1 X32.7945 Y-23.0895 Z0.1631
G1 X32.7945 Y-22.8027 Z0.1677
G1 X32.7945 Y-22.5159 Z0.1637
G1 X32.7945 Y-22.2294 Z0.1510
G1 X32.7945 Y-21.9434 Z0.1297
G1 X32.7945 Y-21.6582 Z0.0997
G0 Z0.2786
G0 X32.7945 Y-21.6582 
G0 Z0.2786
G0 X32.7945 Y-23.8337 
G1 X32.7945 Y-23.8337 Z0.1036 F21.
G1 X32.7945 Y-23.8521 Z0.1004
G1 X32.7945 Y-23.9471 Z0.0836
G1 X32.7945 Y-23.6619 Z0.1142 F22.
G1 X32.7945 Y-23.3760 Z0.1361
G1 X32.7945 Y-23.0895 Z0.1494
G1 X32.7945 Y-22.8027 Z0.1540
G1 X32.7945 Y-22.5159 Z0.1500
G1 X32.7945 Y-22.2294 Z0.1373
G1 X32.7945 Y-21.9434 Z0.1159
G1 X32.7945 Y-21.6582 Z0.0860
G0 Z0.3621
G0 X32.7945 Y-21.6582 
G0 Z0.3621
G0 X33.5101 Y-23.8241 
G1 X33.5101 Y-23.8241 Z0.1871 F21.
G1 X33.5101 Y-23.8433 Z0.1837
G1 X33.5101 Y-23.9375 Z0.1671
G1 X33.5101 Y-23.6547 Z0.1971 F22.
G1 X33.5101 Y-23.3711 Z0.2187
G1 X33.5101 Y-23.0870 Z0.2317
G1 X33.5101 Y-22.8026 Z0.2363
G1 X33.5101 Y-22.5183 Z0.2323
G1 X33.5101 Y-22.2341 Z0.2198
G1 X33.5101 Y-21.9505 Z0.1989
G1 X33.5101 Y-21.6677 Z0.1694
G0 Z0.3484
G0 X33.5101 Y-21.6677 
G0 Z0.3484
G0 X33.5101 Y-23.8241 
G1 X33.5101 Y-23.8241 Z0.1734 F21.
G1 X33.5101 Y-23.8433 Z0.1700
G1 X33.5101 Y-23.9375 Z0.1534
G1 X33.5101 Y-23.6547 Z0.1834 F22.
G1 X33.5101 Y-23.3711 Z0.2050
G1 X33.5101 Y-23.0870 Z0.2180
G1 X33.5101 Y-22.8026 Z0.2226
G1 X33.5101 Y-22.5183 Z0.2186
G1 X33.5101 Y-22.2341 Z0.2061
G1 X33.5101 Y-21.9505 Z0.1852
G1 X33.5101 Y-21.6677 Z0.1557
G0 Z0.3347
G0 X33.5101 Y-21.6677 
G0 Z0.3347
G0 X33.5101 Y-23.8241 
G1 X33.5101 Y-23.8241 Z0.1597 F21.
G1 X33.5101 Y-23.8433 Z0.1563
G1 X33.5101 Y-23.9375 Z0.1397
G1 X33.5101 Y-23.6547 Z0.1697 F22.
G1 X33.5101 Y-23.3711 Z0.1912
G1 X33.5101 Y-23.0870 Z0.2043
G1 X33.5101 Y-22.8026 Z0.2089
G1 X33.5101 Y-22.5183 Z0.2049
G1 X33.5101 Y-22.2341 Z0.1924
G1 X33.5101 Y-21.9505 Z0.1714
G1 X33.5101 Y-21.6677 Z0.1420
G0 Z0.3209
G0 X33.5101 Y-21.6677 
G0 Z0.3209
G0 X33.5101 Y-23.8241 
G1 X33.5101 Y-23.8241 Z0.1459 F21.
G1 X33.5101 Y-23.8433 Z0.1425
G1 X33.5101 Y-23.9375 Z0.1259
G1 X33.5101 Y-23.6547 Z0.1560 F22.
G1 X33.5101 Y-23.3711 Z0.1775
G1 X33.5101 Y-23.0870 Z0.1906
G1 X33.5101 Y-22.8026 Z0.1951
G1 X33.5101 Y-22.5183 Z0.1912
G1 X33.5101 Y-22.2341 Z0.1787
G1 X33.5101 Y-21.9505 Z0.1577
G1 X33.5101 Y-21.6677 Z0.1283
G0 Z0.3072
G0 X33.5101 Y-21.6677 
G0 Z0.3072
G0 X33.5101 Y-23.8241 
G1 X33.5101 Y-23.8241 Z0.1322 F21.
G1 X33.5101 Y-23.8433 Z0.1288
G1 X33.5101 Y-23.9375 Z0.1122
G1 X33.5101 Y-23.6547 Z0.1423 F22.
G1 X33.5101 Y-23.3711 Z0.1638
G1 X33.5101 Y-23.0870 Z0.1769
G1 X33.5101 Y-22.8026 Z0.1814
G1 X33.5101 Y-22.5183 Z0.1775
G1 X33.5101 Y-22.2341 Z0.1650
G1 X33.5101 Y-21.9505 Z0.1440
G1 X33.5101 Y-21.6677 Z0.1146
G0 Z0.2935
G0 X33.5101 Y-21.6677 
G0 Z0.2935
G0 X33.5101 Y-23.8241 
G1 X33.5101 Y-23.8241 Z0.1185 F21.
G1 X33.5101 Y-23.8433 Z0.1151
G1 X33.5101 Y-23.9375 Z0.0985
G1 X33.5101 Y-23.6547 Z0.1285 F22.
G1 X33.5101 Y-23.3711 Z0.1501
G1 X33.5101 Y-23.0870 Z0.1632
G1 X33.5101 Y-22.8026 Z0.1677
G1 X33.5101 Y-22.5183 Z0.1637
G1 X33.5101 Y-22.2341 Z0.1513
G1 X33.5101 Y-21.9505 Z0.1303
G1 X33.5101 Y-21.6677 Z0.1008
G0 Z0.2798
G0 X33.5101 Y-21.6677 
G0 Z0.2798
G0 X33.5101 Y-23.8241 
G1 X33.5101 Y-23.8241 Z0.1048 F21.
G1 X33.5101 Y-23.8433 Z0.1014
G1 X33.5101 Y-23.9375 Z0.0848
G1 X33.5101 Y-23.6547 Z0.1148 F22.
G1 X33.5101 Y-23.3711 Z0.1364
G1 X33.5101 Y-23.0870 Z0.1494
G1 X33.5101 Y-22.8026 Z0.1540
G1 X33.5101 Y-22.5183 Z0.1500
G1 X33.5101 Y-22.2341 Z0.1376
G1 X33.5101 Y-21.9505 Z0.1166
G1 X33.5101 Y-21.6677 Z0.0871
G0 Z0.3633
G0 X33.5101 Y-21.6677 
G0 Z0.3633
G0 X34.2683 Y-23.8139 
G1 X34.2683 Y-23.8139 Z0.1883 F21.
G1 X34.2683 Y-23.8340 Z0.1848
G1 X34.2683 Y-23.9273 Z0.1683
G1 X34.2683 Y-23.6470 Z0.1978 F22.
G1 X34.2683 Y-23.3659 Z0.2190
G1 X34.2683 Y-23.0844 Z0.2318
G1 X34.2683 Y-22.8026 Z0.2363
G1 X34.2683 Y-22.5208 Z0.2324
G1 X34.2683 Y-22.2392 Z0.2201
G1 X34.2683 Y-21.9581 Z0.1995
G1 X34.2683 Y-21.6777 Z0.1706
G0 Z0.3496
G0 X34.2683 Y-21.6777 
G0 Z0.3496
G0 X34.2683 Y-23.8139 
G1 X34.2683 Y-23.8139 Z0.1746 F21.
G1 X34.2683 Y-23.8340 Z0.1711
G1 X34.2683 Y-23.9273 Z0.1546
G1 X34.2683 Y-23.6470 Z0.1841 F22.
G1 X34.2683 Y-23.3659 Z0.2053
G1 X34.2683 Y-23.0844 Z0.2181
G1 X34.2683 Y-22.8026 Z0.2226
G1 X34.2683 Y-22.5208 Z0.2187
G1 X34.2683 Y-22.2392 Z0.2064
G1 X34.2683 Y-21.9581 Z0.1858
G1 X34.2683 Y-21.6777 Z0.1569
G0 Z0.3359
G0 X34.2683 Y-21.6777 
G0 Z0.3359
G0 X34.2683 Y-23.8139 
G1 X34.2683 Y-23.8139 Z0.1609 F21.
G1 X34.2683 Y-23.8340 Z0.1573
G1 X34.2683 Y-23.9273 Z0.1409
G1 X34.2683 Y-23.6470 Z0.1704 F22.
G1 X34.2683 Y-23.3659 Z0.1916
G1 X34.2683 Y-23.0844 Z0.2044
G1 X34.2683 Y-22.8026 Z0.2089
G1 X34.2683 Y-22.5208 Z0.2050
G1 X34.2683 Y-22.2392 Z0.1927
G1 X34.2683 Y-21.9581 Z0.1721
G1 X34.2683 Y-21.6777 Z0.1432
G0 Z0.3222
G0 X34.2683 Y-21.6777 
G0 Z0.3222
G0 X34.2683 Y-23.8139 
G1 X34.2683 Y-23.8139 Z0.1472 F21.
G1 X34.2683 Y-23.8340 Z0.1436
G1 X34.2683 Y-23.9273 Z0.1272
G1 X34.2683 Y-23.6470 Z0.1567 F22.
G1 X34.2683 Y-23.3659 Z0.1778
G1 X34.2683 Y-23.0844 Z0.1907
G1 X34.2683 Y-22.8026 Z0.1951
G1 X34.2683 Y-22.5208 Z0.1912
G1 X34.2683 Y-22.2392 Z0.1790
G1 X34.2683 Y-21.9581 Z0.1584
G1 X34.2683 Y-21.6777 Z0.1295
G0 Z0.3085
G0 X34.2683 Y-21.6777 
G0 Z0.3085
G0 X34.2683 Y-23.8139 
G1 X34.2683 Y-23.8139 Z0.1335 F21.
G1 X34.2683 Y-23.8340 Z0.1299
G1 X34.2683 Y-23.9273 Z0.1135
G1 X34.2683 Y-23.6470 Z0.1430 F22.
G1 X34.2683 Y-23.3659 Z0.1641
G1 X34.2683 Y-23.0844 Z0.1770
G1 X34.2683 Y-22.8026 Z0.1814
G1 X34.2683 Y-22.5208 Z0.1775
G1 X34.2683 Y-22.2392 Z0.1653
G1 X34.2683 Y-21.9581 Z0.1447
G1 X34.2683 Y-21.6777 Z0.1158
G0 Z0.2947
G0 X34.2683 Y-21.6777 
G0 Z0.2947
G0 X34.2683 Y-23.8139 
G1 X34.2683 Y-23.8139 Z0.1197 F21.
G1 X34.2683 Y-23.8340 Z0.1162
G1 X34.2683 Y-23.9273 Z0.0997
G1 X34.2683 Y-23.6470 Z0.1292 F22.
G1 X34.2683 Y-23.3659 Z0.1504
G1 X34.2683 Y-23.0844 Z0.1632
G1 X34.2683 Y-22.8026 Z0.1677
G1 X34.2683 Y-22.5208 Z0.1638
G1 X34.2683 Y-22.2392 Z0.1516
G1 X34.2683 Y-21.9581 Z0.1310
G1 X34.2683 Y-21.6777 Z0.1020
G0 Z0.2810
G0 X34.2683 Y-21.6777 
G0 Z0.2810
G0 X34.2683 Y-23.8139 
G1 X34.2683 Y-23.8139 Z0.1060 F21.
G1 X34.2683 Y-23.8340 Z0.1025
G1 X34.2683 Y-23.9273 Z0.0860
G1 X34.2683 Y-23.6470 Z0.1155 F22.
G1 X34.2683 Y-23.3659 Z0.1367
G1 X34.2683 Y-23.0844 Z0.1495
G1 X34.2683 Y-22.8026 Z0.1540
G1 X34.2683 Y-22.5208 Z0.1501
G1 X34.2683 Y-22.2392 Z0.1379
G1 X34.2683 Y-21.9581 Z0.1173
G1 X34.2683 Y-21.6777 Z0.0883
G0 Z0.3646
G0 X34.2683 Y-21.6777 
G0 Z0.3646
G0 X35.0715 Y-23.8031 
G1 X35.0715 Y-23.8031 Z0.1896 F21.
G1 X35.0715 Y-23.8240 Z0.1859
G1 X35.0715 Y-23.9165 Z0.1696
G1 X35.0715 Y-23.6389 Z0.1985 F22.
G1 X35.0715 Y-23.3605 Z0.2193
G1 X35.0715 Y-23.0816 Z0.2319
G1 X35.0715 Y-22.8025 Z0.2363
G1 X35.0715 Y-22.5234 Z0.2325
G1 X35.0715 Y-22.2445 Z0.2205
G1 X35.0715 Y-21.9661 Z0.2002
G1 X35.0715 Y-21.6884 Z0.1719
G0 Z0.3509
G0 X35.0715 Y-21.6884 
G0 Z0.3509
G0 X35.0715 Y-23.8031 
G1 X35.0715 Y-23.8031 Z0.1759 F21.
G1 X35.0715 Y-23.8240 Z0.1722
G1 X35.0715 Y-23.9165 Z0.1559
G1 X35.0715 Y-23.6389 Z0.1848 F22.
G1 X35.0715 Y-23.3605 Z0.2056
G1 X35.0715 Y-23.0816 Z0.2182
G1 X35.0715 Y-22.8025 Z0.2226
G1 X35.0715 Y-22.5234 Z0.2188
G1 X35.0715 Y-22.2445 Z0.2067
G1 X35.0715 Y-21.9661 Z0.1865
G1 X35.0715 Y-21.6884 Z0.1582
G0 Z0.3372
G0 X35.0715 Y-21.6884 
G0 Z0.3372
G0 X35.0715 Y-23.8031 
G1 X35.0715 Y-23.8031 Z0.1622 F21.
G1 X35.0715 Y-23.8240 Z0.1585
G1 X35.0715 Y-23.9165 Z0.1422
G1 X35.0715 Y-23.6389 Z0.1711 F22.
G1 X35.0715 Y-23.3605 Z0.1919
G1 X35.0715 Y-23.0816 Z0.2045
G1 X35.0715 Y-22.8025 Z0.2089
G1 X35.0715 Y-22.5234 Z0.2050
G1 X35.0715 Y-22.2445 Z0.1930
G1 X35.0715 Y-21.9661 Z0.1728
G1 X35.0715 Y-21.6884 Z0.1444
G0 Z0.3235
G0 X35.0715 Y-21.6884 
G0 Z0.3235
G0 X35.0715 Y-23.8031 
G1 X35.0715 Y-23.8031 Z0.1485 F21.
G1 X35.0715 Y-23.8240 Z0.1448
G1 X35.0715 Y-23.9165 Z0.1285
G1 X35.0715 Y-23.6389 Z0.1574 F22.
G1 X35.0715 Y-23.3605 Z0.1782
G1 X35.0715 Y-23.0816 Z0.1908
G1 X35.0715 Y-22.8025 Z0.1951
G1 X35.0715 Y-22.5234 Z0.1913
G1 X35.0715 Y-22.2445 Z0.1793
G1 X35.0715 Y-21.9661 Z0.1591
G1 X35.0715 Y-21.6884 Z0.1307
G0 Z0.3097
G0 X35.0715 Y-21.6884 
G0 Z0.3097
G0 X35.0715 Y-23.8031 
G1 X35.0715 Y-23.8031 Z0.1347 F21.
G1 X35.0715 Y-23.8240 Z0.1310
G1 X35.0715 Y-23.9165 Z0.1147
G1 X35.0715 Y-23.6389 Z0.1437 F22.
G1 X35.0715 Y-23.3605 Z0.1645
G1 X35.0715 Y-23.0816 Z0.1770
G1 X35.0715 Y-22.8025 Z0.1814
G1 X35.0715 Y-22.5234 Z0.1776
G1 X35.0715 Y-22.2445 Z0.1656
G1 X35.0715 Y-21.9661 Z0.1454
G1 X35.0715 Y-21.6884 Z0.1170
G0 Z0.2960
G0 X35.0715 Y-21.6884 
G0 Z0.2960
G0 X35.0715 Y-23.8031 
G1 X35.0715 Y-23.8031 Z0.1210 F21.
G1 X35.0715 Y-23.8240 Z0.1173
G1 X35.0715 Y-23.9165 Z0.1010
G1 X35.0715 Y-23.6389 Z0.1300 F22.
G1 X35.0715 Y-23.3605 Z0.1507
G1 X35.0715 Y-23.0816 Z0.1633
G1 X35.0715 Y-22.8025 Z0.1677
G1 X35.0715 Y-22.5234 Z0.1639
G1 X35.0715 Y-22.2445 Z0.1519
G1 X35.0715 Y-21.9661 Z0.1317
G1 X35.0715 Y-21.6884 Z0.1033
G0 Z0.2823
G0 X35.0715 Y-21.6884 
G0 Z0.2823
G0 X35.0715 Y-23.8031 
G1 X35.0715 Y-23.8031 Z0.1073 F21.
G1 X35.0715 Y-23.8240 Z0.1036
G1 X35.0715 Y-23.9165 Z0.0873
G1 X35.0715 Y-23.6389 Z0.1163 F22.
G1 X35.0715 Y-23.3605 Z0.1370
G1 X35.0715 Y-23.0816 Z0.1496
G1 X35.0715 Y-22.8025 Z0.1540
G1 X35.0715 Y-22.5234 Z0.1502
G1 X35.0715 Y-22.2445 Z0.1382
G1 X35.0715 Y-21.9661 Z0.1180
G1 X35.0715 Y-21.6884 Z0.0896
G0 Z0.3660
G0 X35.0715 Y-21.6884 
G0 Z0.3660
G0 X35.9225 Y-23.7916 
G1 X35.9225 Y-23.7916 Z0.1910 F21.
G1 X35.9225 Y-23.8135 Z0.1871
G1 X35.9225 Y-23.9051 Z0.1710
G1 X35.9225 Y-23.6302 Z0.1993 F22.
G1 X35.9225 Y-23.3547 Z0.2197
G1 X35.9225 Y-23.0787 Z0.2320
G1 X35.9225 Y-22.8024 Z0.2363
G1 X35.9225 Y-22.5262 Z0.2325
G1 X35.9225 Y-22.2501 Z0.2208
G1 X35.9225 Y-21.9746 Z0.2010
G1 X35.9225 Y-21.6997 Z0.1732
G0 Z0.3522
G0 X35.9225 Y-21.6997 
G0 Z0.3522
G0 X35.9225 Y-23.7916 
G1 X35.9225 Y-23.7916 Z0.1772 F21.
G1 X35.9225 Y-23.8135 Z0.1734
G1 X35.9225 Y-23.9051 Z0.1572
G1 X35.9225 Y-23.6302 Z0.1856 F22.
G1 X35.9225 Y-23.3547 Z0.2059
G1 X35.9225 Y-23.0787 Z0.2183
G1 X35.9225 Y-22.8024 Z0.2226
G1 X35.9225 Y-22.5262 Z0.2188
G1 X35.9225 Y-22.2501 Z0.2071
G1 X35.9225 Y-21.9746 Z0.1873
G1 X35.9225 Y-21.6997 Z0.1595
G0 Z0.3385
G0 X35.9225 Y-21.6997 
G0 Z0.3385
G0 X35.9225 Y-23.7916 
G1 X35.9225 Y-23.7916 Z0.1635 F21.
G1 X35.9225 Y-23.8135 Z0.1597
G1 X35.9225 Y-23.9051 Z0.1435
G1 X35.9225 Y-23.6302 Z0.1719 F22.
G1 X35.9225 Y-23.3547 Z0.1922
G1 X35.9225 Y-23.0787 Z0.2046
G1 X35.9225 Y-22.8024 Z0.2089
G1 X35.9225 Y-22.5262 Z0.2051
G1 X35.9225 Y-22.2501 Z0.1933
G1 X35.9225 Y-21.9746 Z0.1736
G1 X35.9225 Y-21.6997 Z0.1458
G0 Z0.3248
G0 X35.9225 Y-21.6997 
G0 Z0.3248
G0 X35.9225 Y-23.7916 
G1 X35.9225 Y-23.7916 Z0.1498 F21.
G1 X35.9225 Y-23.8135 Z0.1460
G1 X35.9225 Y-23.9051 Z0.1298
G1 X35.9225 Y-23.6302 Z0.1582 F22.
G1 X35.9225 Y-23.3547 Z0.1785
G1 X35.9225 Y-23.0787 Z0.1908
G1 X35.9225 Y-22.8024 Z0.1951
G1 X35.9225 Y-22.5262 Z0.1914
G1 X35.9225 Y-22.2501 Z0.1796
G1 X35.9225 Y-21.9746 Z0.1598
G1 X35.9225 Y-21.6997 Z0.1320
G0 Z0.3111
G0 X35.9225 Y-21.6997 
G0 Z0.3111
G0 X35.9225 Y-23.7916 
G1 X35.9225 Y-23.7916 Z0.1361 F21.
G1 X35.9225 Y-23.8135 Z0.1322
G1 X35.9225 Y-23.9051 Z0.1161
G1 X35.9225 Y-23.6302 Z0.1445 F22.
G1 X35.9225 Y-23.3547 Z0.1648
G1 X35.9225 Y-23.0787 Z0.1771
G1 X35.9225 Y-22.8024 Z0.1814
G1 X35.9225 Y-22.5262 Z0.1777
G1 X35.9225 Y-22.2501 Z0.1659
G1 X35.9225 Y-21.9746 Z0.1461
G1 X35.9225 Y-21.6997 Z0.1183
G0 Z0.2974
G0 X35.9225 Y-21.6997 
G0 Z0.2974
G0 X35.9225 Y-23.7916 
G1 X35.9225 Y-23.7916 Z0.1224 F21.
G1 X35.9225 Y-23.8135 Z0.1185
G1 X35.9225 Y-23.9051 Z0.1024
G1 X35.9225 Y-23.6302 Z0.1307 F22.
G1 X35.9225 Y-23.3547 Z0.1511
G1 X35.9225 Y-23.0787 Z0.1634
G1 X35.9225 Y-22.8024 Z0.1677
G1 X35.9225 Y-22.5262 Z0.1640
G1 X35.9225 Y-22.2501 Z0.1522
G1 X35.9225 Y-21.9746 Z0.1324
G1 X35.9225 Y-21.6997 Z0.1046
G0 Z0.2837
G0 X35.9225 Y-21.6997 
G0 Z0.2837
G0 X35.9225 Y-23.7916 
G1 X35.9225 Y-23.7916 Z0.1087 F21.
G1 X35.9225 Y-23.8135 Z0.1048
G1 X35.9225 Y-23.9051 Z0.0887
G1 X35.9225 Y-23.6302 Z0.1170 F22.
G1 X35.9225 Y-23.3547 Z0.1374
G1 X35.9225 Y-23.0787 Z0.1497
G1 X35.9225 Y-22.8024 Z0.1540
G1 X35.9225 Y-22.5262 Z0.1503
G1 X35.9225 Y-22.2501 Z0.1385
G1 X35.9225 Y-21.9746 Z0.1187
G1 X35.9225 Y-21.6997 Z0.0909
G0 Z0.3674
G0 X35.9225 Y-21.6997 
G0 Z0.3674
G0 X36.8241 Y-23.7795 
G1 X36.8241 Y-23.7795 Z0.1924 F21.
G1 X36.8241 Y-23.7985 Z0.1890
G1 X36.8241 Y-23.8929 Z0.1724
G1 X36.8241 Y-23.5822 Z0.2034 F22.
G1 X36.8241 Y-23.2706 Z0.2243
G1 X36.8241 Y-22.9585 Z0.2348
G1 X36.8241 Y-22.6462 Z0.2352
G1 X36.8241 Y-22.3341 Z0.2252
G1 X36.8241 Y-22.0225 Z0.2050
G1 X36.8241 Y-21.7117 Z0.1746
G0 Z0.3537
G0 X36.8241 Y-21.7117 
G0 Z0.3537
G0 X36.8241 Y-23.7795 
G1 X36.8241 Y-23.7795 Z0.1787 F21.
G1 X36.8241 Y-23.7985 Z0.1753
G1 X36.8241 Y-23.8929 Z0.1587
G1 X36.8241 Y-23.5822 Z0.1897 F22.
G1 X36.8241 Y-23.2706 Z0.2106
G1 X36.8241 Y-22.9585 Z0.2211
G1 X36.8241 Y-22.6462 Z0.2214
G1 X36.8241 Y-22.3341 Z0.2115
G1 X36.8241 Y-22.0225 Z0.1913
G1 X36.8241 Y-21.7117 Z0.1608
G0 Z0.3400
G0 X36.8241 Y-21.7117 
G0 Z0.3400
G0 X36.8241 Y-23.7795 
G1 X36.8241 Y-23.7795 Z0.1650 F21.
G1 X36.8241 Y-23.7985 Z0.1616
G1 X36.8241 Y-23.8929 Z0.1450
G1 X36.8241 Y-23.5822 Z0.1760 F22.
G1 X36.8241 Y-23.2706 Z0.1968
G1 X36.8241 Y-22.9585 Z0.2074
G1 X36.8241 Y-22.6462 Z0.2077
G1 X36.8241 Y-22.3341 Z0.1978
G1 X36.8241 Y-22.0225 Z0.1776
G1 X36.8241 Y-21.7117 Z0.1471
G0 Z0.3262
G0 X36.8241 Y-21.7117 
G0 Z0.3262
G0 X36.8241 Y-23.7795 
G1 X36.8241 Y-23.7795 Z0.1512 F21.
G1 X36.8241 Y-23.7985 Z0.1479
G1 X36.8241 Y-23.8929 Z0.1312
G1 X36.8241 Y-23.5822 Z0.1623 F22.
G1 X36.8241 Y-23.2706 Z0.1831
G1 X36.8241 Y-22.9585 Z0.1937
G1 X36.8241 Y-22.6462 Z0.1940
G1 X36.8241 Y-22.3341 Z0.1841
G1 X36.8241 Y-22.0225 Z0.1639
G1 X36.8241 Y-21.7117 Z0.1334
G0 Z0.3125
G0 X36.8241 Y-21.7117 
G0 Z0.3125
G0 X36.8241 Y-23.7795 
G1 X36.8241 Y-23.7795 Z0.1375 F21.
G1 X36.8241 Y-23.7985 Z0.1342
G1 X36.8241 Y-23.8929 Z0.1175
G1 X36.8241 Y-23.5822 Z0.1486 F22.
G1 X36.8241 Y-23.2706 Z0.1694
G1 X36.8241 Y-22.9585 Z0.1800
G1 X36.8241 Y-22.6462 Z0.1803
G1 X36.8241 Y-22.3341 Z0.1703
G1 X36.8241 Y-22.0225 Z0.1501
G1 X36.8241 Y-21.7117 Z0.1197
G0 Z0.2988
G0 X36.8241 Y-21.7117 
G0 Z0.2988
G0 X36.8241 Y-23.7795 
G1 X36.8241 Y-23.7795 Z0.1238 F21.
G1 X36.8241 Y-23.7985 Z0.1205
G1 X36.8241 Y-23.8929 Z0.1038
G1 X36.8241 Y-23.5822 Z0.1349 F22.
G1 X36.8241 Y-23.2706 Z0.1557
G1 X36.8241 Y-22.9585 Z0.1663
G1 X36.8241 Y-22.6462 Z0.1666
G1 X36.8241 Y-22.3341 Z0.1566
G1 X36.8241 Y-22.0225 Z0.1364
G1 X36.8241 Y-21.7117 Z0.1060
G0 Z0.2851
G0 X36.8241 Y-21.7117 
G0 Z0.2851
G0 X36.8241 Y-23.7795 
G1 X36.8241 Y-23.7795 Z0.1101 F21.
G1 X36.8241 Y-23.7985 Z0.1067
G1 X36.8241 Y-23.8929 Z0.0901
G1 X36.8241 Y-23.5822 Z0.1212 F22.
G1 X36.8241 Y-23.2706 Z0.1420
G1 X36.8241 Y-22.9585 Z0.1526
G1 X36.8241 Y-22.6462 Z0.1529
G1 X36.8241 Y-22.3341 Z0.1429
G1 X36.8241 Y-22.0225 Z0.1227
G1 X36.8241 Y-21.7117 Z0.0923
G0 Z0.3689
G0 X36.8241 Y-21.7117 
G0 Z0.3689
G0 X37.7793 Y-23.7667 
G1 X37.7793 Y-23.7667 Z0.1939 F21.
G1 X37.7793 Y-23.7867 Z0.1903
G1 X37.7793 Y-23.8801 Z0.1739
G1 X37.7793 Y-23.5730 Z0.2042 F22.
G1 X37.7793 Y-23.2650 Z0.2245
G1 X37.7793 Y-22.9566 Z0.2349
G1 X37.7793 Y-22.6480 Z0.2352
G1 X37.7793 Y-22.3395 Z0.2255
G1 X37.7793 Y-22.0315 Z0.2057
G1 X37.7793 Y-21.7243 Z0.1760
G0 Z0.3552
G0 X37.7793 Y-21.7243 
G0 Z0.3552
G0 X37.7793 Y-23.7667 
G1 X37.7793 Y-23.7667 Z0.1802 F21.
G1 X37.7793 Y-23.7867 Z0.1766
G1 X37.7793 Y-23.8801 Z0.1602
G1 X37.7793 Y-23.5730 Z0.1905 F22.
G1 X37.7793 Y-23.2650 Z0.2108
G1 X37.7793 Y-22.9566 Z0.2212
G1 X37.7793 Y-22.6480 Z0.2215
G1 X37.7793 Y-22.3395 Z0.2118
G1 X37.7793 Y-22.0315 Z0.1920
G1 X37.7793 Y-21.7243 Z0.1623
G0 Z0.3414
G0 X37.7793 Y-21.7243 
G0 Z0.3414
G0 X37.7793 Y-23.7667 
G1 X37.7793 Y-23.7667 Z0.1664 F21.
G1 X37.7793 Y-23.7867 Z0.1629
G1 X37.7793 Y-23.8801 Z0.1464
G1 X37.7793 Y-23.5730 Z0.1768 F22.
G1 X37.7793 Y-23.2650 Z0.1971
G1 X37.7793 Y-22.9566 Z0.2074
G1 X37.7793 Y-22.6480 Z0.2078
G1 X37.7793 Y-22.3395 Z0.1980
G1 X37.7793 Y-22.0315 Z0.1783
G1 X37.7793 Y-21.7243 Z0.1486
G0 Z0.3277
G0 X37.7793 Y-21.7243 
G0 Z0.3277
G0 X37.7793 Y-23.7667 
G1 X37.7793 Y-23.7667 Z0.1527 F21.
G1 X37.7793 Y-23.7867 Z0.1492
G1 X37.7793 Y-23.8801 Z0.1327
G1 X37.7793 Y-23.5730 Z0.1631 F22.
G1 X37.7793 Y-23.2650 Z0.1834
G1 X37.7793 Y-22.9566 Z0.1937
G1 X37.7793 Y-22.6480 Z0.1940
G1 X37.7793 Y-22.3395 Z0.1843
G1 X37.7793 Y-22.0315 Z0.1646
G1 X37.7793 Y-21.7243 Z0.1349
G0 Z0.3140
G0 X37.7793 Y-21.7243 
G0 Z0.3140
G0 X37.7793 Y-23.7667 
G1 X37.7793 Y-23.7667 Z0.1390 F21.
G1 X37.7793 Y-23.7867 Z0.1355
G1 X37.7793 Y-23.8801 Z0.1190
G1 X37.7793 Y-23.5730 Z0.1493 F22.
G1 X37.7793 Y-23.2650 Z0.1697
G1 X37.7793 Y-22.9566 Z0.1800
G1 X37.7793 Y-22.6480 Z0.1803
G1 X37.7793 Y-22.3395 Z0.1706
G1 X37.7793 Y-22.0315 Z0.1509
G1 X37.7793 Y-21.7243 Z0.1212
G0 Z0.3003
G0 X37.7793 Y-21.7243 
G0 Z0.3003
G0 X37.7793 Y-23.7667 
G1 X37.7793 Y-23.7667 Z0.1253 F21.
G1 X37.7793 Y-23.7867 Z0.1218
G1 X37.7793 Y-23.8801 Z0.1053
G1 X37.7793 Y-23.5730 Z0.1356 F22.
G1 X37.7793 Y-23.2650 Z0.1560
G1 X37.7793 Y-22.9566 Z0.1663
G1 X37.7793 Y-22.6480 Z0.1666
G1 X37.7793 Y-22.3395 Z0.1569
G1 X37.7793 Y-22.0315 Z0.1372
G1 X37.7793 Y-21.7243 Z0.1074
G0 Z0.2866
G0 X37.7793 Y-21.7243 
G0 Z0.2866
G0 X37.7793 Y-23.7667 
G1 X37.7793 Y-23.7667 Z0.1116 F21.
G1 X37.7793 Y-23.7867 Z0.1080
G1 X37.7793 Y-23.8801 Z0.0916
G1 X37.7793 Y-23.5730 Z0.1219 F22.
G1 X37.7793 Y-23.2650 Z0.1423
G1 X37.7793 Y-22.9566 Z0.1526
G1 X37.7793 Y-22.6480 Z0.1529
G1 X37.7793 Y-22.3395 Z0.1432
G1 X37.7793 Y-22.0315 Z0.1234
G1 X37.7793 Y-21.7243 Z0.0937
G0 Z0.3704
G0 X37.7793 Y-21.7243 
G0 Z0.3704
G0 X38.7913 Y-23.7531 
G1 X38.7913 Y-23.7531 Z0.1954 F21.
G1 X38.7913 Y-23.7743 Z0.1917
G1 X38.7913 Y-23.8665 Z0.1754
G1 X38.7913 Y-23.5632 Z0.2050 F22.
G1 X38.7913 Y-23.2591 Z0.2248
G1 X38.7913 Y-22.9546 Z0.2349
G1 X38.7913 Y-22.6498 Z0.2352
G1 X38.7913 Y-22.3453 Z0.2257
G1 X38.7913 Y-22.0411 Z0.2065
G1 X38.7913 Y-21.7378 Z0.1775
G0 Z0.3567
G0 X38.7913 Y-21.7378 
G0 Z0.3567
G0 X38.7913 Y-23.7531 
G1 X38.7913 Y-23.7531 Z0.1817 F21.
G1 X38.7913 Y-23.7743 Z0.1780
G1 X38.7913 Y-23.8665 Z0.1617
G1 X38.7913 Y-23.5632 Z0.1913 F22.
G1 X38.7913 Y-23.2591 Z0.2111
G1 X38.7913 Y-22.9546 Z0.2212
G1 X38.7913 Y-22.6498 Z0.2215
G1 X38.7913 Y-22.3453 Z0.2120
G1 X38.7913 Y-22.0411 Z0.1928
G1 X38.7913 Y-21.7378 Z0.1638
G0 Z0.3430
G0 X38.7913 Y-21.7378 
G0 Z0.3430
G0 X38.7913 Y-23.7531 
G1 X38.7913 Y-23.7531 Z0.1680 F21.
G1 X38.7913 Y-23.7743 Z0.1643
G1 X38.7913 Y-23.8665 Z0.1480
G1 X38.7913 Y-23.5632 Z0.1776 F22.
G1 X38.7913 Y-23.2591 Z0.1974
G1 X38.7913 Y-22.9546 Z0.2075
G1 X38.7913 Y-22.6498 Z0.2078
G1 X38.7913 Y-22.3453 Z0.1983
G1 X38.7913 Y-22.0411 Z0.1791
G1 X38.7913 Y-21.7378 Z0.1501
G0 Z0.3293
G0 X38.7913 Y-21.7378 
G0 Z0.3293
G0 X38.7913 Y-23.7531 
G1 X38.7913 Y-23.7531 Z0.1543 F21.
G1 X38.7913 Y-23.7743 Z0.1505
G1 X38.7913 Y-23.8665 Z0.1343
G1 X38.7913 Y-23.5632 Z0.1639 F22.
G1 X38.7913 Y-23.2591 Z0.1837
G1 X38.7913 Y-22.9546 Z0.1938
G1 X38.7913 Y-22.6498 Z0.1941
G1 X38.7913 Y-22.3453 Z0.1846
G1 X38.7913 Y-22.0411 Z0.1654
G1 X38.7913 Y-21.7378 Z0.1364
G0 Z0.3156
G0 X38.7913 Y-21.7378 
G0 Z0.3156
G0 X38.7913 Y-23.7531 
G1 X38.7913 Y-23.7531 Z0.1406 F21.
G1 X38.7913 Y-23.7743 Z0.1368
G1 X38.7913 Y-23.8665 Z0.1206
G1 X38.7913 Y-23.5632 Z0.1501 F22.
G1 X38.7913 Y-23.2591 Z0.1700
G1 X38.7913 Y-22.9546 Z0.1801
G1 X38.7913 Y-22.6498 Z0.1804
G1 X38.7913 Y-22.3453 Z0.1709
G1 X38.7913 Y-22.0411 Z0.1516
G1 X38.7913 Y-21.7378 Z0.1227
G0 Z0.3019
G0 X38.7913 Y-21.7378 
G0 Z0.3019
G0 X38.7913 Y-23.7531 
G1 X38.7913 Y-23.7531 Z0.1269 F21.
G1 X38.7913 Y-23.7743 Z0.1231
G1 X38.7913 Y-23.8665 Z0.1069
G1 X38.7913 Y-23.5632 Z0.1364 F22.
G1 X38.7913 Y-23.2591 Z0.1563
G1 X38.7913 Y-22.9546 Z0.1663
G1 X38.7913 Y-22.6498 Z0.1666
G1 X38.7913 Y-22.3453 Z0.1572
G1 X38.7913 Y-22.0411 Z0.1379
G1 X38.7913 Y-21.7378 Z0.1089
G0 Z0.2881
G0 X38.7913 Y-21.7378 
G0 Z0.2881
G0 X38.7913 Y-23.7531 
G1 X38.7913 Y-23.7531 Z0.1131 F21.
G1 X38.7913 Y-23.7743 Z0.1094
G1 X38.7913 Y-23.8665 Z0.0931
G1 X38.7913 Y-23.5632 Z0.1227 F22.
G1 X38.7913 Y-23.2591 Z0.1426
G1 X38.7913 Y-22.9546 Z0.1526
G1 X38.7913 Y-22.6498 Z0.1529
G1 X38.7913 Y-22.3453 Z0.1435
G1 X38.7913 Y-22.0411 Z0.1242
G1 X38.7913 Y-21.7378 Z0.0952
G0 Z0.3721
G0 X38.7913 Y-21.7378 
G0 Z0.3721
G0 X39.8635 Y-23.7387 
G1 X39.8635 Y-23.7387 Z0.1971 F21.
G1 X39.8635 Y-23.7570 Z0.1938
G1 X39.8635 Y-23.8521 Z0.1771
G1 X39.8635 Y-23.5529 Z0.2058 F22.
G1 X39.8635 Y-23.2529 Z0.2251
G1 X39.8635 Y-22.9524 Z0.2349
G1 X39.8635 Y-22.6518 Z0.2352
G1 X39.8635 Y-22.3513 Z0.2260
G1 X39.8635 Y-22.0513 Z0.2073
G1 X39.8635 Y-21.7520 Z0.1791
G0 Z0.3583
G0 X39.8635 Y-21.7520 
G0 Z0.3583
G0 X39.8635 Y-23.7387 
G1 X39.8635 Y-23.7387 Z0.1833 F21.
G1 X39.8635 Y-23.7570 Z0.1801
G1 X39.8635 Y-23.8521 Z0.1633
G1 X39.8635 Y-23.5529 Z0.1921 F22.
G1 X39.8635 Y-23.2529 Z0.2114
G1 X39.8635 Y-22.9524 Z0.2212
G1 X39.8635 Y-22.6518 Z0.2215
G1 X39.8635 Y-22.3513 Z0.2123
G1 X39.8635 Y-22.0513 Z0.1936
G1 X39.8635 Y-21.7520 Z0.1654
G0 Z0.3446
G0 X39.8635 Y-21.7520 
G0 Z0.3446
G0 X39.8635 Y-23.7387 
G1 X39.8635 Y-23.7387 Z0.1696 F21.
G1 X39.8635 Y-23.7570 Z0.1664
G1 X39.8635 Y-23.8521 Z0.1496
G1 X39.8635 Y-23.5529 Z0.1784 F22.
G1 X39.8635 Y-23.2529 Z0.1977
G1 X39.8635 Y-22.9524 Z0.2075
G1 X39.8635 Y-22.6518 Z0.2078
G1 X39.8635 Y-22.3513 Z0.1986
G1 X39.8635 Y-22.0513 Z0.1799
G1 X39.8635 Y-21.7520 Z0.1517
G0 Z0.3309
G0 X39.8635 Y-21.7520 
G0 Z0.3309
G0 X39.8635 Y-23.7387 
G1 X39.8635 Y-23.7387 Z0.1559 F21.
G1 X39.8635 Y-23.7570 Z0.1527
G1 X39.8635 Y-23.8521 Z0.1359
G1 X39.8635 Y-23.5529 Z0.1647 F22.
G1 X39.8635 Y-23.2529 Z0.1840
G1 X39.8635 Y-22.9524 Z0.1938
G1 X39.8635 Y-22.6518 Z0.1941
G1 X39.8635 Y-22.3513 Z0.1849
G1 X39.8635 Y-22.0513 Z0.1662
G1 X39.8635 Y-21.7520 Z0.1380
G0 Z0.3172
G0 X39.8635 Y-21.7520 
G0 Z0.3172
G0 X39.8635 Y-23.7387 
G1 X39.8635 Y-23.7387 Z0.1422 F21.
G1 X39.8635 Y-23.7570 Z0.1390
G1 X39.8635 Y-23.8521 Z0.1222
G1 X39.8635 Y-23.5529 Z0.1510 F22.
G1 X39.8635 Y-23.2529 Z0.1703
G1 X39.8635 Y-22.9524 Z0.1801
G1 X39.8635 Y-22.6518 Z0.1804
G1 X39.8635 Y-22.3513 Z0.1712
G1 X39.8635 Y-22.0513 Z0.1524
G1 X39.8635 Y-21.7520 Z0.1242
G0 Z0.3035
G0 X39.8635 Y-21.7520 
G0 Z0.3035
G0 X39.8635 Y-23.7387 
G1 X39.8635 Y-23.7387 Z0.1285 F21.
G1 X39.8635 Y-23.7570 Z0.1253
G1 X39.8635 Y-23.8521 Z0.1085
G1 X39.8635 Y-23.5529 Z0.1373 F22.
G1 X39.8635 Y-23.2529 Z0.1566
G1 X39.8635 Y-22.9524 Z0.1664
G1 X39.8635 Y-22.6518 Z0.1667
G1 X39.8635 Y-22.3513 Z0.1575
G1 X39.8635 Y-22.0513 Z0.1387
G1 X39.8635 Y-21.7520 Z0.1105
G0 Z0.2898
G0 X39.8635 Y-21.7520 
G0 Z0.2898
G0 X39.8635 Y-23.7387 
G1 X39.8635 Y-23.7387 Z0.1148 F21.
G1 X39.8635 Y-23.7570 Z0.1115
G1 X39.8635 Y-23.8521 Z0.0948
G1 X39.8635 Y-23.5529 Z0.1236 F22.
G1 X39.8635 Y-23.2529 Z0.1429
G1 X39.8635 Y-22.9524 Z0.1527
G1 X39.8635 Y-22.6518 Z0.1530
G1 X39.8635 Y-22.3513 Z0.1437
G1 X39.8635 Y-22.0513 Z0.1250
G1 X39.8635 Y-21.7520 Z0.0968
G0 Z0.3738
G0 X39.8635 Y-21.7520 
G0 Z0.3738
G0 X40.9995 Y-23.7234 
G1 X40.9995 Y-23.7234 Z0.1988 F21.
G1 X40.9995 Y-23.7431 Z0.1953
G1 X40.9995 Y-23.8368 Z0.1788
G1 X40.9995 Y-23.5419 Z0.2067 F22.
G1 X40.9995 Y-23.2462 Z0.2255
G1 X40.9995 Y-22.9501 Z0.2350
G1 X40.9995 Y-22.6539 Z0.2353
G1 X40.9995 Y-22.3578 Z0.2263
G1 X40.9995 Y-22.0621 Z0.2081
G1 X40.9995 Y-21.7671 Z0.1807
G0 Z0.3600
G0 X40.9995 Y-21.7671 
G0 Z0.3600
G0 X40.9995 Y-23.7234 
G1 X40.9995 Y-23.7234 Z0.1850 F21.
G1 X40.9995 Y-23.7431 Z0.1816
G1 X40.9995 Y-23.8368 Z0.1650
G1 X40.9995 Y-23.5419 Z0.1930 F22.
G1 X40.9995 Y-23.2462 Z0.2117
G1 X40.9995 Y-22.9501 Z0.2213
G1 X40.9995 Y-22.6539 Z0.2216
G1 X40.9995 Y-22.3578 Z0.2126
G1 X40.9995 Y-22.0621 Z0.1944
G1 X40.9995 Y-21.7671 Z0.1670
G0 Z0.3463
G0 X40.9995 Y-21.7671 
G0 Z0.3463
G0 X40.9995 Y-23.7234 
G1 X40.9995 Y-23.7234 Z0.1713 F21.
G1 X40.9995 Y-23.7431 Z0.1679
G1 X40.9995 Y-23.8368 Z0.1513
G1 X40.9995 Y-23.5419 Z0.1793 F22.
G1 X40.9995 Y-23.2462 Z0.1980
G1 X40.9995 Y-22.9501 Z0.2076
G1 X40.9995 Y-22.6539 Z0.2078
G1 X40.9995 Y-22.3578 Z0.1989
G1 X40.9995 Y-22.0621 Z0.1807
G1 X40.9995 Y-21.7671 Z0.1533
G0 Z0.3326
G0 X40.9995 Y-21.7671 
G0 Z0.3326
G0 X40.9995 Y-23.7234 
G1 X40.9995 Y-23.7234 Z0.1576 F21.
G1 X40.9995 Y-23.7431 Z0.1541
G1 X40.9995 Y-23.8368 Z0.1376
G1 X40.9995 Y-23.5419 Z0.1656 F22.
G1 X40.9995 Y-23.2462 Z0.1843
G1 X40.9995 Y-22.9501 Z0.1938
G1 X40.9995 Y-22.6539 Z0.1941
G1 X40.9995 Y-22.3578 Z0.1852
G1 X40.9995 Y-22.0621 Z0.1670
G1 X40.9995 Y-21.7671 Z0.1396
G0 Z0.3189
G0 X40.9995 Y-21.7671 
G0 Z0.3189
G0 X40.9995 Y-23.7234 
G1 X40.9995 Y-23.7234 Z0.1439 F21.
G1 X40.9995 Y-23.7431 Z0.1404
G1 X40.9995 Y-23.8368 Z0.1239
G1 X40.9995 Y-23.5419 Z0.1519 F22.
G1 X40.9995 Y-23.2462 Z0.1706
G1 X40.9995 Y-22.9501 Z0.1801
G1 X40.9995 Y-22.6539 Z0.1804
G1 X40.9995 Y-22.3578 Z0.1715
G1 X40.9995 Y-22.0621 Z0.1533
G1 X40.9995 Y-21.7671 Z0.1259
G0 Z0.3052
G0 X40.9995 Y-21.7671 
G0 Z0.3052
G0 X40.9995 Y-23.7234 
G1 X40.9995 Y-23.7234 Z0.1302 F21.
G1 X40.9995 Y-23.7431 Z0.1267
G1 X40.9995 Y-23.8368 Z0.1102
G1 X40.9995 Y-23.5419 Z0.1381 F22.
G1 X40.9995 Y-23.2462 Z0.1569
G1 X40.9995 Y-22.9501 Z0.1664
G1 X40.9995 Y-22.6539 Z0.1667
G1 X40.9995 Y-22.3578 Z0.1577
G1 X40.9995 Y-22.0621 Z0.1396
G1 X40.9995 Y-21.7671 Z0.1122
G0 Z0.2915
G0 X40.9995 Y-21.7671 
G0 Z0.2915
G0 X40.9995 Y-23.7234 
G1 X40.9995 Y-23.7234 Z0.1165 F21.
G1 X40.9995 Y-23.7431 Z0.1130
G1 X40.9995 Y-23.8368 Z0.0965
G1 X40.9995 Y-23.5419 Z0.1244 F22.
G1 X40.9995 Y-23.2462 Z0.1432
G1 X40.9995 Y-22.9501 Z0.1527
G1 X40.9995 Y-22.6539 Z0.1530
G1 X40.9995 Y-22.3578 Z0.1440
G1 X40.9995 Y-22.0621 Z0.1259
G1 X40.9995 Y-21.7671 Z0.0985
G0 Z0.3755
G0 X40.9995 Y-21.7671 
G0 Z0.3755
G0 X42.2030 Y-23.7072 
G1 X42.2030 Y-23.7072 Z0.2005 F21.
G1 X42.2030 Y-23.7283 Z0.1968
G1 X42.2030 Y-23.8206 Z0.1805
G1 X42.2030 Y-23.5303 Z0.2076 F22.
G1 X42.2030 Y-23.2392 Z0.2258
G1 X42.2030 Y-22.9477 Z0.2350
G1 X42.2030 Y-22.6561 Z0.2353
G1 X42.2030 Y-22.3646 Z0.2266
G1 X42.2030 Y-22.0735 Z0.2090
G1 X42.2030 Y-21.7831 Z0.1825
G0 Z0.3618
G0 X42.2030 Y-21.7831 
G0 Z0.3618
G0 X42.2030 Y-23.7072 
G1 X42.2030 Y-23.7072 Z0.1868 F21.
G1 X42.2030 Y-23.7283 Z0.1831
G1 X42.2030 Y-23.8206 Z0.1668
G1 X42.2030 Y-23.5303 Z0.1939 F22.
G1 X42.2030 Y-23.2392 Z0.2121
G1 X42.2030 Y-22.9477 Z0.2213
G1 X42.2030 Y-22.6561 Z0.2216
G1 X42.2030 Y-22.3646 Z0.2129
G1 X42.2030 Y-22.0735 Z0.1953
G1 X42.2030 Y-21.7831 Z0.1688
G0 Z0.3481
G0 X42.2030 Y-21.7831 
G0 Z0.3481
G0 X42.2030 Y-23.7072 
G1 X42.2030 Y-23.7072 Z0.1731 F21.
G1 X42.2030 Y-23.7283 Z0.1694
G1 X42.2030 Y-23.8206 Z0.1531
G1 X42.2030 Y-23.5303 Z0.1802 F22.
G1 X42.2030 Y-23.2392 Z0.1984
G1 X42.2030 Y-22.9477 Z0.2076
G1 X42.2030 Y-22.6561 Z0.2079
G1 X42.2030 Y-22.3646 Z0.1992
G1 X42.2030 Y-22.0735 Z0.1816
G1 X42.2030 Y-21.7831 Z0.1550
G0 Z0.3344
G0 X42.2030 Y-21.7831 
G0 Z0.3344
G0 X42.2030 Y-23.7072 
G1 X42.2030 Y-23.7072 Z0.1594 F21.
G1 X42.2030 Y-23.7283 Z0.1557
G1 X42.2030 Y-23.8206 Z0.1394
G1 X42.2030 Y-23.5303 Z0.1665 F22.
G1 X42.2030 Y-23.2392 Z0.1847
G1 X42.2030 Y-22.9477 Z0.1939
G1 X42.2030 Y-22.6561 Z0.1942
G1 X42.2030 Y-22.3646 Z0.1855
G1 X42.2030 Y-22.0735 Z0.1679
G1 X42.2030 Y-21.7831 Z0.1413
G0 Z0.3207
G0 X42.2030 Y-21.7831 
G0 Z0.3207
G0 X42.2030 Y-23.7072 
G1 X42.2030 Y-23.7072 Z0.1457 F21.
G1 X42.2030 Y-23.7283 Z0.1419
G1 X42.2030 Y-23.8206 Z0.1257
G1 X42.2030 Y-23.5303 Z0.1528 F22.
G1 X42.2030 Y-23.2392 Z0.1709
G1 X42.2030 Y-22.9477 Z0.1802
G1 X42.2030 Y-22.6561 Z0.1804
G1 X42.2030 Y-22.3646 Z0.1718
G1 X42.2030 Y-22.0735 Z0.1542
G1 X42.2030 Y-21.7831 Z0.1276
G0 Z0.3070
G0 X42.2030 Y-21.7831 
G0 Z0.3070
G0 X42.2030 Y-23.7072 
G1 X42.2030 Y-23.7072 Z0.1320 F21.
G1 X42.2030 Y-23.7283 Z0.1282
G1 X42.2030 Y-23.8206 Z0.1120
G1 X42.2030 Y-23.5303 Z0.1391 F22.
G1 X42.2030 Y-23.2392 Z0.1572
G1 X42.2030 Y-22.9477 Z0.1665
G1 X42.2030 Y-22.6561 Z0.1667
G1 X42.2030 Y-22.3646 Z0.1581
G1 X42.2030 Y-22.0735 Z0.1404
G1 X42.2030 Y-21.7831 Z0.1139
G0 Z0.2932
G0 X42.2030 Y-21.7831 
G0 Z0.2932
G0 X42.2030 Y-23.7072 
G1 X42.2030 Y-23.7072 Z0.1182 F21.
G1 X42.2030 Y-23.7283 Z0.1145
G1 X42.2030 Y-23.8206 Z0.0982
G1 X42.2030 Y-23.5303 Z0.1253 F22.
G1 X42.2030 Y-23.2392 Z0.1435
G1 X42.2030 Y-22.9477 Z0.1527
G1 X42.2030 Y-22.6561 Z0.1530
G1 X42.2030 Y-22.3646 Z0.1443
G1 X42.2030 Y-22.0735 Z0.1267
G1 X42.2030 Y-21.7831 Z0.1002
G0 Z0.3774
G0 X42.2030 Y-21.7831 
G0 Z0.3774
G0 X43.4780 Y-23.6901 
G1 X43.4780 Y-23.6901 Z0.2024 F21.
G1 X43.4780 Y-23.7084 Z0.1991
G1 X43.4780 Y-23.8035 Z0.1824
G1 X43.4780 Y-23.5180 Z0.2086 F22.
G1 X43.4780 Y-23.2318 Z0.2261
G1 X43.4780 Y-22.9452 Z0.2351
G1 X43.4780 Y-22.6584 Z0.2353
G1 X43.4780 Y-22.3718 Z0.2270
G1 X43.4780 Y-22.0856 Z0.2099
G1 X43.4780 Y-21.8000 Z0.1843
G0 Z0.3637
G0 X43.4780 Y-21.8000 
G0 Z0.3637
G0 X43.4780 Y-23.6901 
G1 X43.4780 Y-23.6901 Z0.1887 F21.
G1 X43.4780 Y-23.7084 Z0.1854
G1 X43.4780 Y-23.8035 Z0.1687
G1 X43.4780 Y-23.5180 Z0.1949 F22.
G1 X43.4780 Y-23.2318 Z0.2124
G1 X43.4780 Y-22.9452 Z0.2214
G1 X43.4780 Y-22.6584 Z0.2216
G1 X43.4780 Y-22.3718 Z0.2132
G1 X43.4780 Y-22.0856 Z0.1962
G1 X43.4780 Y-21.8000 Z0.1706
G0 Z0.3499
G0 X43.4780 Y-21.8000 
G0 Z0.3499
G0 X43.4780 Y-23.6901 
G1 X43.4780 Y-23.6901 Z0.1749 F21.
G1 X43.4780 Y-23.7084 Z0.1717
G1 X43.4780 Y-23.8035 Z0.1549
G1 X43.4780 Y-23.5180 Z0.1811 F22.
G1 X43.4780 Y-23.2318 Z0.1987
G1 X43.4780 Y-22.9452 Z0.2076
G1 X43.4780 Y-22.6584 Z0.2079
G1 X43.4780 Y-22.3718 Z0.1995
G1 X43.4780 Y-22.0856 Z0.1825
G1 X43.4780 Y-21.8000 Z0.1568
G0 Z0.3362
G0 X43.4780 Y-21.8000 
G0 Z0.3362
G0 X43.4780 Y-23.6901 
G1 X43.4780 Y-23.6901 Z0.1612 F21.
G1 X43.4780 Y-23.7084 Z0.1580
G1 X43.4780 Y-23.8035 Z0.1412
G1 X43.4780 Y-23.5180 Z0.1674 F22.
G1 X43.4780 Y-23.2318 Z0.1850
G1 X43.4780 Y-22.9452 Z0.1939
G1 X43.4780 Y-22.6584 Z0.1942
G1 X43.4780 Y-22.3718 Z0.1858
G1 X43.4780 Y-22.0856 Z0.1688
G1 X43.4780 Y-21.8000 Z0.1431
G0 Z0.3225
G0 X43.4780 Y-21.8000 
G0 Z0.3225
G0 X43.4780 Y-23.6901 
G1 X43.4780 Y-23.6901 Z0.1475 F21.
G1 X43.4780 Y-23.7084 Z0.1443
G1 X43.4780 Y-23.8035 Z0.1275
G1 X43.4780 Y-23.5180 Z0.1537 F22.
G1 X43.4780 Y-23.2318 Z0.1713
G1 X43.4780 Y-22.9452 Z0.1802
G1 X43.4780 Y-22.6584 Z0.1805
G1 X43.4780 Y-22.3718 Z0.1721
G1 X43.4780 Y-22.0856 Z0.1551
G1 X43.4780 Y-21.8000 Z0.1294
G0 Z0.3088
G0 X43.4780 Y-21.8000 
G0 Z0.3088
G0 X43.4780 Y-23.6901 
G1 X43.4780 Y-23.6901 Z0.1338 F21.
G1 X43.4780 Y-23.7084 Z0.1306
G1 X43.4780 Y-23.8035 Z0.1138
G1 X43.4780 Y-23.5180 Z0.1400 F22.
G1 X43.4780 Y-23.2318 Z0.1576
G1 X43.4780 Y-22.9452 Z0.1665
G1 X43.4780 Y-22.6584 Z0.1668
G1 X43.4780 Y-22.3718 Z0.1584
G1 X43.4780 Y-22.0856 Z0.1414
G1 X43.4780 Y-21.8000 Z0.1157
G0 Z0.2951
G0 X43.4780 Y-21.8000 
G0 Z0.2951
G0 X43.4780 Y-23.6901 
G1 X43.4780 Y-23.6901 Z0.1201 F21.
G1 X43.4780 Y-23.7084 Z0.1169
G1 X43.4780 Y-23.8035 Z0.1001
G1 X43.4780 Y-23.5180 Z0.1263 F22.
G1 X43.4780 Y-23.2318 Z0.1439
G1 X43.4780 Y-22.9452 Z0.1528
G1 X43.4780 Y-22.6584 Z0.1531
G1 X43.4780 Y-22.3718 Z0.1447
G1 X43.4780 Y-22.0856 Z0.1276
G1 X43.4780 Y-21.8000 Z0.1020
G0 Z0.3793
G0 X43.4780 Y-21.8000 
G0 Z0.3793
G0 X44.8289 Y-23.6719 
G1 X44.8289 Y-23.6719 Z0.2043 F21.
G1 X44.8289 Y-23.6920 Z0.2008
G1 X44.8289 Y-23.7853 Z0.1843
G1 X44.8289 Y-23.5049 Z0.2096 F22.
G1 X44.8289 Y-23.2239 Z0.2265
G1 X44.8289 Y-22.9425 Z0.2351
G1 X44.8289 Y-22.6609 Z0.2354
G1 X44.8289 Y-22.3795 Z0.2273
G1 X44.8289 Y-22.0984 Z0.2109
G1 X44.8289 Y-21.8180 Z0.1861
G0 Z0.3656
G0 X44.8289 Y-21.8180 
G0 Z0.3656
G0 X44.8289 Y-23.6719 
G1 X44.8289 Y-23.6719 Z0.1906 F21.
G1 X44.8289 Y-23.6920 Z0.1871
G1 X44.8289 Y-23.7853 Z0.1706
G1 X44.8289 Y-23.5049 Z0.1958 F22.
G1 X44.8289 Y-23.2239 Z0.2128
G1 X44.8289 Y-22.9425 Z0.2214
G1 X44.8289 Y-22.6609 Z0.2217
G1 X44.8289 Y-22.3795 Z0.2136
G1 X44.8289 Y-22.0984 Z0.1972
G1 X44.8289 Y-21.8180 Z0.1724
G0 Z0.3519
G0 X44.8289 Y-21.8180 
G0 Z0.3519
G0 X44.8289 Y-23.6719 
G1 X44.8289 Y-23.6719 Z0.1769 F21.
G1 X44.8289 Y-23.6920 Z0.1733
G1 X44.8289 Y-23.7853 Z0.1569
G1 X44.8289 Y-23.5049 Z0.1821 F22.
G1 X44.8289 Y-23.2239 Z0.1991
G1 X44.8289 Y-22.9425 Z0.2077
G1 X44.8289 Y-22.6609 Z0.2079
G1 X44.8289 Y-22.3795 Z0.1999
G1 X44.8289 Y-22.0984 Z0.1834
G1 X44.8289 Y-21.8180 Z0.1587
G0 Z0.3382
G0 X44.8289 Y-21.8180 
G0 Z0.3382
G0 X44.8289 Y-23.6719 
G1 X44.8289 Y-23.6719 Z0.1632 F21.
G1 X44.8289 Y-23.6920 Z0.1596
G1 X44.8289 Y-23.7853 Z0.1432
G1 X44.8289 Y-23.5049 Z0.1684 F22.
G1 X44.8289 Y-23.2239 Z0.1854
G1 X44.8289 Y-22.9425 Z0.1940
G1 X44.8289 Y-22.6609 Z0.1942
G1 X44.8289 Y-22.3795 Z0.1861
G1 X44.8289 Y-22.0984 Z0.1697
G1 X44.8289 Y-21.8180 Z0.1450
G0 Z0.3244
G0 X44.8289 Y-21.8180 
G0 Z0.3244
G0 X44.8289 Y-23.6719 
G1 X44.8289 Y-23.6719 Z0.1494 F21.
G1 X44.8289 Y-23.6920 Z0.1459
G1 X44.8289 Y-23.7853 Z0.1294
G1 X44.8289 Y-23.5049 Z0.1547 F22.
G1 X44.8289 Y-23.2239 Z0.1716
G1 X44.8289 Y-22.9425 Z0.1803
G1 X44.8289 Y-22.6609 Z0.1805
G1 X44.8289 Y-22.3795 Z0.1724
G1 X44.8289 Y-22.0984 Z0.1560
G1 X44.8289 Y-21.8180 Z0.1313
G0 Z0.3107
G0 X44.8289 Y-21.8180 
G0 Z0.3107
G0 X44.8289 Y-23.6719 
G1 X44.8289 Y-23.6719 Z0.1357 F21.
G1 X44.8289 Y-23.6920 Z0.1322
G1 X44.8289 Y-23.7853 Z0.1157
G1 X44.8289 Y-23.5049 Z0.1410 F22.
G1 X44.8289 Y-23.2239 Z0.1579
G1 X44.8289 Y-22.9425 Z0.1665
G1 X44.8289 Y-22.6609 Z0.1668
G1 X44.8289 Y-22.3795 Z0.1587
G1 X44.8289 Y-22.0984 Z0.1423
G1 X44.8289 Y-21.8180 Z0.1176
G0 Z0.2970
G0 X44.8289 Y-21.8180 
G0 Z0.2970
G0 X44.8289 Y-23.6719 
G1 X44.8289 Y-23.6719 Z0.1220 F21.
G1 X44.8289 Y-23.6920 Z0.1185
G1 X44.8289 Y-23.7853 Z0.1020
G1 X44.8289 Y-23.5049 Z0.1273 F22.
G1 X44.8289 Y-23.2239 Z0.1442
G1 X44.8289 Y-22.9425 Z0.1528
G1 X44.8289 Y-22.6609 Z0.1531
G1 X44.8289 Y-22.3795 Z0.1450
G1 X44.8289 Y-22.0984 Z0.1286
G1 X44.8289 Y-21.8180 Z0.1038
G0 Z1.0000
G0 X44.8289 Y-21.8180 
M5
G53 Z
X2Y0
