( MOP:  03-frets-r12-s24PT75-NFrets22-StandardDepth-StandardKerf )
( FILE: G:\Shared drives\AlloyProjectFiles\Customer CAD files\Alloy-Standard-Builds-CAM\Fingerboards-in\03-frets-r12-s24PT75-NFrets22-StandardDepth-StandardKerf.nc)
G90
(  BEGIN TOOL LIST )
(  TOOL 15 - Fretkerf PT025 - DESC: 0.0250 DIA, 2 FLUTE,  CARBIDE MAT )
(  ENDOF TOOL LIST )
( 03-frets-r12-s24PT75-NFrets22-StandardDepth-StandardKerf)
T15
S14000
M3
G0 Z1.3000
G0 X28.4554 Y-23.8069 
G1 X28.4554 Y-23.8069 Z0.2092 F21.
G1 X28.4554 Y-23.9012 Z0.1926
G1 X28.4554 Y-24.0054 Z0.1742
G1 X28.4554 Y-23.6626 Z0.2041 F22.
G1 X28.4554 Y-23.3191 Z0.2241
G1 X28.4554 Y-22.9751 Z0.2343
G1 X28.4554 Y-22.6310 Z0.2346
G1 X28.4554 Y-22.2870 Z0.2250
G1 X28.4554 Y-21.9434 Z0.2056
G1 X28.4554 Y-21.6005 Z0.1763
G0 Z0.3199
G0 X28.4554 Y-21.6005 
G0 Z0.3199
G0 X28.4554 Y-23.8069 
G1 X28.4554 Y-23.8069 Z0.1949 F21.
G1 X28.4554 Y-23.9012 Z0.1783
G1 X28.4554 Y-24.0054 Z0.1599
G1 X28.4554 Y-23.6626 Z0.1898 F22.
G1 X28.4554 Y-23.3191 Z0.2098
G1 X28.4554 Y-22.9751 Z0.2200
G1 X28.4554 Y-22.6310 Z0.2202
G1 X28.4554 Y-22.2870 Z0.2107
G1 X28.4554 Y-21.9434 Z0.1912
G1 X28.4554 Y-21.6005 Z0.1620
G0 Z0.3056
G0 X28.4554 Y-21.6005 
G0 Z0.3056
G0 X28.4554 Y-23.8069 
G1 X28.4554 Y-23.8069 Z0.1806 F21.
G1 X28.4554 Y-23.9012 Z0.1640
G1 X28.4554 Y-24.0054 Z0.1456
G1 X28.4554 Y-23.6626 Z0.1754 F22.
G1 X28.4554 Y-23.3191 Z0.1955
G1 X28.4554 Y-22.9751 Z0.2056
G1 X28.4554 Y-22.6310 Z0.2059
G1 X28.4554 Y-22.2870 Z0.1963
G1 X28.4554 Y-21.9434 Z0.1769
G1 X28.4554 Y-21.6005 Z0.1476
G0 Z0.2912
G0 X28.4554 Y-21.6005 
G0 Z0.2912
G0 X28.4554 Y-23.8069 
G1 X28.4554 Y-23.8069 Z0.1662 F21.
G1 X28.4554 Y-23.9012 Z0.1496
G1 X28.4554 Y-24.0054 Z0.1312
G1 X28.4554 Y-23.6626 Z0.1611 F22.
G1 X28.4554 Y-23.3191 Z0.1811
G1 X28.4554 Y-22.9751 Z0.1913
G1 X28.4554 Y-22.6310 Z0.1916
G1 X28.4554 Y-22.2870 Z0.1820
G1 X28.4554 Y-21.9434 Z0.1626
G1 X28.4554 Y-21.6005 Z0.1333
G0 Z0.2769
G0 X28.4554 Y-21.6005 
G0 Z0.2769
G0 X28.4554 Y-23.8069 
G1 X28.4554 Y-23.8069 Z0.1519 F21.
G1 X28.4554 Y-23.9012 Z0.1353
G1 X28.4554 Y-24.0054 Z0.1169
G1 X28.4554 Y-23.6626 Z0.1468 F22.
G1 X28.4554 Y-23.3191 Z0.1668
G1 X28.4554 Y-22.9751 Z0.1770
G1 X28.4554 Y-22.6310 Z0.1772
G1 X28.4554 Y-22.2870 Z0.1677
G1 X28.4554 Y-21.9434 Z0.1482
G1 X28.4554 Y-21.6005 Z0.1190
G0 Z0.2626
G0 X28.4554 Y-21.6005 
G0 Z0.2626
G0 X28.4554 Y-23.8069 
G1 X28.4554 Y-23.8069 Z0.1376 F21.
G1 X28.4554 Y-23.9012 Z0.1210
G1 X28.4554 Y-24.0054 Z0.1026
G1 X28.4554 Y-23.6626 Z0.1324 F22.
G1 X28.4554 Y-23.3191 Z0.1525
G1 X28.4554 Y-22.9751 Z0.1626
G1 X28.4554 Y-22.6310 Z0.1629
G1 X28.4554 Y-22.2870 Z0.1533
G1 X28.4554 Y-21.9434 Z0.1339
G1 X28.4554 Y-21.6005 Z0.1046
G0 Z0.3348
G0 X28.4554 Y-21.6005 
G0 Z0.3348
G0 X28.8683 Y-23.8014 
G1 X28.8683 Y-23.8014 Z0.2098 F21.
G1 X28.8683 Y-23.8961 Z0.1931
G1 X28.8683 Y-23.9999 Z0.1748
G1 X28.8683 Y-23.6586 Z0.2044 F22.
G1 X28.8683 Y-23.3167 Z0.2242
G1 X28.8683 Y-22.9743 Z0.2343
G1 X28.8683 Y-22.6317 Z0.2346
G1 X28.8683 Y-22.2893 Z0.2251
G1 X28.8683 Y-21.9473 Z0.2058
G1 X28.8683 Y-21.6060 Z0.1768
G0 Z0.3205
G0 X28.8683 Y-21.6060 
G0 Z0.3205
G0 X28.8683 Y-23.8014 
G1 X28.8683 Y-23.8014 Z0.1955 F21.
G1 X28.8683 Y-23.8961 Z0.1788
G1 X28.8683 Y-23.9999 Z0.1605
G1 X28.8683 Y-23.6586 Z0.1901 F22.
G1 X28.8683 Y-23.3167 Z0.2099
G1 X28.8683 Y-22.9743 Z0.2200
G1 X28.8683 Y-22.6317 Z0.2203
G1 X28.8683 Y-22.2893 Z0.2108
G1 X28.8683 Y-21.9473 Z0.1915
G1 X28.8683 Y-21.6060 Z0.1625
G0 Z0.3061
G0 X28.8683 Y-21.6060 
G0 Z0.3061
G0 X28.8683 Y-23.8014 
G1 X28.8683 Y-23.8014 Z0.1811 F21.
G1 X28.8683 Y-23.8961 Z0.1644
G1 X28.8683 Y-23.9999 Z0.1461
G1 X28.8683 Y-23.6586 Z0.1757 F22.
G1 X28.8683 Y-23.3167 Z0.1956
G1 X28.8683 Y-22.9743 Z0.2056
G1 X28.8683 Y-22.6317 Z0.2059
G1 X28.8683 Y-22.2893 Z0.1964
G1 X28.8683 Y-21.9473 Z0.1772
G1 X28.8683 Y-21.6060 Z0.1482
G0 Z0.2918
G0 X28.8683 Y-21.6060 
G0 Z0.2918
G0 X28.8683 Y-23.8014 
G1 X28.8683 Y-23.8014 Z0.1668 F21.
G1 X28.8683 Y-23.8961 Z0.1501
G1 X28.8683 Y-23.9999 Z0.1318
G1 X28.8683 Y-23.6586 Z0.1614 F22.
G1 X28.8683 Y-23.3167 Z0.1812
G1 X28.8683 Y-22.9743 Z0.1913
G1 X28.8683 Y-22.6317 Z0.1916
G1 X28.8683 Y-22.2893 Z0.1821
G1 X28.8683 Y-21.9473 Z0.1628
G1 X28.8683 Y-21.6060 Z0.1338
G0 Z0.2775
G0 X28.8683 Y-21.6060 
G0 Z0.2775
G0 X28.8683 Y-23.8014 
G1 X28.8683 Y-23.8014 Z0.1525 F21.
G1 X28.8683 Y-23.8961 Z0.1358
G1 X28.8683 Y-23.9999 Z0.1175
G1 X28.8683 Y-23.6586 Z0.1471 F22.
G1 X28.8683 Y-23.3167 Z0.1669
G1 X28.8683 Y-22.9743 Z0.1770
G1 X28.8683 Y-22.6317 Z0.1773
G1 X28.8683 Y-22.2893 Z0.1678
G1 X28.8683 Y-21.9473 Z0.1485
G1 X28.8683 Y-21.6060 Z0.1195
G0 Z0.2631
G0 X28.8683 Y-21.6060 
G0 Z0.2631
G0 X28.8683 Y-23.8014 
G1 X28.8683 Y-23.8014 Z0.1381 F21.
G1 X28.8683 Y-23.8961 Z0.1214
G1 X28.8683 Y-23.9999 Z0.1031
G1 X28.8683 Y-23.6586 Z0.1327 F22.
G1 X28.8683 Y-23.3167 Z0.1526
G1 X28.8683 Y-22.9743 Z0.1626
G1 X28.8683 Y-22.6317 Z0.1629
G1 X28.8683 Y-22.2893 Z0.1534
G1 X28.8683 Y-21.9473 Z0.1342
G1 X28.8683 Y-21.6060 Z0.1052
G0 Z0.3354
G0 X28.8683 Y-21.6060 
G0 Z0.3354
G0 X29.3059 Y-23.7955 
G1 X29.3059 Y-23.7955 Z0.2104 F21.
G1 X29.3059 Y-23.8907 Z0.1936
G1 X29.3059 Y-23.9940 Z0.1754
G1 X29.3059 Y-23.6544 Z0.2047 F22.
G1 X29.3059 Y-23.3141 Z0.2243
G1 X29.3059 Y-22.9734 Z0.2343
G1 X29.3059 Y-22.6325 Z0.2346
G1 X29.3059 Y-22.2918 Z0.2252
G1 X29.3059 Y-21.9515 Z0.2061
G1 X29.3059 Y-21.6118 Z0.1774
G0 Z0.3211
G0 X29.3059 Y-21.6118 
G0 Z0.3211
G0 X29.3059 Y-23.7955 
G1 X29.3059 Y-23.7955 Z0.1961 F21.
G1 X29.3059 Y-23.8907 Z0.1793
G1 X29.3059 Y-23.9940 Z0.1611
G1 X29.3059 Y-23.6544 Z0.1904 F22.
G1 X29.3059 Y-23.3141 Z0.2100
G1 X29.3059 Y-22.9734 Z0.2200
G1 X29.3059 Y-22.6325 Z0.2203
G1 X29.3059 Y-22.2918 Z0.2109
G1 X29.3059 Y-21.9515 Z0.1918
G1 X29.3059 Y-21.6118 Z0.1631
G0 Z0.3067
G0 X29.3059 Y-21.6118 
G0 Z0.3067
G0 X29.3059 Y-23.7955 
G1 X29.3059 Y-23.7955 Z0.1817 F21.
G1 X29.3059 Y-23.8907 Z0.1649
G1 X29.3059 Y-23.9940 Z0.1467
G1 X29.3059 Y-23.6544 Z0.1760 F22.
G1 X29.3059 Y-23.3141 Z0.1957
G1 X29.3059 Y-22.9734 Z0.2056
G1 X29.3059 Y-22.6325 Z0.2059
G1 X29.3059 Y-22.2918 Z0.1965
G1 X29.3059 Y-21.9515 Z0.1775
G1 X29.3059 Y-21.6118 Z0.1487
G0 Z0.2924
G0 X29.3059 Y-21.6118 
G0 Z0.2924
G0 X29.3059 Y-23.7955 
G1 X29.3059 Y-23.7955 Z0.1674 F21.
G1 X29.3059 Y-23.8907 Z0.1506
G1 X29.3059 Y-23.9940 Z0.1324
G1 X29.3059 Y-23.6544 Z0.1617 F22.
G1 X29.3059 Y-23.3141 Z0.1813
G1 X29.3059 Y-22.9734 Z0.1913
G1 X29.3059 Y-22.6325 Z0.1916
G1 X29.3059 Y-22.2918 Z0.1822
G1 X29.3059 Y-21.9515 Z0.1631
G1 X29.3059 Y-21.6118 Z0.1344
G0 Z0.2781
G0 X29.3059 Y-21.6118 
G0 Z0.2781
G0 X29.3059 Y-23.7955 
G1 X29.3059 Y-23.7955 Z0.1531 F21.
G1 X29.3059 Y-23.8907 Z0.1363
G1 X29.3059 Y-23.9940 Z0.1181
G1 X29.3059 Y-23.6544 Z0.1474 F22.
G1 X29.3059 Y-23.3141 Z0.1670
G1 X29.3059 Y-22.9734 Z0.1770
G1 X29.3059 Y-22.6325 Z0.1773
G1 X29.3059 Y-22.2918 Z0.1679
G1 X29.3059 Y-21.9515 Z0.1488
G1 X29.3059 Y-21.6118 Z0.1201
G0 Z0.2637
G0 X29.3059 Y-21.6118 
G0 Z0.2637
G0 X29.3059 Y-23.7955 
G1 X29.3059 Y-23.7955 Z0.1387 F21.
G1 X29.3059 Y-23.8907 Z0.1219
G1 X29.3059 Y-23.9940 Z0.1037
G1 X29.3059 Y-23.6544 Z0.1330 F22.
G1 X29.3059 Y-23.3141 Z0.1527
G1 X29.3059 Y-22.9734 Z0.1626
G1 X29.3059 Y-22.6325 Z0.1629
G1 X29.3059 Y-22.2918 Z0.1535
G1 X29.3059 Y-21.9515 Z0.1345
G1 X29.3059 Y-21.6118 Z0.1057
G0 Z0.3360
G0 X29.3059 Y-21.6118 
G0 Z0.3360
G0 X29.7694 Y-23.7893 
G1 X29.7694 Y-23.7893 Z0.2110 F21.
G1 X29.7694 Y-23.8804 Z0.1950
G1 X29.7694 Y-23.9878 Z0.1760
G1 X29.7694 Y-23.6499 Z0.2050 F22.
G1 X29.7694 Y-23.3114 Z0.2245
G1 X29.7694 Y-22.9725 Z0.2343
G1 X29.7694 Y-22.6334 Z0.2346
G1 X29.7694 Y-22.2944 Z0.2253
G1 X29.7694 Y-21.9559 Z0.2064
G1 X29.7694 Y-21.6180 Z0.1780
G0 Z0.3217
G0 X29.7694 Y-21.6180 
G0 Z0.3217
G0 X29.7694 Y-23.7893 
G1 X29.7694 Y-23.7893 Z0.1967 F21.
G1 X29.7694 Y-23.8804 Z0.1806
G1 X29.7694 Y-23.9878 Z0.1617
G1 X29.7694 Y-23.6499 Z0.1907 F22.
G1 X29.7694 Y-23.3114 Z0.2101
G1 X29.7694 Y-22.9725 Z0.2200
G1 X29.7694 Y-22.6334 Z0.2203
G1 X29.7694 Y-22.2944 Z0.2110
G1 X29.7694 Y-21.9559 Z0.1921
G1 X29.7694 Y-21.6180 Z0.1637
G0 Z0.3074
G0 X29.7694 Y-21.6180 
G0 Z0.3074
G0 X29.7694 Y-23.7893 
G1 X29.7694 Y-23.7893 Z0.1824 F21.
G1 X29.7694 Y-23.8804 Z0.1663
G1 X29.7694 Y-23.9878 Z0.1474
G1 X29.7694 Y-23.6499 Z0.1764 F22.
G1 X29.7694 Y-23.3114 Z0.1958
G1 X29.7694 Y-22.9725 Z0.2057
G1 X29.7694 Y-22.6334 Z0.2059
G1 X29.7694 Y-22.2944 Z0.1966
G1 X29.7694 Y-21.9559 Z0.1778
G1 X29.7694 Y-21.6180 Z0.1494
G0 Z0.2930
G0 X29.7694 Y-21.6180 
G0 Z0.2930
G0 X29.7694 Y-23.7893 
G1 X29.7694 Y-23.7893 Z0.1680 F21.
G1 X29.7694 Y-23.8804 Z0.1520
G1 X29.7694 Y-23.9878 Z0.1330
G1 X29.7694 Y-23.6499 Z0.1620 F22.
G1 X29.7694 Y-23.3114 Z0.1815
G1 X29.7694 Y-22.9725 Z0.1913
G1 X29.7694 Y-22.6334 Z0.1916
G1 X29.7694 Y-22.2944 Z0.1823
G1 X29.7694 Y-21.9559 Z0.1634
G1 X29.7694 Y-21.6180 Z0.1350
G0 Z0.2787
G0 X29.7694 Y-21.6180 
G0 Z0.2787
G0 X29.7694 Y-23.7893 
G1 X29.7694 Y-23.7893 Z0.1537 F21.
G1 X29.7694 Y-23.8804 Z0.1376
G1 X29.7694 Y-23.9878 Z0.1187
G1 X29.7694 Y-23.6499 Z0.1477 F22.
G1 X29.7694 Y-23.3114 Z0.1671
G1 X29.7694 Y-22.9725 Z0.1770
G1 X29.7694 Y-22.6334 Z0.1773
G1 X29.7694 Y-22.2944 Z0.1680
G1 X29.7694 Y-21.9559 Z0.1491
G1 X29.7694 Y-21.6180 Z0.1207
G0 Z0.2644
G0 X29.7694 Y-21.6180 
G0 Z0.2644
G0 X29.7694 Y-23.7893 
G1 X29.7694 Y-23.7893 Z0.1394 F21.
G1 X29.7694 Y-23.8804 Z0.1233
G1 X29.7694 Y-23.9878 Z0.1044
G1 X29.7694 Y-23.6499 Z0.1334 F22.
G1 X29.7694 Y-23.3114 Z0.1528
G1 X29.7694 Y-22.9725 Z0.1627
G1 X29.7694 Y-22.6334 Z0.1629
G1 X29.7694 Y-22.2944 Z0.1536
G1 X29.7694 Y-21.9559 Z0.1348
G1 X29.7694 Y-21.6180 Z0.1064
G0 Z0.3367
G0 X29.7694 Y-21.6180 
G0 Z0.3367
G0 X30.2606 Y-23.7827 
G1 X30.2606 Y-23.7827 Z0.2117 F21.
G1 X30.2606 Y-23.8743 Z0.1955
G1 X30.2606 Y-23.9812 Z0.1767
G1 X30.2606 Y-23.6452 Z0.2054 F22.
G1 X30.2606 Y-23.3085 Z0.2246
G1 X30.2606 Y-22.9715 Z0.2343
G1 X30.2606 Y-22.6343 Z0.2346
G1 X30.2606 Y-22.2972 Z0.2254
G1 X30.2606 Y-21.9605 Z0.2068
G1 X30.2606 Y-21.6245 Z0.1787
G0 Z0.3224
G0 X30.2606 Y-21.6245 
G0 Z0.3224
G0 X30.2606 Y-23.7827 
G1 X30.2606 Y-23.7827 Z0.1974 F21.
G1 X30.2606 Y-23.8743 Z0.1812
G1 X30.2606 Y-23.9812 Z0.1624
G1 X30.2606 Y-23.6452 Z0.1910 F22.
G1 X30.2606 Y-23.3085 Z0.2103
G1 X30.2606 Y-22.9715 Z0.2200
G1 X30.2606 Y-22.6343 Z0.2203
G1 X30.2606 Y-22.2972 Z0.2111
G1 X30.2606 Y-21.9605 Z0.1924
G1 X30.2606 Y-21.6245 Z0.1643
G0 Z0.3080
G0 X30.2606 Y-21.6245 
G0 Z0.3080
G0 X30.2606 Y-23.7827 
G1 X30.2606 Y-23.7827 Z0.1830 F21.
G1 X30.2606 Y-23.8743 Z0.1669
G1 X30.2606 Y-23.9812 Z0.1480
G1 X30.2606 Y-23.6452 Z0.1767 F22.
G1 X30.2606 Y-23.3085 Z0.1959
G1 X30.2606 Y-22.9715 Z0.2057
G1 X30.2606 Y-22.6343 Z0.2060
G1 X30.2606 Y-22.2972 Z0.1968
G1 X30.2606 Y-21.9605 Z0.1781
G1 X30.2606 Y-21.6245 Z0.1500
G0 Z0.2937
G0 X30.2606 Y-21.6245 
G0 Z0.2937
G0 X30.2606 Y-23.7827 
G1 X30.2606 Y-23.7827 Z0.1687 F21.
G1 X30.2606 Y-23.8743 Z0.1525
G1 X30.2606 Y-23.9812 Z0.1337
G1 X30.2606 Y-23.6452 Z0.1624 F22.
G1 X30.2606 Y-23.3085 Z0.1816
G1 X30.2606 Y-22.9715 Z0.1913
G1 X30.2606 Y-22.6343 Z0.1916
G1 X30.2606 Y-22.2972 Z0.1824
G1 X30.2606 Y-21.9605 Z0.1638
G1 X30.2606 Y-21.6245 Z0.1357
G0 Z0.2794
G0 X30.2606 Y-21.6245 
G0 Z0.2794
G0 X30.2606 Y-23.7827 
G1 X30.2606 Y-23.7827 Z0.1544 F21.
G1 X30.2606 Y-23.8743 Z0.1382
G1 X30.2606 Y-23.9812 Z0.1194
G1 X30.2606 Y-23.6452 Z0.1480 F22.
G1 X30.2606 Y-23.3085 Z0.1673
G1 X30.2606 Y-22.9715 Z0.1770
G1 X30.2606 Y-22.6343 Z0.1773
G1 X30.2606 Y-22.2972 Z0.1681
G1 X30.2606 Y-21.9605 Z0.1494
G1 X30.2606 Y-21.6245 Z0.1213
G0 Z0.2650
G0 X30.2606 Y-21.6245 
G0 Z0.2650
G0 X30.2606 Y-23.7827 
G1 X30.2606 Y-23.7827 Z0.1400 F21.
G1 X30.2606 Y-23.8743 Z0.1239
G1 X30.2606 Y-23.9812 Z0.1050
G1 X30.2606 Y-23.6452 Z0.1337 F22.
G1 X30.2606 Y-23.3085 Z0.1529
G1 X30.2606 Y-22.9715 Z0.1627
G1 X30.2606 Y-22.6343 Z0.1630
G1 X30.2606 Y-22.2972 Z0.1538
G1 X30.2606 Y-21.9605 Z0.1351
G1 X30.2606 Y-21.6245 Z0.1070
G0 Z0.3374
G0 X30.2606 Y-21.6245 
G0 Z0.3374
G0 X30.7809 Y-23.7757 
G1 X30.7809 Y-23.7757 Z0.2124 F21.
G1 X30.7809 Y-23.8680 Z0.1961
G1 X30.7809 Y-23.9742 Z0.1774
G1 X30.7809 Y-23.6402 Z0.2057 F22.
G1 X30.7809 Y-23.3055 Z0.2247
G1 X30.7809 Y-22.9704 Z0.2344
G1 X30.7809 Y-22.6352 Z0.2346
G1 X30.7809 Y-22.3002 Z0.2256
G1 X30.7809 Y-21.9655 Z0.2071
G1 X30.7809 Y-21.6314 Z0.1793
G0 Z0.3230
G0 X30.7809 Y-21.6314 
G0 Z0.3230
G0 X30.7809 Y-23.7757 
G1 X30.7809 Y-23.7757 Z0.1980 F21.
G1 X30.7809 Y-23.8680 Z0.1818
G1 X30.7809 Y-23.9742 Z0.1630
G1 X30.7809 Y-23.6402 Z0.1914 F22.
G1 X30.7809 Y-23.3055 Z0.2104
G1 X30.7809 Y-22.9704 Z0.2200
G1 X30.7809 Y-22.6352 Z0.2203
G1 X30.7809 Y-22.3002 Z0.2112
G1 X30.7809 Y-21.9655 Z0.1928
G1 X30.7809 Y-21.6314 Z0.1650
G0 Z0.3087
G0 X30.7809 Y-21.6314 
G0 Z0.3087
G0 X30.7809 Y-23.7757 
G1 X30.7809 Y-23.7757 Z0.1837 F21.
G1 X30.7809 Y-23.8680 Z0.1674
G1 X30.7809 Y-23.9742 Z0.1487
G1 X30.7809 Y-23.6402 Z0.1771 F22.
G1 X30.7809 Y-23.3055 Z0.1960
G1 X30.7809 Y-22.9704 Z0.2057
G1 X30.7809 Y-22.6352 Z0.2060
G1 X30.7809 Y-22.3002 Z0.1969
G1 X30.7809 Y-21.9655 Z0.1784
G1 X30.7809 Y-21.6314 Z0.1507
G0 Z0.2944
G0 X30.7809 Y-21.6314 
G0 Z0.2944
G0 X30.7809 Y-23.7757 
G1 X30.7809 Y-23.7757 Z0.1694 F21.
G1 X30.7809 Y-23.8680 Z0.1531
G1 X30.7809 Y-23.9742 Z0.1344
G1 X30.7809 Y-23.6402 Z0.1627 F22.
G1 X30.7809 Y-23.3055 Z0.1817
G1 X30.7809 Y-22.9704 Z0.1914
G1 X30.7809 Y-22.6352 Z0.1916
G1 X30.7809 Y-22.3002 Z0.1826
G1 X30.7809 Y-21.9655 Z0.1641
G1 X30.7809 Y-21.6314 Z0.1363
G0 Z0.2800
G0 X30.7809 Y-21.6314 
G0 Z0.2800
G0 X30.7809 Y-23.7757 
G1 X30.7809 Y-23.7757 Z0.1550 F21.
G1 X30.7809 Y-23.8680 Z0.1388
G1 X30.7809 Y-23.9742 Z0.1200
G1 X30.7809 Y-23.6402 Z0.1484 F22.
G1 X30.7809 Y-23.3055 Z0.1674
G1 X30.7809 Y-22.9704 Z0.1770
G1 X30.7809 Y-22.6352 Z0.1773
G1 X30.7809 Y-22.3002 Z0.1682
G1 X30.7809 Y-21.9655 Z0.1498
G1 X30.7809 Y-21.6314 Z0.1220
G0 Z0.2657
G0 X30.7809 Y-21.6314 
G0 Z0.2657
G0 X30.7809 Y-23.7757 
G1 X30.7809 Y-23.7757 Z0.1407 F21.
G1 X30.7809 Y-23.8680 Z0.1244
G1 X30.7809 Y-23.9742 Z0.1057
G1 X30.7809 Y-23.6402 Z0.1341 F22.
G1 X30.7809 Y-23.3055 Z0.1530
G1 X30.7809 Y-22.9704 Z0.1627
G1 X30.7809 Y-22.6352 Z0.1630
G1 X30.7809 Y-22.3002 Z0.1539
G1 X30.7809 Y-21.9655 Z0.1354
G1 X30.7809 Y-21.6314 Z0.1077
G0 Z0.3381
G0 X30.7809 Y-21.6314 
G0 Z0.3381
G0 X31.3322 Y-23.7683 
G1 X31.3322 Y-23.7683 Z0.2131 F21.
G1 X31.3322 Y-23.8612 Z0.1967
G1 X31.3322 Y-23.9668 Z0.1781
G1 X31.3322 Y-23.6348 Z0.2061 F22.
G1 X31.3322 Y-23.3023 Z0.2249
G1 X31.3322 Y-22.9693 Z0.2344
G1 X31.3322 Y-22.6362 Z0.2346
G1 X31.3322 Y-22.3033 Z0.2257
G1 X31.3322 Y-21.9707 Z0.2075
G1 X31.3322 Y-21.6387 Z0.1800
G0 Z0.3238
G0 X31.3322 Y-21.6387 
G0 Z0.3238
G0 X31.3322 Y-23.7683 
G1 X31.3322 Y-23.7683 Z0.1988 F21.
G1 X31.3322 Y-23.8612 Z0.1824
G1 X31.3322 Y-23.9668 Z0.1638
G1 X31.3322 Y-23.6348 Z0.1918 F22.
G1 X31.3322 Y-23.3023 Z0.2105
G1 X31.3322 Y-22.9693 Z0.2200
G1 X31.3322 Y-22.6362 Z0.2203
G1 X31.3322 Y-22.3033 Z0.2113
G1 X31.3322 Y-21.9707 Z0.1931
G1 X31.3322 Y-21.6387 Z0.1657
G0 Z0.3094
G0 X31.3322 Y-21.6387 
G0 Z0.3094
G0 X31.3322 Y-23.7683 
G1 X31.3322 Y-23.7683 Z0.1844 F21.
G1 X31.3322 Y-23.8612 Z0.1681
G1 X31.3322 Y-23.9668 Z0.1494
G1 X31.3322 Y-23.6348 Z0.1774 F22.
G1 X31.3322 Y-23.3023 Z0.1962
G1 X31.3322 Y-22.9693 Z0.2057
G1 X31.3322 Y-22.6362 Z0.2060
G1 X31.3322 Y-22.3033 Z0.1970
G1 X31.3322 Y-21.9707 Z0.1788
G1 X31.3322 Y-21.6387 Z0.1514
G0 Z0.2951
G0 X31.3322 Y-21.6387 
G0 Z0.2951
G0 X31.3322 Y-23.7683 
G1 X31.3322 Y-23.7683 Z0.1701 F21.
G1 X31.3322 Y-23.8612 Z0.1537
G1 X31.3322 Y-23.9668 Z0.1351
G1 X31.3322 Y-23.6348 Z0.1631 F22.
G1 X31.3322 Y-23.3023 Z0.1819
G1 X31.3322 Y-22.9693 Z0.1914
G1 X31.3322 Y-22.6362 Z0.1916
G1 X31.3322 Y-22.3033 Z0.1827
G1 X31.3322 Y-21.9707 Z0.1645
G1 X31.3322 Y-21.6387 Z0.1370
G0 Z0.2808
G0 X31.3322 Y-21.6387 
G0 Z0.2808
G0 X31.3322 Y-23.7683 
G1 X31.3322 Y-23.7683 Z0.1558 F21.
G1 X31.3322 Y-23.8612 Z0.1394
G1 X31.3322 Y-23.9668 Z0.1208
G1 X31.3322 Y-23.6348 Z0.1488 F22.
G1 X31.3322 Y-23.3023 Z0.1675
G1 X31.3322 Y-22.9693 Z0.1770
G1 X31.3322 Y-22.6362 Z0.1773
G1 X31.3322 Y-22.3033 Z0.1683
G1 X31.3322 Y-21.9707 Z0.1501
G1 X31.3322 Y-21.6387 Z0.1227
G0 Z0.2664
G0 X31.3322 Y-21.6387 
G0 Z0.2664
G0 X31.3322 Y-23.7683 
G1 X31.3322 Y-23.7683 Z0.1414 F21.
G1 X31.3322 Y-23.8612 Z0.1251
G1 X31.3322 Y-23.9668 Z0.1064
G1 X31.3322 Y-23.6348 Z0.1344 F22.
G1 X31.3322 Y-23.3023 Z0.1532
G1 X31.3322 Y-22.9693 Z0.1627
G1 X31.3322 Y-22.6362 Z0.1630
G1 X31.3322 Y-22.3033 Z0.1540
G1 X31.3322 Y-21.9707 Z0.1358
G1 X31.3322 Y-21.6387 Z0.1084
G0 Z0.3389
G0 X31.3322 Y-21.6387 
G0 Z0.3389
G0 X31.9162 Y-23.7604 
G1 X31.9162 Y-23.7604 Z0.2139 F21.
G1 X31.9162 Y-23.8541 Z0.1974
G1 X31.9162 Y-23.9589 Z0.1789
G1 X31.9162 Y-23.6292 Z0.2065 F22.
G1 X31.9162 Y-23.2989 Z0.2250
G1 X31.9162 Y-22.9682 Z0.2344
G1 X31.9162 Y-22.6373 Z0.2347
G1 X31.9162 Y-22.3066 Z0.2258
G1 X31.9162 Y-21.9762 Z0.2079
G1 X31.9162 Y-21.6465 Z0.1808
G0 Z0.3245
G0 X31.9162 Y-21.6465 
G0 Z0.3245
G0 X31.9162 Y-23.7604 
G1 X31.9162 Y-23.7604 Z0.1995 F21.
G1 X31.9162 Y-23.8541 Z0.1830
G1 X31.9162 Y-23.9589 Z0.1645
G1 X31.9162 Y-23.6292 Z0.1922 F22.
G1 X31.9162 Y-23.2989 Z0.2107
G1 X31.9162 Y-22.9682 Z0.2201
G1 X31.9162 Y-22.6373 Z0.2203
G1 X31.9162 Y-22.3066 Z0.2115
G1 X31.9162 Y-21.9762 Z0.1935
G1 X31.9162 Y-21.6465 Z0.1665
G0 Z0.3102
G0 X31.9162 Y-21.6465 
G0 Z0.3102
G0 X31.9162 Y-23.7604 
G1 X31.9162 Y-23.7604 Z0.1852 F21.
G1 X31.9162 Y-23.8541 Z0.1687
G1 X31.9162 Y-23.9589 Z0.1502
G1 X31.9162 Y-23.6292 Z0.1778 F22.
G1 X31.9162 Y-23.2989 Z0.1963
G1 X31.9162 Y-22.9682 Z0.2057
G1 X31.9162 Y-22.6373 Z0.2060
G1 X31.9162 Y-22.3066 Z0.1971
G1 X31.9162 Y-21.9762 Z0.1792
G1 X31.9162 Y-21.6465 Z0.1521
G0 Z0.2959
G0 X31.9162 Y-21.6465 
G0 Z0.2959
G0 X31.9162 Y-23.7604 
G1 X31.9162 Y-23.7604 Z0.1709 F21.
G1 X31.9162 Y-23.8541 Z0.1544
G1 X31.9162 Y-23.9589 Z0.1359
G1 X31.9162 Y-23.6292 Z0.1635 F22.
G1 X31.9162 Y-23.2989 Z0.1820
G1 X31.9162 Y-22.9682 Z0.1914
G1 X31.9162 Y-22.6373 Z0.1917
G1 X31.9162 Y-22.3066 Z0.1828
G1 X31.9162 Y-21.9762 Z0.1649
G1 X31.9162 Y-21.6465 Z0.1378
G0 Z0.2815
G0 X31.9162 Y-21.6465 
G0 Z0.2815
G0 X31.9162 Y-23.7604 
G1 X31.9162 Y-23.7604 Z0.1565 F21.
G1 X31.9162 Y-23.8541 Z0.1400
G1 X31.9162 Y-23.9589 Z0.1215
G1 X31.9162 Y-23.6292 Z0.1492 F22.
G1 X31.9162 Y-23.2989 Z0.1677
G1 X31.9162 Y-22.9682 Z0.1771
G1 X31.9162 Y-22.6373 Z0.1773
G1 X31.9162 Y-22.3066 Z0.1685
G1 X31.9162 Y-21.9762 Z0.1505
G1 X31.9162 Y-21.6465 Z0.1235
G0 Z0.2672
G0 X31.9162 Y-21.6465 
G0 Z0.2672
G0 X31.9162 Y-23.7604 
G1 X31.9162 Y-23.7604 Z0.1422 F21.
G1 X31.9162 Y-23.8541 Z0.1257
G1 X31.9162 Y-23.9589 Z0.1072
G1 X31.9162 Y-23.6292 Z0.1348 F22.
G1 X31.9162 Y-23.2989 Z0.1533
G1 X31.9162 Y-22.9682 Z0.1627
G1 X31.9162 Y-22.6373 Z0.1630
G1 X31.9162 Y-22.3066 Z0.1541
G1 X31.9162 Y-21.9762 Z0.1362
G1 X31.9162 Y-21.6465 Z0.1091
G0 Z0.3397
G0 X31.9162 Y-21.6465 
G0 Z0.3397
G0 X32.5350 Y-23.7521 
G1 X32.5350 Y-23.7521 Z0.2147 F21.
G1 X32.5350 Y-23.8465 Z0.1980
G1 X32.5350 Y-23.9506 Z0.1797
G1 X32.5350 Y-23.6232 Z0.2069 F22.
G1 X32.5350 Y-23.2953 Z0.2251
G1 X32.5350 Y-22.9669 Z0.2344
G1 X32.5350 Y-22.6385 Z0.2347
G1 X32.5350 Y-22.3101 Z0.2260
G1 X32.5350 Y-21.9821 Z0.2083
G1 X32.5350 Y-21.6547 Z0.1816
G0 Z0.3254
G0 X32.5350 Y-21.6547 
G0 Z0.3254
G0 X32.5350 Y-23.7521 
G1 X32.5350 Y-23.7521 Z0.2004 F21.
G1 X32.5350 Y-23.8465 Z0.1837
G1 X32.5350 Y-23.9506 Z0.1654
G1 X32.5350 Y-23.6232 Z0.1926 F22.
G1 X32.5350 Y-23.2953 Z0.2108
G1 X32.5350 Y-22.9669 Z0.2201
G1 X32.5350 Y-22.6385 Z0.2203
G1 X32.5350 Y-22.3101 Z0.2116
G1 X32.5350 Y-21.9821 Z0.1939
G1 X32.5350 Y-21.6547 Z0.1672
G0 Z0.3110
G0 X32.5350 Y-21.6547 
G0 Z0.3110
G0 X32.5350 Y-23.7521 
G1 X32.5350 Y-23.7521 Z0.1860 F21.
G1 X32.5350 Y-23.8465 Z0.1694
G1 X32.5350 Y-23.9506 Z0.1510
G1 X32.5350 Y-23.6232 Z0.1782 F22.
G1 X32.5350 Y-23.2953 Z0.1965
G1 X32.5350 Y-22.9669 Z0.2057
G1 X32.5350 Y-22.6385 Z0.2060
G1 X32.5350 Y-22.3101 Z0.1973
G1 X32.5350 Y-21.9821 Z0.1796
G1 X32.5350 Y-21.6547 Z0.1529
G0 Z0.2967
G0 X32.5350 Y-21.6547 
G0 Z0.2967
G0 X32.5350 Y-23.7521 
G1 X32.5350 Y-23.7521 Z0.1717 F21.
G1 X32.5350 Y-23.8465 Z0.1550
G1 X32.5350 Y-23.9506 Z0.1367
G1 X32.5350 Y-23.6232 Z0.1639 F22.
G1 X32.5350 Y-23.2953 Z0.1821
G1 X32.5350 Y-22.9669 Z0.1914
G1 X32.5350 Y-22.6385 Z0.1917
G1 X32.5350 Y-22.3101 Z0.1830
G1 X32.5350 Y-21.9821 Z0.1653
G1 X32.5350 Y-21.6547 Z0.1386
G0 Z0.2824
G0 X32.5350 Y-21.6547 
G0 Z0.2824
G0 X32.5350 Y-23.7521 
G1 X32.5350 Y-23.7521 Z0.1574 F21.
G1 X32.5350 Y-23.8465 Z0.1407
G1 X32.5350 Y-23.9506 Z0.1224
G1 X32.5350 Y-23.6232 Z0.1496 F22.
G1 X32.5350 Y-23.2953 Z0.1678
G1 X32.5350 Y-22.9669 Z0.1771
G1 X32.5350 Y-22.6385 Z0.1773
G1 X32.5350 Y-22.3101 Z0.1686
G1 X32.5350 Y-21.9821 Z0.1509
G1 X32.5350 Y-21.6547 Z0.1242
G0 Z0.2680
G0 X32.5350 Y-21.6547 
G0 Z0.2680
G0 X32.5350 Y-23.7521 
G1 X32.5350 Y-23.7521 Z0.1430 F21.
G1 X32.5350 Y-23.8465 Z0.1264
G1 X32.5350 Y-23.9506 Z0.1080
G1 X32.5350 Y-23.6232 Z0.1352 F22.
G1 X32.5350 Y-23.2953 Z0.1535
G1 X32.5350 Y-22.9669 Z0.1627
G1 X32.5350 Y-22.6385 Z0.1630
G1 X32.5350 Y-22.3101 Z0.1543
G1 X32.5350 Y-21.9821 Z0.1366
G1 X32.5350 Y-21.6547 Z0.1099
G0 Z0.3405
G0 X32.5350 Y-21.6547 
G0 Z0.3405
G0 X33.1906 Y-23.7433 
G1 X33.1906 Y-23.7433 Z0.2155 F21.
G1 X33.1906 Y-23.8385 Z0.1988
G1 X33.1906 Y-23.9418 Z0.1805
G1 X33.1906 Y-23.6169 Z0.2073 F22.
G1 X33.1906 Y-23.2915 Z0.2253
G1 X33.1906 Y-22.9656 Z0.2344
G1 X33.1906 Y-22.6397 Z0.2347
G1 X33.1906 Y-22.3138 Z0.2261
G1 X33.1906 Y-21.9883 Z0.2087
G1 X33.1906 Y-21.6634 Z0.1824
G0 Z0.3262
G0 X33.1906 Y-21.6634 
G0 Z0.3262
G0 X33.1906 Y-23.7433 
G1 X33.1906 Y-23.7433 Z0.2012 F21.
G1 X33.1906 Y-23.8385 Z0.1844
G1 X33.1906 Y-23.9418 Z0.1662
G1 X33.1906 Y-23.6169 Z0.1930 F22.
G1 X33.1906 Y-23.2915 Z0.2110
G1 X33.1906 Y-22.9656 Z0.2201
G1 X33.1906 Y-22.6397 Z0.2204
G1 X33.1906 Y-22.3138 Z0.2118
G1 X33.1906 Y-21.9883 Z0.1943
G1 X33.1906 Y-21.6634 Z0.1681
G0 Z0.3119
G0 X33.1906 Y-21.6634 
G0 Z0.3119
G0 X33.1906 Y-23.7433 
G1 X33.1906 Y-23.7433 Z0.1869 F21.
G1 X33.1906 Y-23.8385 Z0.1701
G1 X33.1906 Y-23.9418 Z0.1519
G1 X33.1906 Y-23.6169 Z0.1787 F22.
G1 X33.1906 Y-23.2915 Z0.1966
G1 X33.1906 Y-22.9656 Z0.2058
G1 X33.1906 Y-22.6397 Z0.2060
G1 X33.1906 Y-22.3138 Z0.1974
G1 X33.1906 Y-21.9883 Z0.1800
G1 X33.1906 Y-21.6634 Z0.1537
G0 Z0.2975
G0 X33.1906 Y-21.6634 
G0 Z0.2975
G0 X33.1906 Y-23.7433 
G1 X33.1906 Y-23.7433 Z0.1725 F21.
G1 X33.1906 Y-23.8385 Z0.1558
G1 X33.1906 Y-23.9418 Z0.1375
G1 X33.1906 Y-23.6169 Z0.1643 F22.
G1 X33.1906 Y-23.2915 Z0.1823
G1 X33.1906 Y-22.9656 Z0.1914
G1 X33.1906 Y-22.6397 Z0.1917
G1 X33.1906 Y-22.3138 Z0.1831
G1 X33.1906 Y-21.9883 Z0.1657
G1 X33.1906 Y-21.6634 Z0.1394
G0 Z0.2832
G0 X33.1906 Y-21.6634 
G0 Z0.2832
G0 X33.1906 Y-23.7433 
G1 X33.1906 Y-23.7433 Z0.1582 F21.
G1 X33.1906 Y-23.8385 Z0.1414
G1 X33.1906 Y-23.9418 Z0.1232
G1 X33.1906 Y-23.6169 Z0.1500 F22.
G1 X33.1906 Y-23.2915 Z0.1680
G1 X33.1906 Y-22.9656 Z0.1771
G1 X33.1906 Y-22.6397 Z0.1774
G1 X33.1906 Y-22.3138 Z0.1688
G1 X33.1906 Y-21.9883 Z0.1513
G1 X33.1906 Y-21.6634 Z0.1251
G0 Z0.2689
G0 X33.1906 Y-21.6634 
G0 Z0.2689
G0 X33.1906 Y-23.7433 
G1 X33.1906 Y-23.7433 Z0.1439 F21.
G1 X33.1906 Y-23.8385 Z0.1271
G1 X33.1906 Y-23.9418 Z0.1089
G1 X33.1906 Y-23.6169 Z0.1357 F22.
G1 X33.1906 Y-23.2915 Z0.1536
G1 X33.1906 Y-22.9656 Z0.1628
G1 X33.1906 Y-22.6397 Z0.1630
G1 X33.1906 Y-22.3138 Z0.1544
G1 X33.1906 Y-21.9883 Z0.1370
G1 X33.1906 Y-21.6634 Z0.1107
G0 Z0.3414
G0 X33.1906 Y-21.6634 
G0 Z0.3414
G0 X33.8851 Y-23.7339 
G1 X33.8851 Y-23.7339 Z0.2164 F21.
G1 X33.8851 Y-23.8251 Z0.2004
G1 X33.8851 Y-23.9324 Z0.1814
G1 X33.8851 Y-23.6102 Z0.2078 F22.
G1 X33.8851 Y-23.2874 Z0.2255
G1 X33.8851 Y-22.9642 Z0.2344
G1 X33.8851 Y-22.6409 Z0.2347
G1 X33.8851 Y-22.3177 Z0.2263
G1 X33.8851 Y-21.9949 Z0.2091
G1 X33.8851 Y-21.6726 Z0.1833
G0 Z0.3271
G0 X33.8851 Y-21.6726 
G0 Z0.3271
G0 X33.8851 Y-23.7339 
G1 X33.8851 Y-23.7339 Z0.2021 F21.
G1 X33.8851 Y-23.8251 Z0.1860
G1 X33.8851 Y-23.9324 Z0.1671
G1 X33.8851 Y-23.6102 Z0.1935 F22.
G1 X33.8851 Y-23.2874 Z0.2111
G1 X33.8851 Y-22.9642 Z0.2201
G1 X33.8851 Y-22.6409 Z0.2204
G1 X33.8851 Y-22.3177 Z0.2119
G1 X33.8851 Y-21.9949 Z0.1948
G1 X33.8851 Y-21.6726 Z0.1689
G0 Z0.3128
G0 X33.8851 Y-21.6726 
G0 Z0.3128
G0 X33.8851 Y-23.7339 
G1 X33.8851 Y-23.7339 Z0.1878 F21.
G1 X33.8851 Y-23.8251 Z0.1717
G1 X33.8851 Y-23.9324 Z0.1528
G1 X33.8851 Y-23.6102 Z0.1791 F22.
G1 X33.8851 Y-23.2874 Z0.1968
G1 X33.8851 Y-22.9642 Z0.2058
G1 X33.8851 Y-22.6409 Z0.2060
G1 X33.8851 Y-22.3177 Z0.1976
G1 X33.8851 Y-21.9949 Z0.1804
G1 X33.8851 Y-21.6726 Z0.1546
G0 Z0.2984
G0 X33.8851 Y-21.6726 
G0 Z0.2984
G0 X33.8851 Y-23.7339 
G1 X33.8851 Y-23.7339 Z0.1734 F21.
G1 X33.8851 Y-23.8251 Z0.1574
G1 X33.8851 Y-23.9324 Z0.1384
G1 X33.8851 Y-23.6102 Z0.1648 F22.
G1 X33.8851 Y-23.2874 Z0.1825
G1 X33.8851 Y-22.9642 Z0.1914
G1 X33.8851 Y-22.6409 Z0.1917
G1 X33.8851 Y-22.3177 Z0.1833
G1 X33.8851 Y-21.9949 Z0.1661
G1 X33.8851 Y-21.6726 Z0.1403
G0 Z0.2841
G0 X33.8851 Y-21.6726 
G0 Z0.2841
G0 X33.8851 Y-23.7339 
G1 X33.8851 Y-23.7339 Z0.1591 F21.
G1 X33.8851 Y-23.8251 Z0.1430
G1 X33.8851 Y-23.9324 Z0.1241
G1 X33.8851 Y-23.6102 Z0.1505 F22.
G1 X33.8851 Y-23.2874 Z0.1681
G1 X33.8851 Y-22.9642 Z0.1771
G1 X33.8851 Y-22.6409 Z0.1774
G1 X33.8851 Y-22.3177 Z0.1689
G1 X33.8851 Y-21.9949 Z0.1518
G1 X33.8851 Y-21.6726 Z0.1259
G0 Z0.2698
G0 X33.8851 Y-21.6726 
G0 Z0.2698
G0 X33.8851 Y-23.7339 
G1 X33.8851 Y-23.7339 Z0.1448 F21.
G1 X33.8851 Y-23.8251 Z0.1287
G1 X33.8851 Y-23.9324 Z0.1098
G1 X33.8851 Y-23.6102 Z0.1361 F22.
G1 X33.8851 Y-23.2874 Z0.1538
G1 X33.8851 Y-22.9642 Z0.1628
G1 X33.8851 Y-22.6409 Z0.1630
G1 X33.8851 Y-22.3177 Z0.1546
G1 X33.8851 Y-21.9949 Z0.1374
G1 X33.8851 Y-21.6726 Z0.1116
G0 Z0.3424
G0 X33.8851 Y-21.6726 
G0 Z0.3424
G0 X34.6210 Y-23.7241 
G1 X34.6210 Y-23.7241 Z0.2174 F21.
G1 X34.6210 Y-23.8162 Z0.2011
G1 X34.6210 Y-23.9226 Z0.1824
G1 X34.6210 Y-23.6031 Z0.2083 F22.
G1 X34.6210 Y-23.2831 Z0.2257
G1 X34.6210 Y-22.9628 Z0.2345
G1 X34.6210 Y-22.6423 Z0.2347
G1 X34.6210 Y-22.3219 Z0.2264
G1 X34.6210 Y-22.0019 Z0.2096
G1 X34.6210 Y-21.6824 Z0.1842
G0 Z0.3280
G0 X34.6210 Y-21.6824 
G0 Z0.3280
G0 X34.6210 Y-23.7241 
G1 X34.6210 Y-23.7241 Z0.2030 F21.
G1 X34.6210 Y-23.8162 Z0.1868
G1 X34.6210 Y-23.9226 Z0.1680
G1 X34.6210 Y-23.6031 Z0.1939 F22.
G1 X34.6210 Y-23.2831 Z0.2113
G1 X34.6210 Y-22.9628 Z0.2201
G1 X34.6210 Y-22.6423 Z0.2204
G1 X34.6210 Y-22.3219 Z0.2121
G1 X34.6210 Y-22.0019 Z0.1952
G1 X34.6210 Y-21.6824 Z0.1698
G0 Z0.3137
G0 X34.6210 Y-21.6824 
G0 Z0.3137
G0 X34.6210 Y-23.7241 
G1 X34.6210 Y-23.7241 Z0.1887 F21.
G1 X34.6210 Y-23.8162 Z0.1725
G1 X34.6210 Y-23.9226 Z0.1537
G1 X34.6210 Y-23.6031 Z0.1796 F22.
G1 X34.6210 Y-23.2831 Z0.1970
G1 X34.6210 Y-22.9628 Z0.2058
G1 X34.6210 Y-22.6423 Z0.2061
G1 X34.6210 Y-22.3219 Z0.1978
G1 X34.6210 Y-22.0019 Z0.1809
G1 X34.6210 Y-21.6824 Z0.1555
G0 Z0.2994
G0 X34.6210 Y-21.6824 
G0 Z0.2994
G0 X34.6210 Y-23.7241 
G1 X34.6210 Y-23.7241 Z0.1744 F21.
G1 X34.6210 Y-23.8162 Z0.1581
G1 X34.6210 Y-23.9226 Z0.1394
G1 X34.6210 Y-23.6031 Z0.1653 F22.
G1 X34.6210 Y-23.2831 Z0.1827
G1 X34.6210 Y-22.9628 Z0.1915
G1 X34.6210 Y-22.6423 Z0.1917
G1 X34.6210 Y-22.3219 Z0.1834
G1 X34.6210 Y-22.0019 Z0.1666
G1 X34.6210 Y-21.6824 Z0.1412
G0 Z0.2850
G0 X34.6210 Y-21.6824 
G0 Z0.2850
G0 X34.6210 Y-23.7241 
G1 X34.6210 Y-23.7241 Z0.1600 F21.
G1 X34.6210 Y-23.8162 Z0.1438
G1 X34.6210 Y-23.9226 Z0.1250
G1 X34.6210 Y-23.6031 Z0.1509 F22.
G1 X34.6210 Y-23.2831 Z0.1683
G1 X34.6210 Y-22.9628 Z0.1771
G1 X34.6210 Y-22.6423 Z0.1774
G1 X34.6210 Y-22.3219 Z0.1691
G1 X34.6210 Y-22.0019 Z0.1522
G1 X34.6210 Y-21.6824 Z0.1268
G0 Z0.2707
G0 X34.6210 Y-21.6824 
G0 Z0.2707
G0 X34.6210 Y-23.7241 
G1 X34.6210 Y-23.7241 Z0.1457 F21.
G1 X34.6210 Y-23.8162 Z0.1295
G1 X34.6210 Y-23.9226 Z0.1107
G1 X34.6210 Y-23.6031 Z0.1366 F22.
G1 X34.6210 Y-23.2831 Z0.1540
G1 X34.6210 Y-22.9628 Z0.1628
G1 X34.6210 Y-22.6423 Z0.1631
G1 X34.6210 Y-22.3219 Z0.1548
G1 X34.6210 Y-22.0019 Z0.1379
G1 X34.6210 Y-21.6824 Z0.1125
G0 Z0.3434
G0 X34.6210 Y-21.6824 
G0 Z0.3434
G0 X35.4006 Y-23.7136 
G1 X35.4006 Y-23.7136 Z0.2184 F21.
G1 X35.4006 Y-23.8067 Z0.2019
G1 X35.4006 Y-23.9121 Z0.1834
G1 X35.4006 Y-23.5956 Z0.2088 F22.
G1 X35.4006 Y-23.2786 Z0.2258
G1 X35.4006 Y-22.9612 Z0.2345
G1 X35.4006 Y-22.6437 Z0.2347
G1 X35.4006 Y-22.3263 Z0.2266
G1 X35.4006 Y-22.0093 Z0.2101
G1 X35.4006 Y-21.6928 Z0.1851
G0 Z0.3290
G0 X35.4006 Y-21.6928 
G0 Z0.3290
G0 X35.4006 Y-23.7136 
G1 X35.4006 Y-23.7136 Z0.2040 F21.
G1 X35.4006 Y-23.8067 Z0.1876
G1 X35.4006 Y-23.9121 Z0.1690
G1 X35.4006 Y-23.5956 Z0.1945 F22.
G1 X35.4006 Y-23.2786 Z0.2115
G1 X35.4006 Y-22.9612 Z0.2202
G1 X35.4006 Y-22.6437 Z0.2204
G1 X35.4006 Y-22.3263 Z0.2123
G1 X35.4006 Y-22.0093 Z0.1957
G1 X35.4006 Y-21.6928 Z0.1708
G0 Z0.3147
G0 X35.4006 Y-21.6928 
G0 Z0.3147
G0 X35.4006 Y-23.7136 
G1 X35.4006 Y-23.7136 Z0.1897 F21.
G1 X35.4006 Y-23.8067 Z0.1733
G1 X35.4006 Y-23.9121 Z0.1547
G1 X35.4006 Y-23.5956 Z0.1801 F22.
G1 X35.4006 Y-23.2786 Z0.1972
G1 X35.4006 Y-22.9612 Z0.2058
G1 X35.4006 Y-22.6437 Z0.2061
G1 X35.4006 Y-22.3263 Z0.1979
G1 X35.4006 Y-22.0093 Z0.1814
G1 X35.4006 Y-21.6928 Z0.1565
G0 Z0.3004
G0 X35.4006 Y-21.6928 
G0 Z0.3004
G0 X35.4006 Y-23.7136 
G1 X35.4006 Y-23.7136 Z0.1754 F21.
G1 X35.4006 Y-23.8067 Z0.1589
G1 X35.4006 Y-23.9121 Z0.1404
G1 X35.4006 Y-23.5956 Z0.1658 F22.
G1 X35.4006 Y-23.2786 Z0.1828
G1 X35.4006 Y-22.9612 Z0.1915
G1 X35.4006 Y-22.6437 Z0.1917
G1 X35.4006 Y-22.3263 Z0.1836
G1 X35.4006 Y-22.0093 Z0.1671
G1 X35.4006 Y-21.6928 Z0.1421
G0 Z0.2860
G0 X35.4006 Y-21.6928 
G0 Z0.2860
G0 X35.4006 Y-23.7136 
G1 X35.4006 Y-23.7136 Z0.1610 F21.
G1 X35.4006 Y-23.8067 Z0.1446
G1 X35.4006 Y-23.9121 Z0.1260
G1 X35.4006 Y-23.5956 Z0.1515 F22.
G1 X35.4006 Y-23.2786 Z0.1685
G1 X35.4006 Y-22.9612 Z0.1772
G1 X35.4006 Y-22.6437 Z0.1774
G1 X35.4006 Y-22.3263 Z0.1693
G1 X35.4006 Y-22.0093 Z0.1527
G1 X35.4006 Y-21.6928 Z0.1278
G0 Z0.2717
G0 X35.4006 Y-21.6928 
G0 Z0.2717
G0 X35.4006 Y-23.7136 
G1 X35.4006 Y-23.7136 Z0.1467 F21.
G1 X35.4006 Y-23.8067 Z0.1303
G1 X35.4006 Y-23.9121 Z0.1117
G1 X35.4006 Y-23.5956 Z0.1371 F22.
G1 X35.4006 Y-23.2786 Z0.1542
G1 X35.4006 Y-22.9612 Z0.1628
G1 X35.4006 Y-22.6437 Z0.1631
G1 X35.4006 Y-22.3263 Z0.1549
G1 X35.4006 Y-22.0093 Z0.1384
G1 X35.4006 Y-21.6928 Z0.1135
G0 Z0.3444
G0 X35.4006 Y-21.6928 
G0 Z0.3444
G0 X36.2266 Y-23.7025 
G1 X36.2266 Y-23.7025 Z0.2194 F21.
G1 X36.2266 Y-23.7966 Z0.2028
G1 X36.2266 Y-23.9010 Z0.1844
G1 X36.2266 Y-23.5876 Z0.2093 F22.
G1 X36.2266 Y-23.2738 Z0.2260
G1 X36.2266 Y-22.9595 Z0.2345
G1 X36.2266 Y-22.6452 Z0.2348
G1 X36.2266 Y-22.3310 Z0.2268
G1 X36.2266 Y-22.0171 Z0.2106
G1 X36.2266 Y-21.7037 Z0.1861
G0 Z0.3301
G0 X36.2266 Y-21.7037 
G0 Z0.3301
G0 X36.2266 Y-23.7025 
G1 X36.2266 Y-23.7025 Z0.2051 F21.
G1 X36.2266 Y-23.7966 Z0.1885
G1 X36.2266 Y-23.9010 Z0.1701
G1 X36.2266 Y-23.5876 Z0.1950 F22.
G1 X36.2266 Y-23.2738 Z0.2117
G1 X36.2266 Y-22.9595 Z0.2202
G1 X36.2266 Y-22.6452 Z0.2204
G1 X36.2266 Y-22.3310 Z0.2124
G1 X36.2266 Y-22.0171 Z0.1962
G1 X36.2266 Y-21.7037 Z0.1718
G0 Z0.3157
G0 X36.2266 Y-21.7037 
G0 Z0.3157
G0 X36.2266 Y-23.7025 
G1 X36.2266 Y-23.7025 Z0.1907 F21.
G1 X36.2266 Y-23.7966 Z0.1741
G1 X36.2266 Y-23.9010 Z0.1557
G1 X36.2266 Y-23.5876 Z0.1807 F22.
G1 X36.2266 Y-23.2738 Z0.1974
G1 X36.2266 Y-22.9595 Z0.2058
G1 X36.2266 Y-22.6452 Z0.2061
G1 X36.2266 Y-22.3310 Z0.1981
G1 X36.2266 Y-22.0171 Z0.1819
G1 X36.2266 Y-21.7037 Z0.1575
G0 Z0.3014
G0 X36.2266 Y-21.7037 
G0 Z0.3014
G0 X36.2266 Y-23.7025 
G1 X36.2266 Y-23.7025 Z0.1764 F21.
G1 X36.2266 Y-23.7966 Z0.1598
G1 X36.2266 Y-23.9010 Z0.1414
G1 X36.2266 Y-23.5876 Z0.1663 F22.
G1 X36.2266 Y-23.2738 Z0.1830
G1 X36.2266 Y-22.9595 Z0.1915
G1 X36.2266 Y-22.6452 Z0.1918
G1 X36.2266 Y-22.3310 Z0.1838
G1 X36.2266 Y-22.0171 Z0.1676
G1 X36.2266 Y-21.7037 Z0.1431
G0 Z0.2871
G0 X36.2266 Y-21.7037 
G0 Z0.2871
G0 X36.2266 Y-23.7025 
G1 X36.2266 Y-23.7025 Z0.1621 F21.
G1 X36.2266 Y-23.7966 Z0.1455
G1 X36.2266 Y-23.9010 Z0.1271
G1 X36.2266 Y-23.5876 Z0.1520 F22.
G1 X36.2266 Y-23.2738 Z0.1687
G1 X36.2266 Y-22.9595 Z0.1772
G1 X36.2266 Y-22.6452 Z0.1774
G1 X36.2266 Y-22.3310 Z0.1694
G1 X36.2266 Y-22.0171 Z0.1532
G1 X36.2266 Y-21.7037 Z0.1288
G0 Z0.2727
G0 X36.2266 Y-21.7037 
G0 Z0.2727
G0 X36.2266 Y-23.7025 
G1 X36.2266 Y-23.7025 Z0.1477 F21.
G1 X36.2266 Y-23.7966 Z0.1311
G1 X36.2266 Y-23.9010 Z0.1127
G1 X36.2266 Y-23.5876 Z0.1377 F22.
G1 X36.2266 Y-23.2738 Z0.1544
G1 X36.2266 Y-22.9595 Z0.1628
G1 X36.2266 Y-22.6452 Z0.1631
G1 X36.2266 Y-22.3310 Z0.1551
G1 X36.2266 Y-22.0171 Z0.1389
G1 X36.2266 Y-21.7037 Z0.1145
G0 Z0.3455
G0 X36.2266 Y-21.7037 
G0 Z0.3455
G0 X37.1016 Y-23.6907 
G1 X37.1016 Y-23.6907 Z0.2205 F21.
G1 X37.1016 Y-23.7859 Z0.2037
G1 X37.1016 Y-23.8892 Z0.1855
G1 X37.1016 Y-23.5792 Z0.2099 F22.
G1 X37.1016 Y-23.2687 Z0.2262
G1 X37.1016 Y-22.9578 Z0.2345
G1 X37.1016 Y-22.6468 Z0.2348
G1 X37.1016 Y-22.3360 Z0.2270
G1 X37.1016 Y-22.0254 Z0.2111
G1 X37.1016 Y-21.7153 Z0.1872
G0 Z0.3311
G0 X37.1016 Y-21.7153 
G0 Z0.3311
G0 X37.1016 Y-23.6907 
G1 X37.1016 Y-23.6907 Z0.2061 F21.
G1 X37.1016 Y-23.7859 Z0.1894
G1 X37.1016 Y-23.8892 Z0.1711
G1 X37.1016 Y-23.5792 Z0.1955 F22.
G1 X37.1016 Y-23.2687 Z0.2119
G1 X37.1016 Y-22.9578 Z0.2202
G1 X37.1016 Y-22.6468 Z0.2204
G1 X37.1016 Y-22.3360 Z0.2126
G1 X37.1016 Y-22.0254 Z0.1968
G1 X37.1016 Y-21.7153 Z0.1729
G0 Z0.3168
G0 X37.1016 Y-21.7153 
G0 Z0.3168
G0 X37.1016 Y-23.6907 
G1 X37.1016 Y-23.6907 Z0.1918 F21.
G1 X37.1016 Y-23.7859 Z0.1750
G1 X37.1016 Y-23.8892 Z0.1568
G1 X37.1016 Y-23.5792 Z0.1812 F22.
G1 X37.1016 Y-23.2687 Z0.1976
G1 X37.1016 Y-22.9578 Z0.2059
G1 X37.1016 Y-22.6468 Z0.2061
G1 X37.1016 Y-22.3360 Z0.1983
G1 X37.1016 Y-22.0254 Z0.1824
G1 X37.1016 Y-21.7153 Z0.1585
G0 Z0.3025
G0 X37.1016 Y-21.7153 
G0 Z0.3025
G0 X37.1016 Y-23.6907 
G1 X37.1016 Y-23.6907 Z0.1775 F21.
G1 X37.1016 Y-23.7859 Z0.1607
G1 X37.1016 Y-23.8892 Z0.1425
G1 X37.1016 Y-23.5792 Z0.1669 F22.
G1 X37.1016 Y-23.2687 Z0.1832
G1 X37.1016 Y-22.9578 Z0.1915
G1 X37.1016 Y-22.6468 Z0.1918
G1 X37.1016 Y-22.3360 Z0.1840
G1 X37.1016 Y-22.0254 Z0.1681
G1 X37.1016 Y-21.7153 Z0.1442
G0 Z0.2881
G0 X37.1016 Y-21.7153 
G0 Z0.2881
G0 X37.1016 Y-23.6907 
G1 X37.1016 Y-23.6907 Z0.1631 F21.
G1 X37.1016 Y-23.7859 Z0.1464
G1 X37.1016 Y-23.8892 Z0.1281
G1 X37.1016 Y-23.5792 Z0.1525 F22.
G1 X37.1016 Y-23.2687 Z0.1689
G1 X37.1016 Y-22.9578 Z0.1772
G1 X37.1016 Y-22.6468 Z0.1774
G1 X37.1016 Y-22.3360 Z0.1696
G1 X37.1016 Y-22.0254 Z0.1538
G1 X37.1016 Y-21.7153 Z0.1299
G0 Z0.2738
G0 X37.1016 Y-21.7153 
G0 Z0.2738
G0 X37.1016 Y-23.6907 
G1 X37.1016 Y-23.6907 Z0.1488 F21.
G1 X37.1016 Y-23.7859 Z0.1320
G1 X37.1016 Y-23.8892 Z0.1138
G1 X37.1016 Y-23.5792 Z0.1382 F22.
G1 X37.1016 Y-23.2687 Z0.1546
G1 X37.1016 Y-22.9578 Z0.1629
G1 X37.1016 Y-22.6468 Z0.1631
G1 X37.1016 Y-22.3360 Z0.1553
G1 X37.1016 Y-22.0254 Z0.1394
G1 X37.1016 Y-21.7153 Z0.1155
G0 Z0.3466
G0 X37.1016 Y-21.7153 
G0 Z0.3466
G0 X38.0288 Y-23.6783 
G1 X38.0288 Y-23.6783 Z0.2216 F21.
G1 X38.0288 Y-23.7695 Z0.2055
G1 X38.0288 Y-23.8767 Z0.1866
G1 X38.0288 Y-23.5191 Z0.2137 F22.
G1 X38.0288 Y-23.1608 Z0.2300
G1 X38.0288 Y-22.8022 Z0.2357
G1 X38.0288 Y-22.4436 Z0.2306
G1 X38.0288 Y-22.0853 Z0.2148
G1 X38.0288 Y-21.7277 Z0.1883
G0 Z0.3323
G0 X38.0288 Y-21.7277 
G0 Z0.3323
G0 X38.0288 Y-23.6783 
G1 X38.0288 Y-23.6783 Z0.2073 F21.
G1 X38.0288 Y-23.7695 Z0.1912
G1 X38.0288 Y-23.8767 Z0.1723
G1 X38.0288 Y-23.5191 Z0.1993 F22.
G1 X38.0288 Y-23.1608 Z0.2157
G1 X38.0288 Y-22.8022 Z0.2213
G1 X38.0288 Y-22.4436 Z0.2163
G1 X38.0288 Y-22.0853 Z0.2005
G1 X38.0288 Y-21.7277 Z0.1740
G0 Z0.3180
G0 X38.0288 Y-21.7277 
G0 Z0.3180
G0 X38.0288 Y-23.6783 
G1 X38.0288 Y-23.6783 Z0.1930 F21.
G1 X38.0288 Y-23.7695 Z0.1769
G1 X38.0288 Y-23.8767 Z0.1580
G1 X38.0288 Y-23.5191 Z0.1850 F22.
G1 X38.0288 Y-23.1608 Z0.2014
G1 X38.0288 Y-22.8022 Z0.2070
G1 X38.0288 Y-22.4436 Z0.2019
G1 X38.0288 Y-22.0853 Z0.1861
G1 X38.0288 Y-21.7277 Z0.1596
G0 Z0.3036
G0 X38.0288 Y-21.7277 
G0 Z0.3036
G0 X38.0288 Y-23.6783 
G1 X38.0288 Y-23.6783 Z0.1786 F21.
G1 X38.0288 Y-23.7695 Z0.1625
G1 X38.0288 Y-23.8767 Z0.1436
G1 X38.0288 Y-23.5191 Z0.1707 F22.
G1 X38.0288 Y-23.1608 Z0.1870
G1 X38.0288 Y-22.8022 Z0.1927
G1 X38.0288 Y-22.4436 Z0.1876
G1 X38.0288 Y-22.0853 Z0.1718
G1 X38.0288 Y-21.7277 Z0.1453
G0 Z0.2893
G0 X38.0288 Y-21.7277 
G0 Z0.2893
G0 X38.0288 Y-23.6783 
G1 X38.0288 Y-23.6783 Z0.1643 F21.
G1 X38.0288 Y-23.7695 Z0.1482
G1 X38.0288 Y-23.8767 Z0.1293
G1 X38.0288 Y-23.5191 Z0.1563 F22.
G1 X38.0288 Y-23.1608 Z0.1727
G1 X38.0288 Y-22.8022 Z0.1783
G1 X38.0288 Y-22.4436 Z0.1733
G1 X38.0288 Y-22.0853 Z0.1575
G1 X38.0288 Y-21.7277 Z0.1310
G0 Z0.2750
G0 X38.0288 Y-21.7277 
G0 Z0.2750
G0 X38.0288 Y-23.6783 
G1 X38.0288 Y-23.6783 Z0.1500 F21.
G1 X38.0288 Y-23.7695 Z0.1339
G1 X38.0288 Y-23.8767 Z0.1150
G1 X38.0288 Y-23.5191 Z0.1420 F22.
G1 X38.0288 Y-23.1608 Z0.1584
G1 X38.0288 Y-22.8022 Z0.1640
G1 X38.0288 Y-22.4436 Z0.1589
G1 X38.0288 Y-22.0853 Z0.1431
G1 X38.0288 Y-21.7277 Z0.1166
G0 Z0.3478
G0 X38.0288 Y-21.7277 
G0 Z0.3478
G0 X39.0110 Y-23.6650 
G1 X39.0110 Y-23.6650 Z0.2228 F21.
G1 X39.0110 Y-23.7576 Z0.2065
G1 X39.0110 Y-23.8635 Z0.1878
G1 X39.0110 Y-23.5103 Z0.2142 F22.
G1 X39.0110 Y-23.1564 Z0.2302
G1 X39.0110 Y-22.8022 Z0.2357
G1 X39.0110 Y-22.4479 Z0.2307
G1 X39.0110 Y-22.0940 Z0.2153
G1 X39.0110 Y-21.7407 Z0.1895
G0 Z0.3335
G0 X39.0110 Y-21.7407 
G0 Z0.3335
G0 X39.0110 Y-23.6650 
G1 X39.0110 Y-23.6650 Z0.2085 F21.
G1 X39.0110 Y-23.7576 Z0.1921
G1 X39.0110 Y-23.8635 Z0.1735
G1 X39.0110 Y-23.5103 Z0.1999 F22.
G1 X39.0110 Y-23.1564 Z0.2158
G1 X39.0110 Y-22.8022 Z0.2213
G1 X39.0110 Y-22.4479 Z0.2164
G1 X39.0110 Y-22.0940 Z0.2010
G1 X39.0110 Y-21.7407 Z0.1751
G0 Z0.3191
G0 X39.0110 Y-21.7407 
G0 Z0.3191
G0 X39.0110 Y-23.6650 
G1 X39.0110 Y-23.6650 Z0.1941 F21.
G1 X39.0110 Y-23.7576 Z0.1778
G1 X39.0110 Y-23.8635 Z0.1591
G1 X39.0110 Y-23.5103 Z0.1855 F22.
G1 X39.0110 Y-23.1564 Z0.2015
G1 X39.0110 Y-22.8022 Z0.2070
G1 X39.0110 Y-22.4479 Z0.2020
G1 X39.0110 Y-22.0940 Z0.1866
G1 X39.0110 Y-21.7407 Z0.1608
G0 Z0.3048
G0 X39.0110 Y-21.7407 
G0 Z0.3048
G0 X39.0110 Y-23.6650 
G1 X39.0110 Y-23.6650 Z0.1798 F21.
G1 X39.0110 Y-23.7576 Z0.1635
G1 X39.0110 Y-23.8635 Z0.1448
G1 X39.0110 Y-23.5103 Z0.1712 F22.
G1 X39.0110 Y-23.1564 Z0.1872
G1 X39.0110 Y-22.8022 Z0.1927
G1 X39.0110 Y-22.4479 Z0.1877
G1 X39.0110 Y-22.0940 Z0.1723
G1 X39.0110 Y-21.7407 Z0.1465
G0 Z0.2905
G0 X39.0110 Y-21.7407 
G0 Z0.2905
G0 X39.0110 Y-23.6650 
G1 X39.0110 Y-23.6650 Z0.1655 F21.
G1 X39.0110 Y-23.7576 Z0.1491
G1 X39.0110 Y-23.8635 Z0.1305
G1 X39.0110 Y-23.5103 Z0.1569 F22.
G1 X39.0110 Y-23.1564 Z0.1728
G1 X39.0110 Y-22.8022 Z0.1783
G1 X39.0110 Y-22.4479 Z0.1734
G1 X39.0110 Y-22.0940 Z0.1580
G1 X39.0110 Y-21.7407 Z0.1321
G0 Z0.2761
G0 X39.0110 Y-21.7407 
G0 Z0.2761
G0 X39.0110 Y-23.6650 
G1 X39.0110 Y-23.6650 Z0.1511 F21.
G1 X39.0110 Y-23.7576 Z0.1348
G1 X39.0110 Y-23.8635 Z0.1161
G1 X39.0110 Y-23.5103 Z0.1425 F22.
G1 X39.0110 Y-23.1564 Z0.1585
G1 X39.0110 Y-22.8022 Z0.1640
G1 X39.0110 Y-22.4479 Z0.1590
G1 X39.0110 Y-22.0940 Z0.1436
G1 X39.0110 Y-21.7407 Z0.1178
G0 Z0.3491
G0 X39.0110 Y-21.7407 
G0 Z0.3491
G0 X40.0517 Y-23.6511 
G1 X40.0517 Y-23.6511 Z0.2241 F21.
G1 X40.0517 Y-23.7450 Z0.2075
G1 X40.0517 Y-23.8496 Z0.1891
G1 X40.0517 Y-23.5009 Z0.2148 F22.
G1 X40.0517 Y-23.1516 Z0.2303
G1 X40.0517 Y-22.8021 Z0.2357
G1 X40.0517 Y-22.4525 Z0.2308
G1 X40.0517 Y-22.1032 Z0.2158
G1 X40.0517 Y-21.7545 Z0.1907
G0 Z0.3347
G0 X40.0517 Y-21.7545 
G0 Z0.3347
G0 X40.0517 Y-23.6511 
G1 X40.0517 Y-23.6511 Z0.2097 F21.
G1 X40.0517 Y-23.7450 Z0.1931
G1 X40.0517 Y-23.8496 Z0.1747
G1 X40.0517 Y-23.5009 Z0.2004 F22.
G1 X40.0517 Y-23.1516 Z0.2160
G1 X40.0517 Y-22.8021 Z0.2213
G1 X40.0517 Y-22.4525 Z0.2165
G1 X40.0517 Y-22.1032 Z0.2015
G1 X40.0517 Y-21.7545 Z0.1763
G0 Z0.3204
G0 X40.0517 Y-21.7545 
G0 Z0.3204
G0 X40.0517 Y-23.6511 
G1 X40.0517 Y-23.6511 Z0.1954 F21.
G1 X40.0517 Y-23.7450 Z0.1788
G1 X40.0517 Y-23.8496 Z0.1604
G1 X40.0517 Y-23.5009 Z0.1861 F22.
G1 X40.0517 Y-23.1516 Z0.2016
G1 X40.0517 Y-22.8021 Z0.2070
G1 X40.0517 Y-22.4525 Z0.2022
G1 X40.0517 Y-22.1032 Z0.1872
G1 X40.0517 Y-21.7545 Z0.1620
G0 Z0.3061
G0 X40.0517 Y-21.7545 
G0 Z0.3061
G0 X40.0517 Y-23.6511 
G1 X40.0517 Y-23.6511 Z0.1811 F21.
G1 X40.0517 Y-23.7450 Z0.1645
G1 X40.0517 Y-23.8496 Z0.1461
G1 X40.0517 Y-23.5009 Z0.1718 F22.
G1 X40.0517 Y-23.1516 Z0.1873
G1 X40.0517 Y-22.8021 Z0.1927
G1 X40.0517 Y-22.4525 Z0.1878
G1 X40.0517 Y-22.1032 Z0.1728
G1 X40.0517 Y-21.7545 Z0.1477
G0 Z0.2917
G0 X40.0517 Y-21.7545 
G0 Z0.2917
G0 X40.0517 Y-23.6511 
G1 X40.0517 Y-23.6511 Z0.1667 F21.
G1 X40.0517 Y-23.7450 Z0.1501
G1 X40.0517 Y-23.8496 Z0.1317
G1 X40.0517 Y-23.5009 Z0.1574 F22.
G1 X40.0517 Y-23.1516 Z0.1730
G1 X40.0517 Y-22.8021 Z0.1783
G1 X40.0517 Y-22.4525 Z0.1735
G1 X40.0517 Y-22.1032 Z0.1585
G1 X40.0517 Y-21.7545 Z0.1333
G0 Z0.2774
G0 X40.0517 Y-21.7545 
G0 Z0.2774
G0 X40.0517 Y-23.6511 
G1 X40.0517 Y-23.6511 Z0.1524 F21.
G1 X40.0517 Y-23.7450 Z0.1358
G1 X40.0517 Y-23.8496 Z0.1174
G1 X40.0517 Y-23.5009 Z0.1431 F22.
G1 X40.0517 Y-23.1516 Z0.1586
G1 X40.0517 Y-22.8021 Z0.1640
G1 X40.0517 Y-22.4525 Z0.1592
G1 X40.0517 Y-22.1032 Z0.1442
G1 X40.0517 Y-21.7545 Z0.1190
G0 Z0.3504
G0 X40.0517 Y-21.7545 
G0 Z0.3504
G0 X41.1542 Y-23.6362 
G1 X41.1542 Y-23.6362 Z0.2254 F21.
G1 X41.1542 Y-23.7317 Z0.2085
G1 X41.1542 Y-23.8347 Z0.1904
G1 X41.1542 Y-23.4910 Z0.2153 F22.
G1 X41.1542 Y-23.1466 Z0.2305
G1 X41.1542 Y-22.8020 Z0.2357
G1 X41.1542 Y-22.4573 Z0.2310
G1 X41.1542 Y-22.1130 Z0.2164
G1 X41.1542 Y-21.7692 Z0.1919
G0 Z0.3360
G0 X41.1542 Y-21.7692 
G0 Z0.3360
G0 X41.1542 Y-23.6362 
G1 X41.1542 Y-23.6362 Z0.2110 F21.
G1 X41.1542 Y-23.7317 Z0.1942
G1 X41.1542 Y-23.8347 Z0.1760
G1 X41.1542 Y-23.4910 Z0.2010 F22.
G1 X41.1542 Y-23.1466 Z0.2161
G1 X41.1542 Y-22.8020 Z0.2213
G1 X41.1542 Y-22.4573 Z0.2166
G1 X41.1542 Y-22.1130 Z0.2021
G1 X41.1542 Y-21.7692 Z0.1776
G0 Z0.3217
G0 X41.1542 Y-21.7692 
G0 Z0.3217
G0 X41.1542 Y-23.6362 
G1 X41.1542 Y-23.6362 Z0.1967 F21.
G1 X41.1542 Y-23.7317 Z0.1799
G1 X41.1542 Y-23.8347 Z0.1617
G1 X41.1542 Y-23.4910 Z0.1867 F22.
G1 X41.1542 Y-23.1466 Z0.2018
G1 X41.1542 Y-22.8020 Z0.2070
G1 X41.1542 Y-22.4573 Z0.2023
G1 X41.1542 Y-22.1130 Z0.1877
G1 X41.1542 Y-21.7692 Z0.1633
G0 Z0.3074
G0 X41.1542 Y-21.7692 
G0 Z0.3074
G0 X41.1542 Y-23.6362 
G1 X41.1542 Y-23.6362 Z0.1824 F21.
G1 X41.1542 Y-23.7317 Z0.1655
G1 X41.1542 Y-23.8347 Z0.1474
G1 X41.1542 Y-23.4910 Z0.1723 F22.
G1 X41.1542 Y-23.1466 Z0.1875
G1 X41.1542 Y-22.8020 Z0.1927
G1 X41.1542 Y-22.4573 Z0.1880
G1 X41.1542 Y-22.1130 Z0.1734
G1 X41.1542 Y-21.7692 Z0.1489
G0 Z0.2930
G0 X41.1542 Y-21.7692 
G0 Z0.2930
G0 X41.1542 Y-23.6362 
G1 X41.1542 Y-23.6362 Z0.1680 F21.
G1 X41.1542 Y-23.7317 Z0.1512
G1 X41.1542 Y-23.8347 Z0.1330
G1 X41.1542 Y-23.4910 Z0.1580 F22.
G1 X41.1542 Y-23.1466 Z0.1731
G1 X41.1542 Y-22.8020 Z0.1783
G1 X41.1542 Y-22.4573 Z0.1736
G1 X41.1542 Y-22.1130 Z0.1591
G1 X41.1542 Y-21.7692 Z0.1346
G0 Z0.2787
G0 X41.1542 Y-21.7692 
G0 Z0.2787
G0 X41.1542 Y-23.6362 
G1 X41.1542 Y-23.6362 Z0.1537 F21.
G1 X41.1542 Y-23.7317 Z0.1369
G1 X41.1542 Y-23.8347 Z0.1187
G1 X41.1542 Y-23.4910 Z0.1437 F22.
G1 X41.1542 Y-23.1466 Z0.1588
G1 X41.1542 Y-22.8020 Z0.1640
G1 X41.1542 Y-22.4573 Z0.1593
G1 X41.1542 Y-22.1130 Z0.1447
G1 X41.1542 Y-21.7692 Z0.1203
G0 Z0.3517
G0 X41.1542 Y-21.7692 
G0 Z0.3517
G0 X42.3223 Y-23.6205 
G1 X42.3223 Y-23.6205 Z0.2267 F21.
G1 X42.3223 Y-23.7122 Z0.2106
G1 X42.3223 Y-23.8190 Z0.1917
G1 X42.3223 Y-23.4804 Z0.2160 F22.
G1 X42.3223 Y-23.1413 Z0.2306
G1 X42.3223 Y-22.8019 Z0.2357
G1 X42.3223 Y-22.4625 Z0.2311
G1 X42.3223 Y-22.1233 Z0.2170
G1 X42.3223 Y-21.7847 Z0.1932
G0 Z0.3374
G0 X42.3223 Y-21.7847 
G0 Z0.3374
G0 X42.3223 Y-23.6205 
G1 X42.3223 Y-23.6205 Z0.2124 F21.
G1 X42.3223 Y-23.7122 Z0.1962
G1 X42.3223 Y-23.8190 Z0.1774
G1 X42.3223 Y-23.4804 Z0.2016 F22.
G1 X42.3223 Y-23.1413 Z0.2163
G1 X42.3223 Y-22.8019 Z0.2213
G1 X42.3223 Y-22.4625 Z0.2168
G1 X42.3223 Y-22.1233 Z0.2026
G1 X42.3223 Y-21.7847 Z0.1789
G0 Z0.3230
G0 X42.3223 Y-21.7847 
G0 Z0.3230
G0 X42.3223 Y-23.6205 
G1 X42.3223 Y-23.6205 Z0.1980 F21.
G1 X42.3223 Y-23.7122 Z0.1819
G1 X42.3223 Y-23.8190 Z0.1630
G1 X42.3223 Y-23.4804 Z0.1873 F22.
G1 X42.3223 Y-23.1413 Z0.2019
G1 X42.3223 Y-22.8019 Z0.2070
G1 X42.3223 Y-22.4625 Z0.2025
G1 X42.3223 Y-22.1233 Z0.1883
G1 X42.3223 Y-21.7847 Z0.1646
G0 Z0.3087
G0 X42.3223 Y-21.7847 
G0 Z0.3087
G0 X42.3223 Y-23.6205 
G1 X42.3223 Y-23.6205 Z0.1837 F21.
G1 X42.3223 Y-23.7122 Z0.1676
G1 X42.3223 Y-23.8190 Z0.1487
G1 X42.3223 Y-23.4804 Z0.1730 F22.
G1 X42.3223 Y-23.1413 Z0.1876
G1 X42.3223 Y-22.8019 Z0.1927
G1 X42.3223 Y-22.4625 Z0.1881
G1 X42.3223 Y-22.1233 Z0.1740
G1 X42.3223 Y-21.7847 Z0.1502
G0 Z0.2944
G0 X42.3223 Y-21.7847 
G0 Z0.2944
G0 X42.3223 Y-23.6205 
G1 X42.3223 Y-23.6205 Z0.1694 F21.
G1 X42.3223 Y-23.7122 Z0.1532
G1 X42.3223 Y-23.8190 Z0.1344
G1 X42.3223 Y-23.4804 Z0.1586 F22.
G1 X42.3223 Y-23.1413 Z0.1733
G1 X42.3223 Y-22.8019 Z0.1783
G1 X42.3223 Y-22.4625 Z0.1738
G1 X42.3223 Y-22.1233 Z0.1596
G1 X42.3223 Y-21.7847 Z0.1359
G0 Z0.2800
G0 X42.3223 Y-21.7847 
G0 Z0.2800
G0 X42.3223 Y-23.6205 
G1 X42.3223 Y-23.6205 Z0.1550 F21.
G1 X42.3223 Y-23.7122 Z0.1389
G1 X42.3223 Y-23.8190 Z0.1200
G1 X42.3223 Y-23.4804 Z0.1443 F22.
G1 X42.3223 Y-23.1413 Z0.1589
G1 X42.3223 Y-22.8019 Z0.1640
G1 X42.3223 Y-22.4625 Z0.1595
G1 X42.3223 Y-22.1233 Z0.1453
G1 X42.3223 Y-21.7847 Z0.1216
G0 Z0.3531
G0 X42.3223 Y-21.7847 
G0 Z0.3531
G0 X43.5599 Y-23.6039 
G1 X43.5599 Y-23.6039 Z0.2281 F21.
G1 X43.5599 Y-23.6973 Z0.2117
G1 X43.5599 Y-23.8024 Z0.1931
G1 X43.5599 Y-23.4693 Z0.2166 F22.
G1 X43.5599 Y-23.1357 Z0.2308
G1 X43.5599 Y-22.8018 Z0.2357
G1 X43.5599 Y-22.4679 Z0.2313
G1 X43.5599 Y-22.1342 Z0.2176
G1 X43.5599 Y-21.8011 Z0.1946
G0 Z0.3388
G0 X43.5599 Y-21.8011 
G0 Z0.3388
G0 X43.5599 Y-23.6039 
G1 X43.5599 Y-23.6039 Z0.2138 F21.
G1 X43.5599 Y-23.6973 Z0.1973
G1 X43.5599 Y-23.8024 Z0.1788
G1 X43.5599 Y-23.4693 Z0.2023 F22.
G1 X43.5599 Y-23.1357 Z0.2164
G1 X43.5599 Y-22.8018 Z0.2213
G1 X43.5599 Y-22.4679 Z0.2169
G1 X43.5599 Y-22.1342 Z0.2032
G1 X43.5599 Y-21.8011 Z0.1803
G0 Z0.3245
G0 X43.5599 Y-21.8011 
G0 Z0.3245
G0 X43.5599 Y-23.6039 
G1 X43.5599 Y-23.6039 Z0.1995 F21.
G1 X43.5599 Y-23.6973 Z0.1830
G1 X43.5599 Y-23.8024 Z0.1645
G1 X43.5599 Y-23.4693 Z0.1879 F22.
G1 X43.5599 Y-23.1357 Z0.2021
G1 X43.5599 Y-22.8018 Z0.2070
G1 X43.5599 Y-22.4679 Z0.2026
G1 X43.5599 Y-22.1342 Z0.1889
G1 X43.5599 Y-21.8011 Z0.1660
G0 Z0.3101
G0 X43.5599 Y-21.8011 
G0 Z0.3101
G0 X43.5599 Y-23.6039 
G1 X43.5599 Y-23.6039 Z0.1851 F21.
G1 X43.5599 Y-23.6973 Z0.1687
G1 X43.5599 Y-23.8024 Z0.1501
G1 X43.5599 Y-23.4693 Z0.1736 F22.
G1 X43.5599 Y-23.1357 Z0.1878
G1 X43.5599 Y-22.8018 Z0.1927
G1 X43.5599 Y-22.4679 Z0.1883
G1 X43.5599 Y-22.1342 Z0.1746
G1 X43.5599 Y-21.8011 Z0.1516
G0 Z0.2958
G0 X43.5599 Y-21.8011 
G0 Z0.2958
G0 X43.5599 Y-23.6039 
G1 X43.5599 Y-23.6039 Z0.1708 F21.
G1 X43.5599 Y-23.6973 Z0.1543
G1 X43.5599 Y-23.8024 Z0.1358
G1 X43.5599 Y-23.4693 Z0.1593 F22.
G1 X43.5599 Y-23.1357 Z0.1734
G1 X43.5599 Y-22.8018 Z0.1783
G1 X43.5599 Y-22.4679 Z0.1739
G1 X43.5599 Y-22.1342 Z0.1602
G1 X43.5599 Y-21.8011 Z0.1373
G0 Z0.2815
G0 X43.5599 Y-21.8011 
G0 Z0.2815
G0 X43.5599 Y-23.6039 
G1 X43.5599 Y-23.6039 Z0.1565 F21.
G1 X43.5599 Y-23.6973 Z0.1400
G1 X43.5599 Y-23.8024 Z0.1215
G1 X43.5599 Y-23.4693 Z0.1449 F22.
G1 X43.5599 Y-23.1357 Z0.1591
G1 X43.5599 Y-22.8018 Z0.1640
G1 X43.5599 Y-22.4679 Z0.1596
G1 X43.5599 Y-22.1342 Z0.1459
G1 X43.5599 Y-21.8011 Z0.1230
G0 Z0.3546
G0 X43.5599 Y-21.8011 
G0 Z0.3546
G0 X44.8710 Y-23.5863 
G1 X44.8710 Y-23.5863 Z0.2296 F21.
G1 X44.8710 Y-23.6815 Z0.2128
G1 X44.8710 Y-23.7848 Z0.1946
G1 X44.8710 Y-23.4575 Z0.2172 F22.
G1 X44.8710 Y-23.1297 Z0.2309
G1 X44.8710 Y-22.8017 Z0.2357
G1 X44.8710 Y-22.4736 Z0.2314
G1 X44.8710 Y-22.1458 Z0.2182
G1 X44.8710 Y-21.8185 Z0.1960
G0 Z0.3403
G0 X44.8710 Y-21.8185 
G0 Z0.3403
G0 X44.8710 Y-23.5863 
G1 X44.8710 Y-23.5863 Z0.2153 F21.
G1 X44.8710 Y-23.6815 Z0.1985
G1 X44.8710 Y-23.7848 Z0.1803
G1 X44.8710 Y-23.4575 Z0.2029 F22.
G1 X44.8710 Y-23.1297 Z0.2166
G1 X44.8710 Y-22.8017 Z0.2213
G1 X44.8710 Y-22.4736 Z0.2171
G1 X44.8710 Y-22.1458 Z0.2039
G1 X44.8710 Y-21.8185 Z0.1817
G0 Z0.3259
G0 X44.8710 Y-21.8185 
G0 Z0.3259
G0 X44.8710 Y-23.5863 
G1 X44.8710 Y-23.5863 Z0.2009 F21.
G1 X44.8710 Y-23.6815 Z0.1841
G1 X44.8710 Y-23.7848 Z0.1659
G1 X44.8710 Y-23.4575 Z0.1886 F22.
G1 X44.8710 Y-23.1297 Z0.2023
G1 X44.8710 Y-22.8017 Z0.2070
G1 X44.8710 Y-22.4736 Z0.2028
G1 X44.8710 Y-22.1458 Z0.1895
G1 X44.8710 Y-21.8185 Z0.1674
G0 Z0.3116
G0 X44.8710 Y-21.8185 
G0 Z0.3116
G0 X44.8710 Y-23.5863 
G1 X44.8710 Y-23.5863 Z0.1866 F21.
G1 X44.8710 Y-23.6815 Z0.1698
G1 X44.8710 Y-23.7848 Z0.1516
G1 X44.8710 Y-23.4575 Z0.1742 F22.
G1 X44.8710 Y-23.1297 Z0.1879
G1 X44.8710 Y-22.8017 Z0.1927
G1 X44.8710 Y-22.4736 Z0.1884
G1 X44.8710 Y-22.1458 Z0.1752
G1 X44.8710 Y-21.8185 Z0.1530
G0 Z0.2973
G0 X44.8710 Y-21.8185 
G0 Z0.2973
G0 X44.8710 Y-23.5863 
G1 X44.8710 Y-23.5863 Z0.1723 F21.
G1 X44.8710 Y-23.6815 Z0.1555
G1 X44.8710 Y-23.7848 Z0.1373
G1 X44.8710 Y-23.4575 Z0.1599 F22.
G1 X44.8710 Y-23.1297 Z0.1736
G1 X44.8710 Y-22.8017 Z0.1783
G1 X44.8710 Y-22.4736 Z0.1741
G1 X44.8710 Y-22.1458 Z0.1609
G1 X44.8710 Y-21.8185 Z0.1387
G0 Z0.2829
G0 X44.8710 Y-21.8185 
G0 Z0.2829
G0 X44.8710 Y-23.5863 
G1 X44.8710 Y-23.5863 Z0.1579 F21.
G1 X44.8710 Y-23.6815 Z0.1411
G1 X44.8710 Y-23.7848 Z0.1229
G1 X44.8710 Y-23.4575 Z0.1456 F22.
G1 X44.8710 Y-23.1297 Z0.1593
G1 X44.8710 Y-22.8017 Z0.1640
G1 X44.8710 Y-22.4736 Z0.1598
G1 X44.8710 Y-22.1458 Z0.1465
G1 X44.8710 Y-21.8185 Z0.1244
G0 Z1.3000
G0 X44.8710 Y-21.8185 
M5
G53 Z
X2Y0
