( MOP:  03-frets-r12Wolnick-s24PT75-NFrets22-StandardDepth-HiddenKerf-01 )
( FILE: G:\Shared drives\AlloyProjectFiles\Customer CAD files\Alloy-Standard-Builds-CAM\Fingerboards-in\03-frets-r12Wolnick-s24PT75-NFrets22-StandardDepth-HiddenKerf-01.nc)
G90
(  BEGIN TOOL LIST )
(  TOOL 15 - Fretkerf PT025 - DESC: 0.0250 DIA, 2 FLUTE,  CARBIDE MAT )
(  ENDOF TOOL LIST )
( 03-frets-r12Wolnick-s24PT75-NFrets22-StandardDepth-HiddenKerf-01)
T15
S14000
M3
G0 Z4.0000
G0 X28.4555 Y-23.6731 
G1 X28.4555 Y-23.6731 Z0.2289 F75.
G1 X28.4555 Y-23.7390 Z0.2173 F21.
G1 X28.4555 Y-23.8432 Z0.1989
G1 X28.4555 Y-23.4954 Z0.2245 F22.
G1 X28.4555 Y-23.1469 Z0.2400
G1 X28.4555 Y-22.7982 Z0.2454
G1 X28.4555 Y-22.4494 Z0.2406
G1 X28.4555 Y-22.1009 Z0.2257
G1 X28.4555 Y-21.7531 Z0.2006
G0 Z0.3688
G0 X28.4555 Y-21.7531 
G0 Z0.3688
G0 X28.4555 Y-23.6731 
G1 X28.4555 Y-23.6731 Z0.2173 F75.
G1 X28.4555 Y-23.7390 Z0.2057 F21.
G1 X28.4555 Y-23.8432 Z0.1873
G1 X28.4555 Y-23.4954 Z0.2129 F22.
G1 X28.4555 Y-23.1469 Z0.2284
G1 X28.4555 Y-22.7982 Z0.2338
G1 X28.4555 Y-22.4494 Z0.2290
G1 X28.4555 Y-22.1009 Z0.2141
G1 X28.4555 Y-21.7531 Z0.1891
G0 Z0.3688
G0 X28.4555 Y-21.7531 
G0 Z0.3688
G0 X28.4555 Y-23.6731 
G1 X28.4555 Y-23.6731 Z0.2058 F75.
G1 X28.4555 Y-23.7390 Z0.1942 F21.
G1 X28.4555 Y-23.8432 Z0.1758
G1 X28.4555 Y-23.4954 Z0.2014 F22.
G1 X28.4555 Y-23.1469 Z0.2169
G1 X28.4555 Y-22.7982 Z0.2222
G1 X28.4555 Y-22.4494 Z0.2174
G1 X28.4555 Y-22.1009 Z0.2025
G1 X28.4555 Y-21.7531 Z0.1775
G0 Z0.3688
G0 X28.4555 Y-21.7531 
G0 Z0.3688
G0 X28.4555 Y-23.6731 
G1 X28.4555 Y-23.6731 Z0.1942 F75.
G1 X28.4555 Y-23.7390 Z0.1826 F21.
G1 X28.4555 Y-23.8432 Z0.1642
G1 X28.4555 Y-23.4954 Z0.1898 F22.
G1 X28.4555 Y-23.1469 Z0.2053
G1 X28.4555 Y-22.7982 Z0.2107
G1 X28.4555 Y-22.4494 Z0.2059
G1 X28.4555 Y-22.1009 Z0.1910
G1 X28.4555 Y-21.7531 Z0.1659
G0 Z0.3688
G0 X28.4555 Y-21.7531 
G0 Z0.3688
G0 X28.4555 Y-23.6731 
G1 X28.4555 Y-23.6731 Z0.1826 F75.
G1 X28.4555 Y-23.7390 Z0.1710 F21.
G1 X28.4555 Y-23.8432 Z0.1526
G1 X28.4555 Y-23.4954 Z0.1783 F22.
G1 X28.4555 Y-23.1469 Z0.1937
G1 X28.4555 Y-22.7982 Z0.1991
G1 X28.4555 Y-22.4494 Z0.1943
G1 X28.4555 Y-22.1009 Z0.1794
G1 X28.4555 Y-21.7531 Z0.1544
G0 Z0.3688
G0 X28.4555 Y-21.7531 
G0 Z0.3688
G0 X28.4555 Y-23.6731 
G1 X28.4555 Y-23.6731 Z0.1711 F75.
G1 X28.4555 Y-23.7390 Z0.1595 F21.
G1 X28.4555 Y-23.8432 Z0.1411
G1 X28.4555 Y-23.4954 Z0.1667 F22.
G1 X28.4555 Y-23.1469 Z0.1822
G1 X28.4555 Y-22.7982 Z0.1875
G1 X28.4555 Y-22.4494 Z0.1828
G1 X28.4555 Y-22.1009 Z0.1678
G1 X28.4555 Y-21.7531 Z0.1428
G0 Z0.3688
G0 X28.4555 Y-21.7531 
G0 Z0.3688
G0 X28.4555 Y-23.6731 
G1 X28.4555 Y-23.6731 Z0.1595 F75.
G1 X28.4555 Y-23.7390 Z0.1479 F21.
G1 X28.4555 Y-23.8432 Z0.1295
G1 X28.4555 Y-23.4954 Z0.1551 F22.
G1 X28.4555 Y-23.1469 Z0.1706
G1 X28.4555 Y-22.7982 Z0.1760
G1 X28.4555 Y-22.4494 Z0.1712
G1 X28.4555 Y-22.1009 Z0.1563
G1 X28.4555 Y-21.7531 Z0.1313
G0 Z0.3688
G0 X28.4555 Y-21.7531 
G0 Z0.3688
G0 X28.4555 Y-23.6731 
G1 X28.4555 Y-23.6731 Z0.1480 F75.
G1 X28.4555 Y-23.7390 Z0.1363 F21.
G1 X28.4555 Y-23.8432 Z0.1180
G1 X28.4555 Y-23.4954 Z0.1436 F22.
G1 X28.4555 Y-23.1469 Z0.1591
G1 X28.4555 Y-22.7982 Z0.1644
G1 X28.4555 Y-22.4494 Z0.1596
G1 X28.4555 Y-22.1009 Z0.1447
G1 X28.4555 Y-21.7531 Z0.1197
G0 Z0.4310
G0 X28.4555 Y-21.7531 
G0 Z0.4310
G0 X28.8684 Y-23.6669 
G1 X28.8684 Y-23.6669 Z0.2288 F75.
G1 X28.8684 Y-23.7333 Z0.2171 F21.
G1 X28.8684 Y-23.8370 Z0.1988
G1 X28.8684 Y-23.4912 Z0.2241 F22.
G1 X28.8684 Y-23.1448 Z0.2394
G1 X28.8684 Y-22.7982 Z0.2447
G1 X28.8684 Y-22.4515 Z0.2400
G1 X28.8684 Y-22.1051 Z0.2253
G1 X28.8684 Y-21.7593 Z0.2005
G0 Z0.3682
G0 X28.8684 Y-21.7593 
G0 Z0.3682
G0 X28.8684 Y-23.6669 
G1 X28.8684 Y-23.6669 Z0.2173 F75.
G1 X28.8684 Y-23.7333 Z0.2055 F21.
G1 X28.8684 Y-23.8370 Z0.1873
G1 X28.8684 Y-23.4912 Z0.2126 F22.
G1 X28.8684 Y-23.1448 Z0.2279
G1 X28.8684 Y-22.7982 Z0.2332
G1 X28.8684 Y-22.4515 Z0.2285
G1 X28.8684 Y-22.1051 Z0.2137
G1 X28.8684 Y-21.7593 Z0.1890
G0 Z0.3682
G0 X28.8684 Y-21.7593 
G0 Z0.3682
G0 X28.8684 Y-23.6669 
G1 X28.8684 Y-23.6669 Z0.2057 F75.
G1 X28.8684 Y-23.7333 Z0.1940 F21.
G1 X28.8684 Y-23.8370 Z0.1757
G1 X28.8684 Y-23.4912 Z0.2010 F22.
G1 X28.8684 Y-23.1448 Z0.2163
G1 X28.8684 Y-22.7982 Z0.2216
G1 X28.8684 Y-22.4515 Z0.2169
G1 X28.8684 Y-22.1051 Z0.2022
G1 X28.8684 Y-21.7593 Z0.1774
G0 Z0.3682
G0 X28.8684 Y-21.7593 
G0 Z0.3682
G0 X28.8684 Y-23.6669 
G1 X28.8684 Y-23.6669 Z0.1941 F75.
G1 X28.8684 Y-23.7333 Z0.1824 F21.
G1 X28.8684 Y-23.8370 Z0.1641
G1 X28.8684 Y-23.4912 Z0.1894 F22.
G1 X28.8684 Y-23.1448 Z0.2048
G1 X28.8684 Y-22.7982 Z0.2101
G1 X28.8684 Y-22.4515 Z0.2053
G1 X28.8684 Y-22.1051 Z0.1906
G1 X28.8684 Y-21.7593 Z0.1659
G0 Z0.3682
G0 X28.8684 Y-21.7593 
G0 Z0.3682
G0 X28.8684 Y-23.6669 
G1 X28.8684 Y-23.6669 Z0.1826 F75.
G1 X28.8684 Y-23.7333 Z0.1709 F21.
G1 X28.8684 Y-23.8370 Z0.1526
G1 X28.8684 Y-23.4912 Z0.1779 F22.
G1 X28.8684 Y-23.1448 Z0.1932
G1 X28.8684 Y-22.7982 Z0.1985
G1 X28.8684 Y-22.4515 Z0.1938
G1 X28.8684 Y-22.1051 Z0.1790
G1 X28.8684 Y-21.7593 Z0.1543
G0 Z0.3682
G0 X28.8684 Y-21.7593 
G0 Z0.3682
G0 X28.8684 Y-23.6669 
G1 X28.8684 Y-23.6669 Z0.1710 F75.
G1 X28.8684 Y-23.7333 Z0.1593 F21.
G1 X28.8684 Y-23.8370 Z0.1410
G1 X28.8684 Y-23.4912 Z0.1663 F22.
G1 X28.8684 Y-23.1448 Z0.1816
G1 X28.8684 Y-22.7982 Z0.1869
G1 X28.8684 Y-22.4515 Z0.1822
G1 X28.8684 Y-22.1051 Z0.1675
G1 X28.8684 Y-21.7593 Z0.1427
G0 Z0.3682
G0 X28.8684 Y-21.7593 
G0 Z0.3682
G0 X28.8684 Y-23.6669 
G1 X28.8684 Y-23.6669 Z0.1595 F75.
G1 X28.8684 Y-23.7333 Z0.1477 F21.
G1 X28.8684 Y-23.8370 Z0.1295
G1 X28.8684 Y-23.4912 Z0.1548 F22.
G1 X28.8684 Y-23.1448 Z0.1701
G1 X28.8684 Y-22.7982 Z0.1754
G1 X28.8684 Y-22.4515 Z0.1706
G1 X28.8684 Y-22.1051 Z0.1559
G1 X28.8684 Y-21.7593 Z0.1312
G0 Z0.3682
G0 X28.8684 Y-21.7593 
G0 Z0.3682
G0 X28.8684 Y-23.6669 
G1 X28.8684 Y-23.6669 Z0.1479 F75.
G1 X28.8684 Y-23.7333 Z0.1362 F21.
G1 X28.8684 Y-23.8370 Z0.1179
G1 X28.8684 Y-23.4912 Z0.1432 F22.
G1 X28.8684 Y-23.1448 Z0.1585
G1 X28.8684 Y-22.7982 Z0.1638
G1 X28.8684 Y-22.4515 Z0.1591
G1 X28.8684 Y-22.1051 Z0.1443
G1 X28.8684 Y-21.7593 Z0.1196
G0 Z0.4304
G0 X28.8684 Y-21.7593 
G0 Z0.4304
G0 X29.3060 Y-23.6603 
G1 X29.3060 Y-23.6603 Z0.2288 F75.
G1 X29.3060 Y-23.7274 Z0.2169 F21.
G1 X29.3060 Y-23.8304 Z0.1988
G1 X29.3060 Y-23.4868 Z0.2237 F22.
G1 X29.3060 Y-23.1426 Z0.2389
G1 X29.3060 Y-22.7982 Z0.2441
G1 X29.3060 Y-22.4537 Z0.2394
G1 X29.3060 Y-22.1095 Z0.2249
G1 X29.3060 Y-21.7659 Z0.2005
G0 Z0.3676
G0 X29.3060 Y-21.7659 
G0 Z0.3676
G0 X29.3060 Y-23.6603 
G1 X29.3060 Y-23.6603 Z0.2172 F75.
G1 X29.3060 Y-23.7274 Z0.2054 F21.
G1 X29.3060 Y-23.8304 Z0.1872
G1 X29.3060 Y-23.4868 Z0.2122 F22.
G1 X29.3060 Y-23.1426 Z0.2273
G1 X29.3060 Y-22.7982 Z0.2325
G1 X29.3060 Y-22.4537 Z0.2279
G1 X29.3060 Y-22.1095 Z0.2133
G1 X29.3060 Y-21.7659 Z0.1889
G0 Z0.3676
G0 X29.3060 Y-21.7659 
G0 Z0.3676
G0 X29.3060 Y-23.6603 
G1 X29.3060 Y-23.6603 Z0.2056 F75.
G1 X29.3060 Y-23.7274 Z0.1938 F21.
G1 X29.3060 Y-23.8304 Z0.1756
G1 X29.3060 Y-23.4868 Z0.2006 F22.
G1 X29.3060 Y-23.1426 Z0.2157
G1 X29.3060 Y-22.7982 Z0.2210
G1 X29.3060 Y-22.4537 Z0.2163
G1 X29.3060 Y-22.1095 Z0.2018
G1 X29.3060 Y-21.7659 Z0.1773
G0 Z0.3676
G0 X29.3060 Y-21.7659 
G0 Z0.3676
G0 X29.3060 Y-23.6603 
G1 X29.3060 Y-23.6603 Z0.1941 F75.
G1 X29.3060 Y-23.7274 Z0.1822 F21.
G1 X29.3060 Y-23.8304 Z0.1641
G1 X29.3060 Y-23.4868 Z0.1891 F22.
G1 X29.3060 Y-23.1426 Z0.2042
G1 X29.3060 Y-22.7982 Z0.2094
G1 X29.3060 Y-22.4537 Z0.2047
G1 X29.3060 Y-22.1095 Z0.1902
G1 X29.3060 Y-21.7659 Z0.1658
G0 Z0.3676
G0 X29.3060 Y-21.7659 
G0 Z0.3676
G0 X29.3060 Y-23.6603 
G1 X29.3060 Y-23.6603 Z0.1825 F75.
G1 X29.3060 Y-23.7274 Z0.1707 F21.
G1 X29.3060 Y-23.8304 Z0.1525
G1 X29.3060 Y-23.4868 Z0.1775 F22.
G1 X29.3060 Y-23.1426 Z0.1926
G1 X29.3060 Y-22.7982 Z0.1978
G1 X29.3060 Y-22.4537 Z0.1932
G1 X29.3060 Y-22.1095 Z0.1786
G1 X29.3060 Y-21.7659 Z0.1542
G0 Z0.3676
G0 X29.3060 Y-21.7659 
G0 Z0.3676
G0 X29.3060 Y-23.6603 
G1 X29.3060 Y-23.6603 Z0.1709 F75.
G1 X29.3060 Y-23.7274 Z0.1591 F21.
G1 X29.3060 Y-23.8304 Z0.1409
G1 X29.3060 Y-23.4868 Z0.1659 F22.
G1 X29.3060 Y-23.1426 Z0.1810
G1 X29.3060 Y-22.7982 Z0.1863
G1 X29.3060 Y-22.4537 Z0.1816
G1 X29.3060 Y-22.1095 Z0.1671
G1 X29.3060 Y-21.7659 Z0.1426
G0 Z0.3676
G0 X29.3060 Y-21.7659 
G0 Z0.3676
G0 X29.3060 Y-23.6603 
G1 X29.3060 Y-23.6603 Z0.1594 F75.
G1 X29.3060 Y-23.7274 Z0.1475 F21.
G1 X29.3060 Y-23.8304 Z0.1294
G1 X29.3060 Y-23.4868 Z0.1544 F22.
G1 X29.3060 Y-23.1426 Z0.1695
G1 X29.3060 Y-22.7982 Z0.1747
G1 X29.3060 Y-22.4537 Z0.1700
G1 X29.3060 Y-22.1095 Z0.1555
G1 X29.3060 Y-21.7659 Z0.1311
G0 Z0.3676
G0 X29.3060 Y-21.7659 
G0 Z0.3676
G0 X29.3060 Y-23.6603 
G1 X29.3060 Y-23.6603 Z0.1478 F75.
G1 X29.3060 Y-23.7274 Z0.1360 F21.
G1 X29.3060 Y-23.8304 Z0.1178
G1 X29.3060 Y-23.4868 Z0.1428 F22.
G1 X29.3060 Y-23.1426 Z0.1579
G1 X29.3060 Y-22.7982 Z0.1631
G1 X29.3060 Y-22.4537 Z0.1585
G1 X29.3060 Y-22.1095 Z0.1439
G1 X29.3060 Y-21.7659 Z0.1195
G0 Z0.4297
G0 X29.3060 Y-21.7659 
G0 Z0.4297
G0 X29.7695 Y-23.6533 
G1 X29.7695 Y-23.6533 Z0.2287 F75.
G1 X29.7695 Y-23.7157 Z0.2177 F21.
G1 X29.7695 Y-23.8234 Z0.1987
G1 X29.7695 Y-23.4821 Z0.2233 F22.
G1 X29.7695 Y-23.1403 Z0.2382
G1 X29.7695 Y-22.7982 Z0.2434
G1 X29.7695 Y-22.4560 Z0.2388
G1 X29.7695 Y-22.1142 Z0.2244
G1 X29.7695 Y-21.7729 Z0.2004
G0 Z0.3669
G0 X29.7695 Y-21.7729 
G0 Z0.3669
G0 X29.7695 Y-23.6533 
G1 X29.7695 Y-23.6533 Z0.2171 F75.
G1 X29.7695 Y-23.7157 Z0.2061 F21.
G1 X29.7695 Y-23.8234 Z0.1871
G1 X29.7695 Y-23.4821 Z0.2118 F22.
G1 X29.7695 Y-23.1403 Z0.2267
G1 X29.7695 Y-22.7982 Z0.2318
G1 X29.7695 Y-22.4560 Z0.2272
G1 X29.7695 Y-22.1142 Z0.2129
G1 X29.7695 Y-21.7729 Z0.1888
G0 Z0.3669
G0 X29.7695 Y-21.7729 
G0 Z0.3669
G0 X29.7695 Y-23.6533 
G1 X29.7695 Y-23.6533 Z0.2055 F75.
G1 X29.7695 Y-23.7157 Z0.1945 F21.
G1 X29.7695 Y-23.8234 Z0.1755
G1 X29.7695 Y-23.4821 Z0.2002 F22.
G1 X29.7695 Y-23.1403 Z0.2151
G1 X29.7695 Y-22.7982 Z0.2203
G1 X29.7695 Y-22.4560 Z0.2157
G1 X29.7695 Y-22.1142 Z0.2013
G1 X29.7695 Y-21.7729 Z0.1772
G0 Z0.3669
G0 X29.7695 Y-21.7729 
G0 Z0.3669
G0 X29.7695 Y-23.6533 
G1 X29.7695 Y-23.6533 Z0.1940 F75.
G1 X29.7695 Y-23.7157 Z0.1830 F21.
G1 X29.7695 Y-23.8234 Z0.1640
G1 X29.7695 Y-23.4821 Z0.1886 F22.
G1 X29.7695 Y-23.1403 Z0.2035
G1 X29.7695 Y-22.7982 Z0.2087
G1 X29.7695 Y-22.4560 Z0.2041
G1 X29.7695 Y-22.1142 Z0.1898
G1 X29.7695 Y-21.7729 Z0.1657
G0 Z0.3669
G0 X29.7695 Y-21.7729 
G0 Z0.3669
G0 X29.7695 Y-23.6533 
G1 X29.7695 Y-23.6533 Z0.1824 F75.
G1 X29.7695 Y-23.7157 Z0.1714 F21.
G1 X29.7695 Y-23.8234 Z0.1524
G1 X29.7695 Y-23.4821 Z0.1771 F22.
G1 X29.7695 Y-23.1403 Z0.1920
G1 X29.7695 Y-22.7982 Z0.1971
G1 X29.7695 Y-22.4560 Z0.1925
G1 X29.7695 Y-22.1142 Z0.1782
G1 X29.7695 Y-21.7729 Z0.1541
G0 Z0.3669
G0 X29.7695 Y-21.7729 
G0 Z0.3669
G0 X29.7695 Y-23.6533 
G1 X29.7695 Y-23.6533 Z0.1709 F75.
G1 X29.7695 Y-23.7157 Z0.1598 F21.
G1 X29.7695 Y-23.8234 Z0.1409
G1 X29.7695 Y-23.4821 Z0.1655 F22.
G1 X29.7695 Y-23.1403 Z0.1804
G1 X29.7695 Y-22.7982 Z0.1856
G1 X29.7695 Y-22.4560 Z0.1810
G1 X29.7695 Y-22.1142 Z0.1666
G1 X29.7695 Y-21.7729 Z0.1425
G0 Z0.3669
G0 X29.7695 Y-21.7729 
G0 Z0.3669
G0 X29.7695 Y-23.6533 
G1 X29.7695 Y-23.6533 Z0.1593 F75.
G1 X29.7695 Y-23.7157 Z0.1483 F21.
G1 X29.7695 Y-23.8234 Z0.1293
G1 X29.7695 Y-23.4821 Z0.1539 F22.
G1 X29.7695 Y-23.1403 Z0.1689
G1 X29.7695 Y-22.7982 Z0.1740
G1 X29.7695 Y-22.4560 Z0.1694
G1 X29.7695 Y-22.1142 Z0.1551
G1 X29.7695 Y-21.7729 Z0.1310
G0 Z0.3669
G0 X29.7695 Y-21.7729 
G0 Z0.3669
G0 X29.7695 Y-23.6533 
G1 X29.7695 Y-23.6533 Z0.1477 F75.
G1 X29.7695 Y-23.7157 Z0.1367 F21.
G1 X29.7695 Y-23.8234 Z0.1177
G1 X29.7695 Y-23.4821 Z0.1424 F22.
G1 X29.7695 Y-23.1403 Z0.1573
G1 X29.7695 Y-22.7982 Z0.1625
G1 X29.7695 Y-22.4560 Z0.1579
G1 X29.7695 Y-22.1142 Z0.1435
G1 X29.7695 Y-21.7729 Z0.1194
G0 Z0.4290
G0 X29.7695 Y-21.7729 
G0 Z0.4290
G0 X30.2607 Y-23.6459 
G1 X30.2607 Y-23.6459 Z0.2286 F75.
G1 X30.2607 Y-23.7091 Z0.2174 F21.
G1 X30.2607 Y-23.8160 Z0.1986
G1 X30.2607 Y-23.4772 Z0.2229 F22.
G1 X30.2607 Y-23.1378 Z0.2376
G1 X30.2607 Y-22.7982 Z0.2427
G1 X30.2607 Y-22.4585 Z0.2381
G1 X30.2607 Y-22.1191 Z0.2240
G1 X30.2607 Y-21.7803 Z0.2002
G0 Z0.3661
G0 X30.2607 Y-21.7803 
G0 Z0.3661
G0 X30.2607 Y-23.6459 
G1 X30.2607 Y-23.6459 Z0.2170 F75.
G1 X30.2607 Y-23.7091 Z0.2059 F21.
G1 X30.2607 Y-23.8160 Z0.1870
G1 X30.2607 Y-23.4772 Z0.2113 F22.
G1 X30.2607 Y-23.1378 Z0.2260
G1 X30.2607 Y-22.7982 Z0.2311
G1 X30.2607 Y-22.4585 Z0.2266
G1 X30.2607 Y-22.1191 Z0.2124
G1 X30.2607 Y-21.7803 Z0.1887
G0 Z0.3661
G0 X30.2607 Y-21.7803 
G0 Z0.3661
G0 X30.2607 Y-23.6459 
G1 X30.2607 Y-23.6459 Z0.2055 F75.
G1 X30.2607 Y-23.7091 Z0.1943 F21.
G1 X30.2607 Y-23.8160 Z0.1755
G1 X30.2607 Y-23.4772 Z0.1997 F22.
G1 X30.2607 Y-23.1378 Z0.2144
G1 X30.2607 Y-22.7982 Z0.2195
G1 X30.2607 Y-22.4585 Z0.2150
G1 X30.2607 Y-22.1191 Z0.2009
G1 X30.2607 Y-21.7803 Z0.1771
G0 Z0.3661
G0 X30.2607 Y-21.7803 
G0 Z0.3661
G0 X30.2607 Y-23.6459 
G1 X30.2607 Y-23.6459 Z0.1939 F75.
G1 X30.2607 Y-23.7091 Z0.1827 F21.
G1 X30.2607 Y-23.8160 Z0.1639
G1 X30.2607 Y-23.4772 Z0.1882 F22.
G1 X30.2607 Y-23.1378 Z0.2029
G1 X30.2607 Y-22.7982 Z0.2080
G1 X30.2607 Y-22.4585 Z0.2034
G1 X30.2607 Y-22.1191 Z0.1893
G1 X30.2607 Y-21.7803 Z0.1656
G0 Z0.3661
G0 X30.2607 Y-21.7803 
G0 Z0.3661
G0 X30.2607 Y-23.6459 
G1 X30.2607 Y-23.6459 Z0.1823 F75.
G1 X30.2607 Y-23.7091 Z0.1712 F21.
G1 X30.2607 Y-23.8160 Z0.1523
G1 X30.2607 Y-23.4772 Z0.1766 F22.
G1 X30.2607 Y-23.1378 Z0.1913
G1 X30.2607 Y-22.7982 Z0.1964
G1 X30.2607 Y-22.4585 Z0.1919
G1 X30.2607 Y-22.1191 Z0.1777
G1 X30.2607 Y-21.7803 Z0.1540
G0 Z0.3661
G0 X30.2607 Y-21.7803 
G0 Z0.3661
G0 X30.2607 Y-23.6459 
G1 X30.2607 Y-23.6459 Z0.1708 F75.
G1 X30.2607 Y-23.7091 Z0.1596 F21.
G1 X30.2607 Y-23.8160 Z0.1408
G1 X30.2607 Y-23.4772 Z0.1651 F22.
G1 X30.2607 Y-23.1378 Z0.1798
G1 X30.2607 Y-22.7982 Z0.1848
G1 X30.2607 Y-22.4585 Z0.1803
G1 X30.2607 Y-22.1191 Z0.1662
G1 X30.2607 Y-21.7803 Z0.1424
G0 Z0.3661
G0 X30.2607 Y-21.7803 
G0 Z0.3661
G0 X30.2607 Y-23.6459 
G1 X30.2607 Y-23.6459 Z0.1592 F75.
G1 X30.2607 Y-23.7091 Z0.1481 F21.
G1 X30.2607 Y-23.8160 Z0.1292
G1 X30.2607 Y-23.4772 Z0.1535 F22.
G1 X30.2607 Y-23.1378 Z0.1682
G1 X30.2607 Y-22.7982 Z0.1733
G1 X30.2607 Y-22.4585 Z0.1688
G1 X30.2607 Y-22.1191 Z0.1546
G1 X30.2607 Y-21.7803 Z0.1309
G0 Z0.3661
G0 X30.2607 Y-21.7803 
G0 Z0.3661
G0 X30.2607 Y-23.6459 
G1 X30.2607 Y-23.6459 Z0.1476 F75.
G1 X30.2607 Y-23.7091 Z0.1365 F21.
G1 X30.2607 Y-23.8160 Z0.1176
G1 X30.2607 Y-23.4772 Z0.1419 F22.
G1 X30.2607 Y-23.1378 Z0.1566
G1 X30.2607 Y-22.7982 Z0.1617
G1 X30.2607 Y-22.4585 Z0.1572
G1 X30.2607 Y-22.1191 Z0.1430
G1 X30.2607 Y-21.7803 Z0.1193
G0 Z0.4282
G0 X30.2607 Y-21.7803 
G0 Z0.4282
G0 X30.7810 Y-23.6380 
G1 X30.7810 Y-23.6380 Z0.2285 F75.
G1 X30.7810 Y-23.7021 Z0.2172 F21.
G1 X30.7810 Y-23.8082 Z0.1985
G1 X30.7810 Y-23.4720 Z0.2224 F22.
G1 X30.7810 Y-23.1352 Z0.2369
G1 X30.7810 Y-22.7982 Z0.2419
G1 X30.7810 Y-22.4611 Z0.2374
G1 X30.7810 Y-22.1244 Z0.2235
G1 X30.7810 Y-21.7881 Z0.2001
G0 Z0.3654
G0 X30.7810 Y-21.7881 
G0 Z0.3654
G0 X30.7810 Y-23.6380 
G1 X30.7810 Y-23.6380 Z0.2169 F75.
G1 X30.7810 Y-23.7021 Z0.2056 F21.
G1 X30.7810 Y-23.8082 Z0.1869
G1 X30.7810 Y-23.4720 Z0.2108 F22.
G1 X30.7810 Y-23.1352 Z0.2253
G1 X30.7810 Y-22.7982 Z0.2303
G1 X30.7810 Y-22.4611 Z0.2259
G1 X30.7810 Y-22.1244 Z0.2119
G1 X30.7810 Y-21.7881 Z0.1886
G0 Z0.3654
G0 X30.7810 Y-21.7881 
G0 Z0.3654
G0 X30.7810 Y-23.6380 
G1 X30.7810 Y-23.6380 Z0.2053 F75.
G1 X30.7810 Y-23.7021 Z0.1941 F21.
G1 X30.7810 Y-23.8082 Z0.1753
G1 X30.7810 Y-23.4720 Z0.1993 F22.
G1 X30.7810 Y-23.1352 Z0.2137
G1 X30.7810 Y-22.7982 Z0.2188
G1 X30.7810 Y-22.4611 Z0.2143
G1 X30.7810 Y-22.1244 Z0.2004
G1 X30.7810 Y-21.7881 Z0.1770
G0 Z0.3654
G0 X30.7810 Y-21.7881 
G0 Z0.3654
G0 X30.7810 Y-23.6380 
G1 X30.7810 Y-23.6380 Z0.1938 F75.
G1 X30.7810 Y-23.7021 Z0.1825 F21.
G1 X30.7810 Y-23.8082 Z0.1638
G1 X30.7810 Y-23.4720 Z0.1877 F22.
G1 X30.7810 Y-23.1352 Z0.2022
G1 X30.7810 Y-22.7982 Z0.2072
G1 X30.7810 Y-22.4611 Z0.2027
G1 X30.7810 Y-22.1244 Z0.1888
G1 X30.7810 Y-21.7881 Z0.1654
G0 Z0.3654
G0 X30.7810 Y-21.7881 
G0 Z0.3654
G0 X30.7810 Y-23.6380 
G1 X30.7810 Y-23.6380 Z0.1822 F75.
G1 X30.7810 Y-23.7021 Z0.1709 F21.
G1 X30.7810 Y-23.8082 Z0.1522
G1 X30.7810 Y-23.4720 Z0.1761 F22.
G1 X30.7810 Y-23.1352 Z0.1906
G1 X30.7810 Y-22.7982 Z0.1956
G1 X30.7810 Y-22.4611 Z0.1912
G1 X30.7810 Y-22.1244 Z0.1772
G1 X30.7810 Y-21.7881 Z0.1539
G0 Z0.3654
G0 X30.7810 Y-21.7881 
G0 Z0.3654
G0 X30.7810 Y-23.6380 
G1 X30.7810 Y-23.6380 Z0.1707 F75.
G1 X30.7810 Y-23.7021 Z0.1594 F21.
G1 X30.7810 Y-23.8082 Z0.1407
G1 X30.7810 Y-23.4720 Z0.1646 F22.
G1 X30.7810 Y-23.1352 Z0.1791
G1 X30.7810 Y-22.7982 Z0.1841
G1 X30.7810 Y-22.4611 Z0.1796
G1 X30.7810 Y-22.1244 Z0.1657
G1 X30.7810 Y-21.7881 Z0.1423
G0 Z0.3654
G0 X30.7810 Y-21.7881 
G0 Z0.3654
G0 X30.7810 Y-23.6380 
G1 X30.7810 Y-23.6380 Z0.1591 F75.
G1 X30.7810 Y-23.7021 Z0.1478 F21.
G1 X30.7810 Y-23.8082 Z0.1291
G1 X30.7810 Y-23.4720 Z0.1530 F22.
G1 X30.7810 Y-23.1352 Z0.1675
G1 X30.7810 Y-22.7982 Z0.1725
G1 X30.7810 Y-22.4611 Z0.1680
G1 X30.7810 Y-22.1244 Z0.1541
G1 X30.7810 Y-21.7881 Z0.1307
G0 Z0.3654
G0 X30.7810 Y-21.7881 
G0 Z0.3654
G0 X30.7810 Y-23.6380 
G1 X30.7810 Y-23.6380 Z0.1475 F75.
G1 X30.7810 Y-23.7021 Z0.1362 F21.
G1 X30.7810 Y-23.8082 Z0.1175
G1 X30.7810 Y-23.4720 Z0.1415 F22.
G1 X30.7810 Y-23.1352 Z0.1559
G1 X30.7810 Y-22.7982 Z0.1609
G1 X30.7810 Y-22.4611 Z0.1565
G1 X30.7810 Y-22.1244 Z0.1426
G1 X30.7810 Y-21.7881 Z0.1192
G0 Z0.4274
G0 X30.7810 Y-21.7881 
G0 Z0.4274
G0 X31.3323 Y-23.6297 
G1 X31.3323 Y-23.6297 Z0.2284 F75.
G1 X31.3323 Y-23.6946 Z0.2169 F21.
G1 X31.3323 Y-23.7999 Z0.1984
G1 X31.3323 Y-23.4664 Z0.2219 F22.
G1 X31.3323 Y-23.1324 Z0.2361
G1 X31.3323 Y-22.7982 Z0.2411
G1 X31.3323 Y-22.4639 Z0.2367
G1 X31.3323 Y-22.1299 Z0.2230
G1 X31.3323 Y-21.7964 Z0.2000
G0 Z0.3645
G0 X31.3323 Y-21.7964 
G0 Z0.3645
G0 X31.3323 Y-23.6297 
G1 X31.3323 Y-23.6297 Z0.2168 F75.
G1 X31.3323 Y-23.6946 Z0.2054 F21.
G1 X31.3323 Y-23.7999 Z0.1868
G1 X31.3323 Y-23.4664 Z0.2103 F22.
G1 X31.3323 Y-23.1324 Z0.2246
G1 X31.3323 Y-22.7982 Z0.2295
G1 X31.3323 Y-22.4639 Z0.2251
G1 X31.3323 Y-22.1299 Z0.2114
G1 X31.3323 Y-21.7964 Z0.1884
G0 Z0.3645
G0 X31.3323 Y-21.7964 
G0 Z0.3645
G0 X31.3323 Y-23.6297 
G1 X31.3323 Y-23.6297 Z0.2052 F75.
G1 X31.3323 Y-23.6946 Z0.1938 F21.
G1 X31.3323 Y-23.7999 Z0.1752
G1 X31.3323 Y-23.4664 Z0.1988 F22.
G1 X31.3323 Y-23.1324 Z0.2130
G1 X31.3323 Y-22.7982 Z0.2179
G1 X31.3323 Y-22.4639 Z0.2135
G1 X31.3323 Y-22.1299 Z0.1999
G1 X31.3323 Y-21.7964 Z0.1769
G0 Z0.3645
G0 X31.3323 Y-21.7964 
G0 Z0.3645
G0 X31.3323 Y-23.6297 
G1 X31.3323 Y-23.6297 Z0.1937 F75.
G1 X31.3323 Y-23.6946 Z0.1822 F21.
G1 X31.3323 Y-23.7999 Z0.1637
G1 X31.3323 Y-23.4664 Z0.1872 F22.
G1 X31.3323 Y-23.1324 Z0.2014
G1 X31.3323 Y-22.7982 Z0.2064
G1 X31.3323 Y-22.4639 Z0.2020
G1 X31.3323 Y-22.1299 Z0.1883
G1 X31.3323 Y-21.7964 Z0.1653
G0 Z0.3645
G0 X31.3323 Y-21.7964 
G0 Z0.3645
G0 X31.3323 Y-23.6297 
G1 X31.3323 Y-23.6297 Z0.1821 F75.
G1 X31.3323 Y-23.6946 Z0.1707 F21.
G1 X31.3323 Y-23.7999 Z0.1521
G1 X31.3323 Y-23.4664 Z0.1756 F22.
G1 X31.3323 Y-23.1324 Z0.1899
G1 X31.3323 Y-22.7982 Z0.1948
G1 X31.3323 Y-22.4639 Z0.1904
G1 X31.3323 Y-22.1299 Z0.1767
G1 X31.3323 Y-21.7964 Z0.1537
G0 Z0.3645
G0 X31.3323 Y-21.7964 
G0 Z0.3645
G0 X31.3323 Y-23.6297 
G1 X31.3323 Y-23.6297 Z0.1705 F75.
G1 X31.3323 Y-23.6946 Z0.1591 F21.
G1 X31.3323 Y-23.7999 Z0.1405
G1 X31.3323 Y-23.4664 Z0.1641 F22.
G1 X31.3323 Y-23.1324 Z0.1783
G1 X31.3323 Y-22.7982 Z0.1832
G1 X31.3323 Y-22.4639 Z0.1789
G1 X31.3323 Y-22.1299 Z0.1652
G1 X31.3323 Y-21.7964 Z0.1422
G0 Z0.3645
G0 X31.3323 Y-21.7964 
G0 Z0.3645
G0 X31.3323 Y-23.6297 
G1 X31.3323 Y-23.6297 Z0.1590 F75.
G1 X31.3323 Y-23.6946 Z0.1475 F21.
G1 X31.3323 Y-23.7999 Z0.1290
G1 X31.3323 Y-23.4664 Z0.1525 F22.
G1 X31.3323 Y-23.1324 Z0.1668
G1 X31.3323 Y-22.7982 Z0.1717
G1 X31.3323 Y-22.4639 Z0.1673
G1 X31.3323 Y-22.1299 Z0.1536
G1 X31.3323 Y-21.7964 Z0.1306
G0 Z0.3645
G0 X31.3323 Y-21.7964 
G0 Z0.3645
G0 X31.3323 Y-23.6297 
G1 X31.3323 Y-23.6297 Z0.1474 F75.
G1 X31.3323 Y-23.6946 Z0.1360 F21.
G1 X31.3323 Y-23.7999 Z0.1174
G1 X31.3323 Y-23.4664 Z0.1410 F22.
G1 X31.3323 Y-23.1324 Z0.1552
G1 X31.3323 Y-22.7982 Z0.1601
G1 X31.3323 Y-22.4639 Z0.1557
G1 X31.3323 Y-22.1299 Z0.1420
G1 X31.3323 Y-21.7964 Z0.1190
G0 Z0.4266
G0 X31.3323 Y-21.7964 
G0 Z0.4266
G0 X31.9163 Y-23.6209 
G1 X31.9163 Y-23.6209 Z0.2282 F75.
G1 X31.9163 Y-23.6868 Z0.2166 F21.
G1 X31.9163 Y-23.7911 Z0.1982
G1 X31.9163 Y-23.4605 Z0.2214 F22.
G1 X31.9163 Y-23.1295 Z0.2353
G1 X31.9163 Y-22.7982 Z0.2402
G1 X31.9163 Y-22.4669 Z0.2359
G1 X31.9163 Y-22.1358 Z0.2224
G1 X31.9163 Y-21.8052 Z0.1998
G0 Z0.3840
G0 X31.9163 Y-21.8052 
G0 Z0.3840
G0 X31.9163 Y-23.6209 
G1 X31.9163 Y-23.6209 Z0.2167 F75.
G1 X31.9163 Y-23.6868 Z0.2051 F21.
G1 X31.9163 Y-23.7911 Z0.1867
G1 X31.9163 Y-23.4605 Z0.2098 F22.
G1 X31.9163 Y-23.1295 Z0.2238
G1 X31.9163 Y-22.7982 Z0.2286
G1 X31.9163 Y-22.4669 Z0.2243
G1 X31.9163 Y-22.1358 Z0.2109
G1 X31.9163 Y-21.8052 Z0.1883
G0 Z0.3840
G0 X31.9163 Y-21.8052 
G0 Z0.3840
G0 X31.9163 Y-23.6209 
G1 X31.9163 Y-23.6209 Z0.2051 F75.
G1 X31.9163 Y-23.6868 Z0.1935 F21.
G1 X31.9163 Y-23.7911 Z0.1751
G1 X31.9163 Y-23.4605 Z0.1982 F22.
G1 X31.9163 Y-23.1295 Z0.2122
G1 X31.9163 Y-22.7982 Z0.2171
G1 X31.9163 Y-22.4669 Z0.2128
G1 X31.9163 Y-22.1358 Z0.1993
G1 X31.9163 Y-21.8052 Z0.1767
G0 Z0.3840
G0 X31.9163 Y-21.8052 
G0 Z0.3840
G0 X31.9163 Y-23.6209 
G1 X31.9163 Y-23.6209 Z0.1935 F75.
G1 X31.9163 Y-23.6868 Z0.1819 F21.
G1 X31.9163 Y-23.7911 Z0.1635
G1 X31.9163 Y-23.4605 Z0.1867 F22.
G1 X31.9163 Y-23.1295 Z0.2007
G1 X31.9163 Y-22.7982 Z0.2055
G1 X31.9163 Y-22.4669 Z0.2012
G1 X31.9163 Y-22.1358 Z0.1877
G1 X31.9163 Y-21.8052 Z0.1652
G0 Z0.3840
G0 X31.9163 Y-21.8052 
G0 Z0.3840
G0 X31.9163 Y-23.6209 
G1 X31.9163 Y-23.6209 Z0.1820 F75.
G1 X31.9163 Y-23.6868 Z0.1704 F21.
G1 X31.9163 Y-23.7911 Z0.1520
G1 X31.9163 Y-23.4605 Z0.1751 F22.
G1 X31.9163 Y-23.1295 Z0.1891
G1 X31.9163 Y-22.7982 Z0.1939
G1 X31.9163 Y-22.4669 Z0.1896
G1 X31.9163 Y-22.1358 Z0.1762
G1 X31.9163 Y-21.8052 Z0.1536
G0 Z0.3840
G0 X31.9163 Y-21.8052 
G0 Z0.3840
G0 X31.9163 Y-23.6209 
G1 X31.9163 Y-23.6209 Z0.1704 F75.
G1 X31.9163 Y-23.6868 Z0.1588 F21.
G1 X31.9163 Y-23.7911 Z0.1404
G1 X31.9163 Y-23.4605 Z0.1635 F22.
G1 X31.9163 Y-23.1295 Z0.1775
G1 X31.9163 Y-22.7982 Z0.1824
G1 X31.9163 Y-22.4669 Z0.1781
G1 X31.9163 Y-22.1358 Z0.1646
G1 X31.9163 Y-21.8052 Z0.1420
G0 Z0.3840
G0 X31.9163 Y-21.8052 
G0 Z0.3840
G0 X31.9163 Y-23.6209 
G1 X31.9163 Y-23.6209 Z0.1589 F75.
G1 X31.9163 Y-23.6868 Z0.1472 F21.
G1 X31.9163 Y-23.7911 Z0.1289
G1 X31.9163 Y-23.4605 Z0.1520 F22.
G1 X31.9163 Y-23.1295 Z0.1660
G1 X31.9163 Y-22.7982 Z0.1708
G1 X31.9163 Y-22.4669 Z0.1665
G1 X31.9163 Y-22.1358 Z0.1531
G1 X31.9163 Y-21.8052 Z0.1305
G0 Z0.3840
G0 X31.9163 Y-21.8052 
G0 Z0.3840
G0 X31.9163 Y-23.6209 
G1 X31.9163 Y-23.6209 Z0.1473 F75.
G1 X31.9163 Y-23.6868 Z0.1357 F21.
G1 X31.9163 Y-23.7911 Z0.1173
G1 X31.9163 Y-23.4605 Z0.1404 F22.
G1 X31.9163 Y-23.1295 Z0.1544
G1 X31.9163 Y-22.7982 Z0.1592
G1 X31.9163 Y-22.4669 Z0.1549
G1 X31.9163 Y-22.1358 Z0.1415
G1 X31.9163 Y-21.8052 Z0.1189
G0 Z0.4257
G0 X31.9163 Y-21.8052 
G0 Z0.4257
G0 X32.5351 Y-23.6116 
G1 X32.5351 Y-23.6116 Z0.2281 F75.
G1 X32.5351 Y-23.6784 Z0.2163 F21.
G1 X32.5351 Y-23.7818 Z0.1981
G1 X32.5351 Y-23.4543 Z0.2208 F22.
G1 X32.5351 Y-23.1264 Z0.2345
G1 X32.5351 Y-22.7982 Z0.2393
G1 X32.5351 Y-22.4700 Z0.2350
G1 X32.5351 Y-22.1420 Z0.2218
G1 X32.5351 Y-21.8145 Z0.1997
G0 Z0.3840
G0 X32.5351 Y-21.8145 
G0 Z0.3840
G0 X32.5351 Y-23.6116 
G1 X32.5351 Y-23.6116 Z0.2165 F75.
G1 X32.5351 Y-23.6784 Z0.2047 F21.
G1 X32.5351 Y-23.7818 Z0.1865
G1 X32.5351 Y-23.4543 Z0.2092 F22.
G1 X32.5351 Y-23.1264 Z0.2229
G1 X32.5351 Y-22.7982 Z0.2277
G1 X32.5351 Y-22.4700 Z0.2235
G1 X32.5351 Y-22.1420 Z0.2103
G1 X32.5351 Y-21.8145 Z0.1881
G0 Z0.3840
G0 X32.5351 Y-21.8145 
G0 Z0.3840
G0 X32.5351 Y-23.6116 
G1 X32.5351 Y-23.6116 Z0.2050 F75.
G1 X32.5351 Y-23.6784 Z0.1932 F21.
G1 X32.5351 Y-23.7818 Z0.1750
G1 X32.5351 Y-23.4543 Z0.1977 F22.
G1 X32.5351 Y-23.1264 Z0.2114
G1 X32.5351 Y-22.7982 Z0.2161
G1 X32.5351 Y-22.4700 Z0.2119
G1 X32.5351 Y-22.1420 Z0.1987
G1 X32.5351 Y-21.8145 Z0.1765
G0 Z0.3840
G0 X32.5351 Y-21.8145 
G0 Z0.3840
G0 X32.5351 Y-23.6116 
G1 X32.5351 Y-23.6116 Z0.1934 F75.
G1 X32.5351 Y-23.6784 Z0.1816 F21.
G1 X32.5351 Y-23.7818 Z0.1634
G1 X32.5351 Y-23.4543 Z0.1861 F22.
G1 X32.5351 Y-23.1264 Z0.1998
G1 X32.5351 Y-22.7982 Z0.2046
G1 X32.5351 Y-22.4700 Z0.2003
G1 X32.5351 Y-22.1420 Z0.1872
G1 X32.5351 Y-21.8145 Z0.1650
G0 Z0.3840
G0 X32.5351 Y-21.8145 
G0 Z0.3840
G0 X32.5351 Y-23.6116 
G1 X32.5351 Y-23.6116 Z0.1818 F75.
G1 X32.5351 Y-23.6784 Z0.1701 F21.
G1 X32.5351 Y-23.7818 Z0.1518
G1 X32.5351 Y-23.4543 Z0.1745 F22.
G1 X32.5351 Y-23.1264 Z0.1883
G1 X32.5351 Y-22.7982 Z0.1930
G1 X32.5351 Y-22.4700 Z0.1888
G1 X32.5351 Y-22.1420 Z0.1756
G1 X32.5351 Y-21.8145 Z0.1534
G0 Z0.3840
G0 X32.5351 Y-21.8145 
G0 Z0.3840
G0 X32.5351 Y-23.6116 
G1 X32.5351 Y-23.6116 Z0.1703 F75.
G1 X32.5351 Y-23.6784 Z0.1585 F21.
G1 X32.5351 Y-23.7818 Z0.1403
G1 X32.5351 Y-23.4543 Z0.1630 F22.
G1 X32.5351 Y-23.1264 Z0.1767
G1 X32.5351 Y-22.7982 Z0.1814
G1 X32.5351 Y-22.4700 Z0.1772
G1 X32.5351 Y-22.1420 Z0.1640
G1 X32.5351 Y-21.8145 Z0.1419
G0 Z0.3840
G0 X32.5351 Y-21.8145 
G0 Z0.3840
G0 X32.5351 Y-23.6116 
G1 X32.5351 Y-23.6116 Z0.1587 F75.
G1 X32.5351 Y-23.6784 Z0.1469 F21.
G1 X32.5351 Y-23.7818 Z0.1287
G1 X32.5351 Y-23.4543 Z0.1514 F22.
G1 X32.5351 Y-23.1264 Z0.1651
G1 X32.5351 Y-22.7982 Z0.1699
G1 X32.5351 Y-22.4700 Z0.1657
G1 X32.5351 Y-22.1420 Z0.1525
G1 X32.5351 Y-21.8145 Z0.1303
G0 Z0.3840
G0 X32.5351 Y-21.8145 
G0 Z0.3840
G0 X32.5351 Y-23.6116 
G1 X32.5351 Y-23.6116 Z0.1472 F75.
G1 X32.5351 Y-23.6784 Z0.1354 F21.
G1 X32.5351 Y-23.7818 Z0.1172
G1 X32.5351 Y-23.4543 Z0.1398 F22.
G1 X32.5351 Y-23.1264 Z0.1536
G1 X32.5351 Y-22.7982 Z0.1583
G1 X32.5351 Y-22.4700 Z0.1541
G1 X32.5351 Y-22.1420 Z0.1409
G1 X32.5351 Y-21.8145 Z0.1187
G0 Z0.4201
G0 X32.5351 Y-21.8145 
G0 Z0.4201
G0 X33.1907 Y-23.6017 
G1 X33.1907 Y-23.6017 Z0.2279 F75.
G1 X33.1907 Y-23.6639 Z0.2170 F21.
G1 X33.1907 Y-23.7719 Z0.1979
G1 X33.1907 Y-23.4477 Z0.2202 F22.
G1 X33.1907 Y-23.1231 Z0.2336
G1 X33.1907 Y-22.7982 Z0.2383
G1 X33.1907 Y-22.4733 Z0.2341
G1 X33.1907 Y-22.1486 Z0.2212
G1 X33.1907 Y-21.8244 Z0.1995
G0 Z0.3840
G0 X33.1907 Y-21.8244 
G0 Z0.3840
G0 X33.1907 Y-23.6017 
G1 X33.1907 Y-23.6017 Z0.2164 F75.
G1 X33.1907 Y-23.6639 Z0.2054 F21.
G1 X33.1907 Y-23.7719 Z0.1864
G1 X33.1907 Y-23.4477 Z0.2086 F22.
G1 X33.1907 Y-23.1231 Z0.2221
G1 X33.1907 Y-22.7982 Z0.2267
G1 X33.1907 Y-22.4733 Z0.2226
G1 X33.1907 Y-22.1486 Z0.2096
G1 X33.1907 Y-21.8244 Z0.1879
G0 Z0.3840
G0 X33.1907 Y-21.8244 
G0 Z0.3840
G0 X33.1907 Y-23.6017 
G1 X33.1907 Y-23.6017 Z0.2048 F75.
G1 X33.1907 Y-23.6639 Z0.1938 F21.
G1 X33.1907 Y-23.7719 Z0.1748
G1 X33.1907 Y-23.4477 Z0.1970 F22.
G1 X33.1907 Y-23.1231 Z0.2105
G1 X33.1907 Y-22.7982 Z0.2152
G1 X33.1907 Y-22.4733 Z0.2110
G1 X33.1907 Y-22.1486 Z0.1981
G1 X33.1907 Y-21.8244 Z0.1764
G0 Z0.3840
G0 X33.1907 Y-21.8244 
G0 Z0.3840
G0 X33.1907 Y-23.6017 
G1 X33.1907 Y-23.6017 Z0.1932 F75.
G1 X33.1907 Y-23.6639 Z0.1823 F21.
G1 X33.1907 Y-23.7719 Z0.1632
G1 X33.1907 Y-23.4477 Z0.1855 F22.
G1 X33.1907 Y-23.1231 Z0.1989
G1 X33.1907 Y-22.7982 Z0.2036
G1 X33.1907 Y-22.4733 Z0.1995
G1 X33.1907 Y-22.1486 Z0.1865
G1 X33.1907 Y-21.8244 Z0.1648
G0 Z0.3840
G0 X33.1907 Y-21.8244 
G0 Z0.3840
G0 X33.1907 Y-23.6017 
G1 X33.1907 Y-23.6017 Z0.1817 F75.
G1 X33.1907 Y-23.6639 Z0.1707 F21.
G1 X33.1907 Y-23.7719 Z0.1517
G1 X33.1907 Y-23.4477 Z0.1739 F22.
G1 X33.1907 Y-23.1231 Z0.1874
G1 X33.1907 Y-22.7982 Z0.1920
G1 X33.1907 Y-22.4733 Z0.1879
G1 X33.1907 Y-22.1486 Z0.1750
G1 X33.1907 Y-21.8244 Z0.1532
G0 Z0.3840
G0 X33.1907 Y-21.8244 
G0 Z0.3840
G0 X33.1907 Y-23.6017 
G1 X33.1907 Y-23.6017 Z0.1701 F75.
G1 X33.1907 Y-23.6639 Z0.1592 F21.
G1 X33.1907 Y-23.7719 Z0.1401
G1 X33.1907 Y-23.4477 Z0.1624 F22.
G1 X33.1907 Y-23.1231 Z0.1758
G1 X33.1907 Y-22.7982 Z0.1805
G1 X33.1907 Y-22.4733 Z0.1763
G1 X33.1907 Y-22.1486 Z0.1634
G1 X33.1907 Y-21.8244 Z0.1417
G0 Z0.3840
G0 X33.1907 Y-21.8244 
G0 Z0.3840
G0 X33.1907 Y-23.6017 
G1 X33.1907 Y-23.6017 Z0.1586 F75.
G1 X33.1907 Y-23.6639 Z0.1476 F21.
G1 X33.1907 Y-23.7719 Z0.1286
G1 X33.1907 Y-23.4477 Z0.1508 F22.
G1 X33.1907 Y-23.1231 Z0.1642
G1 X33.1907 Y-22.7982 Z0.1689
G1 X33.1907 Y-22.4733 Z0.1648
G1 X33.1907 Y-22.1486 Z0.1518
G1 X33.1907 Y-21.8244 Z0.1301
G0 Z0.3840
G0 X33.1907 Y-21.8244 
G0 Z0.3840
G0 X33.1907 Y-23.6017 
G1 X33.1907 Y-23.6017 Z0.1470 F75.
G1 X33.1907 Y-23.6639 Z0.1360 F21.
G1 X33.1907 Y-23.7719 Z0.1170
G1 X33.1907 Y-23.4477 Z0.1392 F22.
G1 X33.1907 Y-23.1231 Z0.1527
G1 X33.1907 Y-22.7982 Z0.1573
G1 X33.1907 Y-22.4733 Z0.1532
G1 X33.1907 Y-22.1486 Z0.1403
G1 X33.1907 Y-21.8244 Z0.1186
G0 Z0.4237
G0 X33.1907 Y-21.8244 
G0 Z0.4237
G0 X33.8852 Y-23.5913 
G1 X33.8852 Y-23.5913 Z0.2278 F75.
G1 X33.8852 Y-23.6546 Z0.2166 F21.
G1 X33.8852 Y-23.7614 Z0.1978
G1 X33.8852 Y-23.4407 Z0.2195 F22.
G1 X33.8852 Y-23.1196 Z0.2327
G1 X33.8852 Y-22.7982 Z0.2372
G1 X33.8852 Y-22.4768 Z0.2332
G1 X33.8852 Y-22.1556 Z0.2205
G1 X33.8852 Y-21.8349 Z0.1993
G0 Z0.3838
G0 X33.8852 Y-21.8349 
G0 Z0.3838
G0 X33.8852 Y-23.5913 
G1 X33.8852 Y-23.5913 Z0.2162 F75.
G1 X33.8852 Y-23.6546 Z0.2050 F21.
G1 X33.8852 Y-23.7614 Z0.1862
G1 X33.8852 Y-23.4407 Z0.2080 F22.
G1 X33.8852 Y-23.1196 Z0.2211
G1 X33.8852 Y-22.7982 Z0.2257
G1 X33.8852 Y-22.4768 Z0.2216
G1 X33.8852 Y-22.1556 Z0.2090
G1 X33.8852 Y-21.8349 Z0.1877
G0 Z0.3838
G0 X33.8852 Y-21.8349 
G0 Z0.3838
G0 X33.8852 Y-23.5913 
G1 X33.8852 Y-23.5913 Z0.2046 F75.
G1 X33.8852 Y-23.6546 Z0.1935 F21.
G1 X33.8852 Y-23.7614 Z0.1746
G1 X33.8852 Y-23.4407 Z0.1964 F22.
G1 X33.8852 Y-23.1196 Z0.2096
G1 X33.8852 Y-22.7982 Z0.2141
G1 X33.8852 Y-22.4768 Z0.2101
G1 X33.8852 Y-22.1556 Z0.1974
G1 X33.8852 Y-21.8349 Z0.1762
G0 Z0.3838
G0 X33.8852 Y-21.8349 
G0 Z0.3838
G0 X33.8852 Y-23.5913 
G1 X33.8852 Y-23.5913 Z0.1931 F75.
G1 X33.8852 Y-23.6546 Z0.1819 F21.
G1 X33.8852 Y-23.7614 Z0.1631
G1 X33.8852 Y-23.4407 Z0.1848 F22.
G1 X33.8852 Y-23.1196 Z0.1980
G1 X33.8852 Y-22.7982 Z0.2026
G1 X33.8852 Y-22.4768 Z0.1985
G1 X33.8852 Y-22.1556 Z0.1859
G1 X33.8852 Y-21.8349 Z0.1646
G0 Z0.3838
G0 X33.8852 Y-21.8349 
G0 Z0.3838
G0 X33.8852 Y-23.5913 
G1 X33.8852 Y-23.5913 Z0.1815 F75.
G1 X33.8852 Y-23.6546 Z0.1703 F21.
G1 X33.8852 Y-23.7614 Z0.1515
G1 X33.8852 Y-23.4407 Z0.1733 F22.
G1 X33.8852 Y-23.1196 Z0.1864
G1 X33.8852 Y-22.7982 Z0.1910
G1 X33.8852 Y-22.4768 Z0.1869
G1 X33.8852 Y-22.1556 Z0.1743
G1 X33.8852 Y-21.8349 Z0.1530
G0 Z0.3838
G0 X33.8852 Y-21.8349 
G0 Z0.3838
G0 X33.8852 Y-23.5913 
G1 X33.8852 Y-23.5913 Z0.1699 F75.
G1 X33.8852 Y-23.6546 Z0.1588 F21.
G1 X33.8852 Y-23.7614 Z0.1399
G1 X33.8852 Y-23.4407 Z0.1617 F22.
G1 X33.8852 Y-23.1196 Z0.1749
G1 X33.8852 Y-22.7982 Z0.1794
G1 X33.8852 Y-22.4768 Z0.1754
G1 X33.8852 Y-22.1556 Z0.1627
G1 X33.8852 Y-21.8349 Z0.1415
G0 Z0.3838
G0 X33.8852 Y-21.8349 
G0 Z0.3838
G0 X33.8852 Y-23.5913 
G1 X33.8852 Y-23.5913 Z0.1584 F75.
G1 X33.8852 Y-23.6546 Z0.1472 F21.
G1 X33.8852 Y-23.7614 Z0.1284
G1 X33.8852 Y-23.4407 Z0.1501 F22.
G1 X33.8852 Y-23.1196 Z0.1633
G1 X33.8852 Y-22.7982 Z0.1679
G1 X33.8852 Y-22.4768 Z0.1638
G1 X33.8852 Y-22.1556 Z0.1512
G1 X33.8852 Y-21.8349 Z0.1299
G0 Z0.3838
G0 X33.8852 Y-21.8349 
G0 Z0.3838
G0 X33.8852 Y-23.5913 
G1 X33.8852 Y-23.5913 Z0.1468 F75.
G1 X33.8852 Y-23.6546 Z0.1357 F21.
G1 X33.8852 Y-23.7614 Z0.1168
G1 X33.8852 Y-23.4407 Z0.1386 F22.
G1 X33.8852 Y-23.1196 Z0.1517
G1 X33.8852 Y-22.7982 Z0.1563
G1 X33.8852 Y-22.4768 Z0.1523
G1 X33.8852 Y-22.1556 Z0.1396
G1 X33.8852 Y-21.8349 Z0.1184
G0 Z0.4226
G0 X33.8852 Y-21.8349 
G0 Z0.4226
G0 X34.6210 Y-23.5802 
G1 X34.6210 Y-23.5802 Z0.2276 F75.
G1 X34.6210 Y-23.6447 Z0.2162 F21.
G1 X34.6210 Y-23.7503 Z0.1976
G1 X34.6210 Y-23.4333 Z0.2188 F22.
G1 X34.6210 Y-23.1159 Z0.2317
G1 X34.6210 Y-22.7982 Z0.2361
G1 X34.6210 Y-22.4805 Z0.2322
G1 X34.6210 Y-22.1630 Z0.2198
G1 X34.6210 Y-21.8460 Z0.1991
G0 Z0.3837
G0 X34.6210 Y-21.8460 
G0 Z0.3837
G0 X34.6210 Y-23.5802 
G1 X34.6210 Y-23.5802 Z0.2160 F75.
G1 X34.6210 Y-23.6447 Z0.2046 F21.
G1 X34.6210 Y-23.7503 Z0.1860
G1 X34.6210 Y-23.4333 Z0.2073 F22.
G1 X34.6210 Y-23.1159 Z0.2201
G1 X34.6210 Y-22.7982 Z0.2246
G1 X34.6210 Y-22.4805 Z0.2206
G1 X34.6210 Y-22.1630 Z0.2083
G1 X34.6210 Y-21.8460 Z0.1875
G0 Z0.3837
G0 X34.6210 Y-21.8460 
G0 Z0.3837
G0 X34.6210 Y-23.5802 
G1 X34.6210 Y-23.5802 Z0.2044 F75.
G1 X34.6210 Y-23.6447 Z0.1931 F21.
G1 X34.6210 Y-23.7503 Z0.1744
G1 X34.6210 Y-23.4333 Z0.1957 F22.
G1 X34.6210 Y-23.1159 Z0.2086
G1 X34.6210 Y-22.7982 Z0.2130
G1 X34.6210 Y-22.4805 Z0.2091
G1 X34.6210 Y-22.1630 Z0.1967
G1 X34.6210 Y-21.8460 Z0.1759
G0 Z0.3837
G0 X34.6210 Y-21.8460 
G0 Z0.3837
G0 X34.6210 Y-23.5802 
G1 X34.6210 Y-23.5802 Z0.1929 F75.
G1 X34.6210 Y-23.6447 Z0.1815 F21.
G1 X34.6210 Y-23.7503 Z0.1629
G1 X34.6210 Y-23.4333 Z0.1841 F22.
G1 X34.6210 Y-23.1159 Z0.1970
G1 X34.6210 Y-22.7982 Z0.2015
G1 X34.6210 Y-22.4805 Z0.1975
G1 X34.6210 Y-22.1630 Z0.1851
G1 X34.6210 Y-21.8460 Z0.1644
G0 Z0.3837
G0 X34.6210 Y-21.8460 
G0 Z0.3837
G0 X34.6210 Y-23.5802 
G1 X34.6210 Y-23.5802 Z0.1813 F75.
G1 X34.6210 Y-23.6447 Z0.1699 F21.
G1 X34.6210 Y-23.7503 Z0.1513
G1 X34.6210 Y-23.4333 Z0.1726 F22.
G1 X34.6210 Y-23.1159 Z0.1854
G1 X34.6210 Y-22.7982 Z0.1899
G1 X34.6210 Y-22.4805 Z0.1859
G1 X34.6210 Y-22.1630 Z0.1736
G1 X34.6210 Y-21.8460 Z0.1528
G0 Z0.3837
G0 X34.6210 Y-21.8460 
G0 Z0.3837
G0 X34.6210 Y-23.5802 
G1 X34.6210 Y-23.5802 Z0.1697 F75.
G1 X34.6210 Y-23.6447 Z0.1584 F21.
G1 X34.6210 Y-23.7503 Z0.1397
G1 X34.6210 Y-23.4333 Z0.1610 F22.
G1 X34.6210 Y-23.1159 Z0.1739
G1 X34.6210 Y-22.7982 Z0.1783
G1 X34.6210 Y-22.4805 Z0.1744
G1 X34.6210 Y-22.1630 Z0.1620
G1 X34.6210 Y-21.8460 Z0.1413
G0 Z0.3837
G0 X34.6210 Y-21.8460 
G0 Z0.3837
G0 X34.6210 Y-23.5802 
G1 X34.6210 Y-23.5802 Z0.1582 F75.
G1 X34.6210 Y-23.6447 Z0.1468 F21.
G1 X34.6210 Y-23.7503 Z0.1282
G1 X34.6210 Y-23.4333 Z0.1494 F22.
G1 X34.6210 Y-23.1159 Z0.1623
G1 X34.6210 Y-22.7982 Z0.1668
G1 X34.6210 Y-22.4805 Z0.1628
G1 X34.6210 Y-22.1630 Z0.1505
G1 X34.6210 Y-21.8460 Z0.1297
G0 Z0.3837
G0 X34.6210 Y-21.8460 
G0 Z0.3837
G0 X34.6210 Y-23.5802 
G1 X34.6210 Y-23.5802 Z0.1466 F75.
G1 X34.6210 Y-23.6447 Z0.1352 F21.
G1 X34.6210 Y-23.7503 Z0.1166
G1 X34.6210 Y-23.4333 Z0.1379 F22.
G1 X34.6210 Y-23.1159 Z0.1508
G1 X34.6210 Y-22.7982 Z0.1552
G1 X34.6210 Y-22.4805 Z0.1513
G1 X34.6210 Y-22.1630 Z0.1389
G1 X34.6210 Y-21.8460 Z0.1181
G0 Z0.4215
G0 X34.6210 Y-21.8460 
G0 Z0.4215
G0 X35.4007 Y-23.5684 
G1 X35.4007 Y-23.5684 Z0.2273 F75.
G1 X35.4007 Y-23.6343 Z0.2157 F21.
G1 X35.4007 Y-23.7386 Z0.1973
G1 X35.4007 Y-23.4255 Z0.2181 F22.
G1 X35.4007 Y-23.1119 Z0.2306
G1 X35.4007 Y-22.7982 Z0.2350
G1 X35.4007 Y-22.4844 Z0.2311
G1 X35.4007 Y-22.1709 Z0.2191
G1 X35.4007 Y-21.8577 Z0.1988
G0 Z0.3837
G0 X35.4007 Y-21.8577 
G0 Z0.3837
G0 X35.4007 Y-23.5684 
G1 X35.4007 Y-23.5684 Z0.2158 F75.
G1 X35.4007 Y-23.6343 Z0.2042 F21.
G1 X35.4007 Y-23.7386 Z0.1858
G1 X35.4007 Y-23.4255 Z0.2065 F22.
G1 X35.4007 Y-23.1119 Z0.2191
G1 X35.4007 Y-22.7982 Z0.2234
G1 X35.4007 Y-22.4844 Z0.2196
G1 X35.4007 Y-22.1709 Z0.2075
G1 X35.4007 Y-21.8577 Z0.1873
G0 Z0.3837
G0 X35.4007 Y-21.8577 
G0 Z0.3837
G0 X35.4007 Y-23.5684 
G1 X35.4007 Y-23.5684 Z0.2042 F75.
G1 X35.4007 Y-23.6343 Z0.1926 F21.
G1 X35.4007 Y-23.7386 Z0.1742
G1 X35.4007 Y-23.4255 Z0.1950 F22.
G1 X35.4007 Y-23.1119 Z0.2075
G1 X35.4007 Y-22.7982 Z0.2119
G1 X35.4007 Y-22.4844 Z0.2080
G1 X35.4007 Y-22.1709 Z0.1959
G1 X35.4007 Y-21.8577 Z0.1757
G0 Z0.3837
G0 X35.4007 Y-21.8577 
G0 Z0.3837
G0 X35.4007 Y-23.5684 
G1 X35.4007 Y-23.5684 Z0.1926 F75.
G1 X35.4007 Y-23.6343 Z0.1810 F21.
G1 X35.4007 Y-23.7386 Z0.1626
G1 X35.4007 Y-23.4255 Z0.1834 F22.
G1 X35.4007 Y-23.1119 Z0.1959
G1 X35.4007 Y-22.7982 Z0.2003
G1 X35.4007 Y-22.4844 Z0.1964
G1 X35.4007 Y-22.1709 Z0.1844
G1 X35.4007 Y-21.8577 Z0.1641
G0 Z0.3837
G0 X35.4007 Y-21.8577 
G0 Z0.3837
G0 X35.4007 Y-23.5684 
G1 X35.4007 Y-23.5684 Z0.1811 F75.
G1 X35.4007 Y-23.6343 Z0.1695 F21.
G1 X35.4007 Y-23.7386 Z0.1511
G1 X35.4007 Y-23.4255 Z0.1718 F22.
G1 X35.4007 Y-23.1119 Z0.1844
G1 X35.4007 Y-22.7982 Z0.1887
G1 X35.4007 Y-22.4844 Z0.1849
G1 X35.4007 Y-22.1709 Z0.1728
G1 X35.4007 Y-21.8577 Z0.1526
G0 Z0.3837
G0 X35.4007 Y-21.8577 
G0 Z0.3837
G0 X35.4007 Y-23.5684 
G1 X35.4007 Y-23.5684 Z0.1695 F75.
G1 X35.4007 Y-23.6343 Z0.1579 F21.
G1 X35.4007 Y-23.7386 Z0.1395
G1 X35.4007 Y-23.4255 Z0.1603 F22.
G1 X35.4007 Y-23.1119 Z0.1728
G1 X35.4007 Y-22.7982 Z0.1772
G1 X35.4007 Y-22.4844 Z0.1733
G1 X35.4007 Y-22.1709 Z0.1613
G1 X35.4007 Y-21.8577 Z0.1410
G0 Z0.3837
G0 X35.4007 Y-21.8577 
G0 Z0.3837
G0 X35.4007 Y-23.5684 
G1 X35.4007 Y-23.5684 Z0.1580 F75.
G1 X35.4007 Y-23.6343 Z0.1464 F21.
G1 X35.4007 Y-23.7386 Z0.1280
G1 X35.4007 Y-23.4255 Z0.1487 F22.
G1 X35.4007 Y-23.1119 Z0.1613
G1 X35.4007 Y-22.7982 Z0.1656
G1 X35.4007 Y-22.4844 Z0.1618
G1 X35.4007 Y-22.1709 Z0.1497
G1 X35.4007 Y-21.8577 Z0.1294
G0 Z0.3837
G0 X35.4007 Y-21.8577 
G0 Z0.3837
G0 X35.4007 Y-23.5684 
G1 X35.4007 Y-23.5684 Z0.1464 F75.
G1 X35.4007 Y-23.6343 Z0.1348 F21.
G1 X35.4007 Y-23.7386 Z0.1164
G1 X35.4007 Y-23.4255 Z0.1371 F22.
G1 X35.4007 Y-23.1119 Z0.1497
G1 X35.4007 Y-22.7982 Z0.1540
G1 X35.4007 Y-22.4844 Z0.1502
G1 X35.4007 Y-22.1709 Z0.1381
G1 X35.4007 Y-21.8577 Z0.1179
G0 Z0.4203
G0 X35.4007 Y-21.8577 
G0 Z0.4203
G0 X36.2266 Y-23.5560 
G1 X36.2266 Y-23.5560 Z0.2271 F75.
G1 X36.2266 Y-23.6171 Z0.2163 F21.
G1 X36.2266 Y-23.7261 Z0.1971
G1 X36.2266 Y-23.3553 Z0.2204 F22.
G1 X36.2266 Y-22.9839 Z0.2322
G1 X36.2266 Y-22.6124 Z0.2325
G1 X36.2266 Y-22.2410 Z0.2212
G1 X36.2266 Y-21.8702 Z0.1985
G0 Z0.3836
G0 X36.2266 Y-21.8702 
G0 Z0.3836
G0 X36.2266 Y-23.5560 
G1 X36.2266 Y-23.5560 Z0.2155 F75.
G1 X36.2266 Y-23.6171 Z0.2047 F21.
G1 X36.2266 Y-23.7261 Z0.1855
G1 X36.2266 Y-23.3553 Z0.2088 F22.
G1 X36.2266 Y-22.9839 Z0.2206
G1 X36.2266 Y-22.6124 Z0.2209
G1 X36.2266 Y-22.2410 Z0.2097
G1 X36.2266 Y-21.8702 Z0.1870
G0 Z0.3836
G0 X36.2266 Y-21.8702 
G0 Z0.3836
G0 X36.2266 Y-23.5560 
G1 X36.2266 Y-23.5560 Z0.2040 F75.
G1 X36.2266 Y-23.6171 Z0.1932 F21.
G1 X36.2266 Y-23.7261 Z0.1740
G1 X36.2266 Y-23.3553 Z0.1972 F22.
G1 X36.2266 Y-22.9839 Z0.2090
G1 X36.2266 Y-22.6124 Z0.2093
G1 X36.2266 Y-22.2410 Z0.1981
G1 X36.2266 Y-21.8702 Z0.1754
G0 Z0.3836
G0 X36.2266 Y-21.8702 
G0 Z0.3836
G0 X36.2266 Y-23.5560 
G1 X36.2266 Y-23.5560 Z0.1924 F75.
G1 X36.2266 Y-23.6171 Z0.1816 F21.
G1 X36.2266 Y-23.7261 Z0.1624
G1 X36.2266 Y-23.3553 Z0.1857 F22.
G1 X36.2266 Y-22.9839 Z0.1975
G1 X36.2266 Y-22.6124 Z0.1978
G1 X36.2266 Y-22.2410 Z0.1866
G1 X36.2266 Y-21.8702 Z0.1639
G0 Z0.3836
G0 X36.2266 Y-21.8702 
G0 Z0.3836
G0 X36.2266 Y-23.5560 
G1 X36.2266 Y-23.5560 Z0.1808 F75.
G1 X36.2266 Y-23.6171 Z0.1701 F21.
G1 X36.2266 Y-23.7261 Z0.1508
G1 X36.2266 Y-23.3553 Z0.1741 F22.
G1 X36.2266 Y-22.9839 Z0.1859
G1 X36.2266 Y-22.6124 Z0.1862
G1 X36.2266 Y-22.2410 Z0.1750
G1 X36.2266 Y-21.8702 Z0.1523
G0 Z0.3836
G0 X36.2266 Y-21.8702 
G0 Z0.3836
G0 X36.2266 Y-23.5560 
G1 X36.2266 Y-23.5560 Z0.1693 F75.
G1 X36.2266 Y-23.6171 Z0.1585 F21.
G1 X36.2266 Y-23.7261 Z0.1393
G1 X36.2266 Y-23.3553 Z0.1626 F22.
G1 X36.2266 Y-22.9839 Z0.1744
G1 X36.2266 Y-22.6124 Z0.1746
G1 X36.2266 Y-22.2410 Z0.1634
G1 X36.2266 Y-21.8702 Z0.1407
G0 Z0.3836
G0 X36.2266 Y-21.8702 
G0 Z0.3836
G0 X36.2266 Y-23.5560 
G1 X36.2266 Y-23.5560 Z0.1577 F75.
G1 X36.2266 Y-23.6171 Z0.1469 F21.
G1 X36.2266 Y-23.7261 Z0.1277
G1 X36.2266 Y-23.3553 Z0.1510 F22.
G1 X36.2266 Y-22.9839 Z0.1628
G1 X36.2266 Y-22.6124 Z0.1631
G1 X36.2266 Y-22.2410 Z0.1519
G1 X36.2266 Y-21.8702 Z0.1292
G0 Z0.3836
G0 X36.2266 Y-21.8702 
G0 Z0.3836
G0 X36.2266 Y-23.5560 
G1 X36.2266 Y-23.5560 Z0.1461 F75.
G1 X36.2266 Y-23.6171 Z0.1354 F21.
G1 X36.2266 Y-23.7261 Z0.1161
G1 X36.2266 Y-23.3553 Z0.1394 F22.
G1 X36.2266 Y-22.9839 Z0.1512
G1 X36.2266 Y-22.6124 Z0.1515
G1 X36.2266 Y-22.2410 Z0.1403
G1 X36.2266 Y-21.8702 Z0.1176
G0 Z0.4190
G0 X36.2266 Y-21.8702 
G0 Z0.4190
G0 X37.1017 Y-23.5428 
G1 X37.1017 Y-23.5428 Z0.2268 F75.
G1 X37.1017 Y-23.6055 Z0.2158 F21.
G1 X37.1017 Y-23.7129 Z0.1968
G1 X37.1017 Y-23.3474 Z0.2194 F22.
G1 X37.1017 Y-22.9813 Z0.2309
G1 X37.1017 Y-22.6150 Z0.2312
G1 X37.1017 Y-22.2490 Z0.2203
G1 X37.1017 Y-21.8834 Z0.1982
G0 Z0.3834
G0 X37.1017 Y-21.8834 
G0 Z0.3834
G0 X37.1017 Y-23.5428 
G1 X37.1017 Y-23.5428 Z0.2152 F75.
G1 X37.1017 Y-23.6055 Z0.2042 F21.
G1 X37.1017 Y-23.7129 Z0.1852
G1 X37.1017 Y-23.3474 Z0.2079 F22.
G1 X37.1017 Y-22.9813 Z0.2193
G1 X37.1017 Y-22.6150 Z0.2196
G1 X37.1017 Y-22.2490 Z0.2087
G1 X37.1017 Y-21.8834 Z0.1867
G0 Z0.3834
G0 X37.1017 Y-21.8834 
G0 Z0.3834
G0 X37.1017 Y-23.5428 
G1 X37.1017 Y-23.5428 Z0.2037 F75.
G1 X37.1017 Y-23.6055 Z0.1926 F21.
G1 X37.1017 Y-23.7129 Z0.1737
G1 X37.1017 Y-23.3474 Z0.1963 F22.
G1 X37.1017 Y-22.9813 Z0.2078
G1 X37.1017 Y-22.6150 Z0.2081
G1 X37.1017 Y-22.2490 Z0.1972
G1 X37.1017 Y-21.8834 Z0.1751
G0 Z0.3834
G0 X37.1017 Y-21.8834 
G0 Z0.3834
G0 X37.1017 Y-23.5428 
G1 X37.1017 Y-23.5428 Z0.1921 F75.
G1 X37.1017 Y-23.6055 Z0.1811 F21.
G1 X37.1017 Y-23.7129 Z0.1621
G1 X37.1017 Y-23.3474 Z0.1848 F22.
G1 X37.1017 Y-22.9813 Z0.1962
G1 X37.1017 Y-22.6150 Z0.1965
G1 X37.1017 Y-22.2490 Z0.1856
G1 X37.1017 Y-21.8834 Z0.1635
G0 Z0.3834
G0 X37.1017 Y-21.8834 
G0 Z0.3834
G0 X37.1017 Y-23.5428 
G1 X37.1017 Y-23.5428 Z0.1806 F75.
G1 X37.1017 Y-23.6055 Z0.1695 F21.
G1 X37.1017 Y-23.7129 Z0.1506
G1 X37.1017 Y-23.3474 Z0.1732 F22.
G1 X37.1017 Y-22.9813 Z0.1847
G1 X37.1017 Y-22.6150 Z0.1849
G1 X37.1017 Y-22.2490 Z0.1740
G1 X37.1017 Y-21.8834 Z0.1520
G0 Z0.3834
G0 X37.1017 Y-21.8834 
G0 Z0.3834
G0 X37.1017 Y-23.5428 
G1 X37.1017 Y-23.5428 Z0.1690 F75.
G1 X37.1017 Y-23.6055 Z0.1579 F21.
G1 X37.1017 Y-23.7129 Z0.1390
G1 X37.1017 Y-23.3474 Z0.1616 F22.
G1 X37.1017 Y-22.9813 Z0.1731
G1 X37.1017 Y-22.6150 Z0.1734
G1 X37.1017 Y-22.2490 Z0.1625
G1 X37.1017 Y-21.8834 Z0.1404
G0 Z0.3834
G0 X37.1017 Y-21.8834 
G0 Z0.3834
G0 X37.1017 Y-23.5428 
G1 X37.1017 Y-23.5428 Z0.1574 F75.
G1 X37.1017 Y-23.6055 Z0.1464 F21.
G1 X37.1017 Y-23.7129 Z0.1274
G1 X37.1017 Y-23.3474 Z0.1501 F22.
G1 X37.1017 Y-22.9813 Z0.1615
G1 X37.1017 Y-22.6150 Z0.1618
G1 X37.1017 Y-22.2490 Z0.1509
G1 X37.1017 Y-21.8834 Z0.1289
G0 Z0.3834
G0 X37.1017 Y-21.8834 
G0 Z0.3834
G0 X37.1017 Y-23.5428 
G1 X37.1017 Y-23.5428 Z0.1459 F75.
G1 X37.1017 Y-23.6055 Z0.1348 F21.
G1 X37.1017 Y-23.7129 Z0.1159
G1 X37.1017 Y-23.3474 Z0.1385 F22.
G1 X37.1017 Y-22.9813 Z0.1500
G1 X37.1017 Y-22.6150 Z0.1502
G1 X37.1017 Y-22.2490 Z0.1394
G1 X37.1017 Y-21.8834 Z0.1173
G0 Z0.4138
G0 X37.1017 Y-21.8834 
G0 Z0.4138
G0 X38.0288 Y-23.5288 
G1 X38.0288 Y-23.5288 Z0.2265 F75.
G1 X38.0288 Y-23.5932 Z0.2152 F21.
G1 X38.0288 Y-23.6990 Z0.1965
G1 X38.0288 Y-23.3390 Z0.2184 F22.
G1 X38.0288 Y-22.9785 Z0.2296
G1 X38.0288 Y-22.6178 Z0.2298
G1 X38.0288 Y-22.2574 Z0.2193
G1 X38.0288 Y-21.8973 Z0.1979
G0 Z0.3833
G0 X38.0288 Y-21.8973 
G0 Z0.3833
G0 X38.0288 Y-23.5288 
G1 X38.0288 Y-23.5288 Z0.2149 F75.
G1 X38.0288 Y-23.5932 Z0.2036 F21.
G1 X38.0288 Y-23.6990 Z0.1849
G1 X38.0288 Y-23.3390 Z0.2069 F22.
G1 X38.0288 Y-22.9785 Z0.2180
G1 X38.0288 Y-22.6178 Z0.2183
G1 X38.0288 Y-22.2574 Z0.2077
G1 X38.0288 Y-21.8973 Z0.1863
G0 Z0.3833
G0 X38.0288 Y-21.8973 
G0 Z0.3833
G0 X38.0288 Y-23.5288 
G1 X38.0288 Y-23.5288 Z0.2034 F75.
G1 X38.0288 Y-23.5932 Z0.1920 F21.
G1 X38.0288 Y-23.6990 Z0.1734
G1 X38.0288 Y-23.3390 Z0.1953 F22.
G1 X38.0288 Y-22.9785 Z0.2064
G1 X38.0288 Y-22.6178 Z0.2067
G1 X38.0288 Y-22.2574 Z0.1962
G1 X38.0288 Y-21.8973 Z0.1748
G0 Z0.3833
G0 X38.0288 Y-21.8973 
G0 Z0.3833
G0 X38.0288 Y-23.5288 
G1 X38.0288 Y-23.5288 Z0.1918 F75.
G1 X38.0288 Y-23.5932 Z0.1805 F21.
G1 X38.0288 Y-23.6990 Z0.1618
G1 X38.0288 Y-23.3390 Z0.1838 F22.
G1 X38.0288 Y-22.9785 Z0.1949
G1 X38.0288 Y-22.6178 Z0.1952
G1 X38.0288 Y-22.2574 Z0.1846
G1 X38.0288 Y-21.8973 Z0.1632
G0 Z0.3833
G0 X38.0288 Y-21.8973 
G0 Z0.3833
G0 X38.0288 Y-23.5288 
G1 X38.0288 Y-23.5288 Z0.1803 F75.
G1 X38.0288 Y-23.5932 Z0.1689 F21.
G1 X38.0288 Y-23.6990 Z0.1503
G1 X38.0288 Y-23.3390 Z0.1722 F22.
G1 X38.0288 Y-22.9785 Z0.1833
G1 X38.0288 Y-22.6178 Z0.1836
G1 X38.0288 Y-22.2574 Z0.1730
G1 X38.0288 Y-21.8973 Z0.1516
G0 Z0.3833
G0 X38.0288 Y-21.8973 
G0 Z0.3833
G0 X38.0288 Y-23.5288 
G1 X38.0288 Y-23.5288 Z0.1687 F75.
G1 X38.0288 Y-23.5932 Z0.1573 F21.
G1 X38.0288 Y-23.6990 Z0.1387
G1 X38.0288 Y-23.3390 Z0.1606 F22.
G1 X38.0288 Y-22.9785 Z0.1717
G1 X38.0288 Y-22.6178 Z0.1720
G1 X38.0288 Y-22.2574 Z0.1615
G1 X38.0288 Y-21.8973 Z0.1401
G0 Z0.3833
G0 X38.0288 Y-21.8973 
G0 Z0.3833
G0 X38.0288 Y-23.5288 
G1 X38.0288 Y-23.5288 Z0.1571 F75.
G1 X38.0288 Y-23.5932 Z0.1458 F21.
G1 X38.0288 Y-23.6990 Z0.1271
G1 X38.0288 Y-23.3390 Z0.1491 F22.
G1 X38.0288 Y-22.9785 Z0.1602
G1 X38.0288 Y-22.6178 Z0.1605
G1 X38.0288 Y-22.2574 Z0.1499
G1 X38.0288 Y-21.8973 Z0.1285
G0 Z0.3833
G0 X38.0288 Y-21.8973 
G0 Z0.3833
G0 X38.0288 Y-23.5288 
G1 X38.0288 Y-23.5288 Z0.1456 F75.
G1 X38.0288 Y-23.5932 Z0.1342 F21.
G1 X38.0288 Y-23.6990 Z0.1156
G1 X38.0288 Y-23.3390 Z0.1375 F22.
G1 X38.0288 Y-22.9785 Z0.1486
G1 X38.0288 Y-22.6178 Z0.1489
G1 X38.0288 Y-22.2574 Z0.1383
G1 X38.0288 Y-21.8973 Z0.1170
G0 Z0.4162
G0 X38.0288 Y-21.8973 
G0 Z0.4162
G0 X39.0111 Y-23.5140 
G1 X39.0111 Y-23.5140 Z0.2262 F75.
G1 X39.0111 Y-23.5801 Z0.2145 F21.
G1 X39.0111 Y-23.6842 Z0.1962
G1 X39.0111 Y-23.3301 Z0.2174 F22.
G1 X39.0111 Y-22.9755 Z0.2281
G1 X39.0111 Y-22.6208 Z0.2284
G1 X39.0111 Y-22.2662 Z0.2182
G1 X39.0111 Y-21.9121 Z0.1975
G0 Z0.3831
G0 X39.0111 Y-21.9121 
G0 Z0.3831
G0 X39.0111 Y-23.5140 
G1 X39.0111 Y-23.5140 Z0.2146 F75.
G1 X39.0111 Y-23.5801 Z0.2029 F21.
G1 X39.0111 Y-23.6842 Z0.1846
G1 X39.0111 Y-23.3301 Z0.2058 F22.
G1 X39.0111 Y-22.9755 Z0.2166
G1 X39.0111 Y-22.6208 Z0.2169
G1 X39.0111 Y-22.2662 Z0.2066
G1 X39.0111 Y-21.9121 Z0.1860
G0 Z0.3831
G0 X39.0111 Y-21.9121 
G0 Z0.3831
G0 X39.0111 Y-23.5140 
G1 X39.0111 Y-23.5140 Z0.2030 F75.
G1 X39.0111 Y-23.5801 Z0.1914 F21.
G1 X39.0111 Y-23.6842 Z0.1730
G1 X39.0111 Y-23.3301 Z0.1943 F22.
G1 X39.0111 Y-22.9755 Z0.2050
G1 X39.0111 Y-22.6208 Z0.2053
G1 X39.0111 Y-22.2662 Z0.1951
G1 X39.0111 Y-21.9121 Z0.1744
G0 Z0.3831
G0 X39.0111 Y-21.9121 
G0 Z0.3831
G0 X39.0111 Y-23.5140 
G1 X39.0111 Y-23.5140 Z0.1915 F75.
G1 X39.0111 Y-23.5801 Z0.1798 F21.
G1 X39.0111 Y-23.6842 Z0.1615
G1 X39.0111 Y-23.3301 Z0.1827 F22.
G1 X39.0111 Y-22.9755 Z0.1935
G1 X39.0111 Y-22.6208 Z0.1937
G1 X39.0111 Y-22.2662 Z0.1835
G1 X39.0111 Y-21.9121 Z0.1628
G0 Z0.3831
G0 X39.0111 Y-21.9121 
G0 Z0.3831
G0 X39.0111 Y-23.5140 
G1 X39.0111 Y-23.5140 Z0.1799 F75.
G1 X39.0111 Y-23.5801 Z0.1683 F21.
G1 X39.0111 Y-23.6842 Z0.1499
G1 X39.0111 Y-23.3301 Z0.1711 F22.
G1 X39.0111 Y-22.9755 Z0.1819
G1 X39.0111 Y-22.6208 Z0.1822
G1 X39.0111 Y-22.2662 Z0.1720
G1 X39.0111 Y-21.9121 Z0.1513
G0 Z0.3831
G0 X39.0111 Y-21.9121 
G0 Z0.3831
G0 X39.0111 Y-23.5140 
G1 X39.0111 Y-23.5140 Z0.1683 F75.
G1 X39.0111 Y-23.5801 Z0.1567 F21.
G1 X39.0111 Y-23.6842 Z0.1383
G1 X39.0111 Y-23.3301 Z0.1596 F22.
G1 X39.0111 Y-22.9755 Z0.1703
G1 X39.0111 Y-22.6208 Z0.1706
G1 X39.0111 Y-22.2662 Z0.1604
G1 X39.0111 Y-21.9121 Z0.1397
G0 Z0.3831
G0 X39.0111 Y-21.9121 
G0 Z0.3831
G0 X39.0111 Y-23.5140 
G1 X39.0111 Y-23.5140 Z0.1568 F75.
G1 X39.0111 Y-23.5801 Z0.1451 F21.
G1 X39.0111 Y-23.6842 Z0.1268
G1 X39.0111 Y-23.3301 Z0.1480 F22.
G1 X39.0111 Y-22.9755 Z0.1588
G1 X39.0111 Y-22.6208 Z0.1590
G1 X39.0111 Y-22.2662 Z0.1488
G1 X39.0111 Y-21.9121 Z0.1281
G0 Z0.3831
G0 X39.0111 Y-21.9121 
G0 Z0.3831
G0 X39.0111 Y-23.5140 
G1 X39.0111 Y-23.5140 Z0.1452 F75.
G1 X39.0111 Y-23.5801 Z0.1336 F21.
G1 X39.0111 Y-23.6842 Z0.1152
G1 X39.0111 Y-23.3301 Z0.1364 F22.
G1 X39.0111 Y-22.9755 Z0.1472
G1 X39.0111 Y-22.6208 Z0.1475
G1 X39.0111 Y-22.2662 Z0.1373
G1 X39.0111 Y-21.9121 Z0.1166
G0 Z0.4147
G0 X39.0111 Y-21.9121 
G0 Z0.4147
G0 X40.0517 Y-23.4983 
G1 X40.0517 Y-23.4983 Z0.2258 F75.
G1 X40.0517 Y-23.5599 Z0.2149 F21.
G1 X40.0517 Y-23.6685 Z0.1958
G1 X40.0517 Y-23.3207 Z0.2163 F22.
G1 X40.0517 Y-22.9724 Z0.2266
G1 X40.0517 Y-22.6240 Z0.2269
G1 X40.0517 Y-22.2757 Z0.2171
G1 X40.0517 Y-21.9278 Z0.1971
G0 Z0.3830
G0 X40.0517 Y-21.9278 
G0 Z0.3830
G0 X40.0517 Y-23.4983 
G1 X40.0517 Y-23.4983 Z0.2142 F75.
G1 X40.0517 Y-23.5599 Z0.2034 F21.
G1 X40.0517 Y-23.6685 Z0.1842
G1 X40.0517 Y-23.3207 Z0.2047 F22.
G1 X40.0517 Y-22.9724 Z0.2151
G1 X40.0517 Y-22.6240 Z0.2153
G1 X40.0517 Y-22.2757 Z0.2055
G1 X40.0517 Y-21.9278 Z0.1855
G0 Z0.3830
G0 X40.0517 Y-21.9278 
G0 Z0.3830
G0 X40.0517 Y-23.4983 
G1 X40.0517 Y-23.4983 Z0.2026 F75.
G1 X40.0517 Y-23.5599 Z0.1918 F21.
G1 X40.0517 Y-23.6685 Z0.1726
G1 X40.0517 Y-23.3207 Z0.1931 F22.
G1 X40.0517 Y-22.9724 Z0.2035
G1 X40.0517 Y-22.6240 Z0.2038
G1 X40.0517 Y-22.2757 Z0.1939
G1 X40.0517 Y-21.9278 Z0.1740
G0 Z0.3830
G0 X40.0517 Y-21.9278 
G0 Z0.3830
G0 X40.0517 Y-23.4983 
G1 X40.0517 Y-23.4983 Z0.1911 F75.
G1 X40.0517 Y-23.5599 Z0.1802 F21.
G1 X40.0517 Y-23.6685 Z0.1611
G1 X40.0517 Y-23.3207 Z0.1816 F22.
G1 X40.0517 Y-22.9724 Z0.1919
G1 X40.0517 Y-22.6240 Z0.1922
G1 X40.0517 Y-22.2757 Z0.1824
G1 X40.0517 Y-21.9278 Z0.1624
G0 Z0.3830
G0 X40.0517 Y-21.9278 
G0 Z0.3830
G0 X40.0517 Y-23.4983 
G1 X40.0517 Y-23.4983 Z0.1795 F75.
G1 X40.0517 Y-23.5599 Z0.1687 F21.
G1 X40.0517 Y-23.6685 Z0.1495
G1 X40.0517 Y-23.3207 Z0.1700 F22.
G1 X40.0517 Y-22.9724 Z0.1804
G1 X40.0517 Y-22.6240 Z0.1807
G1 X40.0517 Y-22.2757 Z0.1708
G1 X40.0517 Y-21.9278 Z0.1508
G0 Z0.3830
G0 X40.0517 Y-21.9278 
G0 Z0.3830
G0 X40.0517 Y-23.4983 
G1 X40.0517 Y-23.4983 Z0.1680 F75.
G1 X40.0517 Y-23.5599 Z0.1571 F21.
G1 X40.0517 Y-23.6685 Z0.1380
G1 X40.0517 Y-23.3207 Z0.1584 F22.
G1 X40.0517 Y-22.9724 Z0.1688
G1 X40.0517 Y-22.6240 Z0.1691
G1 X40.0517 Y-22.2757 Z0.1592
G1 X40.0517 Y-21.9278 Z0.1393
G0 Z0.3830
G0 X40.0517 Y-21.9278 
G0 Z0.3830
G0 X40.0517 Y-23.4983 
G1 X40.0517 Y-23.4983 Z0.1564 F75.
G1 X40.0517 Y-23.5599 Z0.1455 F21.
G1 X40.0517 Y-23.6685 Z0.1264
G1 X40.0517 Y-23.3207 Z0.1469 F22.
G1 X40.0517 Y-22.9724 Z0.1573
G1 X40.0517 Y-22.6240 Z0.1575
G1 X40.0517 Y-22.2757 Z0.1477
G1 X40.0517 Y-21.9278 Z0.1277
G0 Z0.3830
G0 X40.0517 Y-21.9278 
G0 Z0.3830
G0 X40.0517 Y-23.4983 
G1 X40.0517 Y-23.4983 Z0.1448 F75.
G1 X40.0517 Y-23.5599 Z0.1340 F21.
G1 X40.0517 Y-23.6685 Z0.1148
G1 X40.0517 Y-23.3207 Z0.1353 F22.
G1 X40.0517 Y-22.9724 Z0.1457
G1 X40.0517 Y-22.6240 Z0.1460
G1 X40.0517 Y-22.2757 Z0.1361
G1 X40.0517 Y-21.9278 Z0.1162
G0 Z0.4131
G0 X40.0517 Y-21.9278 
G0 Z0.4131
G0 X41.1543 Y-23.4817 
G1 X41.1543 Y-23.4817 Z0.2253 F75.
G1 X41.1543 Y-23.5453 Z0.2141 F21.
G1 X41.1543 Y-23.6519 Z0.1953
G1 X41.1543 Y-23.3107 Z0.2151 F22.
G1 X41.1543 Y-22.9691 Z0.2250
G1 X41.1543 Y-22.6273 Z0.2253
G1 X41.1543 Y-22.2857 Z0.2158
G1 X41.1543 Y-21.9444 Z0.1966
G0 Z0.3827
G0 X41.1543 Y-21.9444 
G0 Z0.3827
G0 X41.1543 Y-23.4817 
G1 X41.1543 Y-23.4817 Z0.2138 F75.
G1 X41.1543 Y-23.5453 Z0.2026 F21.
G1 X41.1543 Y-23.6519 Z0.1838
G1 X41.1543 Y-23.3107 Z0.2035 F22.
G1 X41.1543 Y-22.9691 Z0.2135
G1 X41.1543 Y-22.6273 Z0.2137
G1 X41.1543 Y-22.2857 Z0.2043
G1 X41.1543 Y-21.9444 Z0.1851
G0 Z0.3827
G0 X41.1543 Y-21.9444 
G0 Z0.3827
G0 X41.1543 Y-23.4817 
G1 X41.1543 Y-23.4817 Z0.2022 F75.
G1 X41.1543 Y-23.5453 Z0.1910 F21.
G1 X41.1543 Y-23.6519 Z0.1722
G1 X41.1543 Y-23.3107 Z0.1919 F22.
G1 X41.1543 Y-22.9691 Z0.2019
G1 X41.1543 Y-22.6273 Z0.2022
G1 X41.1543 Y-22.2857 Z0.1927
G1 X41.1543 Y-21.9444 Z0.1735
G0 Z0.3827
G0 X41.1543 Y-21.9444 
G0 Z0.3827
G0 X41.1543 Y-23.4817 
G1 X41.1543 Y-23.4817 Z0.1906 F75.
G1 X41.1543 Y-23.5453 Z0.1794 F21.
G1 X41.1543 Y-23.6519 Z0.1606
G1 X41.1543 Y-23.3107 Z0.1804 F22.
G1 X41.1543 Y-22.9691 Z0.1904
G1 X41.1543 Y-22.6273 Z0.1906
G1 X41.1543 Y-22.2857 Z0.1811
G1 X41.1543 Y-21.9444 Z0.1619
G0 Z0.3827
G0 X41.1543 Y-21.9444 
G0 Z0.3827
G0 X41.1543 Y-23.4817 
G1 X41.1543 Y-23.4817 Z0.1791 F75.
G1 X41.1543 Y-23.5453 Z0.1679 F21.
G1 X41.1543 Y-23.6519 Z0.1491
G1 X41.1543 Y-23.3107 Z0.1688 F22.
G1 X41.1543 Y-22.9691 Z0.1788
G1 X41.1543 Y-22.6273 Z0.1791
G1 X41.1543 Y-22.2857 Z0.1696
G1 X41.1543 Y-21.9444 Z0.1504
G0 Z0.3827
G0 X41.1543 Y-21.9444 
G0 Z0.3827
G0 X41.1543 Y-23.4817 
G1 X41.1543 Y-23.4817 Z0.1675 F75.
G1 X41.1543 Y-23.5453 Z0.1563 F21.
G1 X41.1543 Y-23.6519 Z0.1375
G1 X41.1543 Y-23.3107 Z0.1572 F22.
G1 X41.1543 Y-22.9691 Z0.1672
G1 X41.1543 Y-22.6273 Z0.1675
G1 X41.1543 Y-22.2857 Z0.1580
G1 X41.1543 Y-21.9444 Z0.1388
G0 Z0.3827
G0 X41.1543 Y-21.9444 
G0 Z0.3827
G0 X41.1543 Y-23.4817 
G1 X41.1543 Y-23.4817 Z0.1560 F75.
G1 X41.1543 Y-23.5453 Z0.1448 F21.
G1 X41.1543 Y-23.6519 Z0.1260
G1 X41.1543 Y-23.3107 Z0.1457 F22.
G1 X41.1543 Y-22.9691 Z0.1557
G1 X41.1543 Y-22.6273 Z0.1559
G1 X41.1543 Y-22.2857 Z0.1465
G1 X41.1543 Y-21.9444 Z0.1273
G0 Z0.3827
G0 X41.1543 Y-21.9444 
G0 Z0.3827
G0 X41.1543 Y-23.4817 
G1 X41.1543 Y-23.4817 Z0.1444 F75.
G1 X41.1543 Y-23.5453 Z0.1332 F21.
G1 X41.1543 Y-23.6519 Z0.1144
G1 X41.1543 Y-23.3107 Z0.1341 F22.
G1 X41.1543 Y-22.9691 Z0.1441
G1 X41.1543 Y-22.6273 Z0.1444
G1 X41.1543 Y-22.2857 Z0.1349
G1 X41.1543 Y-21.9444 Z0.1157
G0 Z0.4114
G0 X41.1543 Y-21.9444 
G0 Z0.4114
G0 X42.3224 Y-23.4641 
G1 X42.3224 Y-23.4641 Z0.2249 F75.
G1 X42.3224 Y-23.5299 Z0.2133 F21.
G1 X42.3224 Y-23.6343 Z0.1949
G1 X42.3224 Y-23.3001 Z0.2138 F22.
G1 X42.3224 Y-22.9655 Z0.2234
G1 X42.3224 Y-22.6308 Z0.2236
G1 X42.3224 Y-22.2962 Z0.2145
G1 X42.3224 Y-21.9620 Z0.1961
G0 Z0.3825
G0 X42.3224 Y-21.9620 
G0 Z0.3825
G0 X42.3224 Y-23.4641 
G1 X42.3224 Y-23.4641 Z0.2133 F75.
G1 X42.3224 Y-23.5299 Z0.2017 F21.
G1 X42.3224 Y-23.6343 Z0.1833
G1 X42.3224 Y-23.3001 Z0.2022 F22.
G1 X42.3224 Y-22.9655 Z0.2118
G1 X42.3224 Y-22.6308 Z0.2120
G1 X42.3224 Y-22.2962 Z0.2030
G1 X42.3224 Y-21.9620 Z0.1845
G0 Z0.3825
G0 X42.3224 Y-21.9620 
G0 Z0.3825
G0 X42.3224 Y-23.4641 
G1 X42.3224 Y-23.4641 Z0.2017 F75.
G1 X42.3224 Y-23.5299 Z0.1901 F21.
G1 X42.3224 Y-23.6343 Z0.1717
G1 X42.3224 Y-23.3001 Z0.1906 F22.
G1 X42.3224 Y-22.9655 Z0.2002
G1 X42.3224 Y-22.6308 Z0.2005
G1 X42.3224 Y-22.2962 Z0.1914
G1 X42.3224 Y-21.9620 Z0.1730
G0 Z0.3825
G0 X42.3224 Y-21.9620 
G0 Z0.3825
G0 X42.3224 Y-23.4641 
G1 X42.3224 Y-23.4641 Z0.1902 F75.
G1 X42.3224 Y-23.5299 Z0.1786 F21.
G1 X42.3224 Y-23.6343 Z0.1602
G1 X42.3224 Y-23.3001 Z0.1791 F22.
G1 X42.3224 Y-22.9655 Z0.1887
G1 X42.3224 Y-22.6308 Z0.1889
G1 X42.3224 Y-22.2962 Z0.1798
G1 X42.3224 Y-21.9620 Z0.1614
G0 Z0.3825
G0 X42.3224 Y-21.9620 
G0 Z0.3825
G0 X42.3224 Y-23.4641 
G1 X42.3224 Y-23.4641 Z0.1786 F75.
G1 X42.3224 Y-23.5299 Z0.1670 F21.
G1 X42.3224 Y-23.6343 Z0.1486
G1 X42.3224 Y-23.3001 Z0.1675 F22.
G1 X42.3224 Y-22.9655 Z0.1771
G1 X42.3224 Y-22.6308 Z0.1774
G1 X42.3224 Y-22.2962 Z0.1683
G1 X42.3224 Y-21.9620 Z0.1499
G0 Z0.3825
G0 X42.3224 Y-21.9620 
G0 Z0.3825
G0 X42.3224 Y-23.4641 
G1 X42.3224 Y-23.4641 Z0.1670 F75.
G1 X42.3224 Y-23.5299 Z0.1554 F21.
G1 X42.3224 Y-23.6343 Z0.1370
G1 X42.3224 Y-23.3001 Z0.1560 F22.
G1 X42.3224 Y-22.9655 Z0.1655
G1 X42.3224 Y-22.6308 Z0.1658
G1 X42.3224 Y-22.2962 Z0.1567
G1 X42.3224 Y-21.9620 Z0.1383
G0 Z0.3825
G0 X42.3224 Y-21.9620 
G0 Z0.3825
G0 X42.3224 Y-23.4641 
G1 X42.3224 Y-23.4641 Z0.1555 F75.
G1 X42.3224 Y-23.5299 Z0.1439 F21.
G1 X42.3224 Y-23.6343 Z0.1255
G1 X42.3224 Y-23.3001 Z0.1444 F22.
G1 X42.3224 Y-22.9655 Z0.1540
G1 X42.3224 Y-22.6308 Z0.1542
G1 X42.3224 Y-22.2962 Z0.1451
G1 X42.3224 Y-21.9620 Z0.1267
G0 Z0.3825
G0 X42.3224 Y-21.9620 
G0 Z0.3825
G0 X42.3224 Y-23.4641 
G1 X42.3224 Y-23.4641 Z0.1439 F75.
G1 X42.3224 Y-23.5299 Z0.1323 F21.
G1 X42.3224 Y-23.6343 Z0.1139
G1 X42.3224 Y-23.3001 Z0.1328 F22.
G1 X42.3224 Y-22.9655 Z0.1424
G1 X42.3224 Y-22.6308 Z0.1427
G1 X42.3224 Y-22.2962 Z0.1336
G1 X42.3224 Y-21.9620 Z0.1152
G0 Z0.4096
G0 X42.3224 Y-21.9620 
G0 Z0.4096
G0 X43.5599 Y-23.4455 
G1 X43.5599 Y-23.4455 Z0.2243 F75.
G1 X43.5599 Y-23.5068 Z0.2135 F21.
G1 X43.5599 Y-23.6156 Z0.1943
G1 X43.5599 Y-23.2889 Z0.2124 F22.
G1 X43.5599 Y-22.9618 Z0.2216
G1 X43.5599 Y-22.6346 Z0.2218
G1 X43.5599 Y-22.3074 Z0.2131
G1 X43.5599 Y-21.9807 Z0.1955
G0 Z0.3823
G0 X43.5599 Y-21.9807 
G0 Z0.3823
G0 X43.5599 Y-23.4455 
G1 X43.5599 Y-23.4455 Z0.2128 F75.
G1 X43.5599 Y-23.5068 Z0.2019 F21.
G1 X43.5599 Y-23.6156 Z0.1828
G1 X43.5599 Y-23.2889 Z0.2008 F22.
G1 X43.5599 Y-22.9618 Z0.2100
G1 X43.5599 Y-22.6346 Z0.2102
G1 X43.5599 Y-22.3074 Z0.2016
G1 X43.5599 Y-21.9807 Z0.1840
G0 Z0.3823
G0 X43.5599 Y-21.9807 
G0 Z0.3823
G0 X43.5599 Y-23.4455 
G1 X43.5599 Y-23.4455 Z0.2012 F75.
G1 X43.5599 Y-23.5068 Z0.1904 F21.
G1 X43.5599 Y-23.6156 Z0.1712
G1 X43.5599 Y-23.2889 Z0.1893 F22.
G1 X43.5599 Y-22.9618 Z0.1984
G1 X43.5599 Y-22.6346 Z0.1987
G1 X43.5599 Y-22.3074 Z0.1900
G1 X43.5599 Y-21.9807 Z0.1724
G0 Z0.3823
G0 X43.5599 Y-21.9807 
G0 Z0.3823
G0 X43.5599 Y-23.4455 
G1 X43.5599 Y-23.4455 Z0.1896 F75.
G1 X43.5599 Y-23.5068 Z0.1788 F21.
G1 X43.5599 Y-23.6156 Z0.1596
G1 X43.5599 Y-23.2889 Z0.1777 F22.
G1 X43.5599 Y-22.9618 Z0.1869
G1 X43.5599 Y-22.6346 Z0.1871
G1 X43.5599 Y-22.3074 Z0.1784
G1 X43.5599 Y-21.9807 Z0.1608
G0 Z0.3823
G0 X43.5599 Y-21.9807 
G0 Z0.3823
G0 X43.5599 Y-23.4455 
G1 X43.5599 Y-23.4455 Z0.1781 F75.
G1 X43.5599 Y-23.5068 Z0.1673 F21.
G1 X43.5599 Y-23.6156 Z0.1481
G1 X43.5599 Y-23.2889 Z0.1661 F22.
G1 X43.5599 Y-22.9618 Z0.1753
G1 X43.5599 Y-22.6346 Z0.1756
G1 X43.5599 Y-22.3074 Z0.1669
G1 X43.5599 Y-21.9807 Z0.1493
G0 Z0.3823
G0 X43.5599 Y-21.9807 
G0 Z0.3823
G0 X43.5599 Y-23.4455 
G1 X43.5599 Y-23.4455 Z0.1665 F75.
G1 X43.5599 Y-23.5068 Z0.1557 F21.
G1 X43.5599 Y-23.6156 Z0.1365
G1 X43.5599 Y-23.2889 Z0.1546 F22.
G1 X43.5599 Y-22.9618 Z0.1637
G1 X43.5599 Y-22.6346 Z0.1640
G1 X43.5599 Y-22.3074 Z0.1553
G1 X43.5599 Y-21.9807 Z0.1377
G0 Z0.3823
G0 X43.5599 Y-21.9807 
G0 Z0.3823
G0 X43.5599 Y-23.4455 
G1 X43.5599 Y-23.4455 Z0.1549 F75.
G1 X43.5599 Y-23.5068 Z0.1441 F21.
G1 X43.5599 Y-23.6156 Z0.1249
G1 X43.5599 Y-23.2889 Z0.1430 F22.
G1 X43.5599 Y-22.9618 Z0.1522
G1 X43.5599 Y-22.6346 Z0.1524
G1 X43.5599 Y-22.3074 Z0.1437
G1 X43.5599 Y-21.9807 Z0.1261
G0 Z0.3823
G0 X43.5599 Y-21.9807 
G0 Z0.3823
G0 X43.5599 Y-23.4455 
G1 X43.5599 Y-23.4455 Z0.1434 F75.
G1 X43.5599 Y-23.5068 Z0.1326 F21.
G1 X43.5599 Y-23.6156 Z0.1134
G1 X43.5599 Y-23.2889 Z0.1315 F22.
G1 X43.5599 Y-22.9618 Z0.1406
G1 X43.5599 Y-22.6346 Z0.1409
G1 X43.5599 Y-22.3074 Z0.1322
G1 X43.5599 Y-21.9807 Z0.1146
G0 Z0.4076
G0 X43.5599 Y-21.9807 
G0 Z0.4076
G0 X44.8711 Y-23.4257 
G1 X44.8711 Y-23.4257 Z0.2237 F75.
G1 X44.8711 Y-23.4896 Z0.2124 F21.
G1 X44.8711 Y-23.5959 Z0.1937
G1 X44.8711 Y-23.2770 Z0.2109 F22.
G1 X44.8711 Y-22.9578 Z0.2197
G1 X44.8711 Y-22.6385 Z0.2199
G1 X44.8711 Y-22.3193 Z0.2116
G1 X44.8711 Y-22.0005 Z0.1949
G0 Z0.3820
G0 X44.8711 Y-22.0005 
G0 Z0.3820
G0 X44.8711 Y-23.4257 
G1 X44.8711 Y-23.4257 Z0.2121 F75.
G1 X44.8711 Y-23.4896 Z0.2009 F21.
G1 X44.8711 Y-23.5959 Z0.1821
G1 X44.8711 Y-23.2770 Z0.1994 F22.
G1 X44.8711 Y-22.9578 Z0.2081
G1 X44.8711 Y-22.6385 Z0.2083
G1 X44.8711 Y-22.3193 Z0.2001
G1 X44.8711 Y-22.0005 Z0.1833
G0 Z0.3820
G0 X44.8711 Y-22.0005 
G0 Z0.3820
G0 X44.8711 Y-23.4257 
G1 X44.8711 Y-23.4257 Z0.2006 F75.
G1 X44.8711 Y-23.4896 Z0.1893 F21.
G1 X44.8711 Y-23.5959 Z0.1706
G1 X44.8711 Y-23.2770 Z0.1878 F22.
G1 X44.8711 Y-22.9578 Z0.1965
G1 X44.8711 Y-22.6385 Z0.1968
G1 X44.8711 Y-22.3193 Z0.1885
G1 X44.8711 Y-22.0005 Z0.1718
G0 Z0.3820
G0 X44.8711 Y-22.0005 
G0 Z0.3820
G0 X44.8711 Y-23.4257 
G1 X44.8711 Y-23.4257 Z0.1890 F75.
G1 X44.8711 Y-23.4896 Z0.1778 F21.
G1 X44.8711 Y-23.5959 Z0.1590
G1 X44.8711 Y-23.2770 Z0.1762 F22.
G1 X44.8711 Y-22.9578 Z0.1850
G1 X44.8711 Y-22.6385 Z0.1852
G1 X44.8711 Y-22.3193 Z0.1769
G1 X44.8711 Y-22.0005 Z0.1602
G0 Z0.3820
G0 X44.8711 Y-22.0005 
G0 Z0.3820
G0 X44.8711 Y-23.4257 
G1 X44.8711 Y-23.4257 Z0.1775 F75.
G1 X44.8711 Y-23.4896 Z0.1662 F21.
G1 X44.8711 Y-23.5959 Z0.1475
G1 X44.8711 Y-23.2770 Z0.1647 F22.
G1 X44.8711 Y-22.9578 Z0.1734
G1 X44.8711 Y-22.6385 Z0.1736
G1 X44.8711 Y-22.3193 Z0.1654
G1 X44.8711 Y-22.0005 Z0.1486
G0 Z0.3820
G0 X44.8711 Y-22.0005 
G0 Z0.3820
G0 X44.8711 Y-23.4257 
G1 X44.8711 Y-23.4257 Z0.1659 F75.
G1 X44.8711 Y-23.4896 Z0.1546 F21.
G1 X44.8711 Y-23.5959 Z0.1359
G1 X44.8711 Y-23.2770 Z0.1531 F22.
G1 X44.8711 Y-22.9578 Z0.1618
G1 X44.8711 Y-22.6385 Z0.1621
G1 X44.8711 Y-22.3193 Z0.1538
G1 X44.8711 Y-22.0005 Z0.1371
G0 Z0.3820
G0 X44.8711 Y-22.0005 
G0 Z0.3820
G0 X44.8711 Y-23.4257 
G1 X44.8711 Y-23.4257 Z0.1543 F75.
G1 X44.8711 Y-23.4896 Z0.1431 F21.
G1 X44.8711 Y-23.5959 Z0.1243
G1 X44.8711 Y-23.2770 Z0.1416 F22.
G1 X44.8711 Y-22.9578 Z0.1503
G1 X44.8711 Y-22.6385 Z0.1505
G1 X44.8711 Y-22.3193 Z0.1423
G1 X44.8711 Y-22.0005 Z0.1255
G0 Z0.3820
G0 X44.8711 Y-22.0005 
G0 Z0.3820
G0 X44.8711 Y-23.4257 
G1 X44.8711 Y-23.4257 Z0.1428 F75.
G1 X44.8711 Y-23.4896 Z0.1315 F21.
G1 X44.8711 Y-23.5959 Z0.1128
G1 X44.8711 Y-23.2770 Z0.1300 F22.
G1 X44.8711 Y-22.9578 Z0.1387
G1 X44.8711 Y-22.6385 Z0.1390
G1 X44.8711 Y-22.3193 Z0.1307
G1 X44.8711 Y-22.0005 Z0.1139
G0 Z4.0000
G0 X44.8711 Y-22.0005 
M5
G53 Z
X2Y0
