( MOP:  03-frets-r12-s25PT5-NFrets22-JumboDepth-StandardKerf )
( FILE: G:\Shared drives\AlloyProjectFiles\Customer CAD files\Alloy-Standard-Builds-CAM\Fingerboards-in\03-frets-r12-s25PT5-NFrets22-JumboDepth-StandardKerf.nc)
G90
(  BEGIN TOOL LIST )
(  TOOL 15 - Fretkerf PT025 - DESC: 0.0250 DIA, 2 FLUTE,  CARBIDE MAT )
(  ENDOF TOOL LIST )
( 03-frets-r12-s25PT5-NFrets22-JumboDepth-StandardKerf)
T15
S14000
M3
G0 Z4.0000
G0 X27.9158 Y-23.8425 
G1 X27.9158 Y-23.8425 Z0.2041 F21.
G1 X27.9158 Y-23.9078 Z0.1926
G1 X27.9158 Y-24.0127 Z0.1741
G1 X27.9158 Y-23.6678 Z0.2043 F22.
G1 X27.9158 Y-23.3222 Z0.2246
G1 X27.9158 Y-22.9762 Z0.2349
G1 X27.9158 Y-22.6300 Z0.2352
G1 X27.9158 Y-22.2839 Z0.2255
G1 X27.9158 Y-21.9383 Z0.2058
G1 X27.9158 Y-21.5934 Z0.1762
G0 Z0.3654
G0 X27.9158 Y-21.5934 
G0 Z0.3654
G0 X27.9158 Y-23.8425 
G1 X27.9158 Y-23.8425 Z0.1904 F21.
G1 X27.9158 Y-23.9078 Z0.1789
G1 X27.9158 Y-24.0127 Z0.1604
G1 X27.9158 Y-23.6678 Z0.1906 F22.
G1 X27.9158 Y-23.3222 Z0.2109
G1 X27.9158 Y-22.9762 Z0.2212
G1 X27.9158 Y-22.6300 Z0.2215
G1 X27.9158 Y-22.2839 Z0.2118
G1 X27.9158 Y-21.9383 Z0.1921
G1 X27.9158 Y-21.5934 Z0.1625
G0 Z0.3517
G0 X27.9158 Y-21.5934 
G0 Z0.3517
G0 X27.9158 Y-23.8425 
G1 X27.9158 Y-23.8425 Z0.1767 F21.
G1 X27.9158 Y-23.9078 Z0.1652
G1 X27.9158 Y-24.0127 Z0.1467
G1 X27.9158 Y-23.6678 Z0.1769 F22.
G1 X27.9158 Y-23.3222 Z0.1972
G1 X27.9158 Y-22.9762 Z0.2075
G1 X27.9158 Y-22.6300 Z0.2078
G1 X27.9158 Y-22.2839 Z0.1981
G1 X27.9158 Y-21.9383 Z0.1784
G1 X27.9158 Y-21.5934 Z0.1488
G0 Z0.3380
G0 X27.9158 Y-21.5934 
G0 Z0.3380
G0 X27.9158 Y-23.8425 
G1 X27.9158 Y-23.8425 Z0.1630 F21.
G1 X27.9158 Y-23.9078 Z0.1515
G1 X27.9158 Y-24.0127 Z0.1330
G1 X27.9158 Y-23.6678 Z0.1632 F22.
G1 X27.9158 Y-23.3222 Z0.1835
G1 X27.9158 Y-22.9762 Z0.1937
G1 X27.9158 Y-22.6300 Z0.1940
G1 X27.9158 Y-22.2839 Z0.1843
G1 X27.9158 Y-21.9383 Z0.1647
G1 X27.9158 Y-21.5934 Z0.1350
G0 Z0.3243
G0 X27.9158 Y-21.5934 
G0 Z0.3243
G0 X27.9158 Y-23.8425 
G1 X27.9158 Y-23.8425 Z0.1493 F21.
G1 X27.9158 Y-23.9078 Z0.1378
G1 X27.9158 Y-24.0127 Z0.1193
G1 X27.9158 Y-23.6678 Z0.1495 F22.
G1 X27.9158 Y-23.3222 Z0.1698
G1 X27.9158 Y-22.9762 Z0.1800
G1 X27.9158 Y-22.6300 Z0.1803
G1 X27.9158 Y-22.2839 Z0.1706
G1 X27.9158 Y-21.9383 Z0.1510
G1 X27.9158 Y-21.5934 Z0.1213
G0 Z0.3106
G0 X27.9158 Y-21.5934 
G0 Z0.3106
G0 X27.9158 Y-23.8425 
G1 X27.9158 Y-23.8425 Z0.1356 F21.
G1 X27.9158 Y-23.9078 Z0.1240
G1 X27.9158 Y-24.0127 Z0.1056
G1 X27.9158 Y-23.6678 Z0.1358 F22.
G1 X27.9158 Y-23.3222 Z0.1560
G1 X27.9158 Y-22.9762 Z0.1663
G1 X27.9158 Y-22.6300 Z0.1666
G1 X27.9158 Y-22.2839 Z0.1569
G1 X27.9158 Y-21.9383 Z0.1373
G1 X27.9158 Y-21.5934 Z0.1076
G0 Z0.2968
G0 X27.9158 Y-21.5934 
G0 Z0.2968
G0 X27.9158 Y-23.8425 
G1 X27.9158 Y-23.8425 Z0.1218 F21.
G1 X27.9158 Y-23.9078 Z0.1103
G1 X27.9158 Y-24.0127 Z0.0918
G1 X27.9158 Y-23.6678 Z0.1221 F22.
G1 X27.9158 Y-23.3222 Z0.1423
G1 X27.9158 Y-22.9762 Z0.1526
G1 X27.9158 Y-22.6300 Z0.1529
G1 X27.9158 Y-22.2839 Z0.1432
G1 X27.9158 Y-21.9383 Z0.1235
G1 X27.9158 Y-21.5934 Z0.0939
G0 Z0.3797
G0 X27.9158 Y-21.5934 
G0 Z0.3797
G0 X28.3413 Y-23.8368 
G1 X28.3413 Y-23.8368 Z0.2047 F21.
G1 X28.3413 Y-23.9026 Z0.1931
G1 X28.3413 Y-24.0070 Z0.1747
G1 X28.3413 Y-23.6637 Z0.2046 F22.
G1 X28.3413 Y-23.3197 Z0.2247
G1 X28.3413 Y-22.9753 Z0.2349
G1 X28.3413 Y-22.6308 Z0.2352
G1 X28.3413 Y-22.2863 Z0.2256
G1 X28.3413 Y-21.9423 Z0.2061
G1 X28.3413 Y-21.5990 Z0.1768
G0 Z0.3660
G0 X28.3413 Y-21.5990 
G0 Z0.3660
G0 X28.3413 Y-23.8368 
G1 X28.3413 Y-23.8368 Z0.1910 F21.
G1 X28.3413 Y-23.9026 Z0.1794
G1 X28.3413 Y-24.0070 Z0.1610
G1 X28.3413 Y-23.6637 Z0.1909 F22.
G1 X28.3413 Y-23.3197 Z0.2110
G1 X28.3413 Y-22.9753 Z0.2212
G1 X28.3413 Y-22.6308 Z0.2215
G1 X28.3413 Y-22.2863 Z0.2119
G1 X28.3413 Y-21.9423 Z0.1924
G1 X28.3413 Y-21.5990 Z0.1630
G0 Z0.3523
G0 X28.3413 Y-21.5990 
G0 Z0.3523
G0 X28.3413 Y-23.8368 
G1 X28.3413 Y-23.8368 Z0.1773 F21.
G1 X28.3413 Y-23.9026 Z0.1657
G1 X28.3413 Y-24.0070 Z0.1473
G1 X28.3413 Y-23.6637 Z0.1772 F22.
G1 X28.3413 Y-23.3197 Z0.1973
G1 X28.3413 Y-22.9753 Z0.2075
G1 X28.3413 Y-22.6308 Z0.2078
G1 X28.3413 Y-22.2863 Z0.1982
G1 X28.3413 Y-21.9423 Z0.1787
G1 X28.3413 Y-21.5990 Z0.1493
G0 Z0.3386
G0 X28.3413 Y-21.5990 
G0 Z0.3386
G0 X28.3413 Y-23.8368 
G1 X28.3413 Y-23.8368 Z0.1636 F21.
G1 X28.3413 Y-23.9026 Z0.1520
G1 X28.3413 Y-24.0070 Z0.1336
G1 X28.3413 Y-23.6637 Z0.1635 F22.
G1 X28.3413 Y-23.3197 Z0.1836
G1 X28.3413 Y-22.9753 Z0.1938
G1 X28.3413 Y-22.6308 Z0.1941
G1 X28.3413 Y-22.2863 Z0.1845
G1 X28.3413 Y-21.9423 Z0.1650
G1 X28.3413 Y-21.5990 Z0.1356
G0 Z0.3249
G0 X28.3413 Y-21.5990 
G0 Z0.3249
G0 X28.3413 Y-23.8368 
G1 X28.3413 Y-23.8368 Z0.1499 F21.
G1 X28.3413 Y-23.9026 Z0.1383
G1 X28.3413 Y-24.0070 Z0.1199
G1 X28.3413 Y-23.6637 Z0.1498 F22.
G1 X28.3413 Y-23.3197 Z0.1699
G1 X28.3413 Y-22.9753 Z0.1800
G1 X28.3413 Y-22.6308 Z0.1803
G1 X28.3413 Y-22.2863 Z0.1707
G1 X28.3413 Y-21.9423 Z0.1513
G1 X28.3413 Y-21.5990 Z0.1219
G0 Z0.3111
G0 X28.3413 Y-21.5990 
G0 Z0.3111
G0 X28.3413 Y-23.8368 
G1 X28.3413 Y-23.8368 Z0.1361 F21.
G1 X28.3413 Y-23.9026 Z0.1245
G1 X28.3413 Y-24.0070 Z0.1061
G1 X28.3413 Y-23.6637 Z0.1361 F22.
G1 X28.3413 Y-23.3197 Z0.1561
G1 X28.3413 Y-22.9753 Z0.1663
G1 X28.3413 Y-22.6308 Z0.1666
G1 X28.3413 Y-22.2863 Z0.1570
G1 X28.3413 Y-21.9423 Z0.1375
G1 X28.3413 Y-21.5990 Z0.1082
G0 Z0.2974
G0 X28.3413 Y-21.5990 
G0 Z0.2974
G0 X28.3413 Y-23.8368 
G1 X28.3413 Y-23.8368 Z0.1224 F21.
G1 X28.3413 Y-23.9026 Z0.1108
G1 X28.3413 Y-24.0070 Z0.0924
G1 X28.3413 Y-23.6637 Z0.1224 F22.
G1 X28.3413 Y-23.3197 Z0.1424
G1 X28.3413 Y-22.9753 Z0.1526
G1 X28.3413 Y-22.6308 Z0.1529
G1 X28.3413 Y-22.2863 Z0.1433
G1 X28.3413 Y-21.9423 Z0.1238
G1 X28.3413 Y-21.5990 Z0.0945
G0 Z0.3803
G0 X28.3413 Y-21.5990 
G0 Z0.3803
G0 X28.7921 Y-23.8308 
G1 X28.7921 Y-23.8308 Z0.2053 F21.
G1 X28.7921 Y-23.8970 Z0.1936
G1 X28.7921 Y-24.0009 Z0.1753
G1 X28.7921 Y-23.6594 Z0.2050 F22.
G1 X28.7921 Y-23.3171 Z0.2248
G1 X28.7921 Y-22.9744 Z0.2349
G1 X28.7921 Y-22.6316 Z0.2352
G1 X28.7921 Y-22.2889 Z0.2257
G1 X28.7921 Y-21.9466 Z0.2064
G1 X28.7921 Y-21.6050 Z0.1774
G0 Z0.3666
G0 X28.7921 Y-21.6050 
G0 Z0.3666
G0 X28.7921 Y-23.8308 
G1 X28.7921 Y-23.8308 Z0.1916 F21.
G1 X28.7921 Y-23.8970 Z0.1799
G1 X28.7921 Y-24.0009 Z0.1616
G1 X28.7921 Y-23.6594 Z0.1912 F22.
G1 X28.7921 Y-23.3171 Z0.2111
G1 X28.7921 Y-22.9744 Z0.2212
G1 X28.7921 Y-22.6316 Z0.2215
G1 X28.7921 Y-22.2889 Z0.2120
G1 X28.7921 Y-21.9466 Z0.1927
G1 X28.7921 Y-21.6050 Z0.1636
G0 Z0.3529
G0 X28.7921 Y-21.6050 
G0 Z0.3529
G0 X28.7921 Y-23.8308 
G1 X28.7921 Y-23.8308 Z0.1779 F21.
G1 X28.7921 Y-23.8970 Z0.1662
G1 X28.7921 Y-24.0009 Z0.1479
G1 X28.7921 Y-23.6594 Z0.1775 F22.
G1 X28.7921 Y-23.3171 Z0.1974
G1 X28.7921 Y-22.9744 Z0.2075
G1 X28.7921 Y-22.6316 Z0.2078
G1 X28.7921 Y-22.2889 Z0.1983
G1 X28.7921 Y-21.9466 Z0.1790
G1 X28.7921 Y-21.6050 Z0.1499
G0 Z0.3392
G0 X28.7921 Y-21.6050 
G0 Z0.3392
G0 X28.7921 Y-23.8308 
G1 X28.7921 Y-23.8308 Z0.1642 F21.
G1 X28.7921 Y-23.8970 Z0.1525
G1 X28.7921 Y-24.0009 Z0.1342
G1 X28.7921 Y-23.6594 Z0.1638 F22.
G1 X28.7921 Y-23.3171 Z0.1837
G1 X28.7921 Y-22.9744 Z0.1938
G1 X28.7921 Y-22.6316 Z0.1941
G1 X28.7921 Y-22.2889 Z0.1846
G1 X28.7921 Y-21.9466 Z0.1653
G1 X28.7921 Y-21.6050 Z0.1362
G0 Z0.3255
G0 X28.7921 Y-21.6050 
G0 Z0.3255
G0 X28.7921 Y-23.8308 
G1 X28.7921 Y-23.8308 Z0.1505 F21.
G1 X28.7921 Y-23.8970 Z0.1388
G1 X28.7921 Y-24.0009 Z0.1205
G1 X28.7921 Y-23.6594 Z0.1501 F22.
G1 X28.7921 Y-23.3171 Z0.1700
G1 X28.7921 Y-22.9744 Z0.1801
G1 X28.7921 Y-22.6316 Z0.1803
G1 X28.7921 Y-22.2889 Z0.1708
G1 X28.7921 Y-21.9466 Z0.1516
G1 X28.7921 Y-21.6050 Z0.1225
G0 Z0.3118
G0 X28.7921 Y-21.6050 
G0 Z0.3118
G0 X28.7921 Y-23.8308 
G1 X28.7921 Y-23.8308 Z0.1368 F21.
G1 X28.7921 Y-23.8970 Z0.1251
G1 X28.7921 Y-24.0009 Z0.1068
G1 X28.7921 Y-23.6594 Z0.1364 F22.
G1 X28.7921 Y-23.3171 Z0.1563
G1 X28.7921 Y-22.9744 Z0.1663
G1 X28.7921 Y-22.6316 Z0.1666
G1 X28.7921 Y-22.2889 Z0.1571
G1 X28.7921 Y-21.9466 Z0.1378
G1 X28.7921 Y-21.6050 Z0.1088
G0 Z0.2980
G0 X28.7921 Y-21.6050 
G0 Z0.2980
G0 X28.7921 Y-23.8308 
G1 X28.7921 Y-23.8308 Z0.1230 F21.
G1 X28.7921 Y-23.8970 Z0.1114
G1 X28.7921 Y-24.0009 Z0.0930
G1 X28.7921 Y-23.6594 Z0.1227 F22.
G1 X28.7921 Y-23.3171 Z0.1425
G1 X28.7921 Y-22.9744 Z0.1526
G1 X28.7921 Y-22.6316 Z0.1529
G1 X28.7921 Y-22.2889 Z0.1434
G1 X28.7921 Y-21.9466 Z0.1241
G1 X28.7921 Y-21.6050 Z0.0951
G0 Z0.3810
G0 X28.7921 Y-21.6050 
G0 Z0.3810
G0 X29.2697 Y-23.8243 
G1 X29.2697 Y-23.8243 Z0.2060 F21.
G1 X29.2697 Y-23.8912 Z0.1942
G1 X29.2697 Y-23.9945 Z0.1760
G1 X29.2697 Y-23.6547 Z0.2053 F22.
G1 X29.2697 Y-23.3143 Z0.2250
G1 X29.2697 Y-22.9735 Z0.2349
G1 X29.2697 Y-22.6325 Z0.2352
G1 X29.2697 Y-22.2916 Z0.2258
G1 X29.2697 Y-21.9511 Z0.2067
G1 X29.2697 Y-21.6113 Z0.1780
G0 Z0.3673
G0 X29.2697 Y-21.6113 
G0 Z0.3673
G0 X29.2697 Y-23.8243 
G1 X29.2697 Y-23.8243 Z0.1923 F21.
G1 X29.2697 Y-23.8912 Z0.1805
G1 X29.2697 Y-23.9945 Z0.1623
G1 X29.2697 Y-23.6547 Z0.1916 F22.
G1 X29.2697 Y-23.3143 Z0.2112
G1 X29.2697 Y-22.9735 Z0.2212
G1 X29.2697 Y-22.6325 Z0.2215
G1 X29.2697 Y-22.2916 Z0.2121
G1 X29.2697 Y-21.9511 Z0.1930
G1 X29.2697 Y-21.6113 Z0.1643
G0 Z0.3535
G0 X29.2697 Y-21.6113 
G0 Z0.3535
G0 X29.2697 Y-23.8243 
G1 X29.2697 Y-23.8243 Z0.1785 F21.
G1 X29.2697 Y-23.8912 Z0.1668
G1 X29.2697 Y-23.9945 Z0.1485
G1 X29.2697 Y-23.6547 Z0.1779 F22.
G1 X29.2697 Y-23.3143 Z0.1975
G1 X29.2697 Y-22.9735 Z0.2075
G1 X29.2697 Y-22.6325 Z0.2078
G1 X29.2697 Y-22.2916 Z0.1984
G1 X29.2697 Y-21.9511 Z0.1793
G1 X29.2697 Y-21.6113 Z0.1506
G0 Z0.3398
G0 X29.2697 Y-21.6113 
G0 Z0.3398
G0 X29.2697 Y-23.8243 
G1 X29.2697 Y-23.8243 Z0.1648 F21.
G1 X29.2697 Y-23.8912 Z0.1530
G1 X29.2697 Y-23.9945 Z0.1348
G1 X29.2697 Y-23.6547 Z0.1642 F22.
G1 X29.2697 Y-23.3143 Z0.1838
G1 X29.2697 Y-22.9735 Z0.1938
G1 X29.2697 Y-22.6325 Z0.1941
G1 X29.2697 Y-22.2916 Z0.1847
G1 X29.2697 Y-21.9511 Z0.1656
G1 X29.2697 Y-21.6113 Z0.1368
G0 Z0.3261
G0 X29.2697 Y-21.6113 
G0 Z0.3261
G0 X29.2697 Y-23.8243 
G1 X29.2697 Y-23.8243 Z0.1511 F21.
G1 X29.2697 Y-23.8912 Z0.1393
G1 X29.2697 Y-23.9945 Z0.1211
G1 X29.2697 Y-23.6547 Z0.1504 F22.
G1 X29.2697 Y-23.3143 Z0.1701
G1 X29.2697 Y-22.9735 Z0.1801
G1 X29.2697 Y-22.6325 Z0.1804
G1 X29.2697 Y-22.2916 Z0.1710
G1 X29.2697 Y-21.9511 Z0.1519
G1 X29.2697 Y-21.6113 Z0.1231
G0 Z0.3124
G0 X29.2697 Y-21.6113 
G0 Z0.3124
G0 X29.2697 Y-23.8243 
G1 X29.2697 Y-23.8243 Z0.1374 F21.
G1 X29.2697 Y-23.8912 Z0.1256
G1 X29.2697 Y-23.9945 Z0.1074
G1 X29.2697 Y-23.6547 Z0.1367 F22.
G1 X29.2697 Y-23.3143 Z0.1564
G1 X29.2697 Y-22.9735 Z0.1664
G1 X29.2697 Y-22.6325 Z0.1666
G1 X29.2697 Y-22.2916 Z0.1572
G1 X29.2697 Y-21.9511 Z0.1382
G1 X29.2697 Y-21.6113 Z0.1094
G0 Z0.2987
G0 X29.2697 Y-21.6113 
G0 Z0.2987
G0 X29.2697 Y-23.8243 
G1 X29.2697 Y-23.8243 Z0.1237 F21.
G1 X29.2697 Y-23.8912 Z0.1119
G1 X29.2697 Y-23.9945 Z0.0937
G1 X29.2697 Y-23.6547 Z0.1230 F22.
G1 X29.2697 Y-23.3143 Z0.1427
G1 X29.2697 Y-22.9735 Z0.1526
G1 X29.2697 Y-22.6325 Z0.1529
G1 X29.2697 Y-22.2916 Z0.1435
G1 X29.2697 Y-21.9511 Z0.1244
G1 X29.2697 Y-21.6113 Z0.0957
G0 Z0.3817
G0 X29.2697 Y-21.6113 
G0 Z0.3817
G0 X29.7757 Y-23.8175 
G1 X29.7757 Y-23.8175 Z0.2067 F21.
G1 X29.7757 Y-23.8803 Z0.1956
G1 X29.7757 Y-23.9877 Z0.1767
G1 X29.7757 Y-23.6499 Z0.2056 F22.
G1 X29.7757 Y-23.3114 Z0.2251
G1 X29.7757 Y-22.9724 Z0.2349
G1 X29.7757 Y-22.6334 Z0.2352
G1 X29.7757 Y-22.2945 Z0.2259
G1 X29.7757 Y-21.9559 Z0.2071
G1 X29.7757 Y-21.6181 Z0.1786
G0 Z0.3679
G0 X29.7757 Y-21.6181 
G0 Z0.3679
G0 X29.7757 Y-23.8175 
G1 X29.7757 Y-23.8175 Z0.1929 F21.
G1 X29.7757 Y-23.8803 Z0.1819
G1 X29.7757 Y-23.9877 Z0.1629
G1 X29.7757 Y-23.6499 Z0.1919 F22.
G1 X29.7757 Y-23.3114 Z0.2114
G1 X29.7757 Y-22.9724 Z0.2212
G1 X29.7757 Y-22.6334 Z0.2215
G1 X29.7757 Y-22.2945 Z0.2122
G1 X29.7757 Y-21.9559 Z0.1934
G1 X29.7757 Y-21.6181 Z0.1649
G0 Z0.3542
G0 X29.7757 Y-21.6181 
G0 Z0.3542
G0 X29.7757 Y-23.8175 
G1 X29.7757 Y-23.8175 Z0.1792 F21.
G1 X29.7757 Y-23.8803 Z0.1682
G1 X29.7757 Y-23.9877 Z0.1492
G1 X29.7757 Y-23.6499 Z0.1782 F22.
G1 X29.7757 Y-23.3114 Z0.1977
G1 X29.7757 Y-22.9724 Z0.2075
G1 X29.7757 Y-22.6334 Z0.2078
G1 X29.7757 Y-22.2945 Z0.1985
G1 X29.7757 Y-21.9559 Z0.1796
G1 X29.7757 Y-21.6181 Z0.1512
G0 Z0.3405
G0 X29.7757 Y-21.6181 
G0 Z0.3405
G0 X29.7757 Y-23.8175 
G1 X29.7757 Y-23.8175 Z0.1655 F21.
G1 X29.7757 Y-23.8803 Z0.1545
G1 X29.7757 Y-23.9877 Z0.1355
G1 X29.7757 Y-23.6499 Z0.1645 F22.
G1 X29.7757 Y-23.3114 Z0.1839
G1 X29.7757 Y-22.9724 Z0.1938
G1 X29.7757 Y-22.6334 Z0.1941
G1 X29.7757 Y-22.2945 Z0.1848
G1 X29.7757 Y-21.9559 Z0.1659
G1 X29.7757 Y-21.6181 Z0.1375
G0 Z0.3268
G0 X29.7757 Y-21.6181 
G0 Z0.3268
G0 X29.7757 Y-23.8175 
G1 X29.7757 Y-23.8175 Z0.1518 F21.
G1 X29.7757 Y-23.8803 Z0.1407
G1 X29.7757 Y-23.9877 Z0.1218
G1 X29.7757 Y-23.6499 Z0.1508 F22.
G1 X29.7757 Y-23.3114 Z0.1702
G1 X29.7757 Y-22.9724 Z0.1801
G1 X29.7757 Y-22.6334 Z0.1804
G1 X29.7757 Y-22.2945 Z0.1711
G1 X29.7757 Y-21.9559 Z0.1522
G1 X29.7757 Y-21.6181 Z0.1238
G0 Z0.3131
G0 X29.7757 Y-21.6181 
G0 Z0.3131
G0 X29.7757 Y-23.8175 
G1 X29.7757 Y-23.8175 Z0.1381 F21.
G1 X29.7757 Y-23.8803 Z0.1270
G1 X29.7757 Y-23.9877 Z0.1081
G1 X29.7757 Y-23.6499 Z0.1371 F22.
G1 X29.7757 Y-23.3114 Z0.1565
G1 X29.7757 Y-22.9724 Z0.1664
G1 X29.7757 Y-22.6334 Z0.1667
G1 X29.7757 Y-22.2945 Z0.1574
G1 X29.7757 Y-21.9559 Z0.1385
G1 X29.7757 Y-21.6181 Z0.1101
G0 Z0.2994
G0 X29.7757 Y-21.6181 
G0 Z0.2994
G0 X29.7757 Y-23.8175 
G1 X29.7757 Y-23.8175 Z0.1244 F21.
G1 X29.7757 Y-23.8803 Z0.1133
G1 X29.7757 Y-23.9877 Z0.0944
G1 X29.7757 Y-23.6499 Z0.1234 F22.
G1 X29.7757 Y-23.3114 Z0.1428
G1 X29.7757 Y-22.9724 Z0.1527
G1 X29.7757 Y-22.6334 Z0.1529
G1 X29.7757 Y-22.2945 Z0.1436
G1 X29.7757 Y-21.9559 Z0.1248
G1 X29.7757 Y-21.6181 Z0.0964
G0 Z0.3824
G0 X29.7757 Y-21.6181 
G0 Z0.3824
G0 X30.3118 Y-23.8103 
G1 X30.3118 Y-23.8103 Z0.2074 F21.
G1 X30.3118 Y-23.8737 Z0.1962
G1 X30.3118 Y-23.9805 Z0.1774
G1 X30.3118 Y-23.6447 Z0.2060 F22.
G1 X30.3118 Y-23.3082 Z0.2252
G1 X30.3118 Y-22.9714 Z0.2350
G1 X30.3118 Y-22.6344 Z0.2352
G1 X30.3118 Y-22.2975 Z0.2261
G1 X30.3118 Y-21.9610 Z0.2074
G1 X30.3118 Y-21.6252 Z0.1793
G0 Z0.3687
G0 X30.3118 Y-21.6252 
G0 Z0.3687
G0 X30.3118 Y-23.8103 
G1 X30.3118 Y-23.8103 Z0.1937 F21.
G1 X30.3118 Y-23.8737 Z0.1825
G1 X30.3118 Y-23.9805 Z0.1637
G1 X30.3118 Y-23.6447 Z0.1923 F22.
G1 X30.3118 Y-23.3082 Z0.2115
G1 X30.3118 Y-22.9714 Z0.2212
G1 X30.3118 Y-22.6344 Z0.2215
G1 X30.3118 Y-22.2975 Z0.2123
G1 X30.3118 Y-21.9610 Z0.1937
G1 X30.3118 Y-21.6252 Z0.1656
G0 Z0.3549
G0 X30.3118 Y-21.6252 
G0 Z0.3549
G0 X30.3118 Y-23.8103 
G1 X30.3118 Y-23.8103 Z0.1799 F21.
G1 X30.3118 Y-23.8737 Z0.1688
G1 X30.3118 Y-23.9805 Z0.1499
G1 X30.3118 Y-23.6447 Z0.1786 F22.
G1 X30.3118 Y-23.3082 Z0.1978
G1 X30.3118 Y-22.9714 Z0.2075
G1 X30.3118 Y-22.6344 Z0.2078
G1 X30.3118 Y-22.2975 Z0.1986
G1 X30.3118 Y-21.9610 Z0.1800
G1 X30.3118 Y-21.6252 Z0.1519
G0 Z0.3412
G0 X30.3118 Y-21.6252 
G0 Z0.3412
G0 X30.3118 Y-23.8103 
G1 X30.3118 Y-23.8103 Z0.1662 F21.
G1 X30.3118 Y-23.8737 Z0.1551
G1 X30.3118 Y-23.9805 Z0.1362
G1 X30.3118 Y-23.6447 Z0.1649 F22.
G1 X30.3118 Y-23.3082 Z0.1841
G1 X30.3118 Y-22.9714 Z0.1938
G1 X30.3118 Y-22.6344 Z0.1941
G1 X30.3118 Y-22.2975 Z0.1849
G1 X30.3118 Y-21.9610 Z0.1663
G1 X30.3118 Y-21.6252 Z0.1382
G0 Z0.3275
G0 X30.3118 Y-21.6252 
G0 Z0.3275
G0 X30.3118 Y-23.8103 
G1 X30.3118 Y-23.8103 Z0.1525 F21.
G1 X30.3118 Y-23.8737 Z0.1413
G1 X30.3118 Y-23.9805 Z0.1225
G1 X30.3118 Y-23.6447 Z0.1512 F22.
G1 X30.3118 Y-23.3082 Z0.1704
G1 X30.3118 Y-22.9714 Z0.1801
G1 X30.3118 Y-22.6344 Z0.1804
G1 X30.3118 Y-22.2975 Z0.1712
G1 X30.3118 Y-21.9610 Z0.1526
G1 X30.3118 Y-21.6252 Z0.1245
G0 Z0.3138
G0 X30.3118 Y-21.6252 
G0 Z0.3138
G0 X30.3118 Y-23.8103 
G1 X30.3118 Y-23.8103 Z0.1388 F21.
G1 X30.3118 Y-23.8737 Z0.1276
G1 X30.3118 Y-23.9805 Z0.1088
G1 X30.3118 Y-23.6447 Z0.1374 F22.
G1 X30.3118 Y-23.3082 Z0.1566
G1 X30.3118 Y-22.9714 Z0.1664
G1 X30.3118 Y-22.6344 Z0.1667
G1 X30.3118 Y-22.2975 Z0.1575
G1 X30.3118 Y-21.9610 Z0.1389
G1 X30.3118 Y-21.6252 Z0.1108
G0 Z0.3001
G0 X30.3118 Y-21.6252 
G0 Z0.3001
G0 X30.3118 Y-23.8103 
G1 X30.3118 Y-23.8103 Z0.1251 F21.
G1 X30.3118 Y-23.8737 Z0.1139
G1 X30.3118 Y-23.9805 Z0.0951
G1 X30.3118 Y-23.6447 Z0.1237 F22.
G1 X30.3118 Y-23.3082 Z0.1429
G1 X30.3118 Y-22.9714 Z0.1527
G1 X30.3118 Y-22.6344 Z0.1530
G1 X30.3118 Y-22.2975 Z0.1438
G1 X30.3118 Y-21.9610 Z0.1251
G1 X30.3118 Y-21.6252 Z0.0971
G0 Z0.3831
G0 X30.3118 Y-21.6252 
G0 Z0.3831
G0 X30.8798 Y-23.8027 
G1 X30.8798 Y-23.8027 Z0.2081 F21.
G1 X30.8798 Y-23.8668 Z0.1968
G1 X30.8798 Y-23.9728 Z0.1781
G1 X30.8798 Y-23.6392 Z0.2064 F22.
G1 X30.8798 Y-23.3049 Z0.2254
G1 X30.8798 Y-22.9702 Z0.2350
G1 X30.8798 Y-22.6354 Z0.2353
G1 X30.8798 Y-22.3007 Z0.2262
G1 X30.8798 Y-21.9664 Z0.2078
G1 X30.8798 Y-21.6327 Z0.1801
G0 Z0.3694
G0 X30.8798 Y-21.6327 
G0 Z0.3694
G0 X30.8798 Y-23.8027 
G1 X30.8798 Y-23.8027 Z0.1944 F21.
G1 X30.8798 Y-23.8668 Z0.1831
G1 X30.8798 Y-23.9728 Z0.1644
G1 X30.8798 Y-23.6392 Z0.1927 F22.
G1 X30.8798 Y-23.3049 Z0.2116
G1 X30.8798 Y-22.9702 Z0.2213
G1 X30.8798 Y-22.6354 Z0.2215
G1 X30.8798 Y-22.3007 Z0.2125
G1 X30.8798 Y-21.9664 Z0.1941
G1 X30.8798 Y-21.6327 Z0.1664
G0 Z0.3557
G0 X30.8798 Y-21.6327 
G0 Z0.3557
G0 X30.8798 Y-23.8027 
G1 X30.8798 Y-23.8027 Z0.1807 F21.
G1 X30.8798 Y-23.8668 Z0.1694
G1 X30.8798 Y-23.9728 Z0.1507
G1 X30.8798 Y-23.6392 Z0.1790 F22.
G1 X30.8798 Y-23.3049 Z0.1979
G1 X30.8798 Y-22.9702 Z0.2075
G1 X30.8798 Y-22.6354 Z0.2078
G1 X30.8798 Y-22.3007 Z0.1988
G1 X30.8798 Y-21.9664 Z0.1804
G1 X30.8798 Y-21.6327 Z0.1527
G0 Z0.3420
G0 X30.8798 Y-21.6327 
G0 Z0.3420
G0 X30.8798 Y-23.8027 
G1 X30.8798 Y-23.8027 Z0.1670 F21.
G1 X30.8798 Y-23.8668 Z0.1557
G1 X30.8798 Y-23.9728 Z0.1370
G1 X30.8798 Y-23.6392 Z0.1653 F22.
G1 X30.8798 Y-23.3049 Z0.1842
G1 X30.8798 Y-22.9702 Z0.1938
G1 X30.8798 Y-22.6354 Z0.1941
G1 X30.8798 Y-22.3007 Z0.1851
G1 X30.8798 Y-21.9664 Z0.1667
G1 X30.8798 Y-21.6327 Z0.1389
G0 Z0.3283
G0 X30.8798 Y-21.6327 
G0 Z0.3283
G0 X30.8798 Y-23.8027 
G1 X30.8798 Y-23.8027 Z0.1533 F21.
G1 X30.8798 Y-23.8668 Z0.1420
G1 X30.8798 Y-23.9728 Z0.1233
G1 X30.8798 Y-23.6392 Z0.1515 F22.
G1 X30.8798 Y-23.3049 Z0.1705
G1 X30.8798 Y-22.9702 Z0.1801
G1 X30.8798 Y-22.6354 Z0.1804
G1 X30.8798 Y-22.3007 Z0.1713
G1 X30.8798 Y-21.9664 Z0.1529
G1 X30.8798 Y-21.6327 Z0.1252
G0 Z0.3146
G0 X30.8798 Y-21.6327 
G0 Z0.3146
G0 X30.8798 Y-23.8027 
G1 X30.8798 Y-23.8027 Z0.1396 F21.
G1 X30.8798 Y-23.8668 Z0.1283
G1 X30.8798 Y-23.9728 Z0.1096
G1 X30.8798 Y-23.6392 Z0.1378 F22.
G1 X30.8798 Y-23.3049 Z0.1568
G1 X30.8798 Y-22.9702 Z0.1664
G1 X30.8798 Y-22.6354 Z0.1667
G1 X30.8798 Y-22.3007 Z0.1576
G1 X30.8798 Y-21.9664 Z0.1392
G1 X30.8798 Y-21.6327 Z0.1115
G0 Z0.3008
G0 X30.8798 Y-21.6327 
G0 Z0.3008
G0 X30.8798 Y-23.8027 
G1 X30.8798 Y-23.8027 Z0.1258 F21.
G1 X30.8798 Y-23.8668 Z0.1145
G1 X30.8798 Y-23.9728 Z0.0958
G1 X30.8798 Y-23.6392 Z0.1241 F22.
G1 X30.8798 Y-23.3049 Z0.1431
G1 X30.8798 Y-22.9702 Z0.1527
G1 X30.8798 Y-22.6354 Z0.1530
G1 X30.8798 Y-22.3007 Z0.1439
G1 X30.8798 Y-21.9664 Z0.1255
G1 X30.8798 Y-21.6327 Z0.0978
G0 Z0.3839
G0 X30.8798 Y-21.6327 
G0 Z0.3839
G0 X31.4816 Y-23.7946 
G1 X31.4816 Y-23.7946 Z0.2089 F21.
G1 X31.4816 Y-23.8594 Z0.1975
G1 X31.4816 Y-23.9647 Z0.1789
G1 X31.4816 Y-23.6334 Z0.2068 F22.
G1 X31.4816 Y-23.3014 Z0.2255
G1 X31.4816 Y-22.9690 Z0.2350
G1 X31.4816 Y-22.6365 Z0.2353
G1 X31.4816 Y-22.3041 Z0.2263
G1 X31.4816 Y-21.9721 Z0.2082
G1 X31.4816 Y-21.6407 Z0.1809
G0 Z0.3702
G0 X31.4816 Y-21.6407 
G0 Z0.3702
G0 X31.4816 Y-23.7946 
G1 X31.4816 Y-23.7946 Z0.1952 F21.
G1 X31.4816 Y-23.8594 Z0.1838
G1 X31.4816 Y-23.9647 Z0.1652
G1 X31.4816 Y-23.6334 Z0.1931 F22.
G1 X31.4816 Y-23.3014 Z0.2118
G1 X31.4816 Y-22.9690 Z0.2213
G1 X31.4816 Y-22.6365 Z0.2216
G1 X31.4816 Y-22.3041 Z0.2126
G1 X31.4816 Y-21.9721 Z0.1945
G1 X31.4816 Y-21.6407 Z0.1671
G0 Z0.3565
G0 X31.4816 Y-21.6407 
G0 Z0.3565
G0 X31.4816 Y-23.7946 
G1 X31.4816 Y-23.7946 Z0.1815 F21.
G1 X31.4816 Y-23.8594 Z0.1701
G1 X31.4816 Y-23.9647 Z0.1515
G1 X31.4816 Y-23.6334 Z0.1794 F22.
G1 X31.4816 Y-23.3014 Z0.1981
G1 X31.4816 Y-22.9690 Z0.2076
G1 X31.4816 Y-22.6365 Z0.2078
G1 X31.4816 Y-22.3041 Z0.1989
G1 X31.4816 Y-21.9721 Z0.1808
G1 X31.4816 Y-21.6407 Z0.1534
G0 Z0.3428
G0 X31.4816 Y-21.6407 
G0 Z0.3428
G0 X31.4816 Y-23.7946 
G1 X31.4816 Y-23.7946 Z0.1678 F21.
G1 X31.4816 Y-23.8594 Z0.1564
G1 X31.4816 Y-23.9647 Z0.1378
G1 X31.4816 Y-23.6334 Z0.1657 F22.
G1 X31.4816 Y-23.3014 Z0.1844
G1 X31.4816 Y-22.9690 Z0.1939
G1 X31.4816 Y-22.6365 Z0.1941
G1 X31.4816 Y-22.3041 Z0.1852
G1 X31.4816 Y-21.9721 Z0.1670
G1 X31.4816 Y-21.6407 Z0.1397
G0 Z0.3291
G0 X31.4816 Y-21.6407 
G0 Z0.3291
G0 X31.4816 Y-23.7946 
G1 X31.4816 Y-23.7946 Z0.1541 F21.
G1 X31.4816 Y-23.8594 Z0.1426
G1 X31.4816 Y-23.9647 Z0.1241
G1 X31.4816 Y-23.6334 Z0.1520 F22.
G1 X31.4816 Y-23.3014 Z0.1707
G1 X31.4816 Y-22.9690 Z0.1801
G1 X31.4816 Y-22.6365 Z0.1804
G1 X31.4816 Y-22.3041 Z0.1715
G1 X31.4816 Y-21.9721 Z0.1533
G1 X31.4816 Y-21.6407 Z0.1260
G0 Z0.3154
G0 X31.4816 Y-21.6407 
G0 Z0.3154
G0 X31.4816 Y-23.7946 
G1 X31.4816 Y-23.7946 Z0.1404 F21.
G1 X31.4816 Y-23.8594 Z0.1289
G1 X31.4816 Y-23.9647 Z0.1104
G1 X31.4816 Y-23.6334 Z0.1382 F22.
G1 X31.4816 Y-23.3014 Z0.1569
G1 X31.4816 Y-22.9690 Z0.1664
G1 X31.4816 Y-22.6365 Z0.1667
G1 X31.4816 Y-22.3041 Z0.1578
G1 X31.4816 Y-21.9721 Z0.1396
G1 X31.4816 Y-21.6407 Z0.1123
G0 Z0.3016
G0 X31.4816 Y-21.6407 
G0 Z0.3016
G0 X31.4816 Y-23.7946 
G1 X31.4816 Y-23.7946 Z0.1266 F21.
G1 X31.4816 Y-23.8594 Z0.1152
G1 X31.4816 Y-23.9647 Z0.0966
G1 X31.4816 Y-23.6334 Z0.1245 F22.
G1 X31.4816 Y-23.3014 Z0.1432
G1 X31.4816 Y-22.9690 Z0.1527
G1 X31.4816 Y-22.6365 Z0.1530
G1 X31.4816 Y-22.3041 Z0.1440
G1 X31.4816 Y-21.9721 Z0.1259
G1 X31.4816 Y-21.6407 Z0.0986
G0 Z0.3848
G0 X31.4816 Y-21.6407 
G0 Z0.3848
G0 X32.1191 Y-23.7860 
G1 X32.1191 Y-23.7860 Z0.2098 F21.
G1 X32.1191 Y-23.8516 Z0.1982
G1 X32.1191 Y-23.9562 Z0.1798
G1 X32.1191 Y-23.6273 Z0.2072 F22.
G1 X32.1191 Y-23.2977 Z0.2257
G1 X32.1191 Y-22.9678 Z0.2350
G1 X32.1191 Y-22.6377 Z0.2353
G1 X32.1191 Y-22.3077 Z0.2265
G1 X32.1191 Y-21.9782 Z0.2086
G1 X32.1191 Y-21.6492 Z0.1817
G0 Z0.3711
G0 X32.1191 Y-21.6492 
G0 Z0.3711
G0 X32.1191 Y-23.7860 
G1 X32.1191 Y-23.7860 Z0.1961 F21.
G1 X32.1191 Y-23.8516 Z0.1845
G1 X32.1191 Y-23.9562 Z0.1661
G1 X32.1191 Y-23.6273 Z0.1935 F22.
G1 X32.1191 Y-23.2977 Z0.2120
G1 X32.1191 Y-22.9678 Z0.2213
G1 X32.1191 Y-22.6377 Z0.2216
G1 X32.1191 Y-22.3077 Z0.2128
G1 X32.1191 Y-21.9782 Z0.1949
G1 X32.1191 Y-21.6492 Z0.1680
G0 Z0.3573
G0 X32.1191 Y-21.6492 
G0 Z0.3573
G0 X32.1191 Y-23.7860 
G1 X32.1191 Y-23.7860 Z0.1823 F21.
G1 X32.1191 Y-23.8516 Z0.1708
G1 X32.1191 Y-23.9562 Z0.1523
G1 X32.1191 Y-23.6273 Z0.1798 F22.
G1 X32.1191 Y-23.2977 Z0.1982
G1 X32.1191 Y-22.9678 Z0.2076
G1 X32.1191 Y-22.6377 Z0.2079
G1 X32.1191 Y-22.3077 Z0.1991
G1 X32.1191 Y-21.9782 Z0.1812
G1 X32.1191 Y-21.6492 Z0.1542
G0 Z0.3436
G0 X32.1191 Y-21.6492 
G0 Z0.3436
G0 X32.1191 Y-23.7860 
G1 X32.1191 Y-23.7860 Z0.1686 F21.
G1 X32.1191 Y-23.8516 Z0.1571
G1 X32.1191 Y-23.9562 Z0.1386
G1 X32.1191 Y-23.6273 Z0.1661 F22.
G1 X32.1191 Y-23.2977 Z0.1845
G1 X32.1191 Y-22.9678 Z0.1939
G1 X32.1191 Y-22.6377 Z0.1941
G1 X32.1191 Y-22.3077 Z0.1853
G1 X32.1191 Y-21.9782 Z0.1675
G1 X32.1191 Y-21.6492 Z0.1405
G0 Z0.3299
G0 X32.1191 Y-21.6492 
G0 Z0.3299
G0 X32.1191 Y-23.7860 
G1 X32.1191 Y-23.7860 Z0.1549 F21.
G1 X32.1191 Y-23.8516 Z0.1433
G1 X32.1191 Y-23.9562 Z0.1249
G1 X32.1191 Y-23.6273 Z0.1524 F22.
G1 X32.1191 Y-23.2977 Z0.1708
G1 X32.1191 Y-22.9678 Z0.1802
G1 X32.1191 Y-22.6377 Z0.1804
G1 X32.1191 Y-22.3077 Z0.1716
G1 X32.1191 Y-21.9782 Z0.1537
G1 X32.1191 Y-21.6492 Z0.1268
G0 Z0.3162
G0 X32.1191 Y-21.6492 
G0 Z0.3162
G0 X32.1191 Y-23.7860 
G1 X32.1191 Y-23.7860 Z0.1412 F21.
G1 X32.1191 Y-23.8516 Z0.1296
G1 X32.1191 Y-23.9562 Z0.1112
G1 X32.1191 Y-23.6273 Z0.1387 F22.
G1 X32.1191 Y-23.2977 Z0.1571
G1 X32.1191 Y-22.9678 Z0.1664
G1 X32.1191 Y-22.6377 Z0.1667
G1 X32.1191 Y-22.3077 Z0.1579
G1 X32.1191 Y-21.9782 Z0.1400
G1 X32.1191 Y-21.6492 Z0.1131
G0 Z0.3025
G0 X32.1191 Y-21.6492 
G0 Z0.3025
G0 X32.1191 Y-23.7860 
G1 X32.1191 Y-23.7860 Z0.1275 F21.
G1 X32.1191 Y-23.8516 Z0.1159
G1 X32.1191 Y-23.9562 Z0.0975
G1 X32.1191 Y-23.6273 Z0.1250 F22.
G1 X32.1191 Y-23.2977 Z0.1434
G1 X32.1191 Y-22.9678 Z0.1527
G1 X32.1191 Y-22.6377 Z0.1530
G1 X32.1191 Y-22.3077 Z0.1442
G1 X32.1191 Y-21.9782 Z0.1263
G1 X32.1191 Y-21.6492 Z0.0994
G0 Z0.3856
G0 X32.1191 Y-21.6492 
G0 Z0.3856
G0 X32.7945 Y-23.7770 
G1 X32.7945 Y-23.7770 Z0.2106 F21.
G1 X32.7945 Y-23.8433 Z0.1989
G1 X32.7945 Y-23.9471 Z0.1806
G1 X32.7945 Y-23.6207 Z0.2077 F22.
G1 X32.7945 Y-23.2938 Z0.2258
G1 X32.7945 Y-22.9664 Z0.2350
G1 X32.7945 Y-22.6389 Z0.2353
G1 X32.7945 Y-22.3116 Z0.2266
G1 X32.7945 Y-21.9846 Z0.2090
G1 X32.7945 Y-21.6582 Z0.1825
G0 Z0.3719
G0 X32.7945 Y-21.6582 
G0 Z0.3719
G0 X32.7945 Y-23.7770 
G1 X32.7945 Y-23.7770 Z0.1969 F21.
G1 X32.7945 Y-23.8433 Z0.1852
G1 X32.7945 Y-23.9471 Z0.1669
G1 X32.7945 Y-23.6207 Z0.1940 F22.
G1 X32.7945 Y-23.2938 Z0.2121
G1 X32.7945 Y-22.9664 Z0.2213
G1 X32.7945 Y-22.6389 Z0.2216
G1 X32.7945 Y-22.3116 Z0.2129
G1 X32.7945 Y-21.9846 Z0.1953
G1 X32.7945 Y-21.6582 Z0.1688
G0 Z0.3582
G0 X32.7945 Y-21.6582 
G0 Z0.3582
G0 X32.7945 Y-23.7770 
G1 X32.7945 Y-23.7770 Z0.1832 F21.
G1 X32.7945 Y-23.8433 Z0.1715
G1 X32.7945 Y-23.9471 Z0.1532
G1 X32.7945 Y-23.6207 Z0.1803 F22.
G1 X32.7945 Y-23.2938 Z0.1984
G1 X32.7945 Y-22.9664 Z0.2076
G1 X32.7945 Y-22.6389 Z0.2079
G1 X32.7945 Y-22.3116 Z0.1992
G1 X32.7945 Y-21.9846 Z0.1816
G1 X32.7945 Y-21.6582 Z0.1551
G0 Z0.3445
G0 X32.7945 Y-21.6582 
G0 Z0.3445
G0 X32.7945 Y-23.7770 
G1 X32.7945 Y-23.7770 Z0.1695 F21.
G1 X32.7945 Y-23.8433 Z0.1578
G1 X32.7945 Y-23.9471 Z0.1395
G1 X32.7945 Y-23.6207 Z0.1666 F22.
G1 X32.7945 Y-23.2938 Z0.1847
G1 X32.7945 Y-22.9664 Z0.1939
G1 X32.7945 Y-22.6389 Z0.1942
G1 X32.7945 Y-22.3116 Z0.1855
G1 X32.7945 Y-21.9846 Z0.1679
G1 X32.7945 Y-21.6582 Z0.1414
G0 Z0.3308
G0 X32.7945 Y-21.6582 
G0 Z0.3308
G0 X32.7945 Y-23.7770 
G1 X32.7945 Y-23.7770 Z0.1558 F21.
G1 X32.7945 Y-23.8433 Z0.1441
G1 X32.7945 Y-23.9471 Z0.1258
G1 X32.7945 Y-23.6207 Z0.1528 F22.
G1 X32.7945 Y-23.2938 Z0.1710
G1 X32.7945 Y-22.9664 Z0.1802
G1 X32.7945 Y-22.6389 Z0.1804
G1 X32.7945 Y-22.3116 Z0.1718
G1 X32.7945 Y-21.9846 Z0.1542
G1 X32.7945 Y-21.6582 Z0.1277
G0 Z0.3171
G0 X32.7945 Y-21.6582 
G0 Z0.3171
G0 X32.7945 Y-23.7770 
G1 X32.7945 Y-23.7770 Z0.1421 F21.
G1 X32.7945 Y-23.8433 Z0.1304
G1 X32.7945 Y-23.9471 Z0.1121
G1 X32.7945 Y-23.6207 Z0.1391 F22.
G1 X32.7945 Y-23.2938 Z0.1573
G1 X32.7945 Y-22.9664 Z0.1665
G1 X32.7945 Y-22.6389 Z0.1667
G1 X32.7945 Y-22.3116 Z0.1581
G1 X32.7945 Y-21.9846 Z0.1405
G1 X32.7945 Y-21.6582 Z0.1139
G0 Z0.3034
G0 X32.7945 Y-21.6582 
G0 Z0.3034
G0 X32.7945 Y-23.7770 
G1 X32.7945 Y-23.7770 Z0.1284 F21.
G1 X32.7945 Y-23.8433 Z0.1167
G1 X32.7945 Y-23.9471 Z0.0984
G1 X32.7945 Y-23.6207 Z0.1254 F22.
G1 X32.7945 Y-23.2938 Z0.1435
G1 X32.7945 Y-22.9664 Z0.1527
G1 X32.7945 Y-22.6389 Z0.1530
G1 X32.7945 Y-22.3116 Z0.1443
G1 X32.7945 Y-21.9846 Z0.1267
G1 X32.7945 Y-21.6582 Z0.1002
G0 Z0.3866
G0 X32.7945 Y-21.6582 
G0 Z0.3866
G0 X33.5101 Y-23.7673 
G1 X33.5101 Y-23.7673 Z0.2116 F21.
G1 X33.5101 Y-23.8346 Z0.1997
G1 X33.5101 Y-23.9375 Z0.1816
G1 X33.5101 Y-23.6138 Z0.2082 F22.
G1 X33.5101 Y-23.2896 Z0.2260
G1 X33.5101 Y-22.9650 Z0.2351
G1 X33.5101 Y-22.6402 Z0.2353
G1 X33.5101 Y-22.3156 Z0.2268
G1 X33.5101 Y-21.9913 Z0.2095
G1 X33.5101 Y-21.6677 Z0.1834
G0 Z0.3729
G0 X33.5101 Y-21.6677 
G0 Z0.3729
G0 X33.5101 Y-23.7673 
G1 X33.5101 Y-23.7673 Z0.1979 F21.
G1 X33.5101 Y-23.8346 Z0.1860
G1 X33.5101 Y-23.9375 Z0.1679
G1 X33.5101 Y-23.6138 Z0.1945 F22.
G1 X33.5101 Y-23.2896 Z0.2123
G1 X33.5101 Y-22.9650 Z0.2213
G1 X33.5101 Y-22.6402 Z0.2216
G1 X33.5101 Y-22.3156 Z0.2131
G1 X33.5101 Y-21.9913 Z0.1958
G1 X33.5101 Y-21.6677 Z0.1697
G0 Z0.3591
G0 X33.5101 Y-21.6677 
G0 Z0.3591
G0 X33.5101 Y-23.7673 
G1 X33.5101 Y-23.7673 Z0.1841 F21.
G1 X33.5101 Y-23.8346 Z0.1723
G1 X33.5101 Y-23.9375 Z0.1541
G1 X33.5101 Y-23.6138 Z0.1807 F22.
G1 X33.5101 Y-23.2896 Z0.1986
G1 X33.5101 Y-22.9650 Z0.2076
G1 X33.5101 Y-22.6402 Z0.2079
G1 X33.5101 Y-22.3156 Z0.1994
G1 X33.5101 Y-21.9913 Z0.1821
G1 X33.5101 Y-21.6677 Z0.1560
G0 Z0.3454
G0 X33.5101 Y-21.6677 
G0 Z0.3454
G0 X33.5101 Y-23.7673 
G1 X33.5101 Y-23.7673 Z0.1704 F21.
G1 X33.5101 Y-23.8346 Z0.1586
G1 X33.5101 Y-23.9375 Z0.1404
G1 X33.5101 Y-23.6138 Z0.1670 F22.
G1 X33.5101 Y-23.2896 Z0.1849
G1 X33.5101 Y-22.9650 Z0.1939
G1 X33.5101 Y-22.6402 Z0.1942
G1 X33.5101 Y-22.3156 Z0.1857
G1 X33.5101 Y-21.9913 Z0.1683
G1 X33.5101 Y-21.6677 Z0.1423
G0 Z0.3317
G0 X33.5101 Y-21.6677 
G0 Z0.3317
G0 X33.5101 Y-23.7673 
G1 X33.5101 Y-23.7673 Z0.1567 F21.
G1 X33.5101 Y-23.8346 Z0.1449
G1 X33.5101 Y-23.9375 Z0.1267
G1 X33.5101 Y-23.6138 Z0.1533 F22.
G1 X33.5101 Y-23.2896 Z0.1711
G1 X33.5101 Y-22.9650 Z0.1802
G1 X33.5101 Y-22.6402 Z0.1805
G1 X33.5101 Y-22.3156 Z0.1719
G1 X33.5101 Y-21.9913 Z0.1546
G1 X33.5101 Y-21.6677 Z0.1286
G0 Z0.3180
G0 X33.5101 Y-21.6677 
G0 Z0.3180
G0 X33.5101 Y-23.7673 
G1 X33.5101 Y-23.7673 Z0.1430 F21.
G1 X33.5101 Y-23.8346 Z0.1311
G1 X33.5101 Y-23.9375 Z0.1130
G1 X33.5101 Y-23.6138 Z0.1396 F22.
G1 X33.5101 Y-23.2896 Z0.1574
G1 X33.5101 Y-22.9650 Z0.1665
G1 X33.5101 Y-22.6402 Z0.1667
G1 X33.5101 Y-22.3156 Z0.1582
G1 X33.5101 Y-21.9913 Z0.1409
G1 X33.5101 Y-21.6677 Z0.1148
G0 Z0.3043
G0 X33.5101 Y-21.6677 
G0 Z0.3043
G0 X33.5101 Y-23.7673 
G1 X33.5101 Y-23.7673 Z0.1293 F21.
G1 X33.5101 Y-23.8346 Z0.1174
G1 X33.5101 Y-23.9375 Z0.0993
G1 X33.5101 Y-23.6138 Z0.1259 F22.
G1 X33.5101 Y-23.2896 Z0.1437
G1 X33.5101 Y-22.9650 Z0.1528
G1 X33.5101 Y-22.6402 Z0.1530
G1 X33.5101 Y-22.3156 Z0.1445
G1 X33.5101 Y-21.9913 Z0.1272
G1 X33.5101 Y-21.6677 Z0.1011
G0 Z0.3875
G0 X33.5101 Y-21.6677 
G0 Z0.3875
G0 X34.2683 Y-23.7572 
G1 X34.2683 Y-23.7572 Z0.2125 F21.
G1 X34.2683 Y-23.8204 Z0.2014
G1 X34.2683 Y-23.9273 Z0.1825
G1 X34.2683 Y-23.6065 Z0.2087 F22.
G1 X34.2683 Y-23.2852 Z0.2262
G1 X34.2683 Y-22.9635 Z0.2351
G1 X34.2683 Y-22.6416 Z0.2353
G1 X34.2683 Y-22.3199 Z0.2270
G1 X34.2683 Y-21.9985 Z0.2100
G1 X34.2683 Y-21.6777 Z0.1844
G0 Z0.3738
G0 X34.2683 Y-21.6777 
G0 Z0.3738
G0 X34.2683 Y-23.7572 
G1 X34.2683 Y-23.7572 Z0.1988 F21.
G1 X34.2683 Y-23.8204 Z0.1877
G1 X34.2683 Y-23.9273 Z0.1688
G1 X34.2683 Y-23.6065 Z0.1950 F22.
G1 X34.2683 Y-23.2852 Z0.2125
G1 X34.2683 Y-22.9635 Z0.2214
G1 X34.2683 Y-22.6416 Z0.2216
G1 X34.2683 Y-22.3199 Z0.2133
G1 X34.2683 Y-21.9985 Z0.1963
G1 X34.2683 Y-21.6777 Z0.1706
G0 Z0.3601
G0 X34.2683 Y-21.6777 
G0 Z0.3601
G0 X34.2683 Y-23.7572 
G1 X34.2683 Y-23.7572 Z0.1851 F21.
G1 X34.2683 Y-23.8204 Z0.1740
G1 X34.2683 Y-23.9273 Z0.1551
G1 X34.2683 Y-23.6065 Z0.1812 F22.
G1 X34.2683 Y-23.2852 Z0.1988
G1 X34.2683 Y-22.9635 Z0.2076
G1 X34.2683 Y-22.6416 Z0.2079
G1 X34.2683 Y-22.3199 Z0.1995
G1 X34.2683 Y-21.9985 Z0.1825
G1 X34.2683 Y-21.6777 Z0.1569
G0 Z0.3464
G0 X34.2683 Y-21.6777 
G0 Z0.3464
G0 X34.2683 Y-23.7572 
G1 X34.2683 Y-23.7572 Z0.1714 F21.
G1 X34.2683 Y-23.8204 Z0.1602
G1 X34.2683 Y-23.9273 Z0.1414
G1 X34.2683 Y-23.6065 Z0.1675 F22.
G1 X34.2683 Y-23.2852 Z0.1850
G1 X34.2683 Y-22.9635 Z0.1939
G1 X34.2683 Y-22.6416 Z0.1942
G1 X34.2683 Y-22.3199 Z0.1858
G1 X34.2683 Y-21.9985 Z0.1688
G1 X34.2683 Y-21.6777 Z0.1432
G0 Z0.3327
G0 X34.2683 Y-21.6777 
G0 Z0.3327
G0 X34.2683 Y-23.7572 
G1 X34.2683 Y-23.7572 Z0.1577 F21.
G1 X34.2683 Y-23.8204 Z0.1465
G1 X34.2683 Y-23.9273 Z0.1277
G1 X34.2683 Y-23.6065 Z0.1538 F22.
G1 X34.2683 Y-23.2852 Z0.1713
G1 X34.2683 Y-22.9635 Z0.1802
G1 X34.2683 Y-22.6416 Z0.1805
G1 X34.2683 Y-22.3199 Z0.1721
G1 X34.2683 Y-21.9985 Z0.1551
G1 X34.2683 Y-21.6777 Z0.1295
G0 Z0.3190
G0 X34.2683 Y-21.6777 
G0 Z0.3190
G0 X34.2683 Y-23.7572 
G1 X34.2683 Y-23.7572 Z0.1440 F21.
G1 X34.2683 Y-23.8204 Z0.1328
G1 X34.2683 Y-23.9273 Z0.1140
G1 X34.2683 Y-23.6065 Z0.1401 F22.
G1 X34.2683 Y-23.2852 Z0.1576
G1 X34.2683 Y-22.9635 Z0.1665
G1 X34.2683 Y-22.6416 Z0.1668
G1 X34.2683 Y-22.3199 Z0.1584
G1 X34.2683 Y-21.9985 Z0.1414
G1 X34.2683 Y-21.6777 Z0.1158
G0 Z0.3053
G0 X34.2683 Y-21.6777 
G0 Z0.3053
G0 X34.2683 Y-23.7572 
G1 X34.2683 Y-23.7572 Z0.1303 F21.
G1 X34.2683 Y-23.8204 Z0.1191
G1 X34.2683 Y-23.9273 Z0.1003
G1 X34.2683 Y-23.6065 Z0.1264 F22.
G1 X34.2683 Y-23.2852 Z0.1439
G1 X34.2683 Y-22.9635 Z0.1528
G1 X34.2683 Y-22.6416 Z0.1531
G1 X34.2683 Y-22.3199 Z0.1447
G1 X34.2683 Y-21.9985 Z0.1277
G1 X34.2683 Y-21.6777 Z0.1021
G0 Z0.3886
G0 X34.2683 Y-21.6777 
G0 Z0.3886
G0 X35.0715 Y-23.7464 
G1 X35.0715 Y-23.7464 Z0.2136 F21.
G1 X35.0715 Y-23.8107 Z0.2022
G1 X35.0715 Y-23.9165 Z0.1836
G1 X35.0715 Y-23.5988 Z0.2092 F22.
G1 X35.0715 Y-23.2805 Z0.2264
G1 X35.0715 Y-22.9619 Z0.2351
G1 X35.0715 Y-22.6431 Z0.2354
G1 X35.0715 Y-22.3245 Z0.2271
G1 X35.0715 Y-22.0061 Z0.2105
G1 X35.0715 Y-21.6884 Z0.1854
G0 Z0.3749
G0 X35.0715 Y-21.6884 
G0 Z0.3749
G0 X35.0715 Y-23.7464 
G1 X35.0715 Y-23.7464 Z0.1999 F21.
G1 X35.0715 Y-23.8107 Z0.1885
G1 X35.0715 Y-23.9165 Z0.1699
G1 X35.0715 Y-23.5988 Z0.1955 F22.
G1 X35.0715 Y-23.2805 Z0.2127
G1 X35.0715 Y-22.9619 Z0.2214
G1 X35.0715 Y-22.6431 Z0.2216
G1 X35.0715 Y-22.3245 Z0.2134
G1 X35.0715 Y-22.0061 Z0.1968
G1 X35.0715 Y-21.6884 Z0.1716
G0 Z0.3611
G0 X35.0715 Y-21.6884 
G0 Z0.3611
G0 X35.0715 Y-23.7464 
G1 X35.0715 Y-23.7464 Z0.1861 F21.
G1 X35.0715 Y-23.8107 Z0.1748
G1 X35.0715 Y-23.9165 Z0.1561
G1 X35.0715 Y-23.5988 Z0.1818 F22.
G1 X35.0715 Y-23.2805 Z0.1989
G1 X35.0715 Y-22.9619 Z0.2077
G1 X35.0715 Y-22.6431 Z0.2079
G1 X35.0715 Y-22.3245 Z0.1997
G1 X35.0715 Y-22.0061 Z0.1830
G1 X35.0715 Y-21.6884 Z0.1579
G0 Z0.3474
G0 X35.0715 Y-21.6884 
G0 Z0.3474
G0 X35.0715 Y-23.7464 
G1 X35.0715 Y-23.7464 Z0.1724 F21.
G1 X35.0715 Y-23.8107 Z0.1611
G1 X35.0715 Y-23.9165 Z0.1424
G1 X35.0715 Y-23.5988 Z0.1681 F22.
G1 X35.0715 Y-23.2805 Z0.1852
G1 X35.0715 Y-22.9619 Z0.1940
G1 X35.0715 Y-22.6431 Z0.1942
G1 X35.0715 Y-22.3245 Z0.1860
G1 X35.0715 Y-22.0061 Z0.1693
G1 X35.0715 Y-21.6884 Z0.1442
G0 Z0.3337
G0 X35.0715 Y-21.6884 
G0 Z0.3337
G0 X35.0715 Y-23.7464 
G1 X35.0715 Y-23.7464 Z0.1587 F21.
G1 X35.0715 Y-23.8107 Z0.1474
G1 X35.0715 Y-23.9165 Z0.1287
G1 X35.0715 Y-23.5988 Z0.1543 F22.
G1 X35.0715 Y-23.2805 Z0.1715
G1 X35.0715 Y-22.9619 Z0.1802
G1 X35.0715 Y-22.6431 Z0.1805
G1 X35.0715 Y-22.3245 Z0.1723
G1 X35.0715 Y-22.0061 Z0.1556
G1 X35.0715 Y-21.6884 Z0.1305
G0 Z0.3200
G0 X35.0715 Y-21.6884 
G0 Z0.3200
G0 X35.0715 Y-23.7464 
G1 X35.0715 Y-23.7464 Z0.1450 F21.
G1 X35.0715 Y-23.8107 Z0.1337
G1 X35.0715 Y-23.9165 Z0.1150
G1 X35.0715 Y-23.5988 Z0.1406 F22.
G1 X35.0715 Y-23.2805 Z0.1578
G1 X35.0715 Y-22.9619 Z0.1665
G1 X35.0715 Y-22.6431 Z0.1668
G1 X35.0715 Y-22.3245 Z0.1586
G1 X35.0715 Y-22.0061 Z0.1419
G1 X35.0715 Y-21.6884 Z0.1168
G0 Z0.3063
G0 X35.0715 Y-21.6884 
G0 Z0.3063
G0 X35.0715 Y-23.7464 
G1 X35.0715 Y-23.7464 Z0.1313 F21.
G1 X35.0715 Y-23.8107 Z0.1199
G1 X35.0715 Y-23.9165 Z0.1013
G1 X35.0715 Y-23.5988 Z0.1269 F22.
G1 X35.0715 Y-23.2805 Z0.1441
G1 X35.0715 Y-22.9619 Z0.1528
G1 X35.0715 Y-22.6431 Z0.1531
G1 X35.0715 Y-22.3245 Z0.1449
G1 X35.0715 Y-22.0061 Z0.1282
G1 X35.0715 Y-21.6884 Z0.1031
G0 Z0.3896
G0 X35.0715 Y-21.6884 
G0 Z0.3896
G0 X35.9225 Y-23.7349 
G1 X35.9225 Y-23.7349 Z0.2146 F21.
G1 X35.9225 Y-23.8003 Z0.2031
G1 X35.9225 Y-23.9051 Z0.1846
G1 X35.9225 Y-23.5906 Z0.2097 F22.
G1 X35.9225 Y-23.2755 Z0.2266
G1 X35.9225 Y-22.9602 Z0.2351
G1 X35.9225 Y-22.6447 Z0.2354
G1 X35.9225 Y-22.3293 Z0.2273
G1 X35.9225 Y-22.0142 Z0.2110
G1 X35.9225 Y-21.6997 Z0.1864
G0 Z0.3759
G0 X35.9225 Y-21.6997 
G0 Z0.3759
G0 X35.9225 Y-23.7349 
G1 X35.9225 Y-23.7349 Z0.2009 F21.
G1 X35.9225 Y-23.8003 Z0.1894
G1 X35.9225 Y-23.9051 Z0.1709
G1 X35.9225 Y-23.5906 Z0.1960 F22.
G1 X35.9225 Y-23.2755 Z0.2129
G1 X35.9225 Y-22.9602 Z0.2214
G1 X35.9225 Y-22.6447 Z0.2217
G1 X35.9225 Y-22.3293 Z0.2136
G1 X35.9225 Y-22.0142 Z0.1973
G1 X35.9225 Y-21.6997 Z0.1727
G0 Z0.3622
G0 X35.9225 Y-21.6997 
G0 Z0.3622
G0 X35.9225 Y-23.7349 
G1 X35.9225 Y-23.7349 Z0.1872 F21.
G1 X35.9225 Y-23.8003 Z0.1757
G1 X35.9225 Y-23.9051 Z0.1572
G1 X35.9225 Y-23.5906 Z0.1823 F22.
G1 X35.9225 Y-23.2755 Z0.1991
G1 X35.9225 Y-22.9602 Z0.2077
G1 X35.9225 Y-22.6447 Z0.2079
G1 X35.9225 Y-22.3293 Z0.1999
G1 X35.9225 Y-22.0142 Z0.1836
G1 X35.9225 Y-21.6997 Z0.1590
G0 Z0.3485
G0 X35.9225 Y-21.6997 
G0 Z0.3485
G0 X35.9225 Y-23.7349 
G1 X35.9225 Y-23.7349 Z0.1735 F21.
G1 X35.9225 Y-23.8003 Z0.1620
G1 X35.9225 Y-23.9051 Z0.1435
G1 X35.9225 Y-23.5906 Z0.1686 F22.
G1 X35.9225 Y-23.2755 Z0.1854
G1 X35.9225 Y-22.9602 Z0.1940
G1 X35.9225 Y-22.6447 Z0.1942
G1 X35.9225 Y-22.3293 Z0.1862
G1 X35.9225 Y-22.0142 Z0.1699
G1 X35.9225 Y-21.6997 Z0.1453
G0 Z0.3348
G0 X35.9225 Y-21.6997 
G0 Z0.3348
G0 X35.9225 Y-23.7349 
G1 X35.9225 Y-23.7349 Z0.1598 F21.
G1 X35.9225 Y-23.8003 Z0.1482
G1 X35.9225 Y-23.9051 Z0.1298
G1 X35.9225 Y-23.5906 Z0.1549 F22.
G1 X35.9225 Y-23.2755 Z0.1717
G1 X35.9225 Y-22.9602 Z0.1803
G1 X35.9225 Y-22.6447 Z0.1805
G1 X35.9225 Y-22.3293 Z0.1725
G1 X35.9225 Y-22.0142 Z0.1561
G1 X35.9225 Y-21.6997 Z0.1315
G0 Z0.3211
G0 X35.9225 Y-21.6997 
G0 Z0.3211
G0 X35.9225 Y-23.7349 
G1 X35.9225 Y-23.7349 Z0.1461 F21.
G1 X35.9225 Y-23.8003 Z0.1345
G1 X35.9225 Y-23.9051 Z0.1161
G1 X35.9225 Y-23.5906 Z0.1412 F22.
G1 X35.9225 Y-23.2755 Z0.1580
G1 X35.9225 Y-22.9602 Z0.1666
G1 X35.9225 Y-22.6447 Z0.1668
G1 X35.9225 Y-22.3293 Z0.1588
G1 X35.9225 Y-22.0142 Z0.1424
G1 X35.9225 Y-21.6997 Z0.1178
G0 Z0.3074
G0 X35.9225 Y-21.6997 
G0 Z0.3074
G0 X35.9225 Y-23.7349 
G1 X35.9225 Y-23.7349 Z0.1324 F21.
G1 X35.9225 Y-23.8003 Z0.1208
G1 X35.9225 Y-23.9051 Z0.1024
G1 X35.9225 Y-23.5906 Z0.1275 F22.
G1 X35.9225 Y-23.2755 Z0.1443
G1 X35.9225 Y-22.9602 Z0.1528
G1 X35.9225 Y-22.6447 Z0.1531
G1 X35.9225 Y-22.3293 Z0.1450
G1 X35.9225 Y-22.0142 Z0.1287
G1 X35.9225 Y-21.6997 Z0.1041
G0 Z0.3908
G0 X35.9225 Y-21.6997 
G0 Z0.3908
G0 X36.8241 Y-23.7228 
G1 X36.8241 Y-23.7228 Z0.2158 F21.
G1 X36.8241 Y-23.7893 Z0.2040
G1 X36.8241 Y-23.8929 Z0.1858
G1 X36.8241 Y-23.5819 Z0.2103 F22.
G1 X36.8241 Y-23.2703 Z0.2268
G1 X36.8241 Y-22.9584 Z0.2351
G1 X36.8241 Y-22.6463 Z0.2354
G1 X36.8241 Y-22.3344 Z0.2275
G1 X36.8241 Y-22.0228 Z0.2116
G1 X36.8241 Y-21.7117 Z0.1875
G0 Z0.3770
G0 X36.8241 Y-21.7117 
G0 Z0.3770
G0 X36.8241 Y-23.7228 
G1 X36.8241 Y-23.7228 Z0.2020 F21.
G1 X36.8241 Y-23.7893 Z0.1903
G1 X36.8241 Y-23.8929 Z0.1720
G1 X36.8241 Y-23.5819 Z0.1966 F22.
G1 X36.8241 Y-23.2703 Z0.2131
G1 X36.8241 Y-22.9584 Z0.2214
G1 X36.8241 Y-22.6463 Z0.2217
G1 X36.8241 Y-22.3344 Z0.2138
G1 X36.8241 Y-22.0228 Z0.1978
G1 X36.8241 Y-21.7117 Z0.1738
G0 Z0.3633
G0 X36.8241 Y-21.7117 
G0 Z0.3633
G0 X36.8241 Y-23.7228 
G1 X36.8241 Y-23.7228 Z0.1883 F21.
G1 X36.8241 Y-23.7893 Z0.1766
G1 X36.8241 Y-23.8929 Z0.1583
G1 X36.8241 Y-23.5819 Z0.1829 F22.
G1 X36.8241 Y-23.2703 Z0.1994
G1 X36.8241 Y-22.9584 Z0.2077
G1 X36.8241 Y-22.6463 Z0.2080
G1 X36.8241 Y-22.3344 Z0.2001
G1 X36.8241 Y-22.0228 Z0.1841
G1 X36.8241 Y-21.7117 Z0.1601
G0 Z0.3496
G0 X36.8241 Y-21.7117 
G0 Z0.3496
G0 X36.8241 Y-23.7228 
G1 X36.8241 Y-23.7228 Z0.1746 F21.
G1 X36.8241 Y-23.7893 Z0.1629
G1 X36.8241 Y-23.8929 Z0.1446
G1 X36.8241 Y-23.5819 Z0.1692 F22.
G1 X36.8241 Y-23.2703 Z0.1856
G1 X36.8241 Y-22.9584 Z0.1940
G1 X36.8241 Y-22.6463 Z0.1943
G1 X36.8241 Y-22.3344 Z0.1864
G1 X36.8241 Y-22.0228 Z0.1704
G1 X36.8241 Y-21.7117 Z0.1463
G0 Z0.3359
G0 X36.8241 Y-21.7117 
G0 Z0.3359
G0 X36.8241 Y-23.7228 
G1 X36.8241 Y-23.7228 Z0.1609 F21.
G1 X36.8241 Y-23.7893 Z0.1492
G1 X36.8241 Y-23.8929 Z0.1309
G1 X36.8241 Y-23.5819 Z0.1555 F22.
G1 X36.8241 Y-23.2703 Z0.1719
G1 X36.8241 Y-22.9584 Z0.1803
G1 X36.8241 Y-22.6463 Z0.1805
G1 X36.8241 Y-22.3344 Z0.1727
G1 X36.8241 Y-22.0228 Z0.1567
G1 X36.8241 Y-21.7117 Z0.1326
G0 Z0.3222
G0 X36.8241 Y-21.7117 
G0 Z0.3222
G0 X36.8241 Y-23.7228 
G1 X36.8241 Y-23.7228 Z0.1472 F21.
G1 X36.8241 Y-23.7893 Z0.1355
G1 X36.8241 Y-23.8929 Z0.1172
G1 X36.8241 Y-23.5819 Z0.1417 F22.
G1 X36.8241 Y-23.2703 Z0.1582
G1 X36.8241 Y-22.9584 Z0.1666
G1 X36.8241 Y-22.6463 Z0.1668
G1 X36.8241 Y-22.3344 Z0.1590
G1 X36.8241 Y-22.0228 Z0.1430
G1 X36.8241 Y-21.7117 Z0.1189
G0 Z0.3085
G0 X36.8241 Y-21.7117 
G0 Z0.3085
G0 X36.8241 Y-23.7228 
G1 X36.8241 Y-23.7228 Z0.1335 F21.
G1 X36.8241 Y-23.7893 Z0.1217
G1 X36.8241 Y-23.8929 Z0.1035
G1 X36.8241 Y-23.5819 Z0.1280 F22.
G1 X36.8241 Y-23.2703 Z0.1445
G1 X36.8241 Y-22.9584 Z0.1529
G1 X36.8241 Y-22.6463 Z0.1531
G1 X36.8241 Y-22.3344 Z0.1452
G1 X36.8241 Y-22.0228 Z0.1293
G1 X36.8241 Y-21.7117 Z0.1052
G0 Z0.3919
G0 X36.8241 Y-21.7117 
G0 Z0.3919
G0 X37.7793 Y-23.7100 
G1 X37.7793 Y-23.7100 Z0.2169 F21.
G1 X37.7793 Y-23.7726 Z0.2059
G1 X37.7793 Y-23.8801 Z0.1869
G1 X37.7793 Y-23.5214 Z0.2142 F22.
G1 X37.7793 Y-23.1620 Z0.2306
G1 X37.7793 Y-22.8023 Z0.2363
G1 X37.7793 Y-22.4425 Z0.2312
G1 X37.7793 Y-22.0831 Z0.2153
G1 X37.7793 Y-21.7243 Z0.1886
G0 Z0.3782
G0 X37.7793 Y-21.7243 
G0 Z0.3782
G0 X37.7793 Y-23.7100 
G1 X37.7793 Y-23.7100 Z0.2032 F21.
G1 X37.7793 Y-23.7726 Z0.1922
G1 X37.7793 Y-23.8801 Z0.1732
G1 X37.7793 Y-23.5214 Z0.2004 F22.
G1 X37.7793 Y-23.1620 Z0.2169
G1 X37.7793 Y-22.8023 Z0.2226
G1 X37.7793 Y-22.4425 Z0.2175
G1 X37.7793 Y-22.0831 Z0.2016
G1 X37.7793 Y-21.7243 Z0.1749
G0 Z0.3645
G0 X37.7793 Y-21.7243 
G0 Z0.3645
G0 X37.7793 Y-23.7100 
G1 X37.7793 Y-23.7100 Z0.1895 F21.
G1 X37.7793 Y-23.7726 Z0.1785
G1 X37.7793 Y-23.8801 Z0.1595
G1 X37.7793 Y-23.5214 Z0.1867 F22.
G1 X37.7793 Y-23.1620 Z0.2032
G1 X37.7793 Y-22.8023 Z0.2089
G1 X37.7793 Y-22.4425 Z0.2037
G1 X37.7793 Y-22.0831 Z0.1879
G1 X37.7793 Y-21.7243 Z0.1612
G0 Z0.3508
G0 X37.7793 Y-21.7243 
G0 Z0.3508
G0 X37.7793 Y-23.7100 
G1 X37.7793 Y-23.7100 Z0.1758 F21.
G1 X37.7793 Y-23.7726 Z0.1648
G1 X37.7793 Y-23.8801 Z0.1458
G1 X37.7793 Y-23.5214 Z0.1730 F22.
G1 X37.7793 Y-23.1620 Z0.1895
G1 X37.7793 Y-22.8023 Z0.1951
G1 X37.7793 Y-22.4425 Z0.1900
G1 X37.7793 Y-22.0831 Z0.1741
G1 X37.7793 Y-21.7243 Z0.1475
G0 Z0.3371
G0 X37.7793 Y-21.7243 
G0 Z0.3371
G0 X37.7793 Y-23.7100 
G1 X37.7793 Y-23.7100 Z0.1621 F21.
G1 X37.7793 Y-23.7726 Z0.1510
G1 X37.7793 Y-23.8801 Z0.1321
G1 X37.7793 Y-23.5214 Z0.1593 F22.
G1 X37.7793 Y-23.1620 Z0.1758
G1 X37.7793 Y-22.8023 Z0.1814
G1 X37.7793 Y-22.4425 Z0.1763
G1 X37.7793 Y-22.0831 Z0.1604
G1 X37.7793 Y-21.7243 Z0.1338
G0 Z0.3234
G0 X37.7793 Y-21.7243 
G0 Z0.3234
G0 X37.7793 Y-23.7100 
G1 X37.7793 Y-23.7100 Z0.1484 F21.
G1 X37.7793 Y-23.7726 Z0.1373
G1 X37.7793 Y-23.8801 Z0.1184
G1 X37.7793 Y-23.5214 Z0.1456 F22.
G1 X37.7793 Y-23.1620 Z0.1620
G1 X37.7793 Y-22.8023 Z0.1677
G1 X37.7793 Y-22.4425 Z0.1626
G1 X37.7793 Y-22.0831 Z0.1467
G1 X37.7793 Y-21.7243 Z0.1201
G0 Z0.3096
G0 X37.7793 Y-21.7243 
G0 Z0.3096
G0 X37.7793 Y-23.7100 
G1 X37.7793 Y-23.7100 Z0.1346 F21.
G1 X37.7793 Y-23.7726 Z0.1236
G1 X37.7793 Y-23.8801 Z0.1046
G1 X37.7793 Y-23.5214 Z0.1319 F22.
G1 X37.7793 Y-23.1620 Z0.1483
G1 X37.7793 Y-22.8023 Z0.1540
G1 X37.7793 Y-22.4425 Z0.1489
G1 X37.7793 Y-22.0831 Z0.1330
G1 X37.7793 Y-21.7243 Z0.1063
G0 Z0.3932
G0 X37.7793 Y-21.7243 
G0 Z0.3932
G0 X38.7913 Y-23.6964 
G1 X38.7913 Y-23.6964 Z0.2182 F21.
G1 X38.7913 Y-23.7603 Z0.2069
G1 X38.7913 Y-23.8665 Z0.1882
G1 X38.7913 Y-23.5122 Z0.2147 F22.
G1 X38.7913 Y-23.1574 Z0.2308
G1 X38.7913 Y-22.8022 Z0.2363
G1 X38.7913 Y-22.4470 Z0.2313
G1 X38.7913 Y-22.0921 Z0.2158
G1 X38.7913 Y-21.7378 Z0.1898
G0 Z0.3794
G0 X38.7913 Y-21.7378 
G0 Z0.3794
G0 X38.7913 Y-23.6964 
G1 X38.7913 Y-23.6964 Z0.2044 F21.
G1 X38.7913 Y-23.7603 Z0.1932
G1 X38.7913 Y-23.8665 Z0.1744
G1 X38.7913 Y-23.5122 Z0.2010 F22.
G1 X38.7913 Y-23.1574 Z0.2170
G1 X38.7913 Y-22.8022 Z0.2226
G1 X38.7913 Y-22.4470 Z0.2176
G1 X38.7913 Y-22.0921 Z0.2021
G1 X38.7913 Y-21.7378 Z0.1761
G0 Z0.3657
G0 X38.7913 Y-21.7378 
G0 Z0.3657
G0 X38.7913 Y-23.6964 
G1 X38.7913 Y-23.6964 Z0.1907 F21.
G1 X38.7913 Y-23.7603 Z0.1795
G1 X38.7913 Y-23.8665 Z0.1607
G1 X38.7913 Y-23.5122 Z0.1873 F22.
G1 X38.7913 Y-23.1574 Z0.2033
G1 X38.7913 Y-22.8022 Z0.2089
G1 X38.7913 Y-22.4470 Z0.2039
G1 X38.7913 Y-22.0921 Z0.1884
G1 X38.7913 Y-21.7378 Z0.1624
G0 Z0.3520
G0 X38.7913 Y-21.7378 
G0 Z0.3520
G0 X38.7913 Y-23.6964 
G1 X38.7913 Y-23.6964 Z0.1770 F21.
G1 X38.7913 Y-23.7603 Z0.1657
G1 X38.7913 Y-23.8665 Z0.1470
G1 X38.7913 Y-23.5122 Z0.1736 F22.
G1 X38.7913 Y-23.1574 Z0.1896
G1 X38.7913 Y-22.8022 Z0.1951
G1 X38.7913 Y-22.4470 Z0.1902
G1 X38.7913 Y-22.0921 Z0.1747
G1 X38.7913 Y-21.7378 Z0.1487
G0 Z0.3383
G0 X38.7913 Y-21.7378 
G0 Z0.3383
G0 X38.7913 Y-23.6964 
G1 X38.7913 Y-23.6964 Z0.1633 F21.
G1 X38.7913 Y-23.7603 Z0.1520
G1 X38.7913 Y-23.8665 Z0.1333
G1 X38.7913 Y-23.5122 Z0.1598 F22.
G1 X38.7913 Y-23.1574 Z0.1759
G1 X38.7913 Y-22.8022 Z0.1814
G1 X38.7913 Y-22.4470 Z0.1764
G1 X38.7913 Y-22.0921 Z0.1610
G1 X38.7913 Y-21.7378 Z0.1350
G0 Z0.3246
G0 X38.7913 Y-21.7378 
G0 Z0.3246
G0 X38.7913 Y-23.6964 
G1 X38.7913 Y-23.6964 Z0.1496 F21.
G1 X38.7913 Y-23.7603 Z0.1383
G1 X38.7913 Y-23.8665 Z0.1196
G1 X38.7913 Y-23.5122 Z0.1461 F22.
G1 X38.7913 Y-23.1574 Z0.1622
G1 X38.7913 Y-22.8022 Z0.1677
G1 X38.7913 Y-22.4470 Z0.1627
G1 X38.7913 Y-22.0921 Z0.1472
G1 X38.7913 Y-21.7378 Z0.1212
G0 Z0.3109
G0 X38.7913 Y-21.7378 
G0 Z0.3109
G0 X38.7913 Y-23.6964 
G1 X38.7913 Y-23.6964 Z0.1359 F21.
G1 X38.7913 Y-23.7603 Z0.1246
G1 X38.7913 Y-23.8665 Z0.1059
G1 X38.7913 Y-23.5122 Z0.1324 F22.
G1 X38.7913 Y-23.1574 Z0.1485
G1 X38.7913 Y-22.8022 Z0.1540
G1 X38.7913 Y-22.4470 Z0.1490
G1 X38.7913 Y-22.0921 Z0.1335
G1 X38.7913 Y-21.7378 Z0.1075
G0 Z0.3944
G0 X38.7913 Y-21.7378 
G0 Z0.3944
G0 X39.8635 Y-23.6819 
G1 X39.8635 Y-23.6819 Z0.2194 F21.
G1 X39.8635 Y-23.7473 Z0.2079
G1 X39.8635 Y-23.8521 Z0.1894
G1 X39.8635 Y-23.5026 Z0.2153 F22.
G1 X39.8635 Y-23.1525 Z0.2309
G1 X39.8635 Y-22.8021 Z0.2363
G1 X39.8635 Y-22.4517 Z0.2314
G1 X39.8635 Y-22.1016 Z0.2164
G1 X39.8635 Y-21.7520 Z0.1911
G0 Z0.3807
G0 X39.8635 Y-21.7520 
G0 Z0.3807
G0 X39.8635 Y-23.6819 
G1 X39.8635 Y-23.6819 Z0.2057 F21.
G1 X39.8635 Y-23.7473 Z0.1942
G1 X39.8635 Y-23.8521 Z0.1757
G1 X39.8635 Y-23.5026 Z0.2016 F22.
G1 X39.8635 Y-23.1525 Z0.2172
G1 X39.8635 Y-22.8021 Z0.2226
G1 X39.8635 Y-22.4517 Z0.2177
G1 X39.8635 Y-22.1016 Z0.2026
G1 X39.8635 Y-21.7520 Z0.1774
G0 Z0.3670
G0 X39.8635 Y-21.7520 
G0 Z0.3670
G0 X39.8635 Y-23.6819 
G1 X39.8635 Y-23.6819 Z0.1920 F21.
G1 X39.8635 Y-23.7473 Z0.1805
G1 X39.8635 Y-23.8521 Z0.1620
G1 X39.8635 Y-23.5026 Z0.1879 F22.
G1 X39.8635 Y-23.1525 Z0.2035
G1 X39.8635 Y-22.8021 Z0.2089
G1 X39.8635 Y-22.4517 Z0.2040
G1 X39.8635 Y-22.1016 Z0.1889
G1 X39.8635 Y-21.7520 Z0.1636
G0 Z0.3533
G0 X39.8635 Y-21.7520 
G0 Z0.3533
G0 X39.8635 Y-23.6819 
G1 X39.8635 Y-23.6819 Z0.1783 F21.
G1 X39.8635 Y-23.7473 Z0.1668
G1 X39.8635 Y-23.8521 Z0.1483
G1 X39.8635 Y-23.5026 Z0.1741 F22.
G1 X39.8635 Y-23.1525 Z0.1898
G1 X39.8635 Y-22.8021 Z0.1951
G1 X39.8635 Y-22.4517 Z0.1903
G1 X39.8635 Y-22.1016 Z0.1752
G1 X39.8635 Y-21.7520 Z0.1499
G0 Z0.3396
G0 X39.8635 Y-21.7520 
G0 Z0.3396
G0 X39.8635 Y-23.6819 
G1 X39.8635 Y-23.6819 Z0.1646 F21.
G1 X39.8635 Y-23.7473 Z0.1531
G1 X39.8635 Y-23.8521 Z0.1346
G1 X39.8635 Y-23.5026 Z0.1604 F22.
G1 X39.8635 Y-23.1525 Z0.1760
G1 X39.8635 Y-22.8021 Z0.1814
G1 X39.8635 Y-22.4517 Z0.1766
G1 X39.8635 Y-22.1016 Z0.1615
G1 X39.8635 Y-21.7520 Z0.1362
G0 Z0.3259
G0 X39.8635 Y-21.7520 
G0 Z0.3259
G0 X39.8635 Y-23.6819 
G1 X39.8635 Y-23.6819 Z0.1509 F21.
G1 X39.8635 Y-23.7473 Z0.1394
G1 X39.8635 Y-23.8521 Z0.1209
G1 X39.8635 Y-23.5026 Z0.1467 F22.
G1 X39.8635 Y-23.1525 Z0.1623
G1 X39.8635 Y-22.8021 Z0.1677
G1 X39.8635 Y-22.4517 Z0.1629
G1 X39.8635 Y-22.1016 Z0.1478
G1 X39.8635 Y-21.7520 Z0.1225
G0 Z0.3122
G0 X39.8635 Y-21.7520 
G0 Z0.3122
G0 X39.8635 Y-23.6819 
G1 X39.8635 Y-23.6819 Z0.1372 F21.
G1 X39.8635 Y-23.7473 Z0.1256
G1 X39.8635 Y-23.8521 Z0.1072
G1 X39.8635 Y-23.5026 Z0.1330 F22.
G1 X39.8635 Y-23.1525 Z0.1486
G1 X39.8635 Y-22.8021 Z0.1540
G1 X39.8635 Y-22.4517 Z0.1492
G1 X39.8635 Y-22.1016 Z0.1341
G1 X39.8635 Y-21.7520 Z0.1088
G0 Z0.3958
G0 X39.8635 Y-21.7520 
G0 Z0.3958
G0 X40.9995 Y-23.6667 
G1 X40.9995 Y-23.6667 Z0.2208 F21.
G1 X40.9995 Y-23.7336 Z0.2090
G1 X40.9995 Y-23.8368 Z0.1908
G1 X40.9995 Y-23.4924 Z0.2159 F22.
G1 X40.9995 Y-23.1473 Z0.2311
G1 X40.9995 Y-22.8020 Z0.2363
G1 X40.9995 Y-22.4567 Z0.2316
G1 X40.9995 Y-22.1116 Z0.2169
G1 X40.9995 Y-21.7671 Z0.1924
G0 Z0.3821
G0 X40.9995 Y-21.7671 
G0 Z0.3821
G0 X40.9995 Y-23.6667 
G1 X40.9995 Y-23.6667 Z0.2071 F21.
G1 X40.9995 Y-23.7336 Z0.1953
G1 X40.9995 Y-23.8368 Z0.1771
G1 X40.9995 Y-23.4924 Z0.2022 F22.
G1 X40.9995 Y-23.1473 Z0.2173
G1 X40.9995 Y-22.8020 Z0.2226
G1 X40.9995 Y-22.4567 Z0.2179
G1 X40.9995 Y-22.1116 Z0.2032
G1 X40.9995 Y-21.7671 Z0.1787
G0 Z0.3684
G0 X40.9995 Y-21.7671 
G0 Z0.3684
G0 X40.9995 Y-23.6667 
G1 X40.9995 Y-23.6667 Z0.1934 F21.
G1 X40.9995 Y-23.7336 Z0.1816
G1 X40.9995 Y-23.8368 Z0.1634
G1 X40.9995 Y-23.4924 Z0.1885 F22.
G1 X40.9995 Y-23.1473 Z0.2036
G1 X40.9995 Y-22.8020 Z0.2089
G1 X40.9995 Y-22.4567 Z0.2041
G1 X40.9995 Y-22.1116 Z0.1895
G1 X40.9995 Y-21.7671 Z0.1649
G0 Z0.3546
G0 X40.9995 Y-21.7671 
G0 Z0.3546
G0 X40.9995 Y-23.6667 
G1 X40.9995 Y-23.6667 Z0.1796 F21.
G1 X40.9995 Y-23.7336 Z0.1679
G1 X40.9995 Y-23.8368 Z0.1496
G1 X40.9995 Y-23.4924 Z0.1747 F22.
G1 X40.9995 Y-23.1473 Z0.1899
G1 X40.9995 Y-22.8020 Z0.1951
G1 X40.9995 Y-22.4567 Z0.1904
G1 X40.9995 Y-22.1116 Z0.1758
G1 X40.9995 Y-21.7671 Z0.1512
G0 Z0.3409
G0 X40.9995 Y-21.7671 
G0 Z0.3409
G0 X40.9995 Y-23.6667 
G1 X40.9995 Y-23.6667 Z0.1659 F21.
G1 X40.9995 Y-23.7336 Z0.1541
G1 X40.9995 Y-23.8368 Z0.1359
G1 X40.9995 Y-23.4924 Z0.1610 F22.
G1 X40.9995 Y-23.1473 Z0.1762
G1 X40.9995 Y-22.8020 Z0.1814
G1 X40.9995 Y-22.4567 Z0.1767
G1 X40.9995 Y-22.1116 Z0.1621
G1 X40.9995 Y-21.7671 Z0.1375
G0 Z0.3272
G0 X40.9995 Y-21.7671 
G0 Z0.3272
G0 X40.9995 Y-23.6667 
G1 X40.9995 Y-23.6667 Z0.1522 F21.
G1 X40.9995 Y-23.7336 Z0.1404
G1 X40.9995 Y-23.8368 Z0.1222
G1 X40.9995 Y-23.4924 Z0.1473 F22.
G1 X40.9995 Y-23.1473 Z0.1625
G1 X40.9995 Y-22.8020 Z0.1677
G1 X40.9995 Y-22.4567 Z0.1630
G1 X40.9995 Y-22.1116 Z0.1484
G1 X40.9995 Y-21.7671 Z0.1238
G0 Z0.3135
G0 X40.9995 Y-21.7671 
G0 Z0.3135
G0 X40.9995 Y-23.6667 
G1 X40.9995 Y-23.6667 Z0.1385 F21.
G1 X40.9995 Y-23.7336 Z0.1267
G1 X40.9995 Y-23.8368 Z0.1085
G1 X40.9995 Y-23.4924 Z0.1336 F22.
G1 X40.9995 Y-23.1473 Z0.1488
G1 X40.9995 Y-22.8020 Z0.1540
G1 X40.9995 Y-22.4567 Z0.1493
G1 X40.9995 Y-22.1116 Z0.1346
G1 X40.9995 Y-21.7671 Z0.1101
G0 Z0.3972
G0 X40.9995 Y-21.7671 
G0 Z0.3972
G0 X42.2030 Y-23.6505 
G1 X42.2030 Y-23.6505 Z0.2222 F21.
G1 X42.2030 Y-23.7136 Z0.2111
G1 X42.2030 Y-23.8206 Z0.1922
G1 X42.2030 Y-23.4815 Z0.2165 F22.
G1 X42.2030 Y-23.1418 Z0.2312
G1 X42.2030 Y-22.8019 Z0.2363
G1 X42.2030 Y-22.4619 Z0.2317
G1 X42.2030 Y-22.1222 Z0.2175
G1 X42.2030 Y-21.7831 Z0.1937
G0 Z0.3835
G0 X42.2030 Y-21.7831 
G0 Z0.3835
G0 X42.2030 Y-23.6505 
G1 X42.2030 Y-23.6505 Z0.2085 F21.
G1 X42.2030 Y-23.7136 Z0.1973
G1 X42.2030 Y-23.8206 Z0.1785
G1 X42.2030 Y-23.4815 Z0.2028 F22.
G1 X42.2030 Y-23.1418 Z0.2175
G1 X42.2030 Y-22.8019 Z0.2226
G1 X42.2030 Y-22.4619 Z0.2180
G1 X42.2030 Y-22.1222 Z0.2038
G1 X42.2030 Y-21.7831 Z0.1800
G0 Z0.3698
G0 X42.2030 Y-21.7831 
G0 Z0.3698
G0 X42.2030 Y-23.6505 
G1 X42.2030 Y-23.6505 Z0.1948 F21.
G1 X42.2030 Y-23.7136 Z0.1836
G1 X42.2030 Y-23.8206 Z0.1648
G1 X42.2030 Y-23.4815 Z0.1891 F22.
G1 X42.2030 Y-23.1418 Z0.2038
G1 X42.2030 Y-22.8019 Z0.2089
G1 X42.2030 Y-22.4619 Z0.2043
G1 X42.2030 Y-22.1222 Z0.1901
G1 X42.2030 Y-21.7831 Z0.1663
G0 Z0.3561
G0 X42.2030 Y-21.7831 
G0 Z0.3561
G0 X42.2030 Y-23.6505 
G1 X42.2030 Y-23.6505 Z0.1811 F21.
G1 X42.2030 Y-23.7136 Z0.1699
G1 X42.2030 Y-23.8206 Z0.1511
G1 X42.2030 Y-23.4815 Z0.1754 F22.
G1 X42.2030 Y-23.1418 Z0.1901
G1 X42.2030 Y-22.8019 Z0.1951
G1 X42.2030 Y-22.4619 Z0.1906
G1 X42.2030 Y-22.1222 Z0.1764
G1 X42.2030 Y-21.7831 Z0.1526
G0 Z0.3423
G0 X42.2030 Y-21.7831 
G0 Z0.3423
G0 X42.2030 Y-23.6505 
G1 X42.2030 Y-23.6505 Z0.1673 F21.
G1 X42.2030 Y-23.7136 Z0.1562
G1 X42.2030 Y-23.8206 Z0.1373
G1 X42.2030 Y-23.4815 Z0.1617 F22.
G1 X42.2030 Y-23.1418 Z0.1764
G1 X42.2030 Y-22.8019 Z0.1814
G1 X42.2030 Y-22.4619 Z0.1769
G1 X42.2030 Y-22.1222 Z0.1627
G1 X42.2030 Y-21.7831 Z0.1389
G0 Z0.3286
G0 X42.2030 Y-21.7831 
G0 Z0.3286
G0 X42.2030 Y-23.6505 
G1 X42.2030 Y-23.6505 Z0.1536 F21.
G1 X42.2030 Y-23.7136 Z0.1425
G1 X42.2030 Y-23.8206 Z0.1236
G1 X42.2030 Y-23.4815 Z0.1479 F22.
G1 X42.2030 Y-23.1418 Z0.1626
G1 X42.2030 Y-22.8019 Z0.1677
G1 X42.2030 Y-22.4619 Z0.1632
G1 X42.2030 Y-22.1222 Z0.1490
G1 X42.2030 Y-21.7831 Z0.1252
G0 Z0.3149
G0 X42.2030 Y-21.7831 
G0 Z0.3149
G0 X42.2030 Y-23.6505 
G1 X42.2030 Y-23.6505 Z0.1399 F21.
G1 X42.2030 Y-23.7136 Z0.1288
G1 X42.2030 Y-23.8206 Z0.1099
G1 X42.2030 Y-23.4815 Z0.1342 F22.
G1 X42.2030 Y-23.1418 Z0.1489
G1 X42.2030 Y-22.8019 Z0.1540
G1 X42.2030 Y-22.4619 Z0.1494
G1 X42.2030 Y-22.1222 Z0.1353
G1 X42.2030 Y-21.7831 Z0.1114
G0 Z0.3987
G0 X42.2030 Y-21.7831 
G0 Z0.3987
G0 X43.4780 Y-23.6334 
G1 X43.4780 Y-23.6334 Z0.2237 F21.
G1 X43.4780 Y-23.6983 Z0.2122
G1 X43.4780 Y-23.8035 Z0.1937
G1 X43.4780 Y-23.4700 Z0.2172 F22.
G1 X43.4780 Y-23.1360 Z0.2314
G1 X43.4780 Y-22.8018 Z0.2363
G1 X43.4780 Y-22.4675 Z0.2319
G1 X43.4780 Y-22.1335 Z0.2182
G1 X43.4780 Y-21.8000 Z0.1951
G0 Z0.3849
G0 X43.4780 Y-21.8000 
G0 Z0.3849
G0 X43.4780 Y-23.6334 
G1 X43.4780 Y-23.6334 Z0.2099 F21.
G1 X43.4780 Y-23.6983 Z0.1985
G1 X43.4780 Y-23.8035 Z0.1799
G1 X43.4780 Y-23.4700 Z0.2035 F22.
G1 X43.4780 Y-23.1360 Z0.2177
G1 X43.4780 Y-22.8018 Z0.2226
G1 X43.4780 Y-22.4675 Z0.2182
G1 X43.4780 Y-22.1335 Z0.2044
G1 X43.4780 Y-21.8000 Z0.1814
G0 Z0.3712
G0 X43.4780 Y-21.8000 
G0 Z0.3712
G0 X43.4780 Y-23.6334 
G1 X43.4780 Y-23.6334 Z0.1962 F21.
G1 X43.4780 Y-23.6983 Z0.1848
G1 X43.4780 Y-23.8035 Z0.1662
G1 X43.4780 Y-23.4700 Z0.1897 F22.
G1 X43.4780 Y-23.1360 Z0.2040
G1 X43.4780 Y-22.8018 Z0.2089
G1 X43.4780 Y-22.4675 Z0.2044
G1 X43.4780 Y-22.1335 Z0.1907
G1 X43.4780 Y-21.8000 Z0.1677
G0 Z0.3575
G0 X43.4780 Y-21.8000 
G0 Z0.3575
G0 X43.4780 Y-23.6334 
G1 X43.4780 Y-23.6334 Z0.1825 F21.
G1 X43.4780 Y-23.6983 Z0.1711
G1 X43.4780 Y-23.8035 Z0.1525
G1 X43.4780 Y-23.4700 Z0.1760 F22.
G1 X43.4780 Y-23.1360 Z0.1902
G1 X43.4780 Y-22.8018 Z0.1951
G1 X43.4780 Y-22.4675 Z0.1907
G1 X43.4780 Y-22.1335 Z0.1770
G1 X43.4780 Y-21.8000 Z0.1540
G0 Z0.3438
G0 X43.4780 Y-21.8000 
G0 Z0.3438
G0 X43.4780 Y-23.6334 
G1 X43.4780 Y-23.6334 Z0.1688 F21.
G1 X43.4780 Y-23.6983 Z0.1574
G1 X43.4780 Y-23.8035 Z0.1388
G1 X43.4780 Y-23.4700 Z0.1623 F22.
G1 X43.4780 Y-23.1360 Z0.1765
G1 X43.4780 Y-22.8018 Z0.1814
G1 X43.4780 Y-22.4675 Z0.1770
G1 X43.4780 Y-22.1335 Z0.1633
G1 X43.4780 Y-21.8000 Z0.1403
G0 Z0.3301
G0 X43.4780 Y-21.8000 
G0 Z0.3301
G0 X43.4780 Y-23.6334 
G1 X43.4780 Y-23.6334 Z0.1551 F21.
G1 X43.4780 Y-23.6983 Z0.1436
G1 X43.4780 Y-23.8035 Z0.1251
G1 X43.4780 Y-23.4700 Z0.1486 F22.
G1 X43.4780 Y-23.1360 Z0.1628
G1 X43.4780 Y-22.8018 Z0.1677
G1 X43.4780 Y-22.4675 Z0.1633
G1 X43.4780 Y-22.1335 Z0.1496
G1 X43.4780 Y-21.8000 Z0.1266
G0 Z0.3164
G0 X43.4780 Y-21.8000 
G0 Z0.3164
G0 X43.4780 Y-23.6334 
G1 X43.4780 Y-23.6334 Z0.1414 F21.
G1 X43.4780 Y-23.6983 Z0.1299
G1 X43.4780 Y-23.8035 Z0.1114
G1 X43.4780 Y-23.4700 Z0.1349 F22.
G1 X43.4780 Y-23.1360 Z0.1491
G1 X43.4780 Y-22.8018 Z0.1540
G1 X43.4780 Y-22.4675 Z0.1496
G1 X43.4780 Y-22.1335 Z0.1359
G1 X43.4780 Y-21.8000 Z0.1129
G0 Z0.4002
G0 X43.4780 Y-21.8000 
G0 Z0.4002
G0 X44.8289 Y-23.6152 
G1 X44.8289 Y-23.6152 Z0.2252 F21.
G1 X44.8289 Y-23.6820 Z0.2134
G1 X44.8289 Y-23.7853 Z0.1952
G1 X44.8289 Y-23.4579 Z0.2178 F22.
G1 X44.8289 Y-23.1299 Z0.2316
G1 X44.8289 Y-22.8017 Z0.2363
G1 X44.8289 Y-22.4734 Z0.2320
G1 X44.8289 Y-22.1455 Z0.2188
G1 X44.8289 Y-21.8180 Z0.1966
G0 Z0.3865
G0 X44.8289 Y-21.8180 
G0 Z0.3865
G0 X44.8289 Y-23.6152 
G1 X44.8289 Y-23.6152 Z0.2115 F21.
G1 X44.8289 Y-23.6820 Z0.1997
G1 X44.8289 Y-23.7853 Z0.1815
G1 X44.8289 Y-23.4579 Z0.2041 F22.
G1 X44.8289 Y-23.1299 Z0.2178
G1 X44.8289 Y-22.8017 Z0.2226
G1 X44.8289 Y-22.4734 Z0.2183
G1 X44.8289 Y-22.1455 Z0.2051
G1 X44.8289 Y-21.8180 Z0.1829
G0 Z0.3727
G0 X44.8289 Y-21.8180 
G0 Z0.3727
G0 X44.8289 Y-23.6152 
G1 X44.8289 Y-23.6152 Z0.1977 F21.
G1 X44.8289 Y-23.6820 Z0.1860
G1 X44.8289 Y-23.7853 Z0.1677
G1 X44.8289 Y-23.4579 Z0.1904 F22.
G1 X44.8289 Y-23.1299 Z0.2041
G1 X44.8289 Y-22.8017 Z0.2089
G1 X44.8289 Y-22.4734 Z0.2046
G1 X44.8289 Y-22.1455 Z0.1914
G1 X44.8289 Y-21.8180 Z0.1692
G0 Z0.3590
G0 X44.8289 Y-21.8180 
G0 Z0.3590
G0 X44.8289 Y-23.6152 
G1 X44.8289 Y-23.6152 Z0.1840 F21.
G1 X44.8289 Y-23.6820 Z0.1723
G1 X44.8289 Y-23.7853 Z0.1540
G1 X44.8289 Y-23.4579 Z0.1767 F22.
G1 X44.8289 Y-23.1299 Z0.1904
G1 X44.8289 Y-22.8017 Z0.1951
G1 X44.8289 Y-22.4734 Z0.1909
G1 X44.8289 Y-22.1455 Z0.1777
G1 X44.8289 Y-21.8180 Z0.1555
G0 Z0.3453
G0 X44.8289 Y-21.8180 
G0 Z0.3453
G0 X44.8289 Y-23.6152 
G1 X44.8289 Y-23.6152 Z0.1703 F21.
G1 X44.8289 Y-23.6820 Z0.1585
G1 X44.8289 Y-23.7853 Z0.1403
G1 X44.8289 Y-23.4579 Z0.1630 F22.
G1 X44.8289 Y-23.1299 Z0.1767
G1 X44.8289 Y-22.8017 Z0.1814
G1 X44.8289 Y-22.4734 Z0.1772
G1 X44.8289 Y-22.1455 Z0.1640
G1 X44.8289 Y-21.8180 Z0.1418
G0 Z0.3316
G0 X44.8289 Y-21.8180 
G0 Z0.3316
G0 X44.8289 Y-23.6152 
G1 X44.8289 Y-23.6152 Z0.1566 F21.
G1 X44.8289 Y-23.6820 Z0.1448
G1 X44.8289 Y-23.7853 Z0.1266
G1 X44.8289 Y-23.4579 Z0.1493 F22.
G1 X44.8289 Y-23.1299 Z0.1630
G1 X44.8289 Y-22.8017 Z0.1677
G1 X44.8289 Y-22.4734 Z0.1635
G1 X44.8289 Y-22.1455 Z0.1502
G1 X44.8289 Y-21.8180 Z0.1281
G0 Z0.3179
G0 X44.8289 Y-21.8180 
G0 Z0.3179
G0 X44.8289 Y-23.6152 
G1 X44.8289 Y-23.6152 Z0.1429 F21.
G1 X44.8289 Y-23.6820 Z0.1311
G1 X44.8289 Y-23.7853 Z0.1129
G1 X44.8289 Y-23.4579 Z0.1356 F22.
G1 X44.8289 Y-23.1299 Z0.1493
G1 X44.8289 Y-22.8017 Z0.1540
G1 X44.8289 Y-22.4734 Z0.1498
G1 X44.8289 Y-22.1455 Z0.1365
G1 X44.8289 Y-21.8180 Z0.1143
G0 Z4.0000
G0 X44.8289 Y-21.8180 
M5
G53 Z
X2Y0
