( MOP:  03-frets-r7PT25-s21-NFretsDulc-StandardDepth-HiddenKerf )
( FILE: G:\Shared drives\AlloyProjectFiles\Customer CAD files\Alloy-Standard-Builds-CAM\Fingerboards-in\03-frets-r7PT25-s21-NFretsDulc-StandardDepth-HiddenKerf.nc)
G90
(  BEGIN TOOL LIST )
(  TOOL 15 - Fretkerf PT025 - DESC: 0.0250 DIA, 2 FLUTE,  CARBIDE MAT )
(  ENDOF TOOL LIST )
( 03-frets-r7PT25-s21-NFretsDulc-StandardDepth-HiddenKerf)
T15
S14000
M3
G0 Z1.3000
G0 X32.2680 Y-23.2959 
G1 X32.2680 Y-23.2959 Z0.2392 F21.
G1 X32.2680 Y-23.3312 Z0.2330
G1 X32.2680 Y-23.4129 Z0.2186
G1 X32.2680 Y-23.4944 Z0.2042
G19
G2X32.2680Y-22.1044Z0.2044J0.6962K-7.2165 F22.
G1 X32.2680 Y-22.1044 Z0.3044 F21.
G0 Z0.3519
G0 X32.2680 Y-22.1044 
G0 Z0.3519
G0 X32.2680 Y-23.2959 
G1 X32.2680 Y-23.2959 Z0.2269 F21.
G1 X32.2680 Y-23.3312 Z0.2207
G1 X32.2680 Y-23.4129 Z0.2063
G1 X32.2680 Y-23.4944 Z0.1919
G2X32.2680Y-22.1044Z0.1922J0.6962K-7.2165 F22.
G1 X32.2680 Y-22.1044 Z0.2922 F21.
G0 Z0.3396
G0 X32.2680 Y-22.1044 
G0 Z0.3396
G0 X32.2680 Y-23.2959 
G1 X32.2680 Y-23.2959 Z0.2146 F21.
G1 X32.2680 Y-23.3312 Z0.2084
G1 X32.2680 Y-23.4129 Z0.1940
G1 X32.2680 Y-23.4944 Z0.1796
G2X32.2680Y-22.1044Z0.1799J0.6962K-7.2165 F22.
G1 X32.2680 Y-22.1044 Z0.2799 F21.
G0 Z0.3273
G0 X32.2680 Y-22.1044 
G0 Z0.3273
G0 X32.2680 Y-23.2959 
G1 X32.2680 Y-23.2959 Z0.2023 F21.
G1 X32.2680 Y-23.3312 Z0.1961
G1 X32.2680 Y-23.4129 Z0.1817
G1 X32.2680 Y-23.4944 Z0.1673
G2X32.2680Y-22.1044Z0.1676J0.6962K-7.2164 F22.
G1 X32.2680 Y-22.1044 Z0.2676 F21.
G0 Z0.3151
G0 X32.2680 Y-22.1044 
G0 Z0.3151
G0 X32.2680 Y-23.2959 
G1 X32.2680 Y-23.2959 Z0.1901 F21.
G1 X32.2680 Y-23.3312 Z0.1838
G1 X32.2680 Y-23.4129 Z0.1694
G1 X32.2680 Y-23.4944 Z0.1551
G2X32.2680Y-22.1044Z0.1553J0.6962K-7.2165 F22.
G1 X32.2680 Y-22.1044 Z0.2553 F21.
G0 Z0.3028
G0 X32.2680 Y-22.1044 
G0 Z0.3028
G0 X32.2680 Y-23.2959 
G1 X32.2680 Y-23.2959 Z0.1778 F21.
G1 X32.2680 Y-23.3312 Z0.1715
G1 X32.2680 Y-23.4129 Z0.1572
G1 X32.2680 Y-23.4944 Z0.1428
G2X32.2680Y-22.1044Z0.1430J0.6962K-7.2165 F22.
G1 X32.2680 Y-22.1044 Z0.2430 F21.
G0 Z0.2905
G0 X32.2680 Y-22.1044 
G0 Z0.2905
G0 X32.2680 Y-23.2959 
G1 X32.2680 Y-23.2959 Z0.1655 F21.
G1 X32.2680 Y-23.3312 Z0.1593
G1 X32.2680 Y-23.4129 Z0.1449
G1 X32.2680 Y-23.4944 Z0.1305
G2X32.2680Y-22.1044Z0.1307J0.6962K-7.2165 F22.
G1 X32.2680 Y-22.1044 Z0.2307 F21.
G0 Z0.3653
G0 X32.2680 Y-22.1044 
G0 Z0.3653
G0 X33.1262 Y-23.2847 
G1 X33.1262 Y-23.2847 Z0.2403 F21.
G1 X33.1262 Y-23.3227 Z0.2336
G1 X33.1262 Y-23.4030 Z0.2194
G1 X33.1262 Y-23.4832 Z0.2053
G2X33.1262Y-22.1156Z0.2055J0.6850K-7.2176 F22.
G1 X33.1262 Y-22.1156 Z0.3055 F21.
G0 Z0.3530
G0 X33.1262 Y-22.1156 
G0 Z0.3530
G0 X33.1262 Y-23.2847 
G1 X33.1262 Y-23.2847 Z0.2280 F21.
G1 X33.1262 Y-23.3227 Z0.2213
G1 X33.1262 Y-23.4030 Z0.2071
G1 X33.1262 Y-23.4832 Z0.1930
G2X33.1262Y-22.1156Z0.1932J0.6850K-7.2176 F22.
G1 X33.1262 Y-22.1156 Z0.2932 F21.
G0 Z0.3407
G0 X33.1262 Y-22.1156 
G0 Z0.3407
G0 X33.1262 Y-23.2847 
G1 X33.1262 Y-23.2847 Z0.2157 F21.
G1 X33.1262 Y-23.3227 Z0.2090
G1 X33.1262 Y-23.4030 Z0.1949
G1 X33.1262 Y-23.4832 Z0.1807
G2X33.1262Y-22.1156Z0.1809J0.6850K-7.2176 F22.
G1 X33.1262 Y-22.1156 Z0.2809 F21.
G0 Z0.3284
G0 X33.1262 Y-22.1156 
G0 Z0.3284
G0 X33.1262 Y-23.2847 
G1 X33.1262 Y-23.2847 Z0.2034 F21.
G1 X33.1262 Y-23.3227 Z0.1967
G1 X33.1262 Y-23.4030 Z0.1826
G1 X33.1262 Y-23.4832 Z0.1684
G2X33.1262Y-22.1156Z0.1687J0.6850K-7.2175 F22.
G1 X33.1262 Y-22.1156 Z0.2687 F21.
G0 Z0.3161
G0 X33.1262 Y-22.1156 
G0 Z0.3161
G0 X33.1262 Y-23.2847 
G1 X33.1262 Y-23.2847 Z0.1911 F21.
G1 X33.1262 Y-23.3227 Z0.1844
G1 X33.1262 Y-23.4030 Z0.1703
G1 X33.1262 Y-23.4832 Z0.1561
G2X33.1262Y-22.1156Z0.1564J0.6850K-7.2175 F22.
G1 X33.1262 Y-22.1156 Z0.2564 F21.
G0 Z0.3038
G0 X33.1262 Y-22.1156 
G0 Z0.3038
G0 X33.1262 Y-23.2847 
G1 X33.1262 Y-23.2847 Z0.1788 F21.
G1 X33.1262 Y-23.3227 Z0.1722
G1 X33.1262 Y-23.4030 Z0.1580
G1 X33.1262 Y-23.4832 Z0.1438
G2X33.1262Y-22.1156Z0.1441J0.6850K-7.2175 F22.
G1 X33.1262 Y-22.1156 Z0.2441 F21.
G0 Z0.2916
G0 X33.1262 Y-22.1156 
G0 Z0.2916
G0 X33.1262 Y-23.2847 
G1 X33.1262 Y-23.2847 Z0.1666 F21.
G1 X33.1262 Y-23.3227 Z0.1599
G1 X33.1262 Y-23.4030 Z0.1457
G1 X33.1262 Y-23.4832 Z0.1316
G2X33.1262Y-22.1156Z0.1318J0.6850K-7.2176 F22.
G1 X33.1262 Y-22.1156 Z0.2318 F21.
G0 Z0.3659
G0 X33.1262 Y-22.1156 
G0 Z0.3659
G0 X33.5940 Y-23.2786 
G1 X33.5940 Y-23.2786 Z0.2409 F21.
G1 X33.5940 Y-23.3080 Z0.2357
G1 X33.5940 Y-23.3926 Z0.2208
G1 X33.5940 Y-23.4771 Z0.2059
G2X33.5940Y-22.1217Z0.2061J0.6789K-7.2182 F22.
G1 X33.5940 Y-22.1217 Z0.3061 F21.
G0 Z0.3536
G0 X33.5940 Y-22.1217 
G0 Z0.3536
G0 X33.5940 Y-23.2786 
G1 X33.5940 Y-23.2786 Z0.2286 F21.
G1 X33.5940 Y-23.3080 Z0.2234
G1 X33.5940 Y-23.3926 Z0.2085
G1 X33.5940 Y-23.4771 Z0.1936
G2X33.5940Y-22.1217Z0.1938J0.6789K-7.2182 F22.
G1 X33.5940 Y-22.1217 Z0.2938 F21.
G0 Z0.3413
G0 X33.5940 Y-22.1217 
G0 Z0.3413
G0 X33.5940 Y-23.2786 
G1 X33.5940 Y-23.2786 Z0.2163 F21.
G1 X33.5940 Y-23.3080 Z0.2111
G1 X33.5940 Y-23.3926 Z0.1962
G1 X33.5940 Y-23.4771 Z0.1813
G2X33.5940Y-22.1217Z0.1815J0.6789K-7.2182 F22.
G1 X33.5940 Y-22.1217 Z0.2815 F21.
G0 Z0.3290
G0 X33.5940 Y-22.1217 
G0 Z0.3290
G0 X33.5940 Y-23.2786 
G1 X33.5940 Y-23.2786 Z0.2040 F21.
G1 X33.5940 Y-23.3080 Z0.1988
G1 X33.5940 Y-23.3926 Z0.1839
G1 X33.5940 Y-23.4771 Z0.1690
G2X33.5940Y-22.1217Z0.1692J0.6789K-7.2181 F22.
G1 X33.5940 Y-22.1217 Z0.2692 F21.
G0 Z0.3167
G0 X33.5940 Y-22.1217 
G0 Z0.3167
G0 X33.5940 Y-23.2786 
G1 X33.5940 Y-23.2786 Z0.1917 F21.
G1 X33.5940 Y-23.3080 Z0.1865
G1 X33.5940 Y-23.3926 Z0.1716
G1 X33.5940 Y-23.4771 Z0.1567
G2X33.5940Y-22.1217Z0.1569J0.6789K-7.2181 F22.
G1 X33.5940 Y-22.1217 Z0.2569 F21.
G0 Z0.3044
G0 X33.5940 Y-22.1217 
G0 Z0.3044
G0 X33.5940 Y-23.2786 
G1 X33.5940 Y-23.2786 Z0.1794 F21.
G1 X33.5940 Y-23.3080 Z0.1742
G1 X33.5940 Y-23.3926 Z0.1593
G1 X33.5940 Y-23.4771 Z0.1444
G2X33.5940Y-22.1217Z0.1447J0.6789K-7.2181 F22.
G1 X33.5940 Y-22.1217 Z0.2447 F21.
G0 Z0.2921
G0 X33.5940 Y-22.1217 
G0 Z0.2921
G0 X33.5940 Y-23.2786 
G1 X33.5940 Y-23.2786 Z0.1671 F21.
G1 X33.5940 Y-23.3080 Z0.1620
G1 X33.5940 Y-23.3926 Z0.1470
G1 X33.5940 Y-23.4771 Z0.1321
G2X33.5940Y-22.1217Z0.1324J0.6789K-7.2181 F22.
G1 X33.5940 Y-22.1217 Z0.2324 F21.
G0 Z0.3671
G0 X33.5940 Y-22.1217 
G0 Z0.3671
G0 X34.6146 Y-23.2653 
G1 X34.6146 Y-23.2653 Z0.2421 F21.
G1 X34.6146 Y-23.2980 Z0.2363
G1 X34.6146 Y-23.3810 Z0.2217
G1 X34.6146 Y-23.4638 Z0.2071
G2X34.6146Y-22.1350Z0.2073J0.6656K-7.2194 F22.
G1 X34.6146 Y-22.1350 Z0.3073 F21.
G0 Z0.3548
G0 X34.6146 Y-22.1350 
G0 Z0.3548
G0 X34.6146 Y-23.2653 
G1 X34.6146 Y-23.2653 Z0.2298 F21.
G1 X34.6146 Y-23.2980 Z0.2240
G1 X34.6146 Y-23.3810 Z0.2094
G1 X34.6146 Y-23.4638 Z0.1948
G2X34.6146Y-22.1350Z0.1950J0.6656K-7.2194 F22.
G1 X34.6146 Y-22.1350 Z0.2950 F21.
G0 Z0.3425
G0 X34.6146 Y-22.1350 
G0 Z0.3425
G0 X34.6146 Y-23.2653 
G1 X34.6146 Y-23.2653 Z0.2175 F21.
G1 X34.6146 Y-23.2980 Z0.2118
G1 X34.6146 Y-23.3810 Z0.1971
G1 X34.6146 Y-23.4638 Z0.1825
G2X34.6146Y-22.1350Z0.1828J0.6656K-7.2194 F22.
G1 X34.6146 Y-22.1350 Z0.2828 F21.
G0 Z0.3302
G0 X34.6146 Y-22.1350 
G0 Z0.3302
G0 X34.6146 Y-23.2653 
G1 X34.6146 Y-23.2653 Z0.2052 F21.
G1 X34.6146 Y-23.2980 Z0.1995
G1 X34.6146 Y-23.3810 Z0.1848
G1 X34.6146 Y-23.4638 Z0.1702
G2X34.6146Y-22.1350Z0.1705J0.6656K-7.2193 F22.
G1 X34.6146 Y-22.1350 Z0.2705 F21.
G0 Z0.3179
G0 X34.6146 Y-22.1350 
G0 Z0.3179
G0 X34.6146 Y-23.2653 
G1 X34.6146 Y-23.2653 Z0.1929 F21.
G1 X34.6146 Y-23.2980 Z0.1872
G1 X34.6146 Y-23.3810 Z0.1726
G1 X34.6146 Y-23.4638 Z0.1579
G2X34.6146Y-22.1350Z0.1582J0.6656K-7.2193 F22.
G1 X34.6146 Y-22.1350 Z0.2582 F21.
G0 Z0.3057
G0 X34.6146 Y-22.1350 
G0 Z0.3057
G0 X34.6146 Y-23.2653 
G1 X34.6146 Y-23.2653 Z0.1807 F21.
G1 X34.6146 Y-23.2980 Z0.1749
G1 X34.6146 Y-23.3810 Z0.1603
G1 X34.6146 Y-23.4638 Z0.1457
G2X34.6146Y-22.1350Z0.1459J0.6656K-7.2194 F22.
G1 X34.6146 Y-22.1350 Z0.2459 F21.
G0 Z0.2934
G0 X34.6146 Y-22.1350 
G0 Z0.2934
G0 X34.6146 Y-23.2653 
G1 X34.6146 Y-23.2653 Z0.1684 F21.
G1 X34.6146 Y-23.2980 Z0.1626
G1 X34.6146 Y-23.3810 Z0.1480
G1 X34.6146 Y-23.4638 Z0.1334
G2X34.6146Y-22.1350Z0.1336J0.6656K-7.2194 F22.
G1 X34.6146 Y-22.1350 Z0.2336 F21.
G0 Z0.3685
G0 X34.6146 Y-22.1350 
G0 Z0.3685
G0 X35.7601 Y-23.2504 
G1 X35.7601 Y-23.2504 Z0.2435 F21.
G1 X35.7601 Y-23.2868 Z0.2370
G1 X35.7601 Y-23.3679 Z0.2227
G1 X35.7601 Y-23.4489 Z0.2085
G2X35.7601Y-22.1500Z0.2087J0.6507K-7.2208 F22.
G1 X35.7601 Y-22.1500 Z0.3087 F21.
G0 Z0.3562
G0 X35.7601 Y-22.1500 
G0 Z0.3562
G0 X35.7601 Y-23.2504 
G1 X35.7601 Y-23.2504 Z0.2312 F21.
G1 X35.7601 Y-23.2868 Z0.2247
G1 X35.7601 Y-23.3679 Z0.2105
G1 X35.7601 Y-23.4489 Z0.1962
G2X35.7601Y-22.1500Z0.1964J0.6507K-7.2208 F22.
G1 X35.7601 Y-22.1500 Z0.2964 F21.
G0 Z0.3439
G0 X35.7601 Y-22.1500 
G0 Z0.3439
G0 X35.7601 Y-23.2504 
G1 X35.7601 Y-23.2504 Z0.2189 F21.
G1 X35.7601 Y-23.2868 Z0.2125
G1 X35.7601 Y-23.3679 Z0.1982
G1 X35.7601 Y-23.4489 Z0.1839
G2X35.7601Y-22.1500Z0.1841J0.6507K-7.2208 F22.
G1 X35.7601 Y-22.1500 Z0.2841 F21.
G0 Z0.3316
G0 X35.7601 Y-22.1500 
G0 Z0.3316
G0 X35.7601 Y-23.2504 
G1 X35.7601 Y-23.2504 Z0.2066 F21.
G1 X35.7601 Y-23.2868 Z0.2002
G1 X35.7601 Y-23.3679 Z0.1859
G1 X35.7601 Y-23.4489 Z0.1716
G2X35.7601Y-22.1500Z0.1718J0.6507K-7.2207 F22.
G1 X35.7601 Y-22.1500 Z0.2718 F21.
G0 Z0.3193
G0 X35.7601 Y-22.1500 
G0 Z0.3193
G0 X35.7601 Y-23.2504 
G1 X35.7601 Y-23.2504 Z0.1943 F21.
G1 X35.7601 Y-23.2868 Z0.1879
G1 X35.7601 Y-23.3679 Z0.1736
G1 X35.7601 Y-23.4489 Z0.1593
G2X35.7601Y-22.1500Z0.1595J0.6507K-7.2207 F22.
G1 X35.7601 Y-22.1500 Z0.2595 F21.
G0 Z0.3070
G0 X35.7601 Y-22.1500 
G0 Z0.3070
G0 X35.7601 Y-23.2504 
G1 X35.7601 Y-23.2504 Z0.1820 F21.
G1 X35.7601 Y-23.2868 Z0.1756
G1 X35.7601 Y-23.3679 Z0.1613
G1 X35.7601 Y-23.4489 Z0.1470
G2X35.7601Y-22.1500Z0.1473J0.6507K-7.2207 F22.
G1 X35.7601 Y-22.1500 Z0.2473 F21.
G0 Z0.2947
G0 X35.7601 Y-22.1500 
G0 Z0.2947
G0 X35.7601 Y-23.2504 
G1 X35.7601 Y-23.2504 Z0.1697 F21.
G1 X35.7601 Y-23.2868 Z0.1633
G1 X35.7601 Y-23.3679 Z0.1490
G1 X35.7601 Y-23.4489 Z0.1347
G2X35.7601Y-22.1500Z0.1350J0.6507K-7.2207 F22.
G1 X35.7601 Y-22.1500 Z0.2350 F21.
G0 Z0.3692
G0 X35.7601 Y-22.1500 
G0 Z0.3692
G0 X36.3845 Y-23.2422 
G1 X36.3845 Y-23.2422 Z0.2442 F21.
G1 X36.3845 Y-23.2700 Z0.2393
G1 X36.3845 Y-23.3554 Z0.2242
G1 X36.3845 Y-23.4407 Z0.2092
G2X36.3845Y-22.1581Z0.2094J0.6425K-7.2215 F22.
G1 X36.3845 Y-22.1581 Z0.3094 F21.
G0 Z0.3569
G0 X36.3845 Y-22.1581 
G0 Z0.3569
G0 X36.3845 Y-23.2422 
G1 X36.3845 Y-23.2422 Z0.2319 F21.
G1 X36.3845 Y-23.2700 Z0.2270
G1 X36.3845 Y-23.3554 Z0.2119
G1 X36.3845 Y-23.4407 Z0.1969
G2X36.3845Y-22.1581Z0.1971J0.6425K-7.2215 F22.
G1 X36.3845 Y-22.1581 Z0.2971 F21.
G0 Z0.3446
G0 X36.3845 Y-22.1581 
G0 Z0.3446
G0 X36.3845 Y-23.2422 
G1 X36.3845 Y-23.2422 Z0.2196 F21.
G1 X36.3845 Y-23.2700 Z0.2147
G1 X36.3845 Y-23.3554 Z0.1997
G1 X36.3845 Y-23.4407 Z0.1846
G2X36.3845Y-22.1581Z0.1848J0.6425K-7.2215 F22.
G1 X36.3845 Y-22.1581 Z0.2848 F21.
G0 Z0.3323
G0 X36.3845 Y-22.1581 
G0 Z0.3323
G0 X36.3845 Y-23.2422 
G1 X36.3845 Y-23.2422 Z0.2073 F21.
G1 X36.3845 Y-23.2700 Z0.2024
G1 X36.3845 Y-23.3554 Z0.1874
G1 X36.3845 Y-23.4407 Z0.1723
G2X36.3845Y-22.1581Z0.1725J0.6425K-7.2214 F22.
G1 X36.3845 Y-22.1581 Z0.2725 F21.
G0 Z0.3200
G0 X36.3845 Y-22.1581 
G0 Z0.3200
G0 X36.3845 Y-23.2422 
G1 X36.3845 Y-23.2422 Z0.1950 F21.
G1 X36.3845 Y-23.2700 Z0.1901
G1 X36.3845 Y-23.3554 Z0.1751
G1 X36.3845 Y-23.4407 Z0.1600
G2X36.3845Y-22.1581Z0.1603J0.6425K-7.2214 F22.
G1 X36.3845 Y-22.1581 Z0.2603 F21.
G0 Z0.3078
G0 X36.3845 Y-22.1581 
G0 Z0.3078
G0 X36.3845 Y-23.2422 
G1 X36.3845 Y-23.2422 Z0.1828 F21.
G1 X36.3845 Y-23.2700 Z0.1779
G1 X36.3845 Y-23.3554 Z0.1628
G1 X36.3845 Y-23.4407 Z0.1478
G2X36.3845Y-22.1581Z0.1480J0.6425K-7.2215 F22.
G1 X36.3845 Y-22.1581 Z0.2480 F21.
G0 Z0.2955
G0 X36.3845 Y-22.1581 
G0 Z0.2955
G0 X36.3845 Y-23.2422 
G1 X36.3845 Y-23.2422 Z0.1705 F21.
G1 X36.3845 Y-23.2700 Z0.1656
G1 X36.3845 Y-23.3554 Z0.1505
G1 X36.3845 Y-23.4407 Z0.1355
G2X36.3845Y-22.1581Z0.1357J0.6425K-7.2215 F22.
G1 X36.3845 Y-22.1581 Z0.2357 F21.
G0 Z0.3699
G0 X36.3845 Y-22.1581 
G0 Z0.3699
G0 X37.0460 Y-23.2336 
G1 X37.0460 Y-23.2336 Z0.2449 F21.
G1 X37.0460 Y-23.2637 Z0.2396
G1 X37.0460 Y-23.3479 Z0.2248
G1 X37.0460 Y-23.4321 Z0.2099
G2X37.0460Y-22.1668Z0.2102J0.6339K-7.2222 F22.
G1 X37.0460 Y-22.1668 Z0.3102 F21.
G0 Z0.3577
G0 X37.0460 Y-22.1668 
G0 Z0.3577
G0 X37.0460 Y-23.2336 
G1 X37.0460 Y-23.2336 Z0.2327 F21.
G1 X37.0460 Y-23.2637 Z0.2274
G1 X37.0460 Y-23.3479 Z0.2125
G1 X37.0460 Y-23.4321 Z0.1977
G2X37.0460Y-22.1668Z0.1979J0.6339K-7.2223 F22.
G1 X37.0460 Y-22.1668 Z0.2979 F21.
G0 Z0.3454
G0 X37.0460 Y-22.1668 
G0 Z0.3454
G0 X37.0460 Y-23.2336 
G1 X37.0460 Y-23.2336 Z0.2204 F21.
G1 X37.0460 Y-23.2637 Z0.2151
G1 X37.0460 Y-23.3479 Z0.2002
G1 X37.0460 Y-23.4321 Z0.1854
G2X37.0460Y-22.1668Z0.1856J0.6339K-7.2223 F22.
G1 X37.0460 Y-22.1668 Z0.2856 F21.
G0 Z0.3331
G0 X37.0460 Y-22.1668 
G0 Z0.3331
G0 X37.0460 Y-23.2336 
G1 X37.0460 Y-23.2336 Z0.2081 F21.
G1 X37.0460 Y-23.2637 Z0.2028
G1 X37.0460 Y-23.3479 Z0.1879
G1 X37.0460 Y-23.4321 Z0.1731
G2X37.0460Y-22.1668Z0.1733J0.6339K-7.2222 F22.
G1 X37.0460 Y-22.1668 Z0.2733 F21.
G0 Z0.3208
G0 X37.0460 Y-22.1668 
G0 Z0.3208
G0 X37.0460 Y-23.2336 
G1 X37.0460 Y-23.2336 Z0.1958 F21.
G1 X37.0460 Y-23.2637 Z0.1905
G1 X37.0460 Y-23.3479 Z0.1756
G1 X37.0460 Y-23.4321 Z0.1608
G2X37.0460Y-22.1668Z0.1610J0.6339K-7.2222 F22.
G1 X37.0460 Y-22.1668 Z0.2610 F21.
G0 Z0.3085
G0 X37.0460 Y-22.1668 
G0 Z0.3085
G0 X37.0460 Y-23.2336 
G1 X37.0460 Y-23.2336 Z0.1835 F21.
G1 X37.0460 Y-23.2637 Z0.1782
G1 X37.0460 Y-23.3479 Z0.1634
G1 X37.0460 Y-23.4321 Z0.1485
G2X37.0460Y-22.1668Z0.1487J0.6339K-7.2222 F22.
G1 X37.0460 Y-22.1668 Z0.2487 F21.
G0 Z0.2962
G0 X37.0460 Y-22.1668 
G0 Z0.2962
G0 X37.0460 Y-23.2336 
G1 X37.0460 Y-23.2336 Z0.1712 F21.
G1 X37.0460 Y-23.2637 Z0.1659
G1 X37.0460 Y-23.3479 Z0.1511
G1 X37.0460 Y-23.4321 Z0.1362
G2X37.0460Y-22.1668Z0.1365J0.6339K-7.2222 F22.
G1 X37.0460 Y-22.1668 Z0.2365 F21.
G0 Z0.3707
G0 X37.0460 Y-22.1668 
G0 Z0.3707
G0 X37.7468 Y-23.2245 
G1 X37.7468 Y-23.2245 Z0.2457 F21.
G1 X37.7468 Y-23.2570 Z0.2400
G1 X37.7468 Y-23.3400 Z0.2254
G1 X37.7468 Y-23.4230 Z0.2107
G2X37.7468Y-22.1759Z0.2110J0.6248K-7.2230 F22.
G1 X37.7468 Y-22.1759 Z0.3110 F21.
G0 Z0.3585
G0 X37.7468 Y-22.1759 
G0 Z0.3585
G0 X37.7468 Y-23.2245 
G1 X37.7468 Y-23.2245 Z0.2335 F21.
G1 X37.7468 Y-23.2570 Z0.2277
G1 X37.7468 Y-23.3400 Z0.2131
G1 X37.7468 Y-23.4230 Z0.1985
G2X37.7468Y-22.1759Z0.1987J0.6248K-7.2231 F22.
G1 X37.7468 Y-22.1759 Z0.2987 F21.
G0 Z0.3462
G0 X37.7468 Y-22.1759 
G0 Z0.3462
G0 X37.7468 Y-23.2245 
G1 X37.7468 Y-23.2245 Z0.2212 F21.
G1 X37.7468 Y-23.2570 Z0.2154
G1 X37.7468 Y-23.3400 Z0.2008
G1 X37.7468 Y-23.4230 Z0.1862
G2X37.7468Y-22.1759Z0.1864J0.6248K-7.2231 F22.
G1 X37.7468 Y-22.1759 Z0.2864 F21.
G0 Z0.3339
G0 X37.7468 Y-22.1759 
G0 Z0.3339
G0 X37.7468 Y-23.2245 
G1 X37.7468 Y-23.2245 Z0.2089 F21.
G1 X37.7468 Y-23.2570 Z0.2032
G1 X37.7468 Y-23.3400 Z0.1885
G1 X37.7468 Y-23.4230 Z0.1739
G2X37.7468Y-22.1759Z0.1741J0.6248K-7.2230 F22.
G1 X37.7468 Y-22.1759 Z0.2741 F21.
G0 Z0.3216
G0 X37.7468 Y-22.1759 
G0 Z0.3216
G0 X37.7468 Y-23.2245 
G1 X37.7468 Y-23.2245 Z0.1966 F21.
G1 X37.7468 Y-23.2570 Z0.1909
G1 X37.7468 Y-23.3400 Z0.1762
G1 X37.7468 Y-23.4230 Z0.1616
G2X37.7468Y-22.1759Z0.1618J0.6248K-7.2230 F22.
G1 X37.7468 Y-22.1759 Z0.2618 F21.
G0 Z0.3093
G0 X37.7468 Y-22.1759 
G0 Z0.3093
G0 X37.7468 Y-23.2245 
G1 X37.7468 Y-23.2245 Z0.1843 F21.
G1 X37.7468 Y-23.2570 Z0.1786
G1 X37.7468 Y-23.3400 Z0.1639
G1 X37.7468 Y-23.4230 Z0.1493
G2X37.7468Y-22.1759Z0.1495J0.6248K-7.2230 F22.
G1 X37.7468 Y-22.1759 Z0.2495 F21.
G0 Z0.2970
G0 X37.7468 Y-22.1759 
G0 Z0.2970
G0 X37.7468 Y-23.2245 
G1 X37.7468 Y-23.2245 Z0.1720 F21.
G1 X37.7468 Y-23.2570 Z0.1663
G1 X37.7468 Y-23.3400 Z0.1517
G1 X37.7468 Y-23.4230 Z0.1370
G2X37.7468Y-22.1759Z0.1372J0.6248K-7.2230 F22.
G1 X37.7468 Y-22.1759 Z0.2372 F21.
G0 Z0.3724
G0 X37.7468 Y-22.1759 
G0 Z0.3724
G0 X39.2759 Y-23.2045 
G1 X39.2759 Y-23.2045 Z0.2474 F21.
G1 X39.2759 Y-23.2423 Z0.2408
G1 X39.2759 Y-23.3227 Z0.2266
G1 X39.2759 Y-23.4030 Z0.2124
G2X39.2759Y-22.1958Z0.2126J0.6048K-7.2247 F22.
G1 X39.2759 Y-22.1958 Z0.3126 F21.
G0 Z0.3602
G0 X39.2759 Y-22.1958 
G0 Z0.3602
G0 X39.2759 Y-23.2045 
G1 X39.2759 Y-23.2045 Z0.2352 F21.
G1 X39.2759 Y-23.2423 Z0.2285
G1 X39.2759 Y-23.3227 Z0.2143
G1 X39.2759 Y-23.4030 Z0.2002
G2X39.2759Y-22.1958Z0.2004J0.6048K-7.2248 F22.
G1 X39.2759 Y-22.1958 Z0.3004 F21.
G0 Z0.3479
G0 X39.2759 Y-22.1958 
G0 Z0.3479
G0 X39.2759 Y-23.2045 
G1 X39.2759 Y-23.2045 Z0.2229 F21.
G1 X39.2759 Y-23.2423 Z0.2162
G1 X39.2759 Y-23.3227 Z0.2020
G1 X39.2759 Y-23.4030 Z0.1879
G2X39.2759Y-22.1958Z0.1881J0.6048K-7.2248 F22.
G1 X39.2759 Y-22.1958 Z0.2881 F21.
G0 Z0.3356
G0 X39.2759 Y-22.1958 
G0 Z0.3356
G0 X39.2759 Y-23.2045 
G1 X39.2759 Y-23.2045 Z0.2106 F21.
G1 X39.2759 Y-23.2423 Z0.2039
G1 X39.2759 Y-23.3227 Z0.1897
G1 X39.2759 Y-23.4030 Z0.1756
G2X39.2759Y-22.1958Z0.1758J0.6048K-7.2247 F22.
G1 X39.2759 Y-22.1958 Z0.2758 F21.
G0 Z0.3233
G0 X39.2759 Y-22.1958 
G0 Z0.3233
G0 X39.2759 Y-23.2045 
G1 X39.2759 Y-23.2045 Z0.1983 F21.
G1 X39.2759 Y-23.2423 Z0.1916
G1 X39.2759 Y-23.3227 Z0.1775
G1 X39.2759 Y-23.4030 Z0.1633
G2X39.2759Y-22.1958Z0.1635J0.6048K-7.2247 F22.
G1 X39.2759 Y-22.1958 Z0.2635 F21.
G0 Z0.3110
G0 X39.2759 Y-22.1958 
G0 Z0.3110
G0 X39.2759 Y-23.2045 
G1 X39.2759 Y-23.2045 Z0.1860 F21.
G1 X39.2759 Y-23.2423 Z0.1794
G1 X39.2759 Y-23.3227 Z0.1652
G1 X39.2759 Y-23.4030 Z0.1510
G2X39.2759Y-22.1958Z0.1512J0.6048K-7.2247 F22.
G1 X39.2759 Y-22.1958 Z0.2512 F21.
G0 Z0.2987
G0 X39.2759 Y-22.1958 
G0 Z0.2987
G0 X39.2759 Y-23.2045 
G1 X39.2759 Y-23.2045 Z0.1737 F21.
G1 X39.2759 Y-23.2423 Z0.1671
G1 X39.2759 Y-23.3227 Z0.1529
G1 X39.2759 Y-23.4030 Z0.1387
G2X39.2759Y-22.1958Z0.1389J0.6048K-7.2247 F22.
G1 X39.2759 Y-22.1958 Z0.2389 F21.
G0 Z0.3743
G0 X39.2759 Y-22.1958 
G0 Z0.3743
G0 X40.9924 Y-23.1821 
G1 X40.9924 Y-23.1821 Z0.2493 F21.
G1 X40.9924 Y-23.2259 Z0.2416
G1 X40.9924 Y-23.3033 Z0.2279
G1 X40.9924 Y-23.3806 Z0.2143
G2X40.9924Y-22.2182Z0.2145J0.5824K-7.2266 F22.
G1 X40.9924 Y-22.2182 Z0.3145 F21.
G0 Z0.3620
G0 X40.9924 Y-22.2182 
G0 Z0.3620
G0 X40.9924 Y-23.1821 
G1 X40.9924 Y-23.1821 Z0.2370 F21.
G1 X40.9924 Y-23.2259 Z0.2293
G1 X40.9924 Y-23.3033 Z0.2156
G1 X40.9924 Y-23.3806 Z0.2020
G2X40.9924Y-22.2182Z0.2022J0.5824K-7.2266 F22.
G1 X40.9924 Y-22.2182 Z0.3022 F21.
G0 Z0.3497
G0 X40.9924 Y-22.2182 
G0 Z0.3497
G0 X40.9924 Y-23.1821 
G1 X40.9924 Y-23.1821 Z0.2247 F21.
G1 X40.9924 Y-23.2259 Z0.2170
G1 X40.9924 Y-23.3033 Z0.2033
G1 X40.9924 Y-23.3806 Z0.1897
G2X40.9924Y-22.2182Z0.1899J0.5824K-7.2266 F22.
G1 X40.9924 Y-22.2182 Z0.2899 F21.
G0 Z0.3374
G0 X40.9924 Y-22.2182 
G0 Z0.3374
G0 X40.9924 Y-23.1821 
G1 X40.9924 Y-23.1821 Z0.2124 F21.
G1 X40.9924 Y-23.2259 Z0.2047
G1 X40.9924 Y-23.3033 Z0.1911
G1 X40.9924 Y-23.3806 Z0.1774
G2X40.9924Y-22.2182Z0.1776J0.5824K-7.2265 F22.
G1 X40.9924 Y-22.2182 Z0.2776 F21.
G0 Z0.3251
G0 X40.9924 Y-22.2182 
G0 Z0.3251
G0 X40.9924 Y-23.1821 
G1 X40.9924 Y-23.1821 Z0.2001 F21.
G1 X40.9924 Y-23.2259 Z0.1924
G1 X40.9924 Y-23.3033 Z0.1788
G1 X40.9924 Y-23.3806 Z0.1651
G2X40.9924Y-22.2182Z0.1653J0.5824K-7.2265 F22.
G1 X40.9924 Y-22.2182 Z0.2653 F21.
G0 Z0.3129
G0 X40.9924 Y-22.2182 
G0 Z0.3129
G0 X40.9924 Y-23.1821 
G1 X40.9924 Y-23.1821 Z0.1879 F21.
G1 X40.9924 Y-23.2259 Z0.1801
G1 X40.9924 Y-23.3033 Z0.1665
G1 X40.9924 Y-23.3806 Z0.1529
G2X40.9924Y-22.2182Z0.1531J0.5824K-7.2266 F22.
G1 X40.9924 Y-22.2182 Z0.2531 F21.
G0 Z0.3006
G0 X40.9924 Y-22.2182 
G0 Z0.3006
G0 X40.9924 Y-23.1821 
G1 X40.9924 Y-23.1821 Z0.1756 F21.
G1 X40.9924 Y-23.2259 Z0.1679
G1 X40.9924 Y-23.3033 Z0.1542
G1 X40.9924 Y-23.3806 Z0.1406
G2X40.9924Y-22.2182Z0.1408J0.5824K-7.2266 F22.
G1 X40.9924 Y-22.2182 Z0.2408 F21.
G0 Z0.3753
G0 X40.9924 Y-22.2182 
G0 Z0.3753
G0 X41.9278 Y-23.1699 
G1 X41.9278 Y-23.1699 Z0.2503 F21.
G1 X41.9278 Y-23.2169 Z0.2420
G1 X41.9278 Y-23.2927 Z0.2286
G1 X41.9278 Y-23.3684 Z0.2153
G2X41.9278Y-22.2304Z0.2154J0.5702K-7.2276 F22.
G1 X41.9278 Y-22.2304 Z0.3154 F21.
G0 Z0.3630
G0 X41.9278 Y-22.2304 
G0 Z0.3630
G0 X41.9278 Y-23.1699 
G1 X41.9278 Y-23.1699 Z0.2380 F21.
G1 X41.9278 Y-23.2169 Z0.2297
G1 X41.9278 Y-23.2927 Z0.2163
G1 X41.9278 Y-23.3684 Z0.2030
G2X41.9278Y-22.2304Z0.2032J0.5702K-7.2276 F22.
G1 X41.9278 Y-22.2304 Z0.3032 F21.
G0 Z0.3507
G0 X41.9278 Y-22.2304 
G0 Z0.3507
G0 X41.9278 Y-23.1699 
G1 X41.9278 Y-23.1699 Z0.2257 F21.
G1 X41.9278 Y-23.2169 Z0.2174
G1 X41.9278 Y-23.2927 Z0.2040
G1 X41.9278 Y-23.3684 Z0.1907
G2X41.9278Y-22.2304Z0.1909J0.5702K-7.2276 F22.
G1 X41.9278 Y-22.2304 Z0.2909 F21.
G0 Z0.3384
G0 X41.9278 Y-22.2304 
G0 Z0.3384
G0 X41.9278 Y-23.1699 
G1 X41.9278 Y-23.1699 Z0.2134 F21.
G1 X41.9278 Y-23.2169 Z0.2051
G1 X41.9278 Y-23.2927 Z0.1917
G1 X41.9278 Y-23.3684 Z0.1784
G2X41.9278Y-22.2304Z0.1786J0.5702K-7.2275 F22.
G1 X41.9278 Y-22.2304 Z0.2786 F21.
G0 Z0.3261
G0 X41.9278 Y-22.2304 
G0 Z0.3261
G0 X41.9278 Y-23.1699 
G1 X41.9278 Y-23.1699 Z0.2011 F21.
G1 X41.9278 Y-23.2169 Z0.1928
G1 X41.9278 Y-23.2927 Z0.1795
G1 X41.9278 Y-23.3684 Z0.1661
G2X41.9278Y-22.2304Z0.1663J0.5702K-7.2275 F22.
G1 X41.9278 Y-22.2304 Z0.2663 F21.
G0 Z0.3138
G0 X41.9278 Y-22.2304 
G0 Z0.3138
G0 X41.9278 Y-23.1699 
G1 X41.9278 Y-23.1699 Z0.1888 F21.
G1 X41.9278 Y-23.2169 Z0.1805
G1 X41.9278 Y-23.2927 Z0.1672
G1 X41.9278 Y-23.3684 Z0.1538
G2X41.9278Y-22.2304Z0.1540J0.5702K-7.2275 F22.
G1 X41.9278 Y-22.2304 Z0.2540 F21.
G0 Z0.3015
G0 X41.9278 Y-22.2304 
G0 Z0.3015
G0 X41.9278 Y-23.1699 
G1 X41.9278 Y-23.1699 Z0.1765 F21.
G1 X41.9278 Y-23.2169 Z0.1683
G1 X41.9278 Y-23.2927 Z0.1549
G1 X41.9278 Y-23.3684 Z0.1415
G2X41.9278Y-22.2304Z0.1417J0.5702K-7.2275 F22.
G1 X41.9278 Y-22.2304 Z0.2417 F21.
G0 Z0.3773
G0 X41.9278 Y-22.2304 
G0 Z0.3773
G0 X43.9690 Y-23.1433 
G1 X43.9690 Y-23.1433 Z0.2523 F21.
G1 X43.9690 Y-23.1974 Z0.2428
G1 X43.9690 Y-23.2696 Z0.2300
G1 X43.9690 Y-23.3418 Z0.2173
G2X43.9690Y-22.2571Z0.2175J0.5436K-7.2296 F22.
G1 X43.9690 Y-22.2571 Z0.3175 F21.
G0 Z0.3650
G0 X43.9690 Y-22.2571 
G0 Z0.3650
G0 X43.9690 Y-23.1433 
G1 X43.9690 Y-23.1433 Z0.2400 F21.
G1 X43.9690 Y-23.1974 Z0.2305
G1 X43.9690 Y-23.2696 Z0.2177
G1 X43.9690 Y-23.3418 Z0.2050
G2X43.9690Y-22.2571Z0.2052J0.5436K-7.2296 F22.
G1 X43.9690 Y-22.2571 Z0.3052 F21.
G0 Z0.3527
G0 X43.9690 Y-22.2571 
G0 Z0.3527
G0 X43.9690 Y-23.1433 
G1 X43.9690 Y-23.1433 Z0.2277 F21.
G1 X43.9690 Y-23.1974 Z0.2182
G1 X43.9690 Y-23.2696 Z0.2055
G1 X43.9690 Y-23.3418 Z0.1927
G2X43.9690Y-22.2571Z0.1929J0.5436K-7.2296 F22.
G1 X43.9690 Y-22.2571 Z0.2929 F21.
G0 Z0.3404
G0 X43.9690 Y-22.2571 
G0 Z0.3404
G0 X43.9690 Y-23.1433 
G1 X43.9690 Y-23.1433 Z0.2154 F21.
G1 X43.9690 Y-23.1974 Z0.2059
G1 X43.9690 Y-23.2696 Z0.1932
G1 X43.9690 Y-23.3418 Z0.1804
G2X43.9690Y-22.2571Z0.1806J0.5436K-7.2295 F22.
G1 X43.9690 Y-22.2571 Z0.2806 F21.
G0 Z0.3282
G0 X43.9690 Y-22.2571 
G0 Z0.3282
G0 X43.9690 Y-23.1433 
G1 X43.9690 Y-23.1433 Z0.2032 F21.
G1 X43.9690 Y-23.1974 Z0.1936
G1 X43.9690 Y-23.2696 Z0.1809
G1 X43.9690 Y-23.3418 Z0.1682
G2X43.9690Y-22.2571Z0.1683J0.5436K-7.2296 F22.
G1 X43.9690 Y-22.2571 Z0.2683 F21.
G0 Z0.3159
G0 X43.9690 Y-22.2571 
G0 Z0.3159
G0 X43.9690 Y-23.1433 
G1 X43.9690 Y-23.1433 Z0.1909 F21.
G1 X43.9690 Y-23.1974 Z0.1813
G1 X43.9690 Y-23.2696 Z0.1686
G1 X43.9690 Y-23.3418 Z0.1559
G2X43.9690Y-22.2571Z0.1561J0.5436K-7.2296 F22.
G1 X43.9690 Y-22.2571 Z0.2561 F21.
G0 Z0.3036
G0 X43.9690 Y-22.2571 
G0 Z0.3036
G0 X43.9690 Y-23.1433 
G1 X43.9690 Y-23.1433 Z0.1786 F21.
G1 X43.9690 Y-23.1974 Z0.1691
G1 X43.9690 Y-23.2696 Z0.1563
G1 X43.9690 Y-23.3418 Z0.1436
G2X43.9690Y-22.2571Z0.1438J0.5436K-7.2296 F22.
G1 X43.9690 Y-22.2571 Z0.2438 F21.
G0 Z1.3000
G0 X43.9690 Y-22.2571 
M5
G53 Z
X2Y0
