( MOP:  03-frets-r10-s25PT5-NFrets24-StandardDepth-StandardKerf )
( FILE: G:\Shared drives\AlloyProjectFiles\Customer CAD files\Alloy-Standard-Builds-CAM\Fingerboards-in\03-frets-r10-s25PT5-NFrets24-StandardDepth-StandardKerf.nc)
G90
(  BEGIN TOOL LIST )
(  TOOL 15 - Fretkerf PT025 - DESC: 0.0250 DIA, 2 FLUTE,  CARBIDE MAT )
(  ENDOF TOOL LIST )
( 03-frets-r10-s25PT5-NFrets24-StandardDepth-StandardKerf)
T15
S14000
M3
G0 Z1.0000
G0 X27.1351 Y-23.9097 
G1 X27.1351 Y-23.9097 Z0.1797 F21.
G1 X27.1351 Y-23.9260 Z0.1768
G1 X27.1351 Y-24.0232 Z0.1597
G1 X27.1351 Y-23.7192 Z0.1927 F22.
G1 X27.1351 Y-23.4143 Z0.2163
G1 X27.1351 Y-23.1089 Z0.2307
G1 X27.1351 Y-22.8032 Z0.2357
G1 X27.1351 Y-22.4974 Z0.2313
G1 X27.1351 Y-22.1920 Z0.2176
G1 X27.1351 Y-21.8871 Z0.1946
G1 X27.1351 Y-21.5830 Z0.1622
G0 Z0.3404
G0 X27.1351 Y-21.5830 
G0 Z0.3404
G0 X27.1351 Y-23.9097 
G1 X27.1351 Y-23.9097 Z0.1654 F21.
G1 X27.1351 Y-23.9260 Z0.1625
G1 X27.1351 Y-24.0232 Z0.1454
G1 X27.1351 Y-23.7192 Z0.1783 F22.
G1 X27.1351 Y-23.4143 Z0.2020
G1 X27.1351 Y-23.1089 Z0.2163
G1 X27.1351 Y-22.8032 Z0.2213
G1 X27.1351 Y-22.4974 Z0.2170
G1 X27.1351 Y-22.1920 Z0.2033
G1 X27.1351 Y-21.8871 Z0.1802
G1 X27.1351 Y-21.5830 Z0.1479
G0 Z0.3260
G0 X27.1351 Y-21.5830 
G0 Z0.3260
G0 X27.1351 Y-23.9097 
G1 X27.1351 Y-23.9097 Z0.1510 F21.
G1 X27.1351 Y-23.9260 Z0.1482
G1 X27.1351 Y-24.0232 Z0.1310
G1 X27.1351 Y-23.7192 Z0.1640 F22.
G1 X27.1351 Y-23.4143 Z0.1877
G1 X27.1351 Y-23.1089 Z0.2020
G1 X27.1351 Y-22.8032 Z0.2070
G1 X27.1351 Y-22.4974 Z0.2026
G1 X27.1351 Y-22.1920 Z0.1889
G1 X27.1351 Y-21.8871 Z0.1659
G1 X27.1351 Y-21.5830 Z0.1335
G0 Z0.3117
G0 X27.1351 Y-21.5830 
G0 Z0.3117
G0 X27.1351 Y-23.9097 
G1 X27.1351 Y-23.9097 Z0.1367 F21.
G1 X27.1351 Y-23.9260 Z0.1338
G1 X27.1351 Y-24.0232 Z0.1167
G1 X27.1351 Y-23.7192 Z0.1497 F22.
G1 X27.1351 Y-23.4143 Z0.1733
G1 X27.1351 Y-23.1089 Z0.1877
G1 X27.1351 Y-22.8032 Z0.1927
G1 X27.1351 Y-22.4974 Z0.1883
G1 X27.1351 Y-22.1920 Z0.1746
G1 X27.1351 Y-21.8871 Z0.1516
G1 X27.1351 Y-21.5830 Z0.1192
G0 Z0.2974
G0 X27.1351 Y-21.5830 
G0 Z0.2974
G0 X27.1351 Y-23.9097 
G1 X27.1351 Y-23.9097 Z0.1224 F21.
G1 X27.1351 Y-23.9260 Z0.1195
G1 X27.1351 Y-24.0232 Z0.1024
G1 X27.1351 Y-23.7192 Z0.1353 F22.
G1 X27.1351 Y-23.4143 Z0.1590
G1 X27.1351 Y-23.1089 Z0.1733
G1 X27.1351 Y-22.8032 Z0.1783
G1 X27.1351 Y-22.4974 Z0.1740
G1 X27.1351 Y-22.1920 Z0.1603
G1 X27.1351 Y-21.8871 Z0.1372
G1 X27.1351 Y-21.5830 Z0.1049
G0 Z0.2830
G0 X27.1351 Y-21.5830 
G0 Z0.2830
G0 X27.1351 Y-23.9097 
G1 X27.1351 Y-23.9097 Z0.1080 F21.
G1 X27.1351 Y-23.9260 Z0.1052
G1 X27.1351 Y-24.0232 Z0.0880
G1 X27.1351 Y-23.7192 Z0.1210 F22.
G1 X27.1351 Y-23.4143 Z0.1447
G1 X27.1351 Y-23.1089 Z0.1590
G1 X27.1351 Y-22.8032 Z0.1640
G1 X27.1351 Y-22.4974 Z0.1596
G1 X27.1351 Y-22.1920 Z0.1459
G1 X27.1351 Y-21.8871 Z0.1229
G1 X27.1351 Y-21.5830 Z0.0905
G0 Z0.3553
G0 X27.1351 Y-21.5830 
G0 Z0.3553
G0 X27.5142 Y-23.9047 
G1 X27.5142 Y-23.9047 Z0.1803 F21.
G1 X27.5142 Y-23.9213 Z0.1774
G1 X27.5142 Y-24.0181 Z0.1603
G1 X27.5142 Y-23.7153 Z0.1930 F22.
G1 X27.5142 Y-23.4118 Z0.2165
G1 X27.5142 Y-23.1076 Z0.2307
G1 X27.5142 Y-22.8031 Z0.2357
G1 X27.5142 Y-22.4987 Z0.2313
G1 X27.5142 Y-22.1945 Z0.2178
G1 X27.5142 Y-21.8908 Z0.1949
G1 X27.5142 Y-21.5880 Z0.1628
G0 Z0.3410
G0 X27.5142 Y-21.5880 
G0 Z0.3410
G0 X27.5142 Y-23.9047 
G1 X27.5142 Y-23.9047 Z0.1660 F21.
G1 X27.5142 Y-23.9213 Z0.1631
G1 X27.5142 Y-24.0181 Z0.1460
G1 X27.5142 Y-23.7153 Z0.1787 F22.
G1 X27.5142 Y-23.4118 Z0.2022
G1 X27.5142 Y-23.1076 Z0.2164
G1 X27.5142 Y-22.8031 Z0.2213
G1 X27.5142 Y-22.4987 Z0.2170
G1 X27.5142 Y-22.1945 Z0.2034
G1 X27.5142 Y-21.8908 Z0.1806
G1 X27.5142 Y-21.5880 Z0.1485
G0 Z0.3267
G0 X27.5142 Y-21.5880 
G0 Z0.3267
G0 X27.5142 Y-23.9047 
G1 X27.5142 Y-23.9047 Z0.1517 F21.
G1 X27.5142 Y-23.9213 Z0.1487
G1 X27.5142 Y-24.0181 Z0.1317
G1 X27.5142 Y-23.7153 Z0.1644 F22.
G1 X27.5142 Y-23.4118 Z0.1878
G1 X27.5142 Y-23.1076 Z0.2020
G1 X27.5142 Y-22.8031 Z0.2070
G1 X27.5142 Y-22.4987 Z0.2027
G1 X27.5142 Y-22.1945 Z0.1891
G1 X27.5142 Y-21.8908 Z0.1662
G1 X27.5142 Y-21.5880 Z0.1342
G0 Z0.3123
G0 X27.5142 Y-21.5880 
G0 Z0.3123
G0 X27.5142 Y-23.9047 
G1 X27.5142 Y-23.9047 Z0.1373 F21.
G1 X27.5142 Y-23.9213 Z0.1344
G1 X27.5142 Y-24.0181 Z0.1173
G1 X27.5142 Y-23.7153 Z0.1500 F22.
G1 X27.5142 Y-23.4118 Z0.1735
G1 X27.5142 Y-23.1076 Z0.1877
G1 X27.5142 Y-22.8031 Z0.1927
G1 X27.5142 Y-22.4987 Z0.1883
G1 X27.5142 Y-22.1945 Z0.1748
G1 X27.5142 Y-21.8908 Z0.1519
G1 X27.5142 Y-21.5880 Z0.1198
G0 Z0.2980
G0 X27.5142 Y-21.5880 
G0 Z0.2980
G0 X27.5142 Y-23.9047 
G1 X27.5142 Y-23.9047 Z0.1230 F21.
G1 X27.5142 Y-23.9213 Z0.1201
G1 X27.5142 Y-24.0181 Z0.1030
G1 X27.5142 Y-23.7153 Z0.1357 F22.
G1 X27.5142 Y-23.4118 Z0.1592
G1 X27.5142 Y-23.1076 Z0.1734
G1 X27.5142 Y-22.8031 Z0.1783
G1 X27.5142 Y-22.4987 Z0.1740
G1 X27.5142 Y-22.1945 Z0.1604
G1 X27.5142 Y-21.8908 Z0.1376
G1 X27.5142 Y-21.5880 Z0.1055
G0 Z0.2837
G0 X27.5142 Y-21.5880 
G0 Z0.2837
G0 X27.5142 Y-23.9047 
G1 X27.5142 Y-23.9047 Z0.1087 F21.
G1 X27.5142 Y-23.9213 Z0.1057
G1 X27.5142 Y-24.0181 Z0.0887
G1 X27.5142 Y-23.7153 Z0.1214 F22.
G1 X27.5142 Y-23.4118 Z0.1448
G1 X27.5142 Y-23.1076 Z0.1590
G1 X27.5142 Y-22.8031 Z0.1640
G1 X27.5142 Y-22.4987 Z0.1597
G1 X27.5142 Y-22.1945 Z0.1461
G1 X27.5142 Y-21.8908 Z0.1232
G1 X27.5142 Y-21.5880 Z0.0912
G0 Z0.3560
G0 X27.5142 Y-21.5880 
G0 Z0.3560
G0 X27.9158 Y-23.8993 
G1 X27.9158 Y-23.8993 Z0.1810 F21.
G1 X27.9158 Y-23.9163 Z0.1780
G1 X27.9158 Y-24.0127 Z0.1610
G1 X27.9158 Y-23.7113 Z0.1934 F22.
G1 X27.9158 Y-23.4090 Z0.2167
G1 X27.9158 Y-23.1062 Z0.2308
G1 X27.9158 Y-22.8031 Z0.2357
G1 X27.9158 Y-22.5000 Z0.2314
G1 X27.9158 Y-22.1971 Z0.2179
G1 X27.9158 Y-21.8948 Z0.1953
G1 X27.9158 Y-21.5934 Z0.1635
G0 Z0.3417
G0 X27.9158 Y-21.5934 
G0 Z0.3417
G0 X27.9158 Y-23.8993 
G1 X27.9158 Y-23.8993 Z0.1667 F21.
G1 X27.9158 Y-23.9163 Z0.1636
G1 X27.9158 Y-24.0127 Z0.1467
G1 X27.9158 Y-23.7113 Z0.1791 F22.
G1 X27.9158 Y-23.4090 Z0.2023
G1 X27.9158 Y-23.1062 Z0.2164
G1 X27.9158 Y-22.8031 Z0.2213
G1 X27.9158 Y-22.5000 Z0.2170
G1 X27.9158 Y-22.1971 Z0.2036
G1 X27.9158 Y-21.8948 Z0.1809
G1 X27.9158 Y-21.5934 Z0.1491
G0 Z0.3273
G0 X27.9158 Y-21.5934 
G0 Z0.3273
G0 X27.9158 Y-23.8993 
G1 X27.9158 Y-23.8993 Z0.1523 F21.
G1 X27.9158 Y-23.9163 Z0.1493
G1 X27.9158 Y-24.0127 Z0.1323
G1 X27.9158 Y-23.7113 Z0.1647 F22.
G1 X27.9158 Y-23.4090 Z0.1880
G1 X27.9158 Y-23.1062 Z0.2021
G1 X27.9158 Y-22.8031 Z0.2070
G1 X27.9158 Y-22.5000 Z0.2027
G1 X27.9158 Y-22.1971 Z0.1892
G1 X27.9158 Y-21.8948 Z0.1666
G1 X27.9158 Y-21.5934 Z0.1348
G0 Z0.3130
G0 X27.9158 Y-21.5934 
G0 Z0.3130
G0 X27.9158 Y-23.8993 
G1 X27.9158 Y-23.8993 Z0.1380 F21.
G1 X27.9158 Y-23.9163 Z0.1350
G1 X27.9158 Y-24.0127 Z0.1180
G1 X27.9158 Y-23.7113 Z0.1504 F22.
G1 X27.9158 Y-23.4090 Z0.1737
G1 X27.9158 Y-23.1062 Z0.1878
G1 X27.9158 Y-22.8031 Z0.1927
G1 X27.9158 Y-22.5000 Z0.1884
G1 X27.9158 Y-22.1971 Z0.1749
G1 X27.9158 Y-21.8948 Z0.1523
G1 X27.9158 Y-21.5934 Z0.1205
G0 Z0.2987
G0 X27.9158 Y-21.5934 
G0 Z0.2987
G0 X27.9158 Y-23.8993 
G1 X27.9158 Y-23.8993 Z0.1237 F21.
G1 X27.9158 Y-23.9163 Z0.1206
G1 X27.9158 Y-24.0127 Z0.1037
G1 X27.9158 Y-23.7113 Z0.1361 F22.
G1 X27.9158 Y-23.4090 Z0.1593
G1 X27.9158 Y-23.1062 Z0.1734
G1 X27.9158 Y-22.8031 Z0.1783
G1 X27.9158 Y-22.5000 Z0.1740
G1 X27.9158 Y-22.1971 Z0.1606
G1 X27.9158 Y-21.8948 Z0.1379
G1 X27.9158 Y-21.5934 Z0.1061
G0 Z0.2843
G0 X27.9158 Y-21.5934 
G0 Z0.2843
G0 X27.9158 Y-23.8993 
G1 X27.9158 Y-23.8993 Z0.1093 F21.
G1 X27.9158 Y-23.9163 Z0.1063
G1 X27.9158 Y-24.0127 Z0.0893
G1 X27.9158 Y-23.7113 Z0.1217 F22.
G1 X27.9158 Y-23.4090 Z0.1450
G1 X27.9158 Y-23.1062 Z0.1591
G1 X27.9158 Y-22.8031 Z0.1640
G1 X27.9158 Y-22.5000 Z0.1597
G1 X27.9158 Y-22.1971 Z0.1462
G1 X27.9158 Y-21.8948 Z0.1236
G1 X27.9158 Y-21.5934 Z0.0918
G0 Z0.3567
G0 X27.9158 Y-21.5934 
G0 Z0.3567
G0 X28.3413 Y-23.8935 
G1 X28.3413 Y-23.8935 Z0.1817 F21.
G1 X28.3413 Y-23.9111 Z0.1786
G1 X28.3413 Y-24.0070 Z0.1617
G1 X28.3413 Y-23.7070 Z0.1938 F22.
G1 X28.3413 Y-23.4061 Z0.2168
G1 X28.3413 Y-23.1047 Z0.2308
G1 X28.3413 Y-22.8031 Z0.2357
G1 X28.3413 Y-22.5014 Z0.2314
G1 X28.3413 Y-22.2000 Z0.2181
G1 X28.3413 Y-21.8991 Z0.1956
G1 X28.3413 Y-21.5990 Z0.1642
G0 Z0.3424
G0 X28.3413 Y-21.5990 
G0 Z0.3424
G0 X28.3413 Y-23.8935 
G1 X28.3413 Y-23.8935 Z0.1674 F21.
G1 X28.3413 Y-23.9111 Z0.1643
G1 X28.3413 Y-24.0070 Z0.1474
G1 X28.3413 Y-23.7070 Z0.1795 F22.
G1 X28.3413 Y-23.4061 Z0.2025
G1 X28.3413 Y-23.1047 Z0.2165
G1 X28.3413 Y-22.8031 Z0.2213
G1 X28.3413 Y-22.5014 Z0.2171
G1 X28.3413 Y-22.2000 Z0.2037
G1 X28.3413 Y-21.8991 Z0.1813
G1 X28.3413 Y-21.5990 Z0.1498
G0 Z0.3280
G0 X28.3413 Y-21.5990 
G0 Z0.3280
G0 X28.3413 Y-23.8935 
G1 X28.3413 Y-23.8935 Z0.1530 F21.
G1 X28.3413 Y-23.9111 Z0.1499
G1 X28.3413 Y-24.0070 Z0.1330
G1 X28.3413 Y-23.7070 Z0.1651 F22.
G1 X28.3413 Y-23.4061 Z0.1882
G1 X28.3413 Y-23.1047 Z0.2021
G1 X28.3413 Y-22.8031 Z0.2070
G1 X28.3413 Y-22.5014 Z0.2028
G1 X28.3413 Y-22.2000 Z0.1894
G1 X28.3413 Y-21.8991 Z0.1670
G1 X28.3413 Y-21.5990 Z0.1355
G0 Z0.3137
G0 X28.3413 Y-21.5990 
G0 Z0.3137
G0 X28.3413 Y-23.8935 
G1 X28.3413 Y-23.8935 Z0.1387 F21.
G1 X28.3413 Y-23.9111 Z0.1356
G1 X28.3413 Y-24.0070 Z0.1187
G1 X28.3413 Y-23.7070 Z0.1508 F22.
G1 X28.3413 Y-23.4061 Z0.1738
G1 X28.3413 Y-23.1047 Z0.1878
G1 X28.3413 Y-22.8031 Z0.1927
G1 X28.3413 Y-22.5014 Z0.1884
G1 X28.3413 Y-22.2000 Z0.1751
G1 X28.3413 Y-21.8991 Z0.1526
G1 X28.3413 Y-21.5990 Z0.1212
G0 Z0.2994
G0 X28.3413 Y-21.5990 
G0 Z0.2994
G0 X28.3413 Y-23.8935 
G1 X28.3413 Y-23.8935 Z0.1244 F21.
G1 X28.3413 Y-23.9111 Z0.1213
G1 X28.3413 Y-24.0070 Z0.1044
G1 X28.3413 Y-23.7070 Z0.1365 F22.
G1 X28.3413 Y-23.4061 Z0.1595
G1 X28.3413 Y-23.1047 Z0.1735
G1 X28.3413 Y-22.8031 Z0.1783
G1 X28.3413 Y-22.5014 Z0.1741
G1 X28.3413 Y-22.2000 Z0.1607
G1 X28.3413 Y-21.8991 Z0.1383
G1 X28.3413 Y-21.5990 Z0.1068
G0 Z0.2850
G0 X28.3413 Y-21.5990 
G0 Z0.2850
G0 X28.3413 Y-23.8935 
G1 X28.3413 Y-23.8935 Z0.1100 F21.
G1 X28.3413 Y-23.9111 Z0.1069
G1 X28.3413 Y-24.0070 Z0.0900
G1 X28.3413 Y-23.7070 Z0.1221 F22.
G1 X28.3413 Y-23.4061 Z0.1452
G1 X28.3413 Y-23.1047 Z0.1591
G1 X28.3413 Y-22.8031 Z0.1640
G1 X28.3413 Y-22.5014 Z0.1598
G1 X28.3413 Y-22.2000 Z0.1464
G1 X28.3413 Y-21.8991 Z0.1240
G1 X28.3413 Y-21.5990 Z0.0925
G0 Z0.3574
G0 X28.3413 Y-21.5990 
G0 Z0.3574
G0 X28.7921 Y-23.8875 
G1 X28.7921 Y-23.8875 Z0.1824 F21.
G1 X28.7921 Y-23.9055 Z0.1793
G1 X28.7921 Y-24.0009 Z0.1624
G1 X28.7921 Y-23.7024 Z0.1942 F22.
G1 X28.7921 Y-23.4031 Z0.2170
G1 X28.7921 Y-23.1032 Z0.2309
G1 X28.7921 Y-22.8030 Z0.2357
G1 X28.7921 Y-22.5029 Z0.2315
G1 X28.7921 Y-22.2030 Z0.2183
G1 X28.7921 Y-21.9036 Z0.1961
G1 X28.7921 Y-21.6050 Z0.1649
G0 Z0.3431
G0 X28.7921 Y-21.6050 
G0 Z0.3431
G0 X28.7921 Y-23.8875 
G1 X28.7921 Y-23.8875 Z0.1681 F21.
G1 X28.7921 Y-23.9055 Z0.1649
G1 X28.7921 Y-24.0009 Z0.1481
G1 X28.7921 Y-23.7024 Z0.1799 F22.
G1 X28.7921 Y-23.4031 Z0.2027
G1 X28.7921 Y-23.1032 Z0.2165
G1 X28.7921 Y-22.8030 Z0.2213
G1 X28.7921 Y-22.5029 Z0.2171
G1 X28.7921 Y-22.2030 Z0.2039
G1 X28.7921 Y-21.9036 Z0.1817
G1 X28.7921 Y-21.6050 Z0.1505
G0 Z0.3288
G0 X28.7921 Y-21.6050 
G0 Z0.3288
G0 X28.7921 Y-23.8875 
G1 X28.7921 Y-23.8875 Z0.1538 F21.
G1 X28.7921 Y-23.9055 Z0.1506
G1 X28.7921 Y-24.0009 Z0.1338
G1 X28.7921 Y-23.7024 Z0.1656 F22.
G1 X28.7921 Y-23.4031 Z0.1884
G1 X28.7921 Y-23.1032 Z0.2022
G1 X28.7921 Y-22.8030 Z0.2070
G1 X28.7921 Y-22.5029 Z0.2028
G1 X28.7921 Y-22.2030 Z0.1896
G1 X28.7921 Y-21.9036 Z0.1674
G1 X28.7921 Y-21.6050 Z0.1362
G0 Z0.3144
G0 X28.7921 Y-21.6050 
G0 Z0.3144
G0 X28.7921 Y-23.8875 
G1 X28.7921 Y-23.8875 Z0.1394 F21.
G1 X28.7921 Y-23.9055 Z0.1363
G1 X28.7921 Y-24.0009 Z0.1194
G1 X28.7921 Y-23.7024 Z0.1512 F22.
G1 X28.7921 Y-23.4031 Z0.1740
G1 X28.7921 Y-23.1032 Z0.1879
G1 X28.7921 Y-22.8030 Z0.1927
G1 X28.7921 Y-22.5029 Z0.1885
G1 X28.7921 Y-22.2030 Z0.1753
G1 X28.7921 Y-21.9036 Z0.1531
G1 X28.7921 Y-21.6050 Z0.1219
G0 Z0.3001
G0 X28.7921 Y-21.6050 
G0 Z0.3001
G0 X28.7921 Y-23.8875 
G1 X28.7921 Y-23.8875 Z0.1251 F21.
G1 X28.7921 Y-23.9055 Z0.1219
G1 X28.7921 Y-24.0009 Z0.1051
G1 X28.7921 Y-23.7024 Z0.1369 F22.
G1 X28.7921 Y-23.4031 Z0.1597
G1 X28.7921 Y-23.1032 Z0.1735
G1 X28.7921 Y-22.8030 Z0.1783
G1 X28.7921 Y-22.5029 Z0.1741
G1 X28.7921 Y-22.2030 Z0.1609
G1 X28.7921 Y-21.9036 Z0.1387
G1 X28.7921 Y-21.6050 Z0.1075
G0 Z0.2858
G0 X28.7921 Y-21.6050 
G0 Z0.2858
G0 X28.7921 Y-23.8875 
G1 X28.7921 Y-23.8875 Z0.1108 F21.
G1 X28.7921 Y-23.9055 Z0.1076
G1 X28.7921 Y-24.0009 Z0.0908
G1 X28.7921 Y-23.7024 Z0.1226 F22.
G1 X28.7921 Y-23.4031 Z0.1454
G1 X28.7921 Y-23.1032 Z0.1592
G1 X28.7921 Y-22.8030 Z0.1640
G1 X28.7921 Y-22.5029 Z0.1598
G1 X28.7921 Y-22.2030 Z0.1466
G1 X28.7921 Y-21.9036 Z0.1244
G1 X28.7921 Y-21.6050 Z0.0932
G0 Z0.3582
G0 X28.7921 Y-21.6050 
G0 Z0.3582
G0 X29.2697 Y-23.8811 
G1 X29.2697 Y-23.8811 Z0.1832 F21.
G1 X29.2697 Y-23.8996 Z0.1799
G1 X29.2697 Y-23.9945 Z0.1632
G1 X29.2697 Y-23.6976 Z0.1947 F22.
G1 X29.2697 Y-23.3998 Z0.2172
G1 X29.2697 Y-23.1015 Z0.2309
G1 X29.2697 Y-22.8030 Z0.2357
G1 X29.2697 Y-22.5044 Z0.2315
G1 X29.2697 Y-22.2061 Z0.2184
G1 X29.2697 Y-21.9083 Z0.1965
G1 X29.2697 Y-21.6113 Z0.1656
G0 Z0.3439
G0 X29.2697 Y-21.6113 
G0 Z0.3439
G0 X29.2697 Y-23.8811 
G1 X29.2697 Y-23.8811 Z0.1689 F21.
G1 X29.2697 Y-23.8996 Z0.1656
G1 X29.2697 Y-23.9945 Z0.1489
G1 X29.2697 Y-23.6976 Z0.1803 F22.
G1 X29.2697 Y-23.3998 Z0.2029
G1 X29.2697 Y-23.1015 Z0.2166
G1 X29.2697 Y-22.8030 Z0.2213
G1 X29.2697 Y-22.5044 Z0.2172
G1 X29.2697 Y-22.2061 Z0.2041
G1 X29.2697 Y-21.9083 Z0.1821
G1 X29.2697 Y-21.6113 Z0.1513
G0 Z0.3295
G0 X29.2697 Y-21.6113 
G0 Z0.3295
G0 X29.2697 Y-23.8811 
G1 X29.2697 Y-23.8811 Z0.1545 F21.
G1 X29.2697 Y-23.8996 Z0.1513
G1 X29.2697 Y-23.9945 Z0.1345
G1 X29.2697 Y-23.6976 Z0.1660 F22.
G1 X29.2697 Y-23.3998 Z0.1886
G1 X29.2697 Y-23.1015 Z0.2022
G1 X29.2697 Y-22.8030 Z0.2070
G1 X29.2697 Y-22.5044 Z0.2028
G1 X29.2697 Y-22.2061 Z0.1898
G1 X29.2697 Y-21.9083 Z0.1678
G1 X29.2697 Y-21.6113 Z0.1370
G0 Z0.3152
G0 X29.2697 Y-21.6113 
G0 Z0.3152
G0 X29.2697 Y-23.8811 
G1 X29.2697 Y-23.8811 Z0.1402 F21.
G1 X29.2697 Y-23.8996 Z0.1369
G1 X29.2697 Y-23.9945 Z0.1202
G1 X29.2697 Y-23.6976 Z0.1517 F22.
G1 X29.2697 Y-23.3998 Z0.1742
G1 X29.2697 Y-23.1015 Z0.1879
G1 X29.2697 Y-22.8030 Z0.1927
G1 X29.2697 Y-22.5044 Z0.1885
G1 X29.2697 Y-22.2061 Z0.1754
G1 X29.2697 Y-21.9083 Z0.1535
G1 X29.2697 Y-21.6113 Z0.1226
G0 Z0.3009
G0 X29.2697 Y-21.6113 
G0 Z0.3009
G0 X29.2697 Y-23.8811 
G1 X29.2697 Y-23.8811 Z0.1259 F21.
G1 X29.2697 Y-23.8996 Z0.1226
G1 X29.2697 Y-23.9945 Z0.1059
G1 X29.2697 Y-23.6976 Z0.1373 F22.
G1 X29.2697 Y-23.3998 Z0.1599
G1 X29.2697 Y-23.1015 Z0.1736
G1 X29.2697 Y-22.8030 Z0.1783
G1 X29.2697 Y-22.5044 Z0.1742
G1 X29.2697 Y-22.2061 Z0.1611
G1 X29.2697 Y-21.9083 Z0.1391
G1 X29.2697 Y-21.6113 Z0.1083
G0 Z0.2865
G0 X29.2697 Y-21.6113 
G0 Z0.2865
G0 X29.2697 Y-23.8811 
G1 X29.2697 Y-23.8811 Z0.1115 F21.
G1 X29.2697 Y-23.8996 Z0.1083
G1 X29.2697 Y-23.9945 Z0.0915
G1 X29.2697 Y-23.6976 Z0.1230 F22.
G1 X29.2697 Y-23.3998 Z0.1456
G1 X29.2697 Y-23.1015 Z0.1592
G1 X29.2697 Y-22.8030 Z0.1640
G1 X29.2697 Y-22.5044 Z0.1598
G1 X29.2697 Y-22.2061 Z0.1468
G1 X29.2697 Y-21.9083 Z0.1248
G1 X29.2697 Y-21.6113 Z0.0940
G0 Z0.3590
G0 X29.2697 Y-21.6113 
G0 Z0.3590
G0 X29.7757 Y-23.8743 
G1 X29.7757 Y-23.8743 Z0.1840 F21.
G1 X29.7757 Y-23.8933 Z0.1807
G1 X29.7757 Y-23.9877 Z0.1640
G1 X29.7757 Y-23.6924 Z0.1951 F22.
G1 X29.7757 Y-23.3964 Z0.2174
G1 X29.7757 Y-23.0998 Z0.2310
G1 X29.7757 Y-22.8029 Z0.2357
G1 X29.7757 Y-22.5061 Z0.2316
G1 X29.7757 Y-22.2095 Z0.2186
G1 X29.7757 Y-21.9134 Z0.1969
G1 X29.7757 Y-21.6181 Z0.1664
G0 Z0.3447
G0 X29.7757 Y-21.6181 
G0 Z0.3447
G0 X29.7757 Y-23.8743 
G1 X29.7757 Y-23.8743 Z0.1697 F21.
G1 X29.7757 Y-23.8933 Z0.1663
G1 X29.7757 Y-23.9877 Z0.1497
G1 X29.7757 Y-23.6924 Z0.1808 F22.
G1 X29.7757 Y-23.3964 Z0.2031
G1 X29.7757 Y-23.0998 Z0.2166
G1 X29.7757 Y-22.8029 Z0.2213
G1 X29.7757 Y-22.5061 Z0.2172
G1 X29.7757 Y-22.2095 Z0.2043
G1 X29.7757 Y-21.9134 Z0.1826
G1 X29.7757 Y-21.6181 Z0.1521
G0 Z0.3304
G0 X29.7757 Y-21.6181 
G0 Z0.3304
G0 X29.7757 Y-23.8743 
G1 X29.7757 Y-23.8743 Z0.1554 F21.
G1 X29.7757 Y-23.8933 Z0.1520
G1 X29.7757 Y-23.9877 Z0.1354
G1 X29.7757 Y-23.6924 Z0.1665 F22.
G1 X29.7757 Y-23.3964 Z0.1888
G1 X29.7757 Y-23.0998 Z0.2023
G1 X29.7757 Y-22.8029 Z0.2070
G1 X29.7757 Y-22.5061 Z0.2029
G1 X29.7757 Y-22.2095 Z0.1900
G1 X29.7757 Y-21.9134 Z0.1683
G1 X29.7757 Y-21.6181 Z0.1378
G0 Z0.3160
G0 X29.7757 Y-21.6181 
G0 Z0.3160
G0 X29.7757 Y-23.8743 
G1 X29.7757 Y-23.8743 Z0.1410 F21.
G1 X29.7757 Y-23.8933 Z0.1377
G1 X29.7757 Y-23.9877 Z0.1210
G1 X29.7757 Y-23.6924 Z0.1521 F22.
G1 X29.7757 Y-23.3964 Z0.1744
G1 X29.7757 Y-23.0998 Z0.1880
G1 X29.7757 Y-22.8029 Z0.1927
G1 X29.7757 Y-22.5061 Z0.1886
G1 X29.7757 Y-22.2095 Z0.1756
G1 X29.7757 Y-21.9134 Z0.1539
G1 X29.7757 Y-21.6181 Z0.1234
G0 Z0.3017
G0 X29.7757 Y-21.6181 
G0 Z0.3017
G0 X29.7757 Y-23.8743 
G1 X29.7757 Y-23.8743 Z0.1267 F21.
G1 X29.7757 Y-23.8933 Z0.1233
G1 X29.7757 Y-23.9877 Z0.1067
G1 X29.7757 Y-23.6924 Z0.1378 F22.
G1 X29.7757 Y-23.3964 Z0.1601
G1 X29.7757 Y-23.0998 Z0.1736
G1 X29.7757 Y-22.8029 Z0.1783
G1 X29.7757 Y-22.5061 Z0.1742
G1 X29.7757 Y-22.2095 Z0.1613
G1 X29.7757 Y-21.9134 Z0.1396
G1 X29.7757 Y-21.6181 Z0.1091
G0 Z0.2874
G0 X29.7757 Y-21.6181 
G0 Z0.2874
G0 X29.7757 Y-23.8743 
G1 X29.7757 Y-23.8743 Z0.1124 F21.
G1 X29.7757 Y-23.8933 Z0.1090
G1 X29.7757 Y-23.9877 Z0.0924
G1 X29.7757 Y-23.6924 Z0.1235 F22.
G1 X29.7757 Y-23.3964 Z0.1458
G1 X29.7757 Y-23.0998 Z0.1593
G1 X29.7757 Y-22.8029 Z0.1640
G1 X29.7757 Y-22.5061 Z0.1599
G1 X29.7757 Y-22.2095 Z0.1470
G1 X29.7757 Y-21.9134 Z0.1253
G1 X29.7757 Y-21.6181 Z0.0948
G0 Z0.3599
G0 X29.7757 Y-21.6181 
G0 Z0.3599
G0 X30.3118 Y-23.8670 
G1 X30.3118 Y-23.8670 Z0.1849 F21.
G1 X30.3118 Y-23.8867 Z0.1814
G1 X30.3118 Y-23.9805 Z0.1649
G1 X30.3118 Y-23.6870 Z0.1956 F22.
G1 X30.3118 Y-23.3927 Z0.2177
G1 X30.3118 Y-23.0979 Z0.2310
G1 X30.3118 Y-22.8029 Z0.2357
G1 X30.3118 Y-22.5078 Z0.2316
G1 X30.3118 Y-22.2130 Z0.2188
G1 X30.3118 Y-21.9187 Z0.1974
G1 X30.3118 Y-21.6252 Z0.1673
G0 Z0.3456
G0 X30.3118 Y-21.6252 
G0 Z0.3456
G0 X30.3118 Y-23.8670 
G1 X30.3118 Y-23.8670 Z0.1706 F21.
G1 X30.3118 Y-23.8867 Z0.1671
G1 X30.3118 Y-23.9805 Z0.1506
G1 X30.3118 Y-23.6870 Z0.1813 F22.
G1 X30.3118 Y-23.3927 Z0.2033
G1 X30.3118 Y-23.0979 Z0.2167
G1 X30.3118 Y-22.8029 Z0.2213
G1 X30.3118 Y-22.5078 Z0.2173
G1 X30.3118 Y-22.2130 Z0.2045
G1 X30.3118 Y-21.9187 Z0.1831
G1 X30.3118 Y-21.6252 Z0.1529
G0 Z0.3312
G0 X30.3118 Y-21.6252 
G0 Z0.3312
G0 X30.3118 Y-23.8670 
G1 X30.3118 Y-23.8670 Z0.1562 F21.
G1 X30.3118 Y-23.8867 Z0.1528
G1 X30.3118 Y-23.9805 Z0.1362
G1 X30.3118 Y-23.6870 Z0.1669 F22.
G1 X30.3118 Y-23.3927 Z0.1890
G1 X30.3118 Y-23.0979 Z0.2023
G1 X30.3118 Y-22.8029 Z0.2070
G1 X30.3118 Y-22.5078 Z0.2029
G1 X30.3118 Y-22.2130 Z0.1902
G1 X30.3118 Y-21.9187 Z0.1687
G1 X30.3118 Y-21.6252 Z0.1386
G0 Z0.3169
G0 X30.3118 Y-21.6252 
G0 Z0.3169
G0 X30.3118 Y-23.8670 
G1 X30.3118 Y-23.8670 Z0.1419 F21.
G1 X30.3118 Y-23.8867 Z0.1384
G1 X30.3118 Y-23.9805 Z0.1219
G1 X30.3118 Y-23.6870 Z0.1526 F22.
G1 X30.3118 Y-23.3927 Z0.1747
G1 X30.3118 Y-23.0979 Z0.1880
G1 X30.3118 Y-22.8029 Z0.1927
G1 X30.3118 Y-22.5078 Z0.1886
G1 X30.3118 Y-22.2130 Z0.1758
G1 X30.3118 Y-21.9187 Z0.1544
G1 X30.3118 Y-21.6252 Z0.1243
G0 Z0.3026
G0 X30.3118 Y-21.6252 
G0 Z0.3026
G0 X30.3118 Y-23.8670 
G1 X30.3118 Y-23.8670 Z0.1276 F21.
G1 X30.3118 Y-23.8867 Z0.1241
G1 X30.3118 Y-23.9805 Z0.1076
G1 X30.3118 Y-23.6870 Z0.1383 F22.
G1 X30.3118 Y-23.3927 Z0.1603
G1 X30.3118 Y-23.0979 Z0.1737
G1 X30.3118 Y-22.8029 Z0.1783
G1 X30.3118 Y-22.5078 Z0.1743
G1 X30.3118 Y-22.2130 Z0.1615
G1 X30.3118 Y-21.9187 Z0.1401
G1 X30.3118 Y-21.6252 Z0.1099
G0 Z0.2882
G0 X30.3118 Y-21.6252 
G0 Z0.2882
G0 X30.3118 Y-23.8670 
G1 X30.3118 Y-23.8670 Z0.1132 F21.
G1 X30.3118 Y-23.8867 Z0.1098
G1 X30.3118 Y-23.9805 Z0.0932
G1 X30.3118 Y-23.6870 Z0.1239 F22.
G1 X30.3118 Y-23.3927 Z0.1460
G1 X30.3118 Y-23.0979 Z0.1593
G1 X30.3118 Y-22.8029 Z0.1640
G1 X30.3118 Y-22.5078 Z0.1599
G1 X30.3118 Y-22.2130 Z0.1472
G1 X30.3118 Y-21.9187 Z0.1257
G1 X30.3118 Y-21.6252 Z0.0956
G0 Z0.3608
G0 X30.3118 Y-21.6252 
G0 Z0.3608
G0 X30.8798 Y-23.8594 
G1 X30.8798 Y-23.8594 Z0.1858 F21.
G1 X30.8798 Y-23.8757 Z0.1829
G1 X30.8798 Y-23.9728 Z0.1658
G1 X30.8798 Y-23.6812 Z0.1961 F22.
G1 X30.8798 Y-23.3889 Z0.2179
G1 X30.8798 Y-23.0960 Z0.2311
G1 X30.8798 Y-22.8029 Z0.2357
G1 X30.8798 Y-22.5097 Z0.2317
G1 X30.8798 Y-22.2168 Z0.2191
G1 X30.8798 Y-21.9244 Z0.1979
G1 X30.8798 Y-21.6327 Z0.1681
G0 Z0.3465
G0 X30.8798 Y-21.6327 
G0 Z0.3465
G0 X30.8798 Y-23.8594 
G1 X30.8798 Y-23.8594 Z0.1715 F21.
G1 X30.8798 Y-23.8757 Z0.1686
G1 X30.8798 Y-23.9728 Z0.1515
G1 X30.8798 Y-23.6812 Z0.1818 F22.
G1 X30.8798 Y-23.3889 Z0.2036
G1 X30.8798 Y-23.0960 Z0.2167
G1 X30.8798 Y-22.8029 Z0.2213
G1 X30.8798 Y-22.5097 Z0.2173
G1 X30.8798 Y-22.2168 Z0.2047
G1 X30.8798 Y-21.9244 Z0.1836
G1 X30.8798 Y-21.6327 Z0.1538
G0 Z0.3321
G0 X30.8798 Y-21.6327 
G0 Z0.3321
G0 X30.8798 Y-23.8594 
G1 X30.8798 Y-23.8594 Z0.1571 F21.
G1 X30.8798 Y-23.8757 Z0.1543
G1 X30.8798 Y-23.9728 Z0.1371
G1 X30.8798 Y-23.6812 Z0.1675 F22.
G1 X30.8798 Y-23.3889 Z0.1892
G1 X30.8798 Y-23.0960 Z0.2024
G1 X30.8798 Y-22.8029 Z0.2070
G1 X30.8798 Y-22.5097 Z0.2030
G1 X30.8798 Y-22.2168 Z0.1904
G1 X30.8798 Y-21.9244 Z0.1692
G1 X30.8798 Y-21.6327 Z0.1395
G0 Z0.3178
G0 X30.8798 Y-21.6327 
G0 Z0.3178
G0 X30.8798 Y-23.8594 
G1 X30.8798 Y-23.8594 Z0.1428 F21.
G1 X30.8798 Y-23.8757 Z0.1399
G1 X30.8798 Y-23.9728 Z0.1228
G1 X30.8798 Y-23.6812 Z0.1531 F22.
G1 X30.8798 Y-23.3889 Z0.1749
G1 X30.8798 Y-23.0960 Z0.1881
G1 X30.8798 Y-22.8029 Z0.1927
G1 X30.8798 Y-22.5097 Z0.1887
G1 X30.8798 Y-22.2168 Z0.1761
G1 X30.8798 Y-21.9244 Z0.1549
G1 X30.8798 Y-21.6327 Z0.1251
G0 Z0.3035
G0 X30.8798 Y-21.6327 
G0 Z0.3035
G0 X30.8798 Y-23.8594 
G1 X30.8798 Y-23.8594 Z0.1285 F21.
G1 X30.8798 Y-23.8757 Z0.1256
G1 X30.8798 Y-23.9728 Z0.1085
G1 X30.8798 Y-23.6812 Z0.1388 F22.
G1 X30.8798 Y-23.3889 Z0.1606
G1 X30.8798 Y-23.0960 Z0.1737
G1 X30.8798 Y-22.8029 Z0.1783
G1 X30.8798 Y-22.5097 Z0.1743
G1 X30.8798 Y-22.2168 Z0.1617
G1 X30.8798 Y-21.9244 Z0.1406
G1 X30.8798 Y-21.6327 Z0.1108
G0 Z0.2891
G0 X30.8798 Y-21.6327 
G0 Z0.2891
G0 X30.8798 Y-23.8594 
G1 X30.8798 Y-23.8594 Z0.1141 F21.
G1 X30.8798 Y-23.8757 Z0.1113
G1 X30.8798 Y-23.9728 Z0.0941
G1 X30.8798 Y-23.6812 Z0.1245 F22.
G1 X30.8798 Y-23.3889 Z0.1462
G1 X30.8798 Y-23.0960 Z0.1594
G1 X30.8798 Y-22.8029 Z0.1640
G1 X30.8798 Y-22.5097 Z0.1600
G1 X30.8798 Y-22.2168 Z0.1474
G1 X30.8798 Y-21.9244 Z0.1262
G1 X30.8798 Y-21.6327 Z0.0965
G0 Z0.3618
G0 X30.8798 Y-21.6327 
G0 Z0.3618
G0 X31.4816 Y-23.8513 
G1 X31.4816 Y-23.8513 Z0.1868 F21.
G1 X31.4816 Y-23.8683 Z0.1838
G1 X31.4816 Y-23.9647 Z0.1668
G1 X31.4816 Y-23.6751 Z0.1967 F22.
G1 X31.4816 Y-23.3848 Z0.2181
G1 X31.4816 Y-23.0939 Z0.2311
G1 X31.4816 Y-22.8028 Z0.2357
G1 X31.4816 Y-22.5117 Z0.2317
G1 X31.4816 Y-22.2208 Z0.2193
G1 X31.4816 Y-21.9304 Z0.1984
G1 X31.4816 Y-21.6407 Z0.1691
G0 Z0.3474
G0 X31.4816 Y-21.6407 
G0 Z0.3474
G0 X31.4816 Y-23.8513 
G1 X31.4816 Y-23.8513 Z0.1724 F21.
G1 X31.4816 Y-23.8683 Z0.1694
G1 X31.4816 Y-23.9647 Z0.1524
G1 X31.4816 Y-23.6751 Z0.1823 F22.
G1 X31.4816 Y-23.3848 Z0.2038
G1 X31.4816 Y-23.0939 Z0.2168
G1 X31.4816 Y-22.8028 Z0.2213
G1 X31.4816 Y-22.5117 Z0.2174
G1 X31.4816 Y-22.2208 Z0.2050
G1 X31.4816 Y-21.9304 Z0.1841
G1 X31.4816 Y-21.6407 Z0.1547
G0 Z0.3331
G0 X31.4816 Y-21.6407 
G0 Z0.3331
G0 X31.4816 Y-23.8513 
G1 X31.4816 Y-23.8513 Z0.1581 F21.
G1 X31.4816 Y-23.8683 Z0.1551
G1 X31.4816 Y-23.9647 Z0.1381
G1 X31.4816 Y-23.6751 Z0.1680 F22.
G1 X31.4816 Y-23.3848 Z0.1895
G1 X31.4816 Y-23.0939 Z0.2025
G1 X31.4816 Y-22.8028 Z0.2070
G1 X31.4816 Y-22.5117 Z0.2030
G1 X31.4816 Y-22.2208 Z0.1906
G1 X31.4816 Y-21.9304 Z0.1697
G1 X31.4816 Y-21.6407 Z0.1404
G0 Z0.3188
G0 X31.4816 Y-21.6407 
G0 Z0.3188
G0 X31.4816 Y-23.8513 
G1 X31.4816 Y-23.8513 Z0.1438 F21.
G1 X31.4816 Y-23.8683 Z0.1408
G1 X31.4816 Y-23.9647 Z0.1238
G1 X31.4816 Y-23.6751 Z0.1537 F22.
G1 X31.4816 Y-23.3848 Z0.1751
G1 X31.4816 Y-23.0939 Z0.1881
G1 X31.4816 Y-22.8028 Z0.1927
G1 X31.4816 Y-22.5117 Z0.1887
G1 X31.4816 Y-22.2208 Z0.1763
G1 X31.4816 Y-21.9304 Z0.1554
G1 X31.4816 Y-21.6407 Z0.1261
G0 Z0.3044
G0 X31.4816 Y-21.6407 
G0 Z0.3044
G0 X31.4816 Y-23.8513 
G1 X31.4816 Y-23.8513 Z0.1294 F21.
G1 X31.4816 Y-23.8683 Z0.1264
G1 X31.4816 Y-23.9647 Z0.1094
G1 X31.4816 Y-23.6751 Z0.1393 F22.
G1 X31.4816 Y-23.3848 Z0.1608
G1 X31.4816 Y-23.0939 Z0.1738
G1 X31.4816 Y-22.8028 Z0.1783
G1 X31.4816 Y-22.5117 Z0.1744
G1 X31.4816 Y-22.2208 Z0.1620
G1 X31.4816 Y-21.9304 Z0.1411
G1 X31.4816 Y-21.6407 Z0.1117
G0 Z0.2901
G0 X31.4816 Y-21.6407 
G0 Z0.2901
G0 X31.4816 Y-23.8513 
G1 X31.4816 Y-23.8513 Z0.1151 F21.
G1 X31.4816 Y-23.8683 Z0.1121
G1 X31.4816 Y-23.9647 Z0.0951
G1 X31.4816 Y-23.6751 Z0.1250 F22.
G1 X31.4816 Y-23.3848 Z0.1465
G1 X31.4816 Y-23.0939 Z0.1595
G1 X31.4816 Y-22.8028 Z0.1640
G1 X31.4816 Y-22.5117 Z0.1600
G1 X31.4816 Y-22.2208 Z0.1476
G1 X31.4816 Y-21.9304 Z0.1267
G1 X31.4816 Y-21.6407 Z0.0974
G0 Z0.3628
G0 X31.4816 Y-21.6407 
G0 Z0.3628
G0 X32.1191 Y-23.8428 
G1 X32.1191 Y-23.8428 Z0.1878 F21.
G1 X32.1191 Y-23.8604 Z0.1847
G1 X32.1191 Y-23.9562 Z0.1678
G1 X32.1191 Y-23.6687 Z0.1972 F22.
G1 X32.1191 Y-23.3804 Z0.2184
G1 X32.1191 Y-23.0917 Z0.2312
G1 X32.1191 Y-22.8027 Z0.2357
G1 X32.1191 Y-22.5138 Z0.2318
G1 X32.1191 Y-22.2250 Z0.2195
G1 X32.1191 Y-21.9367 Z0.1990
G1 X32.1191 Y-21.6492 Z0.1701
G0 Z0.3484
G0 X32.1191 Y-21.6492 
G0 Z0.3484
G0 X32.1191 Y-23.8428 
G1 X32.1191 Y-23.8428 Z0.1734 F21.
G1 X32.1191 Y-23.8604 Z0.1703
G1 X32.1191 Y-23.9562 Z0.1534
G1 X32.1191 Y-23.6687 Z0.1829 F22.
G1 X32.1191 Y-23.3804 Z0.2041
G1 X32.1191 Y-23.0917 Z0.2169
G1 X32.1191 Y-22.8027 Z0.2213
G1 X32.1191 Y-22.5138 Z0.2174
G1 X32.1191 Y-22.2250 Z0.2052
G1 X32.1191 Y-21.9367 Z0.1846
G1 X32.1191 Y-21.6492 Z0.1557
G0 Z0.3341
G0 X32.1191 Y-21.6492 
G0 Z0.3341
G0 X32.1191 Y-23.8428 
G1 X32.1191 Y-23.8428 Z0.1591 F21.
G1 X32.1191 Y-23.8604 Z0.1560
G1 X32.1191 Y-23.9562 Z0.1391
G1 X32.1191 Y-23.6687 Z0.1686 F22.
G1 X32.1191 Y-23.3804 Z0.1897
G1 X32.1191 Y-23.0917 Z0.2025
G1 X32.1191 Y-22.8027 Z0.2070
G1 X32.1191 Y-22.5138 Z0.2031
G1 X32.1191 Y-22.2250 Z0.1909
G1 X32.1191 Y-21.9367 Z0.1703
G1 X32.1191 Y-21.6492 Z0.1414
G0 Z0.3198
G0 X32.1191 Y-21.6492 
G0 Z0.3198
G0 X32.1191 Y-23.8428 
G1 X32.1191 Y-23.8428 Z0.1448 F21.
G1 X32.1191 Y-23.8604 Z0.1417
G1 X32.1191 Y-23.9562 Z0.1248
G1 X32.1191 Y-23.6687 Z0.1542 F22.
G1 X32.1191 Y-23.3804 Z0.1754
G1 X32.1191 Y-23.0917 Z0.1882
G1 X32.1191 Y-22.8027 Z0.1927
G1 X32.1191 Y-22.5138 Z0.1888
G1 X32.1191 Y-22.2250 Z0.1765
G1 X32.1191 Y-21.9367 Z0.1560
G1 X32.1191 Y-21.6492 Z0.1271
G0 Z0.3054
G0 X32.1191 Y-21.6492 
G0 Z0.3054
G0 X32.1191 Y-23.8428 
G1 X32.1191 Y-23.8428 Z0.1304 F21.
G1 X32.1191 Y-23.8604 Z0.1273
G1 X32.1191 Y-23.9562 Z0.1104
G1 X32.1191 Y-23.6687 Z0.1399 F22.
G1 X32.1191 Y-23.3804 Z0.1611
G1 X32.1191 Y-23.0917 Z0.1739
G1 X32.1191 Y-22.8027 Z0.1783
G1 X32.1191 Y-22.5138 Z0.1744
G1 X32.1191 Y-22.2250 Z0.1622
G1 X32.1191 Y-21.9367 Z0.1416
G1 X32.1191 Y-21.6492 Z0.1127
G0 Z0.2911
G0 X32.1191 Y-21.6492 
G0 Z0.2911
G0 X32.1191 Y-23.8428 
G1 X32.1191 Y-23.8428 Z0.1161 F21.
G1 X32.1191 Y-23.8604 Z0.1130
G1 X32.1191 Y-23.9562 Z0.0961
G1 X32.1191 Y-23.6687 Z0.1256 F22.
G1 X32.1191 Y-23.3804 Z0.1467
G1 X32.1191 Y-23.0917 Z0.1595
G1 X32.1191 Y-22.8027 Z0.1640
G1 X32.1191 Y-22.5138 Z0.1601
G1 X32.1191 Y-22.2250 Z0.1479
G1 X32.1191 Y-21.9367 Z0.1273
G1 X32.1191 Y-21.6492 Z0.0984
G0 Z0.3638
G0 X32.1191 Y-21.6492 
G0 Z0.3638
G0 X32.7945 Y-23.8337 
G1 X32.7945 Y-23.8337 Z0.1888 F21.
G1 X32.7945 Y-23.8521 Z0.1856
G1 X32.7945 Y-23.9471 Z0.1688
G1 X32.7945 Y-23.6618 Z0.1978 F22.
G1 X32.7945 Y-23.3759 Z0.2187
G1 X32.7945 Y-23.0894 Z0.2313
G1 X32.7945 Y-22.8027 Z0.2357
G1 X32.7945 Y-22.5160 Z0.2318
G1 X32.7945 Y-22.2295 Z0.2198
G1 X32.7945 Y-21.9435 Z0.1995
G1 X32.7945 Y-21.6582 Z0.1711
G0 Z0.3495
G0 X32.7945 Y-21.6582 
G0 Z0.3495
G0 X32.7945 Y-23.8337 
G1 X32.7945 Y-23.8337 Z0.1745 F21.
G1 X32.7945 Y-23.8521 Z0.1712
G1 X32.7945 Y-23.9471 Z0.1545
G1 X32.7945 Y-23.6618 Z0.1835 F22.
G1 X32.7945 Y-23.3759 Z0.2043
G1 X32.7945 Y-23.0894 Z0.2169
G1 X32.7945 Y-22.8027 Z0.2213
G1 X32.7945 Y-22.5160 Z0.2175
G1 X32.7945 Y-22.2295 Z0.2055
G1 X32.7945 Y-21.9435 Z0.1852
G1 X32.7945 Y-21.6582 Z0.1568
G0 Z0.3352
G0 X32.7945 Y-21.6582 
G0 Z0.3352
G0 X32.7945 Y-23.8337 
G1 X32.7945 Y-23.8337 Z0.1602 F21.
G1 X32.7945 Y-23.8521 Z0.1569
G1 X32.7945 Y-23.9471 Z0.1402
G1 X32.7945 Y-23.6618 Z0.1692 F22.
G1 X32.7945 Y-23.3759 Z0.1900
G1 X32.7945 Y-23.0894 Z0.2026
G1 X32.7945 Y-22.8027 Z0.2070
G1 X32.7945 Y-22.5160 Z0.2032
G1 X32.7945 Y-22.2295 Z0.1911
G1 X32.7945 Y-21.9435 Z0.1709
G1 X32.7945 Y-21.6582 Z0.1424
G0 Z0.3208
G0 X32.7945 Y-21.6582 
G0 Z0.3208
G0 X32.7945 Y-23.8337 
G1 X32.7945 Y-23.8337 Z0.1458 F21.
G1 X32.7945 Y-23.8521 Z0.1426
G1 X32.7945 Y-23.9471 Z0.1258
G1 X32.7945 Y-23.6618 Z0.1548 F22.
G1 X32.7945 Y-23.3759 Z0.1757
G1 X32.7945 Y-23.0894 Z0.1883
G1 X32.7945 Y-22.8027 Z0.1927
G1 X32.7945 Y-22.5160 Z0.1888
G1 X32.7945 Y-22.2295 Z0.1768
G1 X32.7945 Y-21.9435 Z0.1565
G1 X32.7945 Y-21.6582 Z0.1281
G0 Z0.3065
G0 X32.7945 Y-21.6582 
G0 Z0.3065
G0 X32.7945 Y-23.8337 
G1 X32.7945 Y-23.8337 Z0.1315 F21.
G1 X32.7945 Y-23.8521 Z0.1282
G1 X32.7945 Y-23.9471 Z0.1115
G1 X32.7945 Y-23.6618 Z0.1405 F22.
G1 X32.7945 Y-23.3759 Z0.1613
G1 X32.7945 Y-23.0894 Z0.1739
G1 X32.7945 Y-22.8027 Z0.1783
G1 X32.7945 Y-22.5160 Z0.1745
G1 X32.7945 Y-22.2295 Z0.1625
G1 X32.7945 Y-21.9435 Z0.1422
G1 X32.7945 Y-21.6582 Z0.1138
G0 Z0.2922
G0 X32.7945 Y-21.6582 
G0 Z0.2922
G0 X32.7945 Y-23.8337 
G1 X32.7945 Y-23.8337 Z0.1172 F21.
G1 X32.7945 Y-23.8521 Z0.1139
G1 X32.7945 Y-23.9471 Z0.0972
G1 X32.7945 Y-23.6618 Z0.1262 F22.
G1 X32.7945 Y-23.3759 Z0.1470
G1 X32.7945 Y-23.0894 Z0.1596
G1 X32.7945 Y-22.8027 Z0.1640
G1 X32.7945 Y-22.5160 Z0.1602
G1 X32.7945 Y-22.2295 Z0.1481
G1 X32.7945 Y-21.9435 Z0.1279
G1 X32.7945 Y-21.6582 Z0.0994
G0 Z0.3649
G0 X32.7945 Y-21.6582 
G0 Z0.3649
G0 X33.5101 Y-23.8241 
G1 X33.5101 Y-23.8241 Z0.1899 F21.
G1 X33.5101 Y-23.8433 Z0.1866
G1 X33.5101 Y-23.9375 Z0.1699
G1 X33.5101 Y-23.6546 Z0.1985 F22.
G1 X33.5101 Y-23.3710 Z0.2189
G1 X33.5101 Y-23.0869 Z0.2313
G1 X33.5101 Y-22.8026 Z0.2357
G1 X33.5101 Y-22.5183 Z0.2319
G1 X33.5101 Y-22.2342 Z0.2201
G1 X33.5101 Y-21.9506 Z0.2001
G1 X33.5101 Y-21.6677 Z0.1722
G0 Z0.3506
G0 X33.5101 Y-21.6677 
G0 Z0.3506
G0 X33.5101 Y-23.8241 
G1 X33.5101 Y-23.8241 Z0.1756 F21.
G1 X33.5101 Y-23.8433 Z0.1722
G1 X33.5101 Y-23.9375 Z0.1556
G1 X33.5101 Y-23.6546 Z0.1841 F22.
G1 X33.5101 Y-23.3710 Z0.2046
G1 X33.5101 Y-23.0869 Z0.2170
G1 X33.5101 Y-22.8026 Z0.2213
G1 X33.5101 Y-22.5183 Z0.2176
G1 X33.5101 Y-22.2342 Z0.2057
G1 X33.5101 Y-21.9506 Z0.1858
G1 X33.5101 Y-21.6677 Z0.1578
G0 Z0.3363
G0 X33.5101 Y-21.6677 
G0 Z0.3363
G0 X33.5101 Y-23.8241 
G1 X33.5101 Y-23.8241 Z0.1613 F21.
G1 X33.5101 Y-23.8433 Z0.1579
G1 X33.5101 Y-23.9375 Z0.1413
G1 X33.5101 Y-23.6546 Z0.1698 F22.
G1 X33.5101 Y-23.3710 Z0.1903
G1 X33.5101 Y-23.0869 Z0.2027
G1 X33.5101 Y-22.8026 Z0.2070
G1 X33.5101 Y-22.5183 Z0.2032
G1 X33.5101 Y-22.2342 Z0.1914
G1 X33.5101 Y-21.9506 Z0.1715
G1 X33.5101 Y-21.6677 Z0.1435
G0 Z0.3219
G0 X33.5101 Y-21.6677 
G0 Z0.3219
G0 X33.5101 Y-23.8241 
G1 X33.5101 Y-23.8241 Z0.1469 F21.
G1 X33.5101 Y-23.8433 Z0.1436
G1 X33.5101 Y-23.9375 Z0.1269
G1 X33.5101 Y-23.6546 Z0.1555 F22.
G1 X33.5101 Y-23.3710 Z0.1759
G1 X33.5101 Y-23.0869 Z0.1883
G1 X33.5101 Y-22.8026 Z0.1927
G1 X33.5101 Y-22.5183 Z0.1889
G1 X33.5101 Y-22.2342 Z0.1771
G1 X33.5101 Y-21.9506 Z0.1571
G1 X33.5101 Y-21.6677 Z0.1292
G0 Z0.3076
G0 X33.5101 Y-21.6677 
G0 Z0.3076
G0 X33.5101 Y-23.8241 
G1 X33.5101 Y-23.8241 Z0.1326 F21.
G1 X33.5101 Y-23.8433 Z0.1292
G1 X33.5101 Y-23.9375 Z0.1126
G1 X33.5101 Y-23.6546 Z0.1411 F22.
G1 X33.5101 Y-23.3710 Z0.1616
G1 X33.5101 Y-23.0869 Z0.1740
G1 X33.5101 Y-22.8026 Z0.1783
G1 X33.5101 Y-22.5183 Z0.1746
G1 X33.5101 Y-22.2342 Z0.1627
G1 X33.5101 Y-21.9506 Z0.1428
G1 X33.5101 Y-21.6677 Z0.1148
G0 Z0.2933
G0 X33.5101 Y-21.6677 
G0 Z0.2933
G0 X33.5101 Y-23.8241 
G1 X33.5101 Y-23.8241 Z0.1183 F21.
G1 X33.5101 Y-23.8433 Z0.1149
G1 X33.5101 Y-23.9375 Z0.0983
G1 X33.5101 Y-23.6546 Z0.1268 F22.
G1 X33.5101 Y-23.3710 Z0.1473
G1 X33.5101 Y-23.0869 Z0.1597
G1 X33.5101 Y-22.8026 Z0.1640
G1 X33.5101 Y-22.5183 Z0.1602
G1 X33.5101 Y-22.2342 Z0.1484
G1 X33.5101 Y-21.9506 Z0.1285
G1 X33.5101 Y-21.6677 Z0.1005
G0 Z0.3661
G0 X33.5101 Y-21.6677 
G0 Z0.3661
G0 X34.2683 Y-23.8139 
G1 X34.2683 Y-23.8139 Z0.1911 F21.
G1 X34.2683 Y-23.8299 Z0.1883
G1 X34.2683 Y-23.9273 Z0.1711
G1 X34.2683 Y-23.6068 Z0.2025 F22.
G1 X34.2683 Y-23.2854 Z0.2235
G1 X34.2683 Y-22.9636 Z0.2342
G1 X34.2683 Y-22.6415 Z0.2345
G1 X34.2683 Y-22.3197 Z0.2245
G1 X34.2683 Y-21.9983 Z0.2041
G1 X34.2683 Y-21.6777 Z0.1733
G0 Z0.3518
G0 X34.2683 Y-21.6777 
G0 Z0.3518
G0 X34.2683 Y-23.8139 
G1 X34.2683 Y-23.8139 Z0.1768 F21.
G1 X34.2683 Y-23.8299 Z0.1740
G1 X34.2683 Y-23.9273 Z0.1568
G1 X34.2683 Y-23.6068 Z0.1882 F22.
G1 X34.2683 Y-23.2854 Z0.2092
G1 X34.2683 Y-22.9636 Z0.2199
G1 X34.2683 Y-22.6415 Z0.2202
G1 X34.2683 Y-22.3197 Z0.2101
G1 X34.2683 Y-21.9983 Z0.1897
G1 X34.2683 Y-21.6777 Z0.1590
G0 Z0.3374
G0 X34.2683 Y-21.6777 
G0 Z0.3374
G0 X34.2683 Y-23.8139 
G1 X34.2683 Y-23.8139 Z0.1624 F21.
G1 X34.2683 Y-23.8299 Z0.1596
G1 X34.2683 Y-23.9273 Z0.1424
G1 X34.2683 Y-23.6068 Z0.1738 F22.
G1 X34.2683 Y-23.2854 Z0.1949
G1 X34.2683 Y-22.9636 Z0.2055
G1 X34.2683 Y-22.6415 Z0.2059
G1 X34.2683 Y-22.3197 Z0.1958
G1 X34.2683 Y-21.9983 Z0.1754
G1 X34.2683 Y-21.6777 Z0.1446
G0 Z0.3231
G0 X34.2683 Y-21.6777 
G0 Z0.3231
G0 X34.2683 Y-23.8139 
G1 X34.2683 Y-23.8139 Z0.1481 F21.
G1 X34.2683 Y-23.8299 Z0.1453
G1 X34.2683 Y-23.9273 Z0.1281
G1 X34.2683 Y-23.6068 Z0.1595 F22.
G1 X34.2683 Y-23.2854 Z0.1805
G1 X34.2683 Y-22.9636 Z0.1912
G1 X34.2683 Y-22.6415 Z0.1915
G1 X34.2683 Y-22.3197 Z0.1815
G1 X34.2683 Y-21.9983 Z0.1611
G1 X34.2683 Y-21.6777 Z0.1303
G0 Z0.3088
G0 X34.2683 Y-21.6777 
G0 Z0.3088
G0 X34.2683 Y-23.8139 
G1 X34.2683 Y-23.8139 Z0.1338 F21.
G1 X34.2683 Y-23.8299 Z0.1310
G1 X34.2683 Y-23.9273 Z0.1138
G1 X34.2683 Y-23.6068 Z0.1452 F22.
G1 X34.2683 Y-23.2854 Z0.1662
G1 X34.2683 Y-22.9636 Z0.1769
G1 X34.2683 Y-22.6415 Z0.1772
G1 X34.2683 Y-22.3197 Z0.1671
G1 X34.2683 Y-21.9983 Z0.1467
G1 X34.2683 Y-21.6777 Z0.1160
G0 Z0.2944
G0 X34.2683 Y-21.6777 
G0 Z0.2944
G0 X34.2683 Y-23.8139 
G1 X34.2683 Y-23.8139 Z0.1194 F21.
G1 X34.2683 Y-23.8299 Z0.1166
G1 X34.2683 Y-23.9273 Z0.0994
G1 X34.2683 Y-23.6068 Z0.1308 F22.
G1 X34.2683 Y-23.2854 Z0.1519
G1 X34.2683 Y-22.9636 Z0.1625
G1 X34.2683 Y-22.6415 Z0.1629
G1 X34.2683 Y-22.3197 Z0.1528
G1 X34.2683 Y-21.9983 Z0.1324
G1 X34.2683 Y-21.6777 Z0.1016
G0 Z0.3673
G0 X34.2683 Y-21.6777 
G0 Z0.3673
G0 X35.0715 Y-23.8031 
G1 X35.0715 Y-23.8031 Z0.1923 F21.
G1 X35.0715 Y-23.8200 Z0.1894
G1 X35.0715 Y-23.9165 Z0.1723
G1 X35.0715 Y-23.5990 Z0.2031 F22.
G1 X35.0715 Y-23.2808 Z0.2238
G1 X35.0715 Y-22.9620 Z0.2342
G1 X35.0715 Y-22.6430 Z0.2345
G1 X35.0715 Y-22.3242 Z0.2247
G1 X35.0715 Y-22.0059 Z0.2047
G1 X35.0715 Y-21.6884 Z0.1745
G0 Z0.3530
G0 X35.0715 Y-21.6884 
G0 Z0.3530
G0 X35.0715 Y-23.8031 
G1 X35.0715 Y-23.8031 Z0.1780 F21.
G1 X35.0715 Y-23.8200 Z0.1750
G1 X35.0715 Y-23.9165 Z0.1580
G1 X35.0715 Y-23.5990 Z0.1888 F22.
G1 X35.0715 Y-23.2808 Z0.2094
G1 X35.0715 Y-22.9620 Z0.2199
G1 X35.0715 Y-22.6430 Z0.2202
G1 X35.0715 Y-22.3242 Z0.2104
G1 X35.0715 Y-22.0059 Z0.1903
G1 X35.0715 Y-21.6884 Z0.1602
G0 Z0.3387
G0 X35.0715 Y-21.6884 
G0 Z0.3387
G0 X35.0715 Y-23.8031 
G1 X35.0715 Y-23.8031 Z0.1637 F21.
G1 X35.0715 Y-23.8200 Z0.1607
G1 X35.0715 Y-23.9165 Z0.1437
G1 X35.0715 Y-23.5990 Z0.1745 F22.
G1 X35.0715 Y-23.2808 Z0.1951
G1 X35.0715 Y-22.9620 Z0.2056
G1 X35.0715 Y-22.6430 Z0.2059
G1 X35.0715 Y-22.3242 Z0.1960
G1 X35.0715 Y-22.0059 Z0.1760
G1 X35.0715 Y-21.6884 Z0.1458
G0 Z0.3243
G0 X35.0715 Y-21.6884 
G0 Z0.3243
G0 X35.0715 Y-23.8031 
G1 X35.0715 Y-23.8031 Z0.1493 F21.
G1 X35.0715 Y-23.8200 Z0.1464
G1 X35.0715 Y-23.9165 Z0.1293
G1 X35.0715 Y-23.5990 Z0.1601 F22.
G1 X35.0715 Y-23.2808 Z0.1808
G1 X35.0715 Y-22.9620 Z0.1912
G1 X35.0715 Y-22.6430 Z0.1915
G1 X35.0715 Y-22.3242 Z0.1817
G1 X35.0715 Y-22.0059 Z0.1617
G1 X35.0715 Y-21.6884 Z0.1315
G0 Z0.3100
G0 X35.0715 Y-21.6884 
G0 Z0.3100
G0 X35.0715 Y-23.8031 
G1 X35.0715 Y-23.8031 Z0.1350 F21.
G1 X35.0715 Y-23.8200 Z0.1320
G1 X35.0715 Y-23.9165 Z0.1150
G1 X35.0715 Y-23.5990 Z0.1458 F22.
G1 X35.0715 Y-23.2808 Z0.1664
G1 X35.0715 Y-22.9620 Z0.1769
G1 X35.0715 Y-22.6430 Z0.1772
G1 X35.0715 Y-22.3242 Z0.1674
G1 X35.0715 Y-22.0059 Z0.1473
G1 X35.0715 Y-21.6884 Z0.1172
G0 Z0.2957
G0 X35.0715 Y-21.6884 
G0 Z0.2957
G0 X35.0715 Y-23.8031 
G1 X35.0715 Y-23.8031 Z0.1207 F21.
G1 X35.0715 Y-23.8200 Z0.1177
G1 X35.0715 Y-23.9165 Z0.1007
G1 X35.0715 Y-23.5990 Z0.1315 F22.
G1 X35.0715 Y-23.2808 Z0.1521
G1 X35.0715 Y-22.9620 Z0.1626
G1 X35.0715 Y-22.6430 Z0.1629
G1 X35.0715 Y-22.3242 Z0.1530
G1 X35.0715 Y-22.0059 Z0.1330
G1 X35.0715 Y-21.6884 Z0.1028
G0 Z0.3686
G0 X35.0715 Y-21.6884 
G0 Z0.3686
G0 X35.9225 Y-23.7916 
G1 X35.9225 Y-23.7916 Z0.1936 F21.
G1 X35.9225 Y-23.8095 Z0.1905
G1 X35.9225 Y-23.9051 Z0.1736
G1 X35.9225 Y-23.5908 Z0.2038 F22.
G1 X35.9225 Y-23.2758 Z0.2240
G1 X35.9225 Y-22.9603 Z0.2343
G1 X35.9225 Y-22.6446 Z0.2346
G1 X35.9225 Y-22.3291 Z0.2249
G1 X35.9225 Y-22.0140 Z0.2053
G1 X35.9225 Y-21.6997 Z0.1757
G0 Z0.3543
G0 X35.9225 Y-21.6997 
G0 Z0.3543
G0 X35.9225 Y-23.7916 
G1 X35.9225 Y-23.7916 Z0.1793 F21.
G1 X35.9225 Y-23.8095 Z0.1761
G1 X35.9225 Y-23.9051 Z0.1593
G1 X35.9225 Y-23.5908 Z0.1894 F22.
G1 X35.9225 Y-23.2758 Z0.2097
G1 X35.9225 Y-22.9603 Z0.2199
G1 X35.9225 Y-22.6446 Z0.2202
G1 X35.9225 Y-22.3291 Z0.2106
G1 X35.9225 Y-22.0140 Z0.1910
G1 X35.9225 Y-21.6997 Z0.1614
G0 Z0.3400
G0 X35.9225 Y-21.6997 
G0 Z0.3400
G0 X35.9225 Y-23.7916 
G1 X35.9225 Y-23.7916 Z0.1650 F21.
G1 X35.9225 Y-23.8095 Z0.1618
G1 X35.9225 Y-23.9051 Z0.1450
G1 X35.9225 Y-23.5908 Z0.1751 F22.
G1 X35.9225 Y-23.2758 Z0.1953
G1 X35.9225 Y-22.9603 Z0.2056
G1 X35.9225 Y-22.6446 Z0.2059
G1 X35.9225 Y-22.3291 Z0.1962
G1 X35.9225 Y-22.0140 Z0.1766
G1 X35.9225 Y-21.6997 Z0.1471
G0 Z0.3256
G0 X35.9225 Y-21.6997 
G0 Z0.3256
G0 X35.9225 Y-23.7916 
G1 X35.9225 Y-23.7916 Z0.1506 F21.
G1 X35.9225 Y-23.8095 Z0.1475
G1 X35.9225 Y-23.9051 Z0.1306
G1 X35.9225 Y-23.5908 Z0.1608 F22.
G1 X35.9225 Y-23.2758 Z0.1810
G1 X35.9225 Y-22.9603 Z0.1913
G1 X35.9225 Y-22.6446 Z0.1916
G1 X35.9225 Y-22.3291 Z0.1819
G1 X35.9225 Y-22.0140 Z0.1623
G1 X35.9225 Y-21.6997 Z0.1327
G0 Z0.3113
G0 X35.9225 Y-21.6997 
G0 Z0.3113
G0 X35.9225 Y-23.7916 
G1 X35.9225 Y-23.7916 Z0.1363 F21.
G1 X35.9225 Y-23.8095 Z0.1331
G1 X35.9225 Y-23.9051 Z0.1163
G1 X35.9225 Y-23.5908 Z0.1464 F22.
G1 X35.9225 Y-23.2758 Z0.1667
G1 X35.9225 Y-22.9603 Z0.1769
G1 X35.9225 Y-22.6446 Z0.1772
G1 X35.9225 Y-22.3291 Z0.1676
G1 X35.9225 Y-22.0140 Z0.1480
G1 X35.9225 Y-21.6997 Z0.1184
G0 Z0.2970
G0 X35.9225 Y-21.6997 
G0 Z0.2970
G0 X35.9225 Y-23.7916 
G1 X35.9225 Y-23.7916 Z0.1220 F21.
G1 X35.9225 Y-23.8095 Z0.1188
G1 X35.9225 Y-23.9051 Z0.1020
G1 X35.9225 Y-23.5908 Z0.1321 F22.
G1 X35.9225 Y-23.2758 Z0.1523
G1 X35.9225 Y-22.9603 Z0.1626
G1 X35.9225 Y-22.6446 Z0.1629
G1 X35.9225 Y-22.3291 Z0.1532
G1 X35.9225 Y-22.0140 Z0.1336
G1 X35.9225 Y-21.6997 Z0.1041
G0 Z0.3700
G0 X35.9225 Y-21.6997 
G0 Z0.3700
G0 X36.8241 Y-23.7795 
G1 X36.8241 Y-23.7795 Z0.1950 F21.
G1 X36.8241 Y-23.7984 Z0.1916
G1 X36.8241 Y-23.8929 Z0.1750
G1 X36.8241 Y-23.5821 Z0.2045 F22.
G1 X36.8241 Y-23.2705 Z0.2243
G1 X36.8241 Y-22.9585 Z0.2343
G1 X36.8241 Y-22.6462 Z0.2346
G1 X36.8241 Y-22.3342 Z0.2251
G1 X36.8241 Y-22.0225 Z0.2060
G1 X36.8241 Y-21.7117 Z0.1770
G0 Z0.3556
G0 X36.8241 Y-21.7117 
G0 Z0.3556
G0 X36.8241 Y-23.7795 
G1 X36.8241 Y-23.7795 Z0.1806 F21.
G1 X36.8241 Y-23.7984 Z0.1773
G1 X36.8241 Y-23.8929 Z0.1606
G1 X36.8241 Y-23.5821 Z0.1901 F22.
G1 X36.8241 Y-23.2705 Z0.2099
G1 X36.8241 Y-22.9585 Z0.2200
G1 X36.8241 Y-22.6462 Z0.2203
G1 X36.8241 Y-22.3342 Z0.2108
G1 X36.8241 Y-22.0225 Z0.1916
G1 X36.8241 Y-21.7117 Z0.1627
G0 Z0.3413
G0 X36.8241 Y-21.7117 
G0 Z0.3413
G0 X36.8241 Y-23.7795 
G1 X36.8241 Y-23.7795 Z0.1663 F21.
G1 X36.8241 Y-23.7984 Z0.1630
G1 X36.8241 Y-23.8929 Z0.1463
G1 X36.8241 Y-23.5821 Z0.1758 F22.
G1 X36.8241 Y-23.2705 Z0.1956
G1 X36.8241 Y-22.9585 Z0.2056
G1 X36.8241 Y-22.6462 Z0.2059
G1 X36.8241 Y-22.3342 Z0.1965
G1 X36.8241 Y-22.0225 Z0.1773
G1 X36.8241 Y-21.7117 Z0.1484
G0 Z0.3270
G0 X36.8241 Y-21.7117 
G0 Z0.3270
G0 X36.8241 Y-23.7795 
G1 X36.8241 Y-23.7795 Z0.1520 F21.
G1 X36.8241 Y-23.7984 Z0.1486
G1 X36.8241 Y-23.8929 Z0.1320
G1 X36.8241 Y-23.5821 Z0.1615 F22.
G1 X36.8241 Y-23.2705 Z0.1813
G1 X36.8241 Y-22.9585 Z0.1913
G1 X36.8241 Y-22.6462 Z0.1916
G1 X36.8241 Y-22.3342 Z0.1821
G1 X36.8241 Y-22.0225 Z0.1630
G1 X36.8241 Y-21.7117 Z0.1340
G0 Z0.3126
G0 X36.8241 Y-21.7117 
G0 Z0.3126
G0 X36.8241 Y-23.7795 
G1 X36.8241 Y-23.7795 Z0.1376 F21.
G1 X36.8241 Y-23.7984 Z0.1343
G1 X36.8241 Y-23.8929 Z0.1176
G1 X36.8241 Y-23.5821 Z0.1471 F22.
G1 X36.8241 Y-23.2705 Z0.1669
G1 X36.8241 Y-22.9585 Z0.1770
G1 X36.8241 Y-22.6462 Z0.1773
G1 X36.8241 Y-22.3342 Z0.1678
G1 X36.8241 Y-22.0225 Z0.1486
G1 X36.8241 Y-21.7117 Z0.1197
G0 Z0.2983
G0 X36.8241 Y-21.7117 
G0 Z0.2983
G0 X36.8241 Y-23.7795 
G1 X36.8241 Y-23.7795 Z0.1233 F21.
G1 X36.8241 Y-23.7984 Z0.1200
G1 X36.8241 Y-23.8929 Z0.1033
G1 X36.8241 Y-23.5821 Z0.1328 F22.
G1 X36.8241 Y-23.2705 Z0.1526
G1 X36.8241 Y-22.9585 Z0.1626
G1 X36.8241 Y-22.6462 Z0.1629
G1 X36.8241 Y-22.3342 Z0.1535
G1 X36.8241 Y-22.0225 Z0.1343
G1 X36.8241 Y-21.7117 Z0.1054
G0 Z0.3714
G0 X36.8241 Y-21.7117 
G0 Z0.3714
G0 X37.7793 Y-23.7667 
G1 X37.7793 Y-23.7667 Z0.1964 F21.
G1 X37.7793 Y-23.7824 Z0.1936
G1 X37.7793 Y-23.8801 Z0.1764
G1 X37.7793 Y-23.5729 Z0.2052 F22.
G1 X37.7793 Y-23.2649 Z0.2245
G1 X37.7793 Y-22.9566 Z0.2343
G1 X37.7793 Y-22.6480 Z0.2346
G1 X37.7793 Y-22.3396 Z0.2254
G1 X37.7793 Y-22.0316 Z0.2067
G1 X37.7793 Y-21.7243 Z0.1784
G0 Z0.3571
G0 X37.7793 Y-21.7243 
G0 Z0.3571
G0 X37.7793 Y-23.7667 
G1 X37.7793 Y-23.7667 Z0.1821 F21.
G1 X37.7793 Y-23.7824 Z0.1793
G1 X37.7793 Y-23.8801 Z0.1621
G1 X37.7793 Y-23.5729 Z0.1909 F22.
G1 X37.7793 Y-23.2649 Z0.2102
G1 X37.7793 Y-22.9566 Z0.2200
G1 X37.7793 Y-22.6480 Z0.2203
G1 X37.7793 Y-22.3396 Z0.2111
G1 X37.7793 Y-22.0316 Z0.1923
G1 X37.7793 Y-21.7243 Z0.1641
G0 Z0.3427
G0 X37.7793 Y-21.7243 
G0 Z0.3427
G0 X37.7793 Y-23.7667 
G1 X37.7793 Y-23.7667 Z0.1677 F21.
G1 X37.7793 Y-23.7824 Z0.1649
G1 X37.7793 Y-23.8801 Z0.1477
G1 X37.7793 Y-23.5729 Z0.1765 F22.
G1 X37.7793 Y-23.2649 Z0.1959
G1 X37.7793 Y-22.9566 Z0.2057
G1 X37.7793 Y-22.6480 Z0.2060
G1 X37.7793 Y-22.3396 Z0.1967
G1 X37.7793 Y-22.0316 Z0.1780
G1 X37.7793 Y-21.7243 Z0.1498
G0 Z0.3284
G0 X37.7793 Y-21.7243 
G0 Z0.3284
G0 X37.7793 Y-23.7667 
G1 X37.7793 Y-23.7667 Z0.1534 F21.
G1 X37.7793 Y-23.7824 Z0.1506
G1 X37.7793 Y-23.8801 Z0.1334
G1 X37.7793 Y-23.5729 Z0.1622 F22.
G1 X37.7793 Y-23.2649 Z0.1815
G1 X37.7793 Y-22.9566 Z0.1913
G1 X37.7793 Y-22.6480 Z0.1916
G1 X37.7793 Y-22.3396 Z0.1824
G1 X37.7793 Y-22.0316 Z0.1637
G1 X37.7793 Y-21.7243 Z0.1354
G0 Z0.3141
G0 X37.7793 Y-21.7243 
G0 Z0.3141
G0 X37.7793 Y-23.7667 
G1 X37.7793 Y-23.7667 Z0.1391 F21.
G1 X37.7793 Y-23.7824 Z0.1363
G1 X37.7793 Y-23.8801 Z0.1191
G1 X37.7793 Y-23.5729 Z0.1479 F22.
G1 X37.7793 Y-23.2649 Z0.1672
G1 X37.7793 Y-22.9566 Z0.1770
G1 X37.7793 Y-22.6480 Z0.1773
G1 X37.7793 Y-22.3396 Z0.1681
G1 X37.7793 Y-22.0316 Z0.1493
G1 X37.7793 Y-21.7243 Z0.1211
G0 Z0.2997
G0 X37.7793 Y-21.7243 
G0 Z0.2997
G0 X37.7793 Y-23.7667 
G1 X37.7793 Y-23.7667 Z0.1247 F21.
G1 X37.7793 Y-23.7824 Z0.1219
G1 X37.7793 Y-23.8801 Z0.1047
G1 X37.7793 Y-23.5729 Z0.1335 F22.
G1 X37.7793 Y-23.2649 Z0.1529
G1 X37.7793 Y-22.9566 Z0.1627
G1 X37.7793 Y-22.6480 Z0.1630
G1 X37.7793 Y-22.3396 Z0.1537
G1 X37.7793 Y-22.0316 Z0.1350
G1 X37.7793 Y-21.7243 Z0.1068
G0 Z0.3729
G0 X37.7793 Y-21.7243 
G0 Z0.3729
G0 X38.7913 Y-23.7531 
G1 X38.7913 Y-23.7531 Z0.1979 F21.
G1 X38.7913 Y-23.7701 Z0.1949
G1 X38.7913 Y-23.8665 Z0.1779
G1 X38.7913 Y-23.5631 Z0.2060 F22.
G1 X38.7913 Y-23.2590 Z0.2248
G1 X38.7913 Y-22.9545 Z0.2344
G1 X38.7913 Y-22.6499 Z0.2346
G1 X38.7913 Y-22.3453 Z0.2257
G1 X38.7913 Y-22.0412 Z0.2074
G1 X38.7913 Y-21.7378 Z0.1799
G0 Z0.3585
G0 X38.7913 Y-21.7378 
G0 Z0.3585
G0 X38.7913 Y-23.7531 
G1 X38.7913 Y-23.7531 Z0.1835 F21.
G1 X38.7913 Y-23.7701 Z0.1805
G1 X38.7913 Y-23.8665 Z0.1635
G1 X38.7913 Y-23.5631 Z0.1916 F22.
G1 X38.7913 Y-23.2590 Z0.2105
G1 X38.7913 Y-22.9545 Z0.2200
G1 X38.7913 Y-22.6499 Z0.2203
G1 X38.7913 Y-22.3453 Z0.2113
G1 X38.7913 Y-22.0412 Z0.1930
G1 X38.7913 Y-21.7378 Z0.1655
G0 Z0.3442
G0 X38.7913 Y-21.7378 
G0 Z0.3442
G0 X38.7913 Y-23.7531 
G1 X38.7913 Y-23.7531 Z0.1692 F21.
G1 X38.7913 Y-23.7701 Z0.1662
G1 X38.7913 Y-23.8665 Z0.1492
G1 X38.7913 Y-23.5631 Z0.1773 F22.
G1 X38.7913 Y-23.2590 Z0.1961
G1 X38.7913 Y-22.9545 Z0.2057
G1 X38.7913 Y-22.6499 Z0.2060
G1 X38.7913 Y-22.3453 Z0.1970
G1 X38.7913 Y-22.0412 Z0.1787
G1 X38.7913 Y-21.7378 Z0.1512
G0 Z0.3299
G0 X38.7913 Y-21.7378 
G0 Z0.3299
G0 X38.7913 Y-23.7531 
G1 X38.7913 Y-23.7531 Z0.1549 F21.
G1 X38.7913 Y-23.7701 Z0.1519
G1 X38.7913 Y-23.8665 Z0.1349
G1 X38.7913 Y-23.5631 Z0.1630 F22.
G1 X38.7913 Y-23.2590 Z0.1818
G1 X38.7913 Y-22.9545 Z0.1914
G1 X38.7913 Y-22.6499 Z0.1916
G1 X38.7913 Y-22.3453 Z0.1827
G1 X38.7913 Y-22.0412 Z0.1644
G1 X38.7913 Y-21.7378 Z0.1369
G0 Z0.3155
G0 X38.7913 Y-21.7378 
G0 Z0.3155
G0 X38.7913 Y-23.7531 
G1 X38.7913 Y-23.7531 Z0.1405 F21.
G1 X38.7913 Y-23.7701 Z0.1375
G1 X38.7913 Y-23.8665 Z0.1205
G1 X38.7913 Y-23.5631 Z0.1486 F22.
G1 X38.7913 Y-23.2590 Z0.1675
G1 X38.7913 Y-22.9545 Z0.1770
G1 X38.7913 Y-22.6499 Z0.1773
G1 X38.7913 Y-22.3453 Z0.1683
G1 X38.7913 Y-22.0412 Z0.1500
G1 X38.7913 Y-21.7378 Z0.1225
G0 Z0.3012
G0 X38.7913 Y-21.7378 
G0 Z0.3012
G0 X38.7913 Y-23.7531 
G1 X38.7913 Y-23.7531 Z0.1262 F21.
G1 X38.7913 Y-23.7701 Z0.1232
G1 X38.7913 Y-23.8665 Z0.1062
G1 X38.7913 Y-23.5631 Z0.1343 F22.
G1 X38.7913 Y-23.2590 Z0.1531
G1 X38.7913 Y-22.9545 Z0.1627
G1 X38.7913 Y-22.6499 Z0.1630
G1 X38.7913 Y-22.3453 Z0.1540
G1 X38.7913 Y-22.0412 Z0.1357
G1 X38.7913 Y-21.7378 Z0.1082
G0 Z0.3744
G0 X38.7913 Y-21.7378 
G0 Z0.3744
G0 X39.8635 Y-23.7387 
G1 X39.8635 Y-23.7387 Z0.1994 F21.
G1 X39.8635 Y-23.7569 Z0.1962
G1 X39.8635 Y-23.8521 Z0.1794
G1 X39.8635 Y-23.5528 Z0.2068 F22.
G1 X39.8635 Y-23.2528 Z0.2251
G1 X39.8635 Y-22.9524 Z0.2344
G1 X39.8635 Y-22.6518 Z0.2347
G1 X39.8635 Y-22.3514 Z0.2259
G1 X39.8635 Y-22.0514 Z0.2081
G1 X39.8635 Y-21.7520 Z0.1814
G0 Z0.3601
G0 X39.8635 Y-21.7520 
G0 Z0.3601
G0 X39.8635 Y-23.7387 
G1 X39.8635 Y-23.7387 Z0.1851 F21.
G1 X39.8635 Y-23.7569 Z0.1819
G1 X39.8635 Y-23.8521 Z0.1651
G1 X39.8635 Y-23.5528 Z0.1924 F22.
G1 X39.8635 Y-23.2528 Z0.2108
G1 X39.8635 Y-22.9524 Z0.2201
G1 X39.8635 Y-22.6518 Z0.2203
G1 X39.8635 Y-22.3514 Z0.2116
G1 X39.8635 Y-22.0514 Z0.1938
G1 X39.8635 Y-21.7520 Z0.1670
G0 Z0.3457
G0 X39.8635 Y-21.7520 
G0 Z0.3457
G0 X39.8635 Y-23.7387 
G1 X39.8635 Y-23.7387 Z0.1707 F21.
G1 X39.8635 Y-23.7569 Z0.1675
G1 X39.8635 Y-23.8521 Z0.1507
G1 X39.8635 Y-23.5528 Z0.1781 F22.
G1 X39.8635 Y-23.2528 Z0.1964
G1 X39.8635 Y-22.9524 Z0.2057
G1 X39.8635 Y-22.6518 Z0.2060
G1 X39.8635 Y-22.3514 Z0.1973
G1 X39.8635 Y-22.0514 Z0.1795
G1 X39.8635 Y-21.7520 Z0.1527
G0 Z0.3314
G0 X39.8635 Y-21.7520 
G0 Z0.3314
G0 X39.8635 Y-23.7387 
G1 X39.8635 Y-23.7387 Z0.1564 F21.
G1 X39.8635 Y-23.7569 Z0.1532
G1 X39.8635 Y-23.8521 Z0.1364
G1 X39.8635 Y-23.5528 Z0.1638 F22.
G1 X39.8635 Y-23.2528 Z0.1821
G1 X39.8635 Y-22.9524 Z0.1914
G1 X39.8635 Y-22.6518 Z0.1917
G1 X39.8635 Y-22.3514 Z0.1829
G1 X39.8635 Y-22.0514 Z0.1651
G1 X39.8635 Y-21.7520 Z0.1384
G0 Z0.3171
G0 X39.8635 Y-21.7520 
G0 Z0.3171
G0 X39.8635 Y-23.7387 
G1 X39.8635 Y-23.7387 Z0.1421 F21.
G1 X39.8635 Y-23.7569 Z0.1389
G1 X39.8635 Y-23.8521 Z0.1221
G1 X39.8635 Y-23.5528 Z0.1494 F22.
G1 X39.8635 Y-23.2528 Z0.1678
G1 X39.8635 Y-22.9524 Z0.1771
G1 X39.8635 Y-22.6518 Z0.1773
G1 X39.8635 Y-22.3514 Z0.1686
G1 X39.8635 Y-22.0514 Z0.1508
G1 X39.8635 Y-21.7520 Z0.1240
G0 Z0.3027
G0 X39.8635 Y-21.7520 
G0 Z0.3027
G0 X39.8635 Y-23.7387 
G1 X39.8635 Y-23.7387 Z0.1277 F21.
G1 X39.8635 Y-23.7569 Z0.1245
G1 X39.8635 Y-23.8521 Z0.1077
G1 X39.8635 Y-23.5528 Z0.1351 F22.
G1 X39.8635 Y-23.2528 Z0.1534
G1 X39.8635 Y-22.9524 Z0.1627
G1 X39.8635 Y-22.6518 Z0.1630
G1 X39.8635 Y-22.3514 Z0.1543
G1 X39.8635 Y-22.0514 Z0.1365
G1 X39.8635 Y-21.7520 Z0.1097
G0 Z0.3760
G0 X39.8635 Y-21.7520 
G0 Z0.3760
G0 X40.9995 Y-23.7234 
G1 X40.9995 Y-23.7234 Z0.2010 F21.
G1 X40.9995 Y-23.7386 Z0.1984
G1 X40.9995 Y-23.8368 Z0.1810
G1 X40.9995 Y-23.5418 Z0.2076 F22.
G1 X40.9995 Y-23.2462 Z0.2254
G1 X40.9995 Y-22.9501 Z0.2344
G1 X40.9995 Y-22.6539 Z0.2347
G1 X40.9995 Y-22.3578 Z0.2262
G1 X40.9995 Y-22.0622 Z0.2089
G1 X40.9995 Y-21.7671 Z0.1829
G0 Z0.3617
G0 X40.9995 Y-21.7671 
G0 Z0.3617
G0 X40.9995 Y-23.7234 
G1 X40.9995 Y-23.7234 Z0.1867 F21.
G1 X40.9995 Y-23.7386 Z0.1840
G1 X40.9995 Y-23.8368 Z0.1667
G1 X40.9995 Y-23.5418 Z0.1932 F22.
G1 X40.9995 Y-23.2462 Z0.2111
G1 X40.9995 Y-22.9501 Z0.2201
G1 X40.9995 Y-22.6539 Z0.2204
G1 X40.9995 Y-22.3578 Z0.2119
G1 X40.9995 Y-22.0622 Z0.1946
G1 X40.9995 Y-21.7671 Z0.1686
G0 Z0.3474
G0 X40.9995 Y-21.7671 
G0 Z0.3474
G0 X40.9995 Y-23.7234 
G1 X40.9995 Y-23.7234 Z0.1724 F21.
G1 X40.9995 Y-23.7386 Z0.1697
G1 X40.9995 Y-23.8368 Z0.1524
G1 X40.9995 Y-23.5418 Z0.1789 F22.
G1 X40.9995 Y-23.2462 Z0.1967
G1 X40.9995 Y-22.9501 Z0.2058
G1 X40.9995 Y-22.6539 Z0.2060
G1 X40.9995 Y-22.3578 Z0.1975
G1 X40.9995 Y-22.0622 Z0.1803
G1 X40.9995 Y-21.7671 Z0.1543
G0 Z0.3330
G0 X40.9995 Y-21.7671 
G0 Z0.3330
G0 X40.9995 Y-23.7234 
G1 X40.9995 Y-23.7234 Z0.1580 F21.
G1 X40.9995 Y-23.7386 Z0.1554
G1 X40.9995 Y-23.8368 Z0.1380
G1 X40.9995 Y-23.5418 Z0.1646 F22.
G1 X40.9995 Y-23.2462 Z0.1824
G1 X40.9995 Y-22.9501 Z0.1914
G1 X40.9995 Y-22.6539 Z0.1917
G1 X40.9995 Y-22.3578 Z0.1832
G1 X40.9995 Y-22.0622 Z0.1659
G1 X40.9995 Y-21.7671 Z0.1399
G0 Z0.3187
G0 X40.9995 Y-21.7671 
G0 Z0.3187
G0 X40.9995 Y-23.7234 
G1 X40.9995 Y-23.7234 Z0.1437 F21.
G1 X40.9995 Y-23.7386 Z0.1410
G1 X40.9995 Y-23.8368 Z0.1237
G1 X40.9995 Y-23.5418 Z0.1502 F22.
G1 X40.9995 Y-23.2462 Z0.1681
G1 X40.9995 Y-22.9501 Z0.1771
G1 X40.9995 Y-22.6539 Z0.1774
G1 X40.9995 Y-22.3578 Z0.1689
G1 X40.9995 Y-22.0622 Z0.1516
G1 X40.9995 Y-21.7671 Z0.1256
G0 Z0.3044
G0 X40.9995 Y-21.7671 
G0 Z0.3044
G0 X40.9995 Y-23.7234 
G1 X40.9995 Y-23.7234 Z0.1294 F21.
G1 X40.9995 Y-23.7386 Z0.1267
G1 X40.9995 Y-23.8368 Z0.1094
G1 X40.9995 Y-23.5418 Z0.1359 F22.
G1 X40.9995 Y-23.2462 Z0.1537
G1 X40.9995 Y-22.9501 Z0.1628
G1 X40.9995 Y-22.6539 Z0.1630
G1 X40.9995 Y-22.3578 Z0.1545
G1 X40.9995 Y-22.0622 Z0.1373
G1 X40.9995 Y-21.7671 Z0.1113
G0 Z0.3777
G0 X40.9995 Y-21.7671 
G0 Z0.3777
G0 X42.2030 Y-23.7072 
G1 X42.2030 Y-23.7072 Z0.2027 F21.
G1 X42.2030 Y-23.7239 Z0.1998
G1 X42.2030 Y-23.8206 Z0.1827
G1 X42.2030 Y-23.5302 Z0.2084 F22.
G1 X42.2030 Y-23.2391 Z0.2257
G1 X42.2030 Y-22.9477 Z0.2345
G1 X42.2030 Y-22.6561 Z0.2347
G1 X42.2030 Y-22.3647 Z0.2265
G1 X42.2030 Y-22.0736 Z0.2098
G1 X42.2030 Y-21.7831 Z0.1846
G0 Z0.3634
G0 X42.2030 Y-21.7831 
G0 Z0.3634
G0 X42.2030 Y-23.7072 
G1 X42.2030 Y-23.7072 Z0.1884 F21.
G1 X42.2030 Y-23.7239 Z0.1854
G1 X42.2030 Y-23.8206 Z0.1684
G1 X42.2030 Y-23.5302 Z0.1941 F22.
G1 X42.2030 Y-23.2391 Z0.2114
G1 X42.2030 Y-22.9477 Z0.2201
G1 X42.2030 Y-22.6561 Z0.2204
G1 X42.2030 Y-22.3647 Z0.2122
G1 X42.2030 Y-22.0736 Z0.1954
G1 X42.2030 Y-21.7831 Z0.1702
G0 Z0.3490
G0 X42.2030 Y-21.7831 
G0 Z0.3490
G0 X42.2030 Y-23.7072 
G1 X42.2030 Y-23.7072 Z0.1740 F21.
G1 X42.2030 Y-23.7239 Z0.1711
G1 X42.2030 Y-23.8206 Z0.1540
G1 X42.2030 Y-23.5302 Z0.1798 F22.
G1 X42.2030 Y-23.2391 Z0.1970
G1 X42.2030 Y-22.9477 Z0.2058
G1 X42.2030 Y-22.6561 Z0.2061
G1 X42.2030 Y-22.3647 Z0.1978
G1 X42.2030 Y-22.0736 Z0.1811
G1 X42.2030 Y-21.7831 Z0.1559
G0 Z0.3347
G0 X42.2030 Y-21.7831 
G0 Z0.3347
G0 X42.2030 Y-23.7072 
G1 X42.2030 Y-23.7072 Z0.1597 F21.
G1 X42.2030 Y-23.7239 Z0.1568
G1 X42.2030 Y-23.8206 Z0.1397
G1 X42.2030 Y-23.5302 Z0.1654 F22.
G1 X42.2030 Y-23.2391 Z0.1827
G1 X42.2030 Y-22.9477 Z0.1915
G1 X42.2030 Y-22.6561 Z0.1917
G1 X42.2030 Y-22.3647 Z0.1835
G1 X42.2030 Y-22.0736 Z0.1668
G1 X42.2030 Y-21.7831 Z0.1416
G0 Z0.3204
G0 X42.2030 Y-21.7831 
G0 Z0.3204
G0 X42.2030 Y-23.7072 
G1 X42.2030 Y-23.7072 Z0.1454 F21.
G1 X42.2030 Y-23.7239 Z0.1424
G1 X42.2030 Y-23.8206 Z0.1254
G1 X42.2030 Y-23.5302 Z0.1511 F22.
G1 X42.2030 Y-23.2391 Z0.1684
G1 X42.2030 Y-22.9477 Z0.1771
G1 X42.2030 Y-22.6561 Z0.1774
G1 X42.2030 Y-22.3647 Z0.1692
G1 X42.2030 Y-22.0736 Z0.1524
G1 X42.2030 Y-21.7831 Z0.1272
G0 Z0.3060
G0 X42.2030 Y-21.7831 
G0 Z0.3060
G0 X42.2030 Y-23.7072 
G1 X42.2030 Y-23.7072 Z0.1310 F21.
G1 X42.2030 Y-23.7239 Z0.1281
G1 X42.2030 Y-23.8206 Z0.1110
G1 X42.2030 Y-23.5302 Z0.1368 F22.
G1 X42.2030 Y-23.2391 Z0.1540
G1 X42.2030 Y-22.9477 Z0.1628
G1 X42.2030 Y-22.6561 Z0.1631
G1 X42.2030 Y-22.3647 Z0.1548
G1 X42.2030 Y-22.0736 Z0.1381
G1 X42.2030 Y-21.7831 Z0.1129
G0 Z0.3795
G0 X42.2030 Y-21.7831 
G0 Z0.3795
G0 X43.4780 Y-23.6901 
G1 X43.4780 Y-23.6901 Z0.2045 F21.
G1 X43.4780 Y-23.7084 Z0.2012
G1 X43.4780 Y-23.8035 Z0.1845
G1 X43.4780 Y-23.5179 Z0.2094 F22.
G1 X43.4780 Y-23.2317 Z0.2260
G1 X43.4780 Y-22.9451 Z0.2345
G1 X43.4780 Y-22.6585 Z0.2348
G1 X43.4780 Y-22.3719 Z0.2268
G1 X43.4780 Y-22.0857 Z0.2106
G1 X43.4780 Y-21.8000 Z0.1863
G0 Z0.3651
G0 X43.4780 Y-21.8000 
G0 Z0.3651
G0 X43.4780 Y-23.6901 
G1 X43.4780 Y-23.6901 Z0.1901 F21.
G1 X43.4780 Y-23.7084 Z0.1869
G1 X43.4780 Y-23.8035 Z0.1701
G1 X43.4780 Y-23.5179 Z0.1950 F22.
G1 X43.4780 Y-23.2317 Z0.2117
G1 X43.4780 Y-22.9451 Z0.2202
G1 X43.4780 Y-22.6585 Z0.2204
G1 X43.4780 Y-22.3719 Z0.2125
G1 X43.4780 Y-22.0857 Z0.1963
G1 X43.4780 Y-21.8000 Z0.1719
G0 Z0.3508
G0 X43.4780 Y-21.8000 
G0 Z0.3508
G0 X43.4780 Y-23.6901 
G1 X43.4780 Y-23.6901 Z0.1758 F21.
G1 X43.4780 Y-23.7084 Z0.1726
G1 X43.4780 Y-23.8035 Z0.1558
G1 X43.4780 Y-23.5179 Z0.1807 F22.
G1 X43.4780 Y-23.2317 Z0.1974
G1 X43.4780 Y-22.9451 Z0.2058
G1 X43.4780 Y-22.6585 Z0.2061
G1 X43.4780 Y-22.3719 Z0.1981
G1 X43.4780 Y-22.0857 Z0.1820
G1 X43.4780 Y-21.8000 Z0.1576
G0 Z0.3365
G0 X43.4780 Y-21.8000 
G0 Z0.3365
G0 X43.4780 Y-23.6901 
G1 X43.4780 Y-23.6901 Z0.1615 F21.
G1 X43.4780 Y-23.7084 Z0.1582
G1 X43.4780 Y-23.8035 Z0.1415
G1 X43.4780 Y-23.5179 Z0.1664 F22.
G1 X43.4780 Y-23.2317 Z0.1830
G1 X43.4780 Y-22.9451 Z0.1915
G1 X43.4780 Y-22.6585 Z0.1918
G1 X43.4780 Y-22.3719 Z0.1838
G1 X43.4780 Y-22.0857 Z0.1676
G1 X43.4780 Y-21.8000 Z0.1433
G0 Z0.3221
G0 X43.4780 Y-21.8000 
G0 Z0.3221
G0 X43.4780 Y-23.6901 
G1 X43.4780 Y-23.6901 Z0.1471 F21.
G1 X43.4780 Y-23.7084 Z0.1439
G1 X43.4780 Y-23.8035 Z0.1271
G1 X43.4780 Y-23.5179 Z0.1520 F22.
G1 X43.4780 Y-23.2317 Z0.1687
G1 X43.4780 Y-22.9451 Z0.1772
G1 X43.4780 Y-22.6585 Z0.1774
G1 X43.4780 Y-22.3719 Z0.1695
G1 X43.4780 Y-22.0857 Z0.1533
G1 X43.4780 Y-21.8000 Z0.1289
G0 Z0.3078
G0 X43.4780 Y-21.8000 
G0 Z0.3078
G0 X43.4780 Y-23.6901 
G1 X43.4780 Y-23.6901 Z0.1328 F21.
G1 X43.4780 Y-23.7084 Z0.1296
G1 X43.4780 Y-23.8035 Z0.1128
G1 X43.4780 Y-23.5179 Z0.1377 F22.
G1 X43.4780 Y-23.2317 Z0.1544
G1 X43.4780 Y-22.9451 Z0.1628
G1 X43.4780 Y-22.6585 Z0.1631
G1 X43.4780 Y-22.3719 Z0.1551
G1 X43.4780 Y-22.0857 Z0.1390
G1 X43.4780 Y-21.8000 Z0.1146
G0 Z0.3813
G0 X43.4780 Y-21.8000 
G0 Z0.3813
G0 X44.8289 Y-23.6719 
G1 X44.8289 Y-23.6719 Z0.2063 F21.
G1 X44.8289 Y-23.6873 Z0.2036
G1 X44.8289 Y-23.7853 Z0.1863
G1 X44.8289 Y-23.4581 Z0.2135 F22.
G1 X44.8289 Y-23.1301 Z0.2300
G1 X44.8289 Y-22.8017 Z0.2357
G1 X44.8289 Y-22.4733 Z0.2306
G1 X44.8289 Y-22.1453 Z0.2147
G1 X44.8289 Y-21.8180 Z0.1880
G0 Z0.3670
G0 X44.8289 Y-21.8180 
G0 Z0.3670
G0 X44.8289 Y-23.6719 
G1 X44.8289 Y-23.6719 Z0.1920 F21.
G1 X44.8289 Y-23.6873 Z0.1893
G1 X44.8289 Y-23.7853 Z0.1720
G1 X44.8289 Y-23.4581 Z0.1992 F22.
G1 X44.8289 Y-23.1301 Z0.2156
G1 X44.8289 Y-22.8017 Z0.2213
G1 X44.8289 Y-22.4733 Z0.2162
G1 X44.8289 Y-22.1453 Z0.2003
G1 X44.8289 Y-21.8180 Z0.1737
G0 Z0.3526
G0 X44.8289 Y-21.8180 
G0 Z0.3526
G0 X44.8289 Y-23.6719 
G1 X44.8289 Y-23.6719 Z0.1776 F21.
G1 X44.8289 Y-23.6873 Z0.1749
G1 X44.8289 Y-23.7853 Z0.1576
G1 X44.8289 Y-23.4581 Z0.1849 F22.
G1 X44.8289 Y-23.1301 Z0.2013
G1 X44.8289 Y-22.8017 Z0.2070
G1 X44.8289 Y-22.4733 Z0.2019
G1 X44.8289 Y-22.1453 Z0.1860
G1 X44.8289 Y-21.8180 Z0.1594
G0 Z0.3383
G0 X44.8289 Y-21.8180 
G0 Z0.3383
G0 X44.8289 Y-23.6719 
G1 X44.8289 Y-23.6719 Z0.1633 F21.
G1 X44.8289 Y-23.6873 Z0.1606
G1 X44.8289 Y-23.7853 Z0.1433
G1 X44.8289 Y-23.4581 Z0.1705 F22.
G1 X44.8289 Y-23.1301 Z0.1870
G1 X44.8289 Y-22.8017 Z0.1927
G1 X44.8289 Y-22.4733 Z0.1876
G1 X44.8289 Y-22.1453 Z0.1717
G1 X44.8289 Y-21.8180 Z0.1450
G0 Z0.3240
G0 X44.8289 Y-21.8180 
G0 Z0.3240
G0 X44.8289 Y-23.6719 
G1 X44.8289 Y-23.6719 Z0.1490 F21.
G1 X44.8289 Y-23.6873 Z0.1463
G1 X44.8289 Y-23.7853 Z0.1290
G1 X44.8289 Y-23.4581 Z0.1562 F22.
G1 X44.8289 Y-23.1301 Z0.1726
G1 X44.8289 Y-22.8017 Z0.1783
G1 X44.8289 Y-22.4733 Z0.1732
G1 X44.8289 Y-22.1453 Z0.1573
G1 X44.8289 Y-21.8180 Z0.1307
G0 Z0.3096
G0 X44.8289 Y-21.8180 
G0 Z0.3096
G0 X44.8289 Y-23.6719 
G1 X44.8289 Y-23.6719 Z0.1346 F21.
G1 X44.8289 Y-23.6873 Z0.1319
G1 X44.8289 Y-23.7853 Z0.1146
G1 X44.8289 Y-23.4581 Z0.1419 F22.
G1 X44.8289 Y-23.1301 Z0.1583
G1 X44.8289 Y-22.8017 Z0.1640
G1 X44.8289 Y-22.4733 Z0.1589
G1 X44.8289 Y-22.1453 Z0.1430
G1 X44.8289 Y-21.8180 Z0.1164
G0 Z1.0000
G0 X44.8289 Y-21.8180 
M5
G53 Z
X2Y0
