( MOP:  03-frets-r7PT25-s21-NFrets19-StandardDepth-HiddenKerf )
( FILE: G:\Shared drives\AlloyProjectFiles\Customer CAD files\Alloy-Standard-Builds-CAM\Fingerboards-in\03-frets-r7PT25-s21-NFrets19-StandardDepth-HiddenKerf.nc)
G90
(  BEGIN TOOL LIST )
(  TOOL 15 - Fretkerf PT025 - DESC: 0.0250 DIA, 2 FLUTE,  CARBIDE MAT )
(  ENDOF TOOL LIST )
( 03-frets-r7PT25-s21-NFrets19-StandardDepth-HiddenKerf)
T15
S14000
M3
G0 Z1.3000
G0 X32.2680 Y-23.2959 
G1 X32.2680 Y-23.2959 Z0.2392 F21.
G1 X32.2680 Y-23.3312 Z0.2330
G1 X32.2680 Y-23.4129 Z0.2186
G1 X32.2680 Y-23.4944 Z0.2042
G1 X32.2680 Y-23.2168 Z0.2256 F22.
G1 X32.2680 Y-22.9386 Z0.2364
G1 X32.2680 Y-22.6602 Z0.2364
G1 X32.2680 Y-22.3820 Z0.2258
G1 X32.2680 Y-22.1044 Z0.2044
G1 X32.2680 Y-22.1044 Z0.3044 F21.
G0 Z0.3519
G0 X32.2680 Y-22.1044 
G0 Z0.3519
G0 X32.2680 Y-23.2959 
G1 X32.2680 Y-23.2959 Z0.2269 F21.
G1 X32.2680 Y-23.3312 Z0.2207
G1 X32.2680 Y-23.4129 Z0.2063
G1 X32.2680 Y-23.4944 Z0.1919
G1 X32.2680 Y-23.2168 Z0.2133 F22.
G1 X32.2680 Y-22.9386 Z0.2241
G1 X32.2680 Y-22.6602 Z0.2241
G1 X32.2680 Y-22.3820 Z0.2135
G1 X32.2680 Y-22.1044 Z0.1922
G1 X32.2680 Y-22.1044 Z0.2922 F21.
G0 Z0.3396
G0 X32.2680 Y-22.1044 
G0 Z0.3396
G0 X32.2680 Y-23.2959 
G1 X32.2680 Y-23.2959 Z0.2146 F21.
G1 X32.2680 Y-23.3312 Z0.2084
G1 X32.2680 Y-23.4129 Z0.1940
G1 X32.2680 Y-23.4944 Z0.1796
G1 X32.2680 Y-23.2168 Z0.2010 F22.
G1 X32.2680 Y-22.9386 Z0.2118
G1 X32.2680 Y-22.6602 Z0.2118
G1 X32.2680 Y-22.3820 Z0.2012
G1 X32.2680 Y-22.1044 Z0.1799
G1 X32.2680 Y-22.1044 Z0.2799 F21.
G0 Z0.3273
G0 X32.2680 Y-22.1044 
G0 Z0.3273
G0 X32.2680 Y-23.2959 
G1 X32.2680 Y-23.2959 Z0.2023 F21.
G1 X32.2680 Y-23.3312 Z0.1961
G1 X32.2680 Y-23.4129 Z0.1817
G1 X32.2680 Y-23.4944 Z0.1673
G1 X32.2680 Y-23.2168 Z0.1888 F22.
G1 X32.2680 Y-22.9386 Z0.1995
G1 X32.2680 Y-22.6602 Z0.1995
G1 X32.2680 Y-22.3820 Z0.1889
G1 X32.2680 Y-22.1044 Z0.1676
G1 X32.2680 Y-22.1044 Z0.2676 F21.
G0 Z0.3151
G0 X32.2680 Y-22.1044 
G0 Z0.3151
G0 X32.2680 Y-23.2959 
G1 X32.2680 Y-23.2959 Z0.1901 F21.
G1 X32.2680 Y-23.3312 Z0.1838
G1 X32.2680 Y-23.4129 Z0.1694
G1 X32.2680 Y-23.4944 Z0.1551
G1 X32.2680 Y-23.2168 Z0.1765 F22.
G1 X32.2680 Y-22.9386 Z0.1872
G1 X32.2680 Y-22.6602 Z0.1873
G1 X32.2680 Y-22.3820 Z0.1766
G1 X32.2680 Y-22.1044 Z0.1553
G1 X32.2680 Y-22.1044 Z0.2553 F21.
G0 Z0.3028
G0 X32.2680 Y-22.1044 
G0 Z0.3028
G0 X32.2680 Y-23.2959 
G1 X32.2680 Y-23.2959 Z0.1778 F21.
G1 X32.2680 Y-23.3312 Z0.1715
G1 X32.2680 Y-23.4129 Z0.1572
G1 X32.2680 Y-23.4944 Z0.1428
G1 X32.2680 Y-23.2168 Z0.1642 F22.
G1 X32.2680 Y-22.9386 Z0.1749
G1 X32.2680 Y-22.6602 Z0.1750
G1 X32.2680 Y-22.3820 Z0.1643
G1 X32.2680 Y-22.1044 Z0.1430
G1 X32.2680 Y-22.1044 Z0.2430 F21.
G0 Z0.2905
G0 X32.2680 Y-22.1044 
G0 Z0.2905
G0 X32.2680 Y-23.2959 
G1 X32.2680 Y-23.2959 Z0.1655 F21.
G1 X32.2680 Y-23.3312 Z0.1593
G1 X32.2680 Y-23.4129 Z0.1449
G1 X32.2680 Y-23.4944 Z0.1305
G1 X32.2680 Y-23.2168 Z0.1519 F22.
G1 X32.2680 Y-22.9386 Z0.1626
G1 X32.2680 Y-22.6602 Z0.1627
G1 X32.2680 Y-22.3820 Z0.1520
G1 X32.2680 Y-22.1044 Z0.1307
G1 X32.2680 Y-22.1044 Z0.2307 F21.
G0 Z0.3647
G0 X32.2680 Y-22.1044 
G0 Z0.3647
G0 X32.6847 Y-23.2905 
G1 X32.6847 Y-23.2905 Z0.2397 F21.
G1 X32.6847 Y-23.3271 Z0.2333
G1 X32.6847 Y-23.4081 Z0.2190
G1 X32.6847 Y-23.4890 Z0.2047
G1 X32.6847 Y-23.2136 Z0.2258 F22.
G1 X32.6847 Y-22.9376 Z0.2364
G1 X32.6847 Y-22.6613 Z0.2364
G1 X32.6847 Y-22.3853 Z0.2259
G1 X32.6847 Y-22.1099 Z0.2050
G1 X32.6847 Y-22.1099 Z0.3050 F21.
G0 Z0.3524
G0 X32.6847 Y-22.1099 
G0 Z0.3524
G0 X32.6847 Y-23.2905 
G1 X32.6847 Y-23.2905 Z0.2274 F21.
G1 X32.6847 Y-23.3271 Z0.2210
G1 X32.6847 Y-23.4081 Z0.2067
G1 X32.6847 Y-23.4890 Z0.1924
G1 X32.6847 Y-23.2136 Z0.2135 F22.
G1 X32.6847 Y-22.9376 Z0.2241
G1 X32.6847 Y-22.6613 Z0.2241
G1 X32.6847 Y-22.3853 Z0.2137
G1 X32.6847 Y-22.1099 Z0.1927
G1 X32.6847 Y-22.1099 Z0.2927 F21.
G0 Z0.3402
G0 X32.6847 Y-22.1099 
G0 Z0.3402
G0 X32.6847 Y-23.2905 
G1 X32.6847 Y-23.2905 Z0.2152 F21.
G1 X32.6847 Y-23.3271 Z0.2087
G1 X32.6847 Y-23.4081 Z0.1944
G1 X32.6847 Y-23.4890 Z0.1802
G1 X32.6847 Y-23.2136 Z0.2012 F22.
G1 X32.6847 Y-22.9376 Z0.2118
G1 X32.6847 Y-22.6613 Z0.2119
G1 X32.6847 Y-22.3853 Z0.2014
G1 X32.6847 Y-22.1099 Z0.1804
G1 X32.6847 Y-22.1099 Z0.2804 F21.
G0 Z0.3279
G0 X32.6847 Y-22.1099 
G0 Z0.3279
G0 X32.6847 Y-23.2905 
G1 X32.6847 Y-23.2905 Z0.2029 F21.
G1 X32.6847 Y-23.3271 Z0.1964
G1 X32.6847 Y-23.4081 Z0.1821
G1 X32.6847 Y-23.4890 Z0.1679
G1 X32.6847 Y-23.2136 Z0.1889 F22.
G1 X32.6847 Y-22.9376 Z0.1995
G1 X32.6847 Y-22.6613 Z0.1996
G1 X32.6847 Y-22.3853 Z0.1891
G1 X32.6847 Y-22.1099 Z0.1681
G1 X32.6847 Y-22.1099 Z0.2681 F21.
G0 Z0.3156
G0 X32.6847 Y-22.1099 
G0 Z0.3156
G0 X32.6847 Y-23.2905 
G1 X32.6847 Y-23.2905 Z0.1906 F21.
G1 X32.6847 Y-23.3271 Z0.1841
G1 X32.6847 Y-23.4081 Z0.1699
G1 X32.6847 Y-23.4890 Z0.1556
G1 X32.6847 Y-23.2136 Z0.1767 F22.
G1 X32.6847 Y-22.9376 Z0.1872
G1 X32.6847 Y-22.6613 Z0.1873
G1 X32.6847 Y-22.3853 Z0.1768
G1 X32.6847 Y-22.1099 Z0.1558
G1 X32.6847 Y-22.1099 Z0.2558 F21.
G0 Z0.3033
G0 X32.6847 Y-22.1099 
G0 Z0.3033
G0 X32.6847 Y-23.2905 
G1 X32.6847 Y-23.2905 Z0.1783 F21.
G1 X32.6847 Y-23.3271 Z0.1718
G1 X32.6847 Y-23.4081 Z0.1576
G1 X32.6847 Y-23.4890 Z0.1433
G1 X32.6847 Y-23.2136 Z0.1644 F22.
G1 X32.6847 Y-22.9376 Z0.1749
G1 X32.6847 Y-22.6613 Z0.1750
G1 X32.6847 Y-22.3853 Z0.1645
G1 X32.6847 Y-22.1099 Z0.1435
G1 X32.6847 Y-22.1099 Z0.2435 F21.
G0 Z0.2910
G0 X32.6847 Y-22.1099 
G0 Z0.2910
G0 X32.6847 Y-23.2905 
G1 X32.6847 Y-23.2905 Z0.1660 F21.
G1 X32.6847 Y-23.3271 Z0.1596
G1 X32.6847 Y-23.4081 Z0.1453
G1 X32.6847 Y-23.4890 Z0.1310
G1 X32.6847 Y-23.2136 Z0.1521 F22.
G1 X32.6847 Y-22.9376 Z0.1627
G1 X32.6847 Y-22.6613 Z0.1627
G1 X32.6847 Y-22.3853 Z0.1522
G1 X32.6847 Y-22.1099 Z0.1313
G1 X32.6847 Y-22.1099 Z0.2313 F21.
G0 Z0.3653
G0 X32.6847 Y-22.1099 
G0 Z0.3653
G0 X33.1262 Y-23.2847 
G1 X33.1262 Y-23.2847 Z0.2403 F21.
G1 X33.1262 Y-23.3227 Z0.2336
G1 X33.1262 Y-23.4030 Z0.2194
G1 X33.1262 Y-23.4832 Z0.2053
G1 X33.1262 Y-23.2101 Z0.2260 F22.
G1 X33.1262 Y-22.9364 Z0.2364
G1 X33.1262 Y-22.6625 Z0.2364
G1 X33.1262 Y-22.3888 Z0.2261
G1 X33.1262 Y-22.1156 Z0.2055
G1 X33.1262 Y-22.1156 Z0.3055 F21.
G0 Z0.3530
G0 X33.1262 Y-22.1156 
G0 Z0.3530
G0 X33.1262 Y-23.2847 
G1 X33.1262 Y-23.2847 Z0.2280 F21.
G1 X33.1262 Y-23.3227 Z0.2213
G1 X33.1262 Y-23.4030 Z0.2071
G1 X33.1262 Y-23.4832 Z0.1930
G1 X33.1262 Y-23.2101 Z0.2137 F22.
G1 X33.1262 Y-22.9364 Z0.2241
G1 X33.1262 Y-22.6625 Z0.2242
G1 X33.1262 Y-22.3888 Z0.2139
G1 X33.1262 Y-22.1156 Z0.1932
G1 X33.1262 Y-22.1156 Z0.2932 F21.
G0 Z0.3407
G0 X33.1262 Y-22.1156 
G0 Z0.3407
G0 X33.1262 Y-23.2847 
G1 X33.1262 Y-23.2847 Z0.2157 F21.
G1 X33.1262 Y-23.3227 Z0.2090
G1 X33.1262 Y-23.4030 Z0.1949
G1 X33.1262 Y-23.4832 Z0.1807
G1 X33.1262 Y-23.2101 Z0.2014 F22.
G1 X33.1262 Y-22.9364 Z0.2118
G1 X33.1262 Y-22.6625 Z0.2119
G1 X33.1262 Y-22.3888 Z0.2016
G1 X33.1262 Y-22.1156 Z0.1809
G1 X33.1262 Y-22.1156 Z0.2809 F21.
G0 Z0.3284
G0 X33.1262 Y-22.1156 
G0 Z0.3284
G0 X33.1262 Y-23.2847 
G1 X33.1262 Y-23.2847 Z0.2034 F21.
G1 X33.1262 Y-23.3227 Z0.1967
G1 X33.1262 Y-23.4030 Z0.1826
G1 X33.1262 Y-23.4832 Z0.1684
G1 X33.1262 Y-23.2101 Z0.1891 F22.
G1 X33.1262 Y-22.9364 Z0.1995
G1 X33.1262 Y-22.6625 Z0.1996
G1 X33.1262 Y-22.3888 Z0.1893
G1 X33.1262 Y-22.1156 Z0.1687
G1 X33.1262 Y-22.1156 Z0.2687 F21.
G0 Z0.3161
G0 X33.1262 Y-22.1156 
G0 Z0.3161
G0 X33.1262 Y-23.2847 
G1 X33.1262 Y-23.2847 Z0.1911 F21.
G1 X33.1262 Y-23.3227 Z0.1844
G1 X33.1262 Y-23.4030 Z0.1703
G1 X33.1262 Y-23.4832 Z0.1561
G1 X33.1262 Y-23.2101 Z0.1769 F22.
G1 X33.1262 Y-22.9364 Z0.1873
G1 X33.1262 Y-22.6625 Z0.1873
G1 X33.1262 Y-22.3888 Z0.1770
G1 X33.1262 Y-22.1156 Z0.1564
G1 X33.1262 Y-22.1156 Z0.2564 F21.
G0 Z0.3038
G0 X33.1262 Y-22.1156 
G0 Z0.3038
G0 X33.1262 Y-23.2847 
G1 X33.1262 Y-23.2847 Z0.1788 F21.
G1 X33.1262 Y-23.3227 Z0.1722
G1 X33.1262 Y-23.4030 Z0.1580
G1 X33.1262 Y-23.4832 Z0.1438
G1 X33.1262 Y-23.2101 Z0.1646 F22.
G1 X33.1262 Y-22.9364 Z0.1750
G1 X33.1262 Y-22.6625 Z0.1750
G1 X33.1262 Y-22.3888 Z0.1647
G1 X33.1262 Y-22.1156 Z0.1441
G1 X33.1262 Y-22.1156 Z0.2441 F21.
G0 Z0.2916
G0 X33.1262 Y-22.1156 
G0 Z0.2916
G0 X33.1262 Y-23.2847 
G1 X33.1262 Y-23.2847 Z0.1666 F21.
G1 X33.1262 Y-23.3227 Z0.1599
G1 X33.1262 Y-23.4030 Z0.1457
G1 X33.1262 Y-23.4832 Z0.1316
G1 X33.1262 Y-23.2101 Z0.1523 F22.
G1 X33.1262 Y-22.9364 Z0.1627
G1 X33.1262 Y-22.6625 Z0.1627
G1 X33.1262 Y-22.3888 Z0.1524
G1 X33.1262 Y-22.1156 Z0.1318
G1 X33.1262 Y-22.1156 Z0.2318 F21.
G0 Z0.3659
G0 X33.1262 Y-22.1156 
G0 Z0.3659
G0 X33.5940 Y-23.2786 
G1 X33.5940 Y-23.2786 Z0.2409 F21.
G1 X33.5940 Y-23.3080 Z0.2357
G1 X33.5940 Y-23.3926 Z0.2208
G1 X33.5940 Y-23.4771 Z0.2059
G1 X33.5940 Y-23.2064 Z0.2262 F22.
G1 X33.5940 Y-22.9352 Z0.2364
G1 X33.5940 Y-22.6637 Z0.2365
G1 X33.5940 Y-22.3924 Z0.2264
G1 X33.5940 Y-22.1217 Z0.2061
G1 X33.5940 Y-22.1217 Z0.3061 F21.
G0 Z0.3536
G0 X33.5940 Y-22.1217 
G0 Z0.3536
G0 X33.5940 Y-23.2786 
G1 X33.5940 Y-23.2786 Z0.2286 F21.
G1 X33.5940 Y-23.3080 Z0.2234
G1 X33.5940 Y-23.3926 Z0.2085
G1 X33.5940 Y-23.4771 Z0.1936
G1 X33.5940 Y-23.2064 Z0.2139 F22.
G1 X33.5940 Y-22.9352 Z0.2241
G1 X33.5940 Y-22.6637 Z0.2242
G1 X33.5940 Y-22.3924 Z0.2141
G1 X33.5940 Y-22.1217 Z0.1938
G1 X33.5940 Y-22.1217 Z0.2938 F21.
G0 Z0.3413
G0 X33.5940 Y-22.1217 
G0 Z0.3413
G0 X33.5940 Y-23.2786 
G1 X33.5940 Y-23.2786 Z0.2163 F21.
G1 X33.5940 Y-23.3080 Z0.2111
G1 X33.5940 Y-23.3926 Z0.1962
G1 X33.5940 Y-23.4771 Z0.1813
G1 X33.5940 Y-23.2064 Z0.2016 F22.
G1 X33.5940 Y-22.9352 Z0.2118
G1 X33.5940 Y-22.6637 Z0.2119
G1 X33.5940 Y-22.3924 Z0.2018
G1 X33.5940 Y-22.1217 Z0.1815
G1 X33.5940 Y-22.1217 Z0.2815 F21.
G0 Z0.3290
G0 X33.5940 Y-22.1217 
G0 Z0.3290
G0 X33.5940 Y-23.2786 
G1 X33.5940 Y-23.2786 Z0.2040 F21.
G1 X33.5940 Y-23.3080 Z0.1988
G1 X33.5940 Y-23.3926 Z0.1839
G1 X33.5940 Y-23.4771 Z0.1690
G1 X33.5940 Y-23.2064 Z0.1894 F22.
G1 X33.5940 Y-22.9352 Z0.1996
G1 X33.5940 Y-22.6637 Z0.1996
G1 X33.5940 Y-22.3924 Z0.1895
G1 X33.5940 Y-22.1217 Z0.1692
G1 X33.5940 Y-22.1217 Z0.2692 F21.
G0 Z0.3167
G0 X33.5940 Y-22.1217 
G0 Z0.3167
G0 X33.5940 Y-23.2786 
G1 X33.5940 Y-23.2786 Z0.1917 F21.
G1 X33.5940 Y-23.3080 Z0.1865
G1 X33.5940 Y-23.3926 Z0.1716
G1 X33.5940 Y-23.4771 Z0.1567
G1 X33.5940 Y-23.2064 Z0.1771 F22.
G1 X33.5940 Y-22.9352 Z0.1873
G1 X33.5940 Y-22.6637 Z0.1873
G1 X33.5940 Y-22.3924 Z0.1772
G1 X33.5940 Y-22.1217 Z0.1569
G1 X33.5940 Y-22.1217 Z0.2569 F21.
G0 Z0.3044
G0 X33.5940 Y-22.1217 
G0 Z0.3044
G0 X33.5940 Y-23.2786 
G1 X33.5940 Y-23.2786 Z0.1794 F21.
G1 X33.5940 Y-23.3080 Z0.1742
G1 X33.5940 Y-23.3926 Z0.1593
G1 X33.5940 Y-23.4771 Z0.1444
G1 X33.5940 Y-23.2064 Z0.1648 F22.
G1 X33.5940 Y-22.9352 Z0.1750
G1 X33.5940 Y-22.6637 Z0.1750
G1 X33.5940 Y-22.3924 Z0.1649
G1 X33.5940 Y-22.1217 Z0.1447
G1 X33.5940 Y-22.1217 Z0.2447 F21.
G0 Z0.2921
G0 X33.5940 Y-22.1217 
G0 Z0.2921
G0 X33.5940 Y-23.2786 
G1 X33.5940 Y-23.2786 Z0.1671 F21.
G1 X33.5940 Y-23.3080 Z0.1620
G1 X33.5940 Y-23.3926 Z0.1470
G1 X33.5940 Y-23.4771 Z0.1321
G1 X33.5940 Y-23.2064 Z0.1525 F22.
G1 X33.5940 Y-22.9352 Z0.1627
G1 X33.5940 Y-22.6637 Z0.1628
G1 X33.5940 Y-22.3924 Z0.1526
G1 X33.5940 Y-22.1217 Z0.1324
G1 X33.5940 Y-22.1217 Z0.2324 F21.
G0 Z0.3665
G0 X33.5940 Y-22.1217 
G0 Z0.3665
G0 X34.0895 Y-23.2722 
G1 X34.0895 Y-23.2722 Z0.2415 F21.
G1 X34.0895 Y-23.3032 Z0.2360
G1 X34.0895 Y-23.3870 Z0.2212
G1 X34.0895 Y-23.4707 Z0.2065
G1 X34.0895 Y-23.2026 Z0.2264 F22.
G1 X34.0895 Y-22.9339 Z0.2364
G1 X34.0895 Y-22.6650 Z0.2365
G1 X34.0895 Y-22.3963 Z0.2266
G1 X34.0895 Y-22.1282 Z0.2067
G1 X34.0895 Y-22.1282 Z0.3067 F21.
G0 Z0.3542
G0 X34.0895 Y-22.1282 
G0 Z0.3542
G0 X34.0895 Y-23.2722 
G1 X34.0895 Y-23.2722 Z0.2292 F21.
G1 X34.0895 Y-23.3032 Z0.2237
G1 X34.0895 Y-23.3870 Z0.2089
G1 X34.0895 Y-23.4707 Z0.1942
G1 X34.0895 Y-23.2026 Z0.2141 F22.
G1 X34.0895 Y-22.9339 Z0.2242
G1 X34.0895 Y-22.6650 Z0.2242
G1 X34.0895 Y-22.3963 Z0.2143
G1 X34.0895 Y-22.1282 Z0.1944
G1 X34.0895 Y-22.1282 Z0.2944 F21.
G0 Z0.3419
G0 X34.0895 Y-22.1282 
G0 Z0.3419
G0 X34.0895 Y-23.2722 
G1 X34.0895 Y-23.2722 Z0.2169 F21.
G1 X34.0895 Y-23.3032 Z0.2114
G1 X34.0895 Y-23.3870 Z0.1966
G1 X34.0895 Y-23.4707 Z0.1819
G1 X34.0895 Y-23.2026 Z0.2019 F22.
G1 X34.0895 Y-22.9339 Z0.2119
G1 X34.0895 Y-22.6650 Z0.2119
G1 X34.0895 Y-22.3963 Z0.2020
G1 X34.0895 Y-22.1282 Z0.1821
G1 X34.0895 Y-22.1282 Z0.2821 F21.
G0 Z0.3296
G0 X34.0895 Y-22.1282 
G0 Z0.3296
G0 X34.0895 Y-23.2722 
G1 X34.0895 Y-23.2722 Z0.2046 F21.
G1 X34.0895 Y-23.3032 Z0.1991
G1 X34.0895 Y-23.3870 Z0.1844
G1 X34.0895 Y-23.4707 Z0.1696
G1 X34.0895 Y-23.2026 Z0.1896 F22.
G1 X34.0895 Y-22.9339 Z0.1996
G1 X34.0895 Y-22.6650 Z0.1996
G1 X34.0895 Y-22.3963 Z0.1897
G1 X34.0895 Y-22.1282 Z0.1698
G1 X34.0895 Y-22.1282 Z0.2698 F21.
G0 Z0.3173
G0 X34.0895 Y-22.1282 
G0 Z0.3173
G0 X34.0895 Y-23.2722 
G1 X34.0895 Y-23.2722 Z0.1923 F21.
G1 X34.0895 Y-23.3032 Z0.1868
G1 X34.0895 Y-23.3870 Z0.1721
G1 X34.0895 Y-23.4707 Z0.1573
G1 X34.0895 Y-23.2026 Z0.1773 F22.
G1 X34.0895 Y-22.9339 Z0.1873
G1 X34.0895 Y-22.6650 Z0.1873
G1 X34.0895 Y-22.3963 Z0.1774
G1 X34.0895 Y-22.1282 Z0.1575
G1 X34.0895 Y-22.1282 Z0.2575 F21.
G0 Z0.3050
G0 X34.0895 Y-22.1282 
G0 Z0.3050
G0 X34.0895 Y-23.2722 
G1 X34.0895 Y-23.2722 Z0.1800 F21.
G1 X34.0895 Y-23.3032 Z0.1746
G1 X34.0895 Y-23.3870 Z0.1598
G1 X34.0895 Y-23.4707 Z0.1450
G1 X34.0895 Y-23.2026 Z0.1650 F22.
G1 X34.0895 Y-22.9339 Z0.1750
G1 X34.0895 Y-22.6650 Z0.1751
G1 X34.0895 Y-22.3963 Z0.1651
G1 X34.0895 Y-22.1282 Z0.1453
G1 X34.0895 Y-22.1282 Z0.2453 F21.
G0 Z0.2927
G0 X34.0895 Y-22.1282 
G0 Z0.2927
G0 X34.0895 Y-23.2722 
G1 X34.0895 Y-23.2722 Z0.1677 F21.
G1 X34.0895 Y-23.3032 Z0.1623
G1 X34.0895 Y-23.3870 Z0.1475
G1 X34.0895 Y-23.4707 Z0.1327
G1 X34.0895 Y-23.2026 Z0.1527 F22.
G1 X34.0895 Y-22.9339 Z0.1627
G1 X34.0895 Y-22.6650 Z0.1628
G1 X34.0895 Y-22.3963 Z0.1529
G1 X34.0895 Y-22.1282 Z0.1330
G1 X34.0895 Y-22.1282 Z0.2330 F21.
G0 Z0.3671
G0 X34.0895 Y-22.1282 
G0 Z0.3671
G0 X34.6146 Y-23.2653 
G1 X34.6146 Y-23.2653 Z0.2421 F21.
G1 X34.6146 Y-23.2980 Z0.2363
G1 X34.6146 Y-23.3810 Z0.2217
G1 X34.6146 Y-23.4638 Z0.2071
G1 X34.6146 Y-23.1984 Z0.2267 F22.
G1 X34.6146 Y-22.9325 Z0.2365
G1 X34.6146 Y-22.6664 Z0.2365
G1 X34.6146 Y-22.4004 Z0.2268
G1 X34.6146 Y-22.1350 Z0.2073
G1 X34.6146 Y-22.1350 Z0.3073 F21.
G0 Z0.3548
G0 X34.6146 Y-22.1350 
G0 Z0.3548
G0 X34.6146 Y-23.2653 
G1 X34.6146 Y-23.2653 Z0.2298 F21.
G1 X34.6146 Y-23.2980 Z0.2240
G1 X34.6146 Y-23.3810 Z0.2094
G1 X34.6146 Y-23.4638 Z0.1948
G1 X34.6146 Y-23.1984 Z0.2144 F22.
G1 X34.6146 Y-22.9325 Z0.2242
G1 X34.6146 Y-22.6664 Z0.2242
G1 X34.6146 Y-22.4004 Z0.2145
G1 X34.6146 Y-22.1350 Z0.1950
G1 X34.6146 Y-22.1350 Z0.2950 F21.
G0 Z0.3425
G0 X34.6146 Y-22.1350 
G0 Z0.3425
G0 X34.6146 Y-23.2653 
G1 X34.6146 Y-23.2653 Z0.2175 F21.
G1 X34.6146 Y-23.2980 Z0.2118
G1 X34.6146 Y-23.3810 Z0.1971
G1 X34.6146 Y-23.4638 Z0.1825
G1 X34.6146 Y-23.1984 Z0.2021 F22.
G1 X34.6146 Y-22.9325 Z0.2119
G1 X34.6146 Y-22.6664 Z0.2119
G1 X34.6146 Y-22.4004 Z0.2022
G1 X34.6146 Y-22.1350 Z0.1828
G1 X34.6146 Y-22.1350 Z0.2828 F21.
G0 Z0.3302
G0 X34.6146 Y-22.1350 
G0 Z0.3302
G0 X34.6146 Y-23.2653 
G1 X34.6146 Y-23.2653 Z0.2052 F21.
G1 X34.6146 Y-23.2980 Z0.1995
G1 X34.6146 Y-23.3810 Z0.1848
G1 X34.6146 Y-23.4638 Z0.1702
G1 X34.6146 Y-23.1984 Z0.1898 F22.
G1 X34.6146 Y-22.9325 Z0.1996
G1 X34.6146 Y-22.6664 Z0.1997
G1 X34.6146 Y-22.4004 Z0.1899
G1 X34.6146 Y-22.1350 Z0.1705
G1 X34.6146 Y-22.1350 Z0.2705 F21.
G0 Z0.3179
G0 X34.6146 Y-22.1350 
G0 Z0.3179
G0 X34.6146 Y-23.2653 
G1 X34.6146 Y-23.2653 Z0.1929 F21.
G1 X34.6146 Y-23.2980 Z0.1872
G1 X34.6146 Y-23.3810 Z0.1726
G1 X34.6146 Y-23.4638 Z0.1579
G1 X34.6146 Y-23.1984 Z0.1775 F22.
G1 X34.6146 Y-22.9325 Z0.1873
G1 X34.6146 Y-22.6664 Z0.1874
G1 X34.6146 Y-22.4004 Z0.1777
G1 X34.6146 Y-22.1350 Z0.1582
G1 X34.6146 Y-22.1350 Z0.2582 F21.
G0 Z0.3057
G0 X34.6146 Y-22.1350 
G0 Z0.3057
G0 X34.6146 Y-23.2653 
G1 X34.6146 Y-23.2653 Z0.1807 F21.
G1 X34.6146 Y-23.2980 Z0.1749
G1 X34.6146 Y-23.3810 Z0.1603
G1 X34.6146 Y-23.4638 Z0.1457
G1 X34.6146 Y-23.1984 Z0.1652 F22.
G1 X34.6146 Y-22.9325 Z0.1750
G1 X34.6146 Y-22.6664 Z0.1751
G1 X34.6146 Y-22.4004 Z0.1654
G1 X34.6146 Y-22.1350 Z0.1459
G1 X34.6146 Y-22.1350 Z0.2459 F21.
G0 Z0.2934
G0 X34.6146 Y-22.1350 
G0 Z0.2934
G0 X34.6146 Y-23.2653 
G1 X34.6146 Y-23.2653 Z0.1684 F21.
G1 X34.6146 Y-23.2980 Z0.1626
G1 X34.6146 Y-23.3810 Z0.1480
G1 X34.6146 Y-23.4638 Z0.1334
G1 X34.6146 Y-23.1984 Z0.1529 F22.
G1 X34.6146 Y-22.9325 Z0.1628
G1 X34.6146 Y-22.6664 Z0.1628
G1 X34.6146 Y-22.4004 Z0.1531
G1 X34.6146 Y-22.1350 Z0.1336
G1 X34.6146 Y-22.1350 Z0.2336 F21.
G0 Z0.3678
G0 X34.6146 Y-22.1350 
G0 Z0.3678
G0 X35.1708 Y-23.2581 
G1 X35.1708 Y-23.2581 Z0.2428 F21.
G1 X35.1708 Y-23.2926 Z0.2367
G1 X35.1708 Y-23.3746 Z0.2222
G1 X35.1708 Y-23.4566 Z0.2078
G1 X35.1708 Y-23.1941 Z0.2269 F22.
G1 X35.1708 Y-22.9310 Z0.2365
G1 X35.1708 Y-22.6678 Z0.2365
G1 X35.1708 Y-22.4048 Z0.2270
G1 X35.1708 Y-22.1423 Z0.2080
G1 X35.1708 Y-22.1423 Z0.3080 F21.
G0 Z0.3555
G0 X35.1708 Y-22.1423 
G0 Z0.3555
G0 X35.1708 Y-23.2581 
G1 X35.1708 Y-23.2581 Z0.2305 F21.
G1 X35.1708 Y-23.2926 Z0.2244
G1 X35.1708 Y-23.3746 Z0.2099
G1 X35.1708 Y-23.4566 Z0.1955
G1 X35.1708 Y-23.1941 Z0.2146 F22.
G1 X35.1708 Y-22.9310 Z0.2242
G1 X35.1708 Y-22.6678 Z0.2243
G1 X35.1708 Y-22.4048 Z0.2147
G1 X35.1708 Y-22.1423 Z0.1957
G1 X35.1708 Y-22.1423 Z0.2957 F21.
G0 Z0.3432
G0 X35.1708 Y-22.1423 
G0 Z0.3432
G0 X35.1708 Y-23.2581 
G1 X35.1708 Y-23.2581 Z0.2182 F21.
G1 X35.1708 Y-23.2926 Z0.2121
G1 X35.1708 Y-23.3746 Z0.1976
G1 X35.1708 Y-23.4566 Z0.1832
G1 X35.1708 Y-23.1941 Z0.2023 F22.
G1 X35.1708 Y-22.9310 Z0.2119
G1 X35.1708 Y-22.6678 Z0.2120
G1 X35.1708 Y-22.4048 Z0.2025
G1 X35.1708 Y-22.1423 Z0.1834
G1 X35.1708 Y-22.1423 Z0.2834 F21.
G0 Z0.3309
G0 X35.1708 Y-22.1423 
G0 Z0.3309
G0 X35.1708 Y-23.2581 
G1 X35.1708 Y-23.2581 Z0.2059 F21.
G1 X35.1708 Y-23.2926 Z0.1998
G1 X35.1708 Y-23.3746 Z0.1854
G1 X35.1708 Y-23.4566 Z0.1709
G1 X35.1708 Y-23.1941 Z0.1900 F22.
G1 X35.1708 Y-22.9310 Z0.1996
G1 X35.1708 Y-22.6678 Z0.1997
G1 X35.1708 Y-22.4048 Z0.1902
G1 X35.1708 Y-22.1423 Z0.1711
G1 X35.1708 Y-22.1423 Z0.2711 F21.
G0 Z0.3186
G0 X35.1708 Y-22.1423 
G0 Z0.3186
G0 X35.1708 Y-23.2581 
G1 X35.1708 Y-23.2581 Z0.1936 F21.
G1 X35.1708 Y-23.2926 Z0.1875
G1 X35.1708 Y-23.3746 Z0.1731
G1 X35.1708 Y-23.4566 Z0.1586
G1 X35.1708 Y-23.1941 Z0.1778 F22.
G1 X35.1708 Y-22.9310 Z0.1874
G1 X35.1708 Y-22.6678 Z0.1874
G1 X35.1708 Y-22.4048 Z0.1779
G1 X35.1708 Y-22.1423 Z0.1588
G1 X35.1708 Y-22.1423 Z0.2588 F21.
G0 Z0.3063
G0 X35.1708 Y-22.1423 
G0 Z0.3063
G0 X35.1708 Y-23.2581 
G1 X35.1708 Y-23.2581 Z0.1813 F21.
G1 X35.1708 Y-23.2926 Z0.1752
G1 X35.1708 Y-23.3746 Z0.1608
G1 X35.1708 Y-23.4566 Z0.1463
G1 X35.1708 Y-23.1941 Z0.1655 F22.
G1 X35.1708 Y-22.9310 Z0.1751
G1 X35.1708 Y-22.6678 Z0.1751
G1 X35.1708 Y-22.4048 Z0.1656
G1 X35.1708 Y-22.1423 Z0.1466
G1 X35.1708 Y-22.1423 Z0.2466 F21.
G0 Z0.2940
G0 X35.1708 Y-22.1423 
G0 Z0.2940
G0 X35.1708 Y-23.2581 
G1 X35.1708 Y-23.2581 Z0.1690 F21.
G1 X35.1708 Y-23.2926 Z0.1630
G1 X35.1708 Y-23.3746 Z0.1485
G1 X35.1708 Y-23.4566 Z0.1340
G1 X35.1708 Y-23.1941 Z0.1532 F22.
G1 X35.1708 Y-22.9310 Z0.1628
G1 X35.1708 Y-22.6678 Z0.1628
G1 X35.1708 Y-22.4048 Z0.1533
G1 X35.1708 Y-22.1423 Z0.1343
G1 X35.1708 Y-22.1423 Z0.2343 F21.
G0 Z0.3685
G0 X35.1708 Y-22.1423 
G0 Z0.3685
G0 X35.7601 Y-23.2504 
G1 X35.7601 Y-23.2504 Z0.2435 F21.
G1 X35.7601 Y-23.2868 Z0.2370
G1 X35.7601 Y-23.3679 Z0.2227
G1 X35.7601 Y-23.4489 Z0.2085
G1 X35.7601 Y-23.1894 Z0.2271 F22.
G1 X35.7601 Y-22.9295 Z0.2365
G1 X35.7601 Y-22.6694 Z0.2366
G1 X35.7601 Y-22.4094 Z0.2273
G1 X35.7601 Y-22.1500 Z0.2087
G1 X35.7601 Y-22.1500 Z0.3087 F21.
G0 Z0.3562
G0 X35.7601 Y-22.1500 
G0 Z0.3562
G0 X35.7601 Y-23.2504 
G1 X35.7601 Y-23.2504 Z0.2312 F21.
G1 X35.7601 Y-23.2868 Z0.2247
G1 X35.7601 Y-23.3679 Z0.2105
G1 X35.7601 Y-23.4489 Z0.1962
G1 X35.7601 Y-23.1894 Z0.2149 F22.
G1 X35.7601 Y-22.9295 Z0.2242
G1 X35.7601 Y-22.6694 Z0.2243
G1 X35.7601 Y-22.4094 Z0.2150
G1 X35.7601 Y-22.1500 Z0.1964
G1 X35.7601 Y-22.1500 Z0.2964 F21.
G0 Z0.3439
G0 X35.7601 Y-22.1500 
G0 Z0.3439
G0 X35.7601 Y-23.2504 
G1 X35.7601 Y-23.2504 Z0.2189 F21.
G1 X35.7601 Y-23.2868 Z0.2125
G1 X35.7601 Y-23.3679 Z0.1982
G1 X35.7601 Y-23.4489 Z0.1839
G1 X35.7601 Y-23.1894 Z0.2026 F22.
G1 X35.7601 Y-22.9295 Z0.2120
G1 X35.7601 Y-22.6694 Z0.2120
G1 X35.7601 Y-22.4094 Z0.2027
G1 X35.7601 Y-22.1500 Z0.1841
G1 X35.7601 Y-22.1500 Z0.2841 F21.
G0 Z0.3316
G0 X35.7601 Y-22.1500 
G0 Z0.3316
G0 X35.7601 Y-23.2504 
G1 X35.7601 Y-23.2504 Z0.2066 F21.
G1 X35.7601 Y-23.2868 Z0.2002
G1 X35.7601 Y-23.3679 Z0.1859
G1 X35.7601 Y-23.4489 Z0.1716
G1 X35.7601 Y-23.1894 Z0.1903 F22.
G1 X35.7601 Y-22.9295 Z0.1997
G1 X35.7601 Y-22.6694 Z0.1997
G1 X35.7601 Y-22.4094 Z0.1904
G1 X35.7601 Y-22.1500 Z0.1718
G1 X35.7601 Y-22.1500 Z0.2718 F21.
G0 Z0.3193
G0 X35.7601 Y-22.1500 
G0 Z0.3193
G0 X35.7601 Y-23.2504 
G1 X35.7601 Y-23.2504 Z0.1943 F21.
G1 X35.7601 Y-23.2868 Z0.1879
G1 X35.7601 Y-23.3679 Z0.1736
G1 X35.7601 Y-23.4489 Z0.1593
G1 X35.7601 Y-23.1894 Z0.1780 F22.
G1 X35.7601 Y-22.9295 Z0.1874
G1 X35.7601 Y-22.6694 Z0.1874
G1 X35.7601 Y-22.4094 Z0.1781
G1 X35.7601 Y-22.1500 Z0.1595
G1 X35.7601 Y-22.1500 Z0.2595 F21.
G0 Z0.3070
G0 X35.7601 Y-22.1500 
G0 Z0.3070
G0 X35.7601 Y-23.2504 
G1 X35.7601 Y-23.2504 Z0.1820 F21.
G1 X35.7601 Y-23.2868 Z0.1756
G1 X35.7601 Y-23.3679 Z0.1613
G1 X35.7601 Y-23.4489 Z0.1470
G1 X35.7601 Y-23.1894 Z0.1657 F22.
G1 X35.7601 Y-22.9295 Z0.1751
G1 X35.7601 Y-22.6694 Z0.1751
G1 X35.7601 Y-22.4094 Z0.1659
G1 X35.7601 Y-22.1500 Z0.1473
G1 X35.7601 Y-22.1500 Z0.2473 F21.
G0 Z0.2947
G0 X35.7601 Y-22.1500 
G0 Z0.2947
G0 X35.7601 Y-23.2504 
G1 X35.7601 Y-23.2504 Z0.1697 F21.
G1 X35.7601 Y-23.2868 Z0.1633
G1 X35.7601 Y-23.3679 Z0.1490
G1 X35.7601 Y-23.4489 Z0.1347
G1 X35.7601 Y-23.1894 Z0.1534 F22.
G1 X35.7601 Y-22.9295 Z0.1628
G1 X35.7601 Y-22.6694 Z0.1629
G1 X35.7601 Y-22.4094 Z0.1536
G1 X35.7601 Y-22.1500 Z0.1350
G1 X35.7601 Y-22.1500 Z0.2350 F21.
G0 Z0.3692
G0 X35.7601 Y-22.1500 
G0 Z0.3692
G0 X36.3845 Y-23.2422 
G1 X36.3845 Y-23.2422 Z0.2442 F21.
G1 X36.3845 Y-23.2700 Z0.2393
G1 X36.3845 Y-23.3554 Z0.2242
G1 X36.3845 Y-23.4407 Z0.2092
G1 X36.3845 Y-23.1845 Z0.2274 F22.
G1 X36.3845 Y-22.9279 Z0.2366
G1 X36.3845 Y-22.6710 Z0.2366
G1 X36.3845 Y-22.4143 Z0.2275
G1 X36.3845 Y-22.1581 Z0.2094
G1 X36.3845 Y-22.1581 Z0.3094 F21.
G0 Z0.3569
G0 X36.3845 Y-22.1581 
G0 Z0.3569
G0 X36.3845 Y-23.2422 
G1 X36.3845 Y-23.2422 Z0.2319 F21.
G1 X36.3845 Y-23.2700 Z0.2270
G1 X36.3845 Y-23.3554 Z0.2119
G1 X36.3845 Y-23.4407 Z0.1969
G1 X36.3845 Y-23.1845 Z0.2151 F22.
G1 X36.3845 Y-22.9279 Z0.2243
G1 X36.3845 Y-22.6710 Z0.2243
G1 X36.3845 Y-22.4143 Z0.2153
G1 X36.3845 Y-22.1581 Z0.1971
G1 X36.3845 Y-22.1581 Z0.2971 F21.
G0 Z0.3446
G0 X36.3845 Y-22.1581 
G0 Z0.3446
G0 X36.3845 Y-23.2422 
G1 X36.3845 Y-23.2422 Z0.2196 F21.
G1 X36.3845 Y-23.2700 Z0.2147
G1 X36.3845 Y-23.3554 Z0.1997
G1 X36.3845 Y-23.4407 Z0.1846
G1 X36.3845 Y-23.1845 Z0.2028 F22.
G1 X36.3845 Y-22.9279 Z0.2120
G1 X36.3845 Y-22.6710 Z0.2120
G1 X36.3845 Y-22.4143 Z0.2030
G1 X36.3845 Y-22.1581 Z0.1848
G1 X36.3845 Y-22.1581 Z0.2848 F21.
G0 Z0.3323
G0 X36.3845 Y-22.1581 
G0 Z0.3323
G0 X36.3845 Y-23.2422 
G1 X36.3845 Y-23.2422 Z0.2073 F21.
G1 X36.3845 Y-23.2700 Z0.2024
G1 X36.3845 Y-23.3554 Z0.1874
G1 X36.3845 Y-23.4407 Z0.1723
G1 X36.3845 Y-23.1845 Z0.1906 F22.
G1 X36.3845 Y-22.9279 Z0.1997
G1 X36.3845 Y-22.6710 Z0.1997
G1 X36.3845 Y-22.4143 Z0.1907
G1 X36.3845 Y-22.1581 Z0.1725
G1 X36.3845 Y-22.1581 Z0.2725 F21.
G0 Z0.3200
G0 X36.3845 Y-22.1581 
G0 Z0.3200
G0 X36.3845 Y-23.2422 
G1 X36.3845 Y-23.2422 Z0.1950 F21.
G1 X36.3845 Y-23.2700 Z0.1901
G1 X36.3845 Y-23.3554 Z0.1751
G1 X36.3845 Y-23.4407 Z0.1600
G1 X36.3845 Y-23.1845 Z0.1783 F22.
G1 X36.3845 Y-22.9279 Z0.1874
G1 X36.3845 Y-22.6710 Z0.1875
G1 X36.3845 Y-22.4143 Z0.1784
G1 X36.3845 Y-22.1581 Z0.1603
G1 X36.3845 Y-22.1581 Z0.2603 F21.
G0 Z0.3078
G0 X36.3845 Y-22.1581 
G0 Z0.3078
G0 X36.3845 Y-23.2422 
G1 X36.3845 Y-23.2422 Z0.1828 F21.
G1 X36.3845 Y-23.2700 Z0.1779
G1 X36.3845 Y-23.3554 Z0.1628
G1 X36.3845 Y-23.4407 Z0.1478
G1 X36.3845 Y-23.1845 Z0.1660 F22.
G1 X36.3845 Y-22.9279 Z0.1751
G1 X36.3845 Y-22.6710 Z0.1752
G1 X36.3845 Y-22.4143 Z0.1661
G1 X36.3845 Y-22.1581 Z0.1480
G1 X36.3845 Y-22.1581 Z0.2480 F21.
G0 Z0.2955
G0 X36.3845 Y-22.1581 
G0 Z0.2955
G0 X36.3845 Y-23.2422 
G1 X36.3845 Y-23.2422 Z0.1705 F21.
G1 X36.3845 Y-23.2700 Z0.1656
G1 X36.3845 Y-23.3554 Z0.1505
G1 X36.3845 Y-23.4407 Z0.1355
G1 X36.3845 Y-23.1845 Z0.1537 F22.
G1 X36.3845 Y-22.9279 Z0.1628
G1 X36.3845 Y-22.6710 Z0.1629
G1 X36.3845 Y-22.4143 Z0.1538
G1 X36.3845 Y-22.1581 Z0.1357
G1 X36.3845 Y-22.1581 Z0.2357 F21.
G0 Z0.3699
G0 X36.3845 Y-22.1581 
G0 Z0.3699
G0 X37.0460 Y-23.2336 
G1 X37.0460 Y-23.2336 Z0.2449 F21.
G1 X37.0460 Y-23.2637 Z0.2396
G1 X37.0460 Y-23.3479 Z0.2248
G1 X37.0460 Y-23.4321 Z0.2099
G1 X37.0460 Y-23.1794 Z0.2277 F22.
G1 X37.0460 Y-22.9261 Z0.2366
G1 X37.0460 Y-22.6727 Z0.2366
G1 X37.0460 Y-22.4195 Z0.2278
G1 X37.0460 Y-22.1668 Z0.2102
G1 X37.0460 Y-22.1668 Z0.3102 F21.
G0 Z0.3577
G0 X37.0460 Y-22.1668 
G0 Z0.3577
G0 X37.0460 Y-23.2336 
G1 X37.0460 Y-23.2336 Z0.2327 F21.
G1 X37.0460 Y-23.2637 Z0.2274
G1 X37.0460 Y-23.3479 Z0.2125
G1 X37.0460 Y-23.4321 Z0.1977
G1 X37.0460 Y-23.1794 Z0.2154 F22.
G1 X37.0460 Y-22.9261 Z0.2243
G1 X37.0460 Y-22.6727 Z0.2243
G1 X37.0460 Y-22.4195 Z0.2155
G1 X37.0460 Y-22.1668 Z0.1979
G1 X37.0460 Y-22.1668 Z0.2979 F21.
G0 Z0.3454
G0 X37.0460 Y-22.1668 
G0 Z0.3454
G0 X37.0460 Y-23.2336 
G1 X37.0460 Y-23.2336 Z0.2204 F21.
G1 X37.0460 Y-23.2637 Z0.2151
G1 X37.0460 Y-23.3479 Z0.2002
G1 X37.0460 Y-23.4321 Z0.1854
G1 X37.0460 Y-23.1794 Z0.2031 F22.
G1 X37.0460 Y-22.9261 Z0.2120
G1 X37.0460 Y-22.6727 Z0.2121
G1 X37.0460 Y-22.4195 Z0.2032
G1 X37.0460 Y-22.1668 Z0.1856
G1 X37.0460 Y-22.1668 Z0.2856 F21.
G0 Z0.3331
G0 X37.0460 Y-22.1668 
G0 Z0.3331
G0 X37.0460 Y-23.2336 
G1 X37.0460 Y-23.2336 Z0.2081 F21.
G1 X37.0460 Y-23.2637 Z0.2028
G1 X37.0460 Y-23.3479 Z0.1879
G1 X37.0460 Y-23.4321 Z0.1731
G1 X37.0460 Y-23.1794 Z0.1908 F22.
G1 X37.0460 Y-22.9261 Z0.1997
G1 X37.0460 Y-22.6727 Z0.1998
G1 X37.0460 Y-22.4195 Z0.1910
G1 X37.0460 Y-22.1668 Z0.1733
G1 X37.0460 Y-22.1668 Z0.2733 F21.
G0 Z0.3208
G0 X37.0460 Y-22.1668 
G0 Z0.3208
G0 X37.0460 Y-23.2336 
G1 X37.0460 Y-23.2336 Z0.1958 F21.
G1 X37.0460 Y-23.2637 Z0.1905
G1 X37.0460 Y-23.3479 Z0.1756
G1 X37.0460 Y-23.4321 Z0.1608
G1 X37.0460 Y-23.1794 Z0.1785 F22.
G1 X37.0460 Y-22.9261 Z0.1874
G1 X37.0460 Y-22.6727 Z0.1875
G1 X37.0460 Y-22.4195 Z0.1787
G1 X37.0460 Y-22.1668 Z0.1610
G1 X37.0460 Y-22.1668 Z0.2610 F21.
G0 Z0.3085
G0 X37.0460 Y-22.1668 
G0 Z0.3085
G0 X37.0460 Y-23.2336 
G1 X37.0460 Y-23.2336 Z0.1835 F21.
G1 X37.0460 Y-23.2637 Z0.1782
G1 X37.0460 Y-23.3479 Z0.1634
G1 X37.0460 Y-23.4321 Z0.1485
G1 X37.0460 Y-23.1794 Z0.1663 F22.
G1 X37.0460 Y-22.9261 Z0.1752
G1 X37.0460 Y-22.6727 Z0.1752
G1 X37.0460 Y-22.4195 Z0.1664
G1 X37.0460 Y-22.1668 Z0.1487
G1 X37.0460 Y-22.1668 Z0.2487 F21.
G0 Z0.2962
G0 X37.0460 Y-22.1668 
G0 Z0.2962
G0 X37.0460 Y-23.2336 
G1 X37.0460 Y-23.2336 Z0.1712 F21.
G1 X37.0460 Y-23.2637 Z0.1659
G1 X37.0460 Y-23.3479 Z0.1511
G1 X37.0460 Y-23.4321 Z0.1362
G1 X37.0460 Y-23.1794 Z0.1540 F22.
G1 X37.0460 Y-22.9261 Z0.1629
G1 X37.0460 Y-22.6727 Z0.1629
G1 X37.0460 Y-22.4195 Z0.1541
G1 X37.0460 Y-22.1668 Z0.1365
G1 X37.0460 Y-22.1668 Z0.2365 F21.
G0 Z0.3707
G0 X37.0460 Y-22.1668 
G0 Z0.3707
G0 X37.7468 Y-23.2245 
G1 X37.7468 Y-23.2245 Z0.2457 F21.
G1 X37.7468 Y-23.2570 Z0.2400
G1 X37.7468 Y-23.3400 Z0.2254
G1 X37.7468 Y-23.4230 Z0.2107
G1 X37.7468 Y-23.1739 Z0.2280 F22.
G1 X37.7468 Y-22.9243 Z0.2366
G1 X37.7468 Y-22.6746 Z0.2367
G1 X37.7468 Y-22.4250 Z0.2281
G1 X37.7468 Y-22.1759 Z0.2110
G1 X37.7468 Y-22.1759 Z0.3110 F21.
G0 Z0.3585
G0 X37.7468 Y-22.1759 
G0 Z0.3585
G0 X37.7468 Y-23.2245 
G1 X37.7468 Y-23.2245 Z0.2335 F21.
G1 X37.7468 Y-23.2570 Z0.2277
G1 X37.7468 Y-23.3400 Z0.2131
G1 X37.7468 Y-23.4230 Z0.1985
G1 X37.7468 Y-23.1739 Z0.2157 F22.
G1 X37.7468 Y-22.9243 Z0.2243
G1 X37.7468 Y-22.6746 Z0.2244
G1 X37.7468 Y-22.4250 Z0.2158
G1 X37.7468 Y-22.1759 Z0.1987
G1 X37.7468 Y-22.1759 Z0.2987 F21.
G0 Z0.3462
G0 X37.7468 Y-22.1759 
G0 Z0.3462
G0 X37.7468 Y-23.2245 
G1 X37.7468 Y-23.2245 Z0.2212 F21.
G1 X37.7468 Y-23.2570 Z0.2154
G1 X37.7468 Y-23.3400 Z0.2008
G1 X37.7468 Y-23.4230 Z0.1862
G1 X37.7468 Y-23.1739 Z0.2034 F22.
G1 X37.7468 Y-22.9243 Z0.2120
G1 X37.7468 Y-22.6746 Z0.2121
G1 X37.7468 Y-22.4250 Z0.2035
G1 X37.7468 Y-22.1759 Z0.1864
G1 X37.7468 Y-22.1759 Z0.2864 F21.
G0 Z0.3339
G0 X37.7468 Y-22.1759 
G0 Z0.3339
G0 X37.7468 Y-23.2245 
G1 X37.7468 Y-23.2245 Z0.2089 F21.
G1 X37.7468 Y-23.2570 Z0.2032
G1 X37.7468 Y-23.3400 Z0.1885
G1 X37.7468 Y-23.4230 Z0.1739
G1 X37.7468 Y-23.1739 Z0.1911 F22.
G1 X37.7468 Y-22.9243 Z0.1998
G1 X37.7468 Y-22.6746 Z0.1998
G1 X37.7468 Y-22.4250 Z0.1912
G1 X37.7468 Y-22.1759 Z0.1741
G1 X37.7468 Y-22.1759 Z0.2741 F21.
G0 Z0.3216
G0 X37.7468 Y-22.1759 
G0 Z0.3216
G0 X37.7468 Y-23.2245 
G1 X37.7468 Y-23.2245 Z0.1966 F21.
G1 X37.7468 Y-23.2570 Z0.1909
G1 X37.7468 Y-23.3400 Z0.1762
G1 X37.7468 Y-23.4230 Z0.1616
G1 X37.7468 Y-23.1739 Z0.1788 F22.
G1 X37.7468 Y-22.9243 Z0.1875
G1 X37.7468 Y-22.6746 Z0.1875
G1 X37.7468 Y-22.4250 Z0.1790
G1 X37.7468 Y-22.1759 Z0.1618
G1 X37.7468 Y-22.1759 Z0.2618 F21.
G0 Z0.3093
G0 X37.7468 Y-22.1759 
G0 Z0.3093
G0 X37.7468 Y-23.2245 
G1 X37.7468 Y-23.2245 Z0.1843 F21.
G1 X37.7468 Y-23.2570 Z0.1786
G1 X37.7468 Y-23.3400 Z0.1639
G1 X37.7468 Y-23.4230 Z0.1493
G1 X37.7468 Y-23.1739 Z0.1665 F22.
G1 X37.7468 Y-22.9243 Z0.1752
G1 X37.7468 Y-22.6746 Z0.1752
G1 X37.7468 Y-22.4250 Z0.1667
G1 X37.7468 Y-22.1759 Z0.1495
G1 X37.7468 Y-22.1759 Z0.2495 F21.
G0 Z0.2970
G0 X37.7468 Y-22.1759 
G0 Z0.2970
G0 X37.7468 Y-23.2245 
G1 X37.7468 Y-23.2245 Z0.1720 F21.
G1 X37.7468 Y-23.2570 Z0.1663
G1 X37.7468 Y-23.3400 Z0.1517
G1 X37.7468 Y-23.4230 Z0.1370
G1 X37.7468 Y-23.1739 Z0.1543 F22.
G1 X37.7468 Y-22.9243 Z0.1629
G1 X37.7468 Y-22.6746 Z0.1629
G1 X37.7468 Y-22.4250 Z0.1544
G1 X37.7468 Y-22.1759 Z0.1372
G1 X37.7468 Y-22.1759 Z0.2372 F21.
G0 Z0.3716
G0 X37.7468 Y-22.1759 
G0 Z0.3716
G0 X38.4893 Y-23.2148 
G1 X38.4893 Y-23.2148 Z0.2466 F21.
G1 X38.4893 Y-23.2498 Z0.2404
G1 X38.4893 Y-23.3316 Z0.2260
G1 X38.4893 Y-23.4133 Z0.2116
G1 X38.4893 Y-23.1680 Z0.2283 F22.
G1 X38.4893 Y-22.9224 Z0.2367
G1 X38.4893 Y-22.6765 Z0.2367
G1 X38.4893 Y-22.4308 Z0.2284
G1 X38.4893 Y-22.1856 Z0.2118
G1 X38.4893 Y-22.1856 Z0.3118 F21.
G0 Z0.3593
G0 X38.4893 Y-22.1856 
G0 Z0.3593
G0 X38.4893 Y-23.2148 
G1 X38.4893 Y-23.2148 Z0.2343 F21.
G1 X38.4893 Y-23.2498 Z0.2281
G1 X38.4893 Y-23.3316 Z0.2137
G1 X38.4893 Y-23.4133 Z0.1993
G1 X38.4893 Y-23.1680 Z0.2160 F22.
G1 X38.4893 Y-22.9224 Z0.2244
G1 X38.4893 Y-22.6765 Z0.2244
G1 X38.4893 Y-22.4308 Z0.2161
G1 X38.4893 Y-22.1856 Z0.1995
G1 X38.4893 Y-22.1856 Z0.2995 F21.
G0 Z0.3470
G0 X38.4893 Y-22.1856 
G0 Z0.3470
G0 X38.4893 Y-23.2148 
G1 X38.4893 Y-23.2148 Z0.2220 F21.
G1 X38.4893 Y-23.2498 Z0.2158
G1 X38.4893 Y-23.3316 Z0.2014
G1 X38.4893 Y-23.4133 Z0.1870
G1 X38.4893 Y-23.1680 Z0.2037 F22.
G1 X38.4893 Y-22.9224 Z0.2121
G1 X38.4893 Y-22.6765 Z0.2121
G1 X38.4893 Y-22.4308 Z0.2038
G1 X38.4893 Y-22.1856 Z0.1872
G1 X38.4893 Y-22.1856 Z0.2872 F21.
G0 Z0.3347
G0 X38.4893 Y-22.1856 
G0 Z0.3347
G0 X38.4893 Y-23.2148 
G1 X38.4893 Y-23.2148 Z0.2097 F21.
G1 X38.4893 Y-23.2498 Z0.2035
G1 X38.4893 Y-23.3316 Z0.1891
G1 X38.4893 Y-23.4133 Z0.1747
G1 X38.4893 Y-23.1680 Z0.1914 F22.
G1 X38.4893 Y-22.9224 Z0.1998
G1 X38.4893 Y-22.6765 Z0.1998
G1 X38.4893 Y-22.4308 Z0.1915
G1 X38.4893 Y-22.1856 Z0.1749
G1 X38.4893 Y-22.1856 Z0.2749 F21.
G0 Z0.3224
G0 X38.4893 Y-22.1856 
G0 Z0.3224
G0 X38.4893 Y-23.2148 
G1 X38.4893 Y-23.2148 Z0.1974 F21.
G1 X38.4893 Y-23.2498 Z0.1912
G1 X38.4893 Y-23.3316 Z0.1768
G1 X38.4893 Y-23.4133 Z0.1624
G1 X38.4893 Y-23.1680 Z0.1791 F22.
G1 X38.4893 Y-22.9224 Z0.1875
G1 X38.4893 Y-22.6765 Z0.1876
G1 X38.4893 Y-22.4308 Z0.1793
G1 X38.4893 Y-22.1856 Z0.1626
G1 X38.4893 Y-22.1856 Z0.2626 F21.
G0 Z0.3101
G0 X38.4893 Y-22.1856 
G0 Z0.3101
G0 X38.4893 Y-23.2148 
G1 X38.4893 Y-23.2148 Z0.1851 F21.
G1 X38.4893 Y-23.2498 Z0.1790
G1 X38.4893 Y-23.3316 Z0.1645
G1 X38.4893 Y-23.4133 Z0.1501
G1 X38.4893 Y-23.1680 Z0.1668 F22.
G1 X38.4893 Y-22.9224 Z0.1752
G1 X38.4893 Y-22.6765 Z0.1753
G1 X38.4893 Y-22.4308 Z0.1670
G1 X38.4893 Y-22.1856 Z0.1504
G1 X38.4893 Y-22.1856 Z0.2504 F21.
G0 Z0.2979
G0 X38.4893 Y-22.1856 
G0 Z0.2979
G0 X38.4893 Y-23.2148 
G1 X38.4893 Y-23.2148 Z0.1729 F21.
G1 X38.4893 Y-23.2498 Z0.1667
G1 X38.4893 Y-23.3316 Z0.1523
G1 X38.4893 Y-23.4133 Z0.1379
G1 X38.4893 Y-23.1680 Z0.1546 F22.
G1 X38.4893 Y-22.9224 Z0.1629
G1 X38.4893 Y-22.6765 Z0.1630
G1 X38.4893 Y-22.4308 Z0.1547
G1 X38.4893 Y-22.1856 Z0.1381
G1 X38.4893 Y-22.1856 Z0.2381 F21.
G0 Z0.3724
G0 X38.4893 Y-22.1856 
G0 Z0.3724
G0 X39.2759 Y-23.2045 
G1 X39.2759 Y-23.2045 Z0.2474 F21.
G1 X39.2759 Y-23.2423 Z0.2408
G1 X39.2759 Y-23.3227 Z0.2266
G1 X39.2759 Y-23.4030 Z0.2124
G1 X39.2759 Y-23.1619 Z0.2286 F22.
G1 X39.2759 Y-22.9203 Z0.2367
G1 X39.2759 Y-22.6786 Z0.2367
G1 X39.2759 Y-22.4370 Z0.2287
G1 X39.2759 Y-22.1958 Z0.2126
G1 X39.2759 Y-22.1958 Z0.3126 F21.
G0 Z0.3602
G0 X39.2759 Y-22.1958 
G0 Z0.3602
G0 X39.2759 Y-23.2045 
G1 X39.2759 Y-23.2045 Z0.2352 F21.
G1 X39.2759 Y-23.2423 Z0.2285
G1 X39.2759 Y-23.3227 Z0.2143
G1 X39.2759 Y-23.4030 Z0.2002
G1 X39.2759 Y-23.1619 Z0.2163 F22.
G1 X39.2759 Y-22.9203 Z0.2244
G1 X39.2759 Y-22.6786 Z0.2244
G1 X39.2759 Y-22.4370 Z0.2164
G1 X39.2759 Y-22.1958 Z0.2004
G1 X39.2759 Y-22.1958 Z0.3004 F21.
G0 Z0.3479
G0 X39.2759 Y-22.1958 
G0 Z0.3479
G0 X39.2759 Y-23.2045 
G1 X39.2759 Y-23.2045 Z0.2229 F21.
G1 X39.2759 Y-23.2423 Z0.2162
G1 X39.2759 Y-23.3227 Z0.2020
G1 X39.2759 Y-23.4030 Z0.1879
G1 X39.2759 Y-23.1619 Z0.2040 F22.
G1 X39.2759 Y-22.9203 Z0.2121
G1 X39.2759 Y-22.6786 Z0.2122
G1 X39.2759 Y-22.4370 Z0.2041
G1 X39.2759 Y-22.1958 Z0.1881
G1 X39.2759 Y-22.1958 Z0.2881 F21.
G0 Z0.3356
G0 X39.2759 Y-22.1958 
G0 Z0.3356
G0 X39.2759 Y-23.2045 
G1 X39.2759 Y-23.2045 Z0.2106 F21.
G1 X39.2759 Y-23.2423 Z0.2039
G1 X39.2759 Y-23.3227 Z0.1897
G1 X39.2759 Y-23.4030 Z0.1756
G1 X39.2759 Y-23.1619 Z0.1917 F22.
G1 X39.2759 Y-22.9203 Z0.1998
G1 X39.2759 Y-22.6786 Z0.1999
G1 X39.2759 Y-22.4370 Z0.1919
G1 X39.2759 Y-22.1958 Z0.1758
G1 X39.2759 Y-22.1958 Z0.2758 F21.
G0 Z0.3233
G0 X39.2759 Y-22.1958 
G0 Z0.3233
G0 X39.2759 Y-23.2045 
G1 X39.2759 Y-23.2045 Z0.1983 F21.
G1 X39.2759 Y-23.2423 Z0.1916
G1 X39.2759 Y-23.3227 Z0.1775
G1 X39.2759 Y-23.4030 Z0.1633
G1 X39.2759 Y-23.1619 Z0.1794 F22.
G1 X39.2759 Y-22.9203 Z0.1875
G1 X39.2759 Y-22.6786 Z0.1876
G1 X39.2759 Y-22.4370 Z0.1796
G1 X39.2759 Y-22.1958 Z0.1635
G1 X39.2759 Y-22.1958 Z0.2635 F21.
G0 Z0.3110
G0 X39.2759 Y-22.1958 
G0 Z0.3110
G0 X39.2759 Y-23.2045 
G1 X39.2759 Y-23.2045 Z0.1860 F21.
G1 X39.2759 Y-23.2423 Z0.1794
G1 X39.2759 Y-23.3227 Z0.1652
G1 X39.2759 Y-23.4030 Z0.1510
G1 X39.2759 Y-23.1619 Z0.1672 F22.
G1 X39.2759 Y-22.9203 Z0.1753
G1 X39.2759 Y-22.6786 Z0.1753
G1 X39.2759 Y-22.4370 Z0.1673
G1 X39.2759 Y-22.1958 Z0.1512
G1 X39.2759 Y-22.1958 Z0.2512 F21.
G0 Z0.2987
G0 X39.2759 Y-22.1958 
G0 Z0.2987
G0 X39.2759 Y-23.2045 
G1 X39.2759 Y-23.2045 Z0.1737 F21.
G1 X39.2759 Y-23.2423 Z0.1671
G1 X39.2759 Y-23.3227 Z0.1529
G1 X39.2759 Y-23.4030 Z0.1387
G1 X39.2759 Y-23.1619 Z0.1549 F22.
G1 X39.2759 Y-22.9203 Z0.1630
G1 X39.2759 Y-22.6786 Z0.1630
G1 X39.2759 Y-22.4370 Z0.1550
G1 X39.2759 Y-22.1958 Z0.1389
G1 X39.2759 Y-22.1958 Z0.2389 F21.
G0 Z0.3733
G0 X39.2759 Y-22.1958 
G0 Z0.3733
G0 X40.1094 Y-23.1937 
G1 X40.1094 Y-23.1937 Z0.2483 F21.
G1 X40.1094 Y-23.2343 Z0.2412
G1 X40.1094 Y-23.3133 Z0.2273
G1 X40.1094 Y-23.3922 Z0.2133
G1 X40.1094 Y-23.0960 Z0.2316 F22.
G1 X40.1094 Y-22.7994 Z0.2377
G1 X40.1094 Y-22.5028 Z0.2317
G1 X40.1094 Y-22.2067 Z0.2135
G1 X40.1094 Y-22.2067 Z0.3135 F21.
G0 Z0.3611
G0 X40.1094 Y-22.2067 
G0 Z0.3611
G0 X40.1094 Y-23.1937 
G1 X40.1094 Y-23.1937 Z0.2361 F21.
G1 X40.1094 Y-23.2343 Z0.2289
G1 X40.1094 Y-23.3133 Z0.2150
G1 X40.1094 Y-23.3922 Z0.2011
G1 X40.1094 Y-23.0960 Z0.2193 F22.
G1 X40.1094 Y-22.7994 Z0.2254
G1 X40.1094 Y-22.5028 Z0.2194
G1 X40.1094 Y-22.2067 Z0.2013
G1 X40.1094 Y-22.2067 Z0.3013 F21.
G0 Z0.3488
G0 X40.1094 Y-22.2067 
G0 Z0.3488
G0 X40.1094 Y-23.1937 
G1 X40.1094 Y-23.1937 Z0.2238 F21.
G1 X40.1094 Y-23.2343 Z0.2166
G1 X40.1094 Y-23.3133 Z0.2027
G1 X40.1094 Y-23.3922 Z0.1888
G1 X40.1094 Y-23.0960 Z0.2070 F22.
G1 X40.1094 Y-22.7994 Z0.2131
G1 X40.1094 Y-22.5028 Z0.2071
G1 X40.1094 Y-22.2067 Z0.1890
G1 X40.1094 Y-22.2067 Z0.2890 F21.
G0 Z0.3365
G0 X40.1094 Y-22.2067 
G0 Z0.3365
G0 X40.1094 Y-23.1937 
G1 X40.1094 Y-23.1937 Z0.2115 F21.
G1 X40.1094 Y-23.2343 Z0.2043
G1 X40.1094 Y-23.3133 Z0.1904
G1 X40.1094 Y-23.3922 Z0.1765
G1 X40.1094 Y-23.0960 Z0.1947 F22.
G1 X40.1094 Y-22.7994 Z0.2009
G1 X40.1094 Y-22.5028 Z0.1948
G1 X40.1094 Y-22.2067 Z0.1767
G1 X40.1094 Y-22.2067 Z0.2767 F21.
G0 Z0.3242
G0 X40.1094 Y-22.2067 
G0 Z0.3242
G0 X40.1094 Y-23.1937 
G1 X40.1094 Y-23.1937 Z0.1992 F21.
G1 X40.1094 Y-23.2343 Z0.1920
G1 X40.1094 Y-23.3133 Z0.1781
G1 X40.1094 Y-23.3922 Z0.1642
G1 X40.1094 Y-23.0960 Z0.1824 F22.
G1 X40.1094 Y-22.7994 Z0.1886
G1 X40.1094 Y-22.5028 Z0.1826
G1 X40.1094 Y-22.2067 Z0.1644
G1 X40.1094 Y-22.2067 Z0.2644 F21.
G0 Z0.3119
G0 X40.1094 Y-22.2067 
G0 Z0.3119
G0 X40.1094 Y-23.1937 
G1 X40.1094 Y-23.1937 Z0.1869 F21.
G1 X40.1094 Y-23.2343 Z0.1797
G1 X40.1094 Y-23.3133 Z0.1658
G1 X40.1094 Y-23.3922 Z0.1519
G1 X40.1094 Y-23.0960 Z0.1702 F22.
G1 X40.1094 Y-22.7994 Z0.1763
G1 X40.1094 Y-22.5028 Z0.1703
G1 X40.1094 Y-22.2067 Z0.1521
G1 X40.1094 Y-22.2067 Z0.2521 F21.
G0 Z0.2996
G0 X40.1094 Y-22.2067 
G0 Z0.2996
G0 X40.1094 Y-23.1937 
G1 X40.1094 Y-23.1937 Z0.1746 F21.
G1 X40.1094 Y-23.2343 Z0.1675
G1 X40.1094 Y-23.3133 Z0.1535
G1 X40.1094 Y-23.3922 Z0.1396
G1 X40.1094 Y-23.0960 Z0.1579 F22.
G1 X40.1094 Y-22.7994 Z0.1640
G1 X40.1094 Y-22.5028 Z0.1580
G1 X40.1094 Y-22.2067 Z0.1398
G1 X40.1094 Y-22.2067 Z0.2398 F21.
G0 Z0.3743
G0 X40.1094 Y-22.2067 
G0 Z0.3743
G0 X40.9924 Y-23.1821 
G1 X40.9924 Y-23.1821 Z0.2493 F21.
G1 X40.9924 Y-23.2259 Z0.2416
G1 X40.9924 Y-23.3033 Z0.2279
G1 X40.9924 Y-23.3806 Z0.2143
G1 X40.9924 Y-23.0903 Z0.2318 F22.
G1 X40.9924 Y-22.7994 Z0.2377
G1 X40.9924 Y-22.5086 Z0.2319
G1 X40.9924 Y-22.2182 Z0.2145
G1 X40.9924 Y-22.2182 Z0.3145 F21.
G0 Z0.3620
G0 X40.9924 Y-22.2182 
G0 Z0.3620
G0 X40.9924 Y-23.1821 
G1 X40.9924 Y-23.1821 Z0.2370 F21.
G1 X40.9924 Y-23.2259 Z0.2293
G1 X40.9924 Y-23.3033 Z0.2156
G1 X40.9924 Y-23.3806 Z0.2020
G1 X40.9924 Y-23.0903 Z0.2195 F22.
G1 X40.9924 Y-22.7994 Z0.2254
G1 X40.9924 Y-22.5086 Z0.2196
G1 X40.9924 Y-22.2182 Z0.2022
G1 X40.9924 Y-22.2182 Z0.3022 F21.
G0 Z0.3497
G0 X40.9924 Y-22.2182 
G0 Z0.3497
G0 X40.9924 Y-23.1821 
G1 X40.9924 Y-23.1821 Z0.2247 F21.
G1 X40.9924 Y-23.2259 Z0.2170
G1 X40.9924 Y-23.3033 Z0.2033
G1 X40.9924 Y-23.3806 Z0.1897
G1 X40.9924 Y-23.0903 Z0.2073 F22.
G1 X40.9924 Y-22.7994 Z0.2131
G1 X40.9924 Y-22.5086 Z0.2074
G1 X40.9924 Y-22.2182 Z0.1899
G1 X40.9924 Y-22.2182 Z0.2899 F21.
G0 Z0.3374
G0 X40.9924 Y-22.2182 
G0 Z0.3374
G0 X40.9924 Y-23.1821 
G1 X40.9924 Y-23.1821 Z0.2124 F21.
G1 X40.9924 Y-23.2259 Z0.2047
G1 X40.9924 Y-23.3033 Z0.1911
G1 X40.9924 Y-23.3806 Z0.1774
G1 X40.9924 Y-23.0903 Z0.1950 F22.
G1 X40.9924 Y-22.7994 Z0.2009
G1 X40.9924 Y-22.5086 Z0.1951
G1 X40.9924 Y-22.2182 Z0.1776
G1 X40.9924 Y-22.2182 Z0.2776 F21.
G0 Z0.3251
G0 X40.9924 Y-22.2182 
G0 Z0.3251
G0 X40.9924 Y-23.1821 
G1 X40.9924 Y-23.1821 Z0.2001 F21.
G1 X40.9924 Y-23.2259 Z0.1924
G1 X40.9924 Y-23.3033 Z0.1788
G1 X40.9924 Y-23.3806 Z0.1651
G1 X40.9924 Y-23.0903 Z0.1827 F22.
G1 X40.9924 Y-22.7994 Z0.1886
G1 X40.9924 Y-22.5086 Z0.1828
G1 X40.9924 Y-22.2182 Z0.1653
G1 X40.9924 Y-22.2182 Z0.2653 F21.
G0 Z0.3129
G0 X40.9924 Y-22.2182 
G0 Z0.3129
G0 X40.9924 Y-23.1821 
G1 X40.9924 Y-23.1821 Z0.1879 F21.
G1 X40.9924 Y-23.2259 Z0.1801
G1 X40.9924 Y-23.3033 Z0.1665
G1 X40.9924 Y-23.3806 Z0.1529
G1 X40.9924 Y-23.0903 Z0.1704 F22.
G1 X40.9924 Y-22.7994 Z0.1763
G1 X40.9924 Y-22.5086 Z0.1705
G1 X40.9924 Y-22.2182 Z0.1531
G1 X40.9924 Y-22.2182 Z0.2531 F21.
G0 Z0.3006
G0 X40.9924 Y-22.2182 
G0 Z0.3006
G0 X40.9924 Y-23.1821 
G1 X40.9924 Y-23.1821 Z0.1756 F21.
G1 X40.9924 Y-23.2259 Z0.1679
G1 X40.9924 Y-23.3033 Z0.1542
G1 X40.9924 Y-23.3806 Z0.1406
G1 X40.9924 Y-23.0903 Z0.1581 F22.
G1 X40.9924 Y-22.7994 Z0.1640
G1 X40.9924 Y-22.5086 Z0.1582
G1 X40.9924 Y-22.2182 Z0.1408
G1 X40.9924 Y-22.2182 Z0.2408 F21.
G0 Z0.3753
G0 X40.9924 Y-22.2182 
G0 Z0.3753
G0 X41.9278 Y-23.1699 
G1 X41.9278 Y-23.1699 Z0.2503 F21.
G1 X41.9278 Y-23.2169 Z0.2420
G1 X41.9278 Y-23.2927 Z0.2286
G1 X41.9278 Y-23.3684 Z0.2153
G1 X41.9278 Y-23.0842 Z0.2321 F22.
G1 X41.9278 Y-22.7994 Z0.2377
G1 X41.9278 Y-22.5147 Z0.2322
G1 X41.9278 Y-22.2304 Z0.2154
G1 X41.9278 Y-22.2304 Z0.3154 F21.
G0 Z0.3630
G0 X41.9278 Y-22.2304 
G0 Z0.3630
G0 X41.9278 Y-23.1699 
G1 X41.9278 Y-23.1699 Z0.2380 F21.
G1 X41.9278 Y-23.2169 Z0.2297
G1 X41.9278 Y-23.2927 Z0.2163
G1 X41.9278 Y-23.3684 Z0.2030
G1 X41.9278 Y-23.0842 Z0.2198 F22.
G1 X41.9278 Y-22.7994 Z0.2254
G1 X41.9278 Y-22.5147 Z0.2199
G1 X41.9278 Y-22.2304 Z0.2032
G1 X41.9278 Y-22.2304 Z0.3032 F21.
G0 Z0.3507
G0 X41.9278 Y-22.2304 
G0 Z0.3507
G0 X41.9278 Y-23.1699 
G1 X41.9278 Y-23.1699 Z0.2257 F21.
G1 X41.9278 Y-23.2169 Z0.2174
G1 X41.9278 Y-23.2927 Z0.2040
G1 X41.9278 Y-23.3684 Z0.1907
G1 X41.9278 Y-23.0842 Z0.2075 F22.
G1 X41.9278 Y-22.7994 Z0.2131
G1 X41.9278 Y-22.5147 Z0.2076
G1 X41.9278 Y-22.2304 Z0.1909
G1 X41.9278 Y-22.2304 Z0.2909 F21.
G0 Z0.3384
G0 X41.9278 Y-22.2304 
G0 Z0.3384
G0 X41.9278 Y-23.1699 
G1 X41.9278 Y-23.1699 Z0.2134 F21.
G1 X41.9278 Y-23.2169 Z0.2051
G1 X41.9278 Y-23.2927 Z0.1917
G1 X41.9278 Y-23.3684 Z0.1784
G1 X41.9278 Y-23.0842 Z0.1952 F22.
G1 X41.9278 Y-22.7994 Z0.2009
G1 X41.9278 Y-22.5147 Z0.1953
G1 X41.9278 Y-22.2304 Z0.1786
G1 X41.9278 Y-22.2304 Z0.2786 F21.
G0 Z0.3261
G0 X41.9278 Y-22.2304 
G0 Z0.3261
G0 X41.9278 Y-23.1699 
G1 X41.9278 Y-23.1699 Z0.2011 F21.
G1 X41.9278 Y-23.2169 Z0.1928
G1 X41.9278 Y-23.2927 Z0.1795
G1 X41.9278 Y-23.3684 Z0.1661
G1 X41.9278 Y-23.0842 Z0.1829 F22.
G1 X41.9278 Y-22.7994 Z0.1886
G1 X41.9278 Y-22.5147 Z0.1830
G1 X41.9278 Y-22.2304 Z0.1663
G1 X41.9278 Y-22.2304 Z0.2663 F21.
G0 Z0.3138
G0 X41.9278 Y-22.2304 
G0 Z0.3138
G0 X41.9278 Y-23.1699 
G1 X41.9278 Y-23.1699 Z0.1888 F21.
G1 X41.9278 Y-23.2169 Z0.1805
G1 X41.9278 Y-23.2927 Z0.1672
G1 X41.9278 Y-23.3684 Z0.1538
G1 X41.9278 Y-23.0842 Z0.1706 F22.
G1 X41.9278 Y-22.7994 Z0.1763
G1 X41.9278 Y-22.5147 Z0.1707
G1 X41.9278 Y-22.2304 Z0.1540
G1 X41.9278 Y-22.2304 Z0.2540 F21.
G0 Z0.3015
G0 X41.9278 Y-22.2304 
G0 Z0.3015
G0 X41.9278 Y-23.1699 
G1 X41.9278 Y-23.1699 Z0.1765 F21.
G1 X41.9278 Y-23.2169 Z0.1683
G1 X41.9278 Y-23.2927 Z0.1549
G1 X41.9278 Y-23.3684 Z0.1415
G1 X41.9278 Y-23.0842 Z0.1584 F22.
G1 X41.9278 Y-22.7994 Z0.1640
G1 X41.9278 Y-22.5147 Z0.1585
G1 X41.9278 Y-22.2304 Z0.1417
G1 X41.9278 Y-22.2304 Z0.2417 F21.
G0 Z0.3763
G0 X41.9278 Y-22.2304 
G0 Z0.3763
G0 X42.9190 Y-23.1570 
G1 X42.9190 Y-23.1570 Z0.2513 F21.
G1 X42.9190 Y-23.2074 Z0.2424
G1 X42.9190 Y-23.2815 Z0.2293
G1 X42.9190 Y-23.3555 Z0.2163
G1 X42.9190 Y-23.0777 Z0.2323 F22.
G1 X42.9190 Y-22.7994 Z0.2377
G1 X42.9190 Y-22.5212 Z0.2324
G1 X42.9190 Y-22.2434 Z0.2165
G1 X42.9190 Y-22.2434 Z0.3165 F21.
G0 Z0.3640
G0 X42.9190 Y-22.2434 
G0 Z0.3640
G0 X42.9190 Y-23.1570 
G1 X42.9190 Y-23.1570 Z0.2390 F21.
G1 X42.9190 Y-23.2074 Z0.2301
G1 X42.9190 Y-23.2815 Z0.2170
G1 X42.9190 Y-23.3555 Z0.2040
G1 X42.9190 Y-23.0777 Z0.2200 F22.
G1 X42.9190 Y-22.7994 Z0.2254
G1 X42.9190 Y-22.5212 Z0.2201
G1 X42.9190 Y-22.2434 Z0.2042
G1 X42.9190 Y-22.2434 Z0.3042 F21.
G0 Z0.3517
G0 X42.9190 Y-22.2434 
G0 Z0.3517
G0 X42.9190 Y-23.1570 
G1 X42.9190 Y-23.1570 Z0.2267 F21.
G1 X42.9190 Y-23.2074 Z0.2178
G1 X42.9190 Y-23.2815 Z0.2047
G1 X42.9190 Y-23.3555 Z0.1917
G1 X42.9190 Y-23.0777 Z0.2078 F22.
G1 X42.9190 Y-22.7994 Z0.2131
G1 X42.9190 Y-22.5212 Z0.2078
G1 X42.9190 Y-22.2434 Z0.1919
G1 X42.9190 Y-22.2434 Z0.2919 F21.
G0 Z0.3394
G0 X42.9190 Y-22.2434 
G0 Z0.3394
G0 X42.9190 Y-23.1570 
G1 X42.9190 Y-23.1570 Z0.2144 F21.
G1 X42.9190 Y-23.2074 Z0.2055
G1 X42.9190 Y-23.2815 Z0.1925
G1 X42.9190 Y-23.3555 Z0.1794
G1 X42.9190 Y-23.0777 Z0.1955 F22.
G1 X42.9190 Y-22.7994 Z0.2009
G1 X42.9190 Y-22.5212 Z0.1956
G1 X42.9190 Y-22.2434 Z0.1796
G1 X42.9190 Y-22.2434 Z0.2796 F21.
G0 Z0.3271
G0 X42.9190 Y-22.2434 
G0 Z0.3271
G0 X42.9190 Y-23.1570 
G1 X42.9190 Y-23.1570 Z0.2021 F21.
G1 X42.9190 Y-23.2074 Z0.1932
G1 X42.9190 Y-23.2815 Z0.1802
G1 X42.9190 Y-23.3555 Z0.1671
G1 X42.9190 Y-23.0777 Z0.1832 F22.
G1 X42.9190 Y-22.7994 Z0.1886
G1 X42.9190 Y-22.5212 Z0.1833
G1 X42.9190 Y-22.2434 Z0.1673
G1 X42.9190 Y-22.2434 Z0.2673 F21.
G0 Z0.3148
G0 X42.9190 Y-22.2434 
G0 Z0.3148
G0 X42.9190 Y-23.1570 
G1 X42.9190 Y-23.1570 Z0.1898 F21.
G1 X42.9190 Y-23.2074 Z0.1809
G1 X42.9190 Y-23.2815 Z0.1679
G1 X42.9190 Y-23.3555 Z0.1548
G1 X42.9190 Y-23.0777 Z0.1709 F22.
G1 X42.9190 Y-22.7994 Z0.1763
G1 X42.9190 Y-22.5212 Z0.1710
G1 X42.9190 Y-22.2434 Z0.1550
G1 X42.9190 Y-22.2434 Z0.2550 F21.
G0 Z0.3025
G0 X42.9190 Y-22.2434 
G0 Z0.3025
G0 X42.9190 Y-23.1570 
G1 X42.9190 Y-23.1570 Z0.1775 F21.
G1 X42.9190 Y-23.2074 Z0.1687
G1 X42.9190 Y-23.2815 Z0.1556
G1 X42.9190 Y-23.3555 Z0.1425
G1 X42.9190 Y-23.0777 Z0.1586 F22.
G1 X42.9190 Y-22.7994 Z0.1640
G1 X42.9190 Y-22.5212 Z0.1587
G1 X42.9190 Y-22.2434 Z0.1427
G1 X42.9190 Y-22.2434 Z0.2427 F21.
G0 Z0.3773
G0 X42.9190 Y-22.2434 
G0 Z0.3773
G0 X43.9690 Y-23.1433 
G1 X43.9690 Y-23.1433 Z0.2523 F21.
G1 X43.9690 Y-23.1974 Z0.2428
G1 X43.9690 Y-23.2696 Z0.2300
G1 X43.9690 Y-23.3418 Z0.2173
G1 X43.9690 Y-23.0708 Z0.2326 F22.
G1 X43.9690 Y-22.7994 Z0.2377
G1 X43.9690 Y-22.5281 Z0.2327
G1 X43.9690 Y-22.2571 Z0.2175
G1 X43.9690 Y-22.2571 Z0.3175 F21.
G0 Z0.3650
G0 X43.9690 Y-22.2571 
G0 Z0.3650
G0 X43.9690 Y-23.1433 
G1 X43.9690 Y-23.1433 Z0.2400 F21.
G1 X43.9690 Y-23.1974 Z0.2305
G1 X43.9690 Y-23.2696 Z0.2177
G1 X43.9690 Y-23.3418 Z0.2050
G1 X43.9690 Y-23.0708 Z0.2203 F22.
G1 X43.9690 Y-22.7994 Z0.2254
G1 X43.9690 Y-22.5281 Z0.2204
G1 X43.9690 Y-22.2571 Z0.2052
G1 X43.9690 Y-22.2571 Z0.3052 F21.
G0 Z0.3527
G0 X43.9690 Y-22.2571 
G0 Z0.3527
G0 X43.9690 Y-23.1433 
G1 X43.9690 Y-23.1433 Z0.2277 F21.
G1 X43.9690 Y-23.1974 Z0.2182
G1 X43.9690 Y-23.2696 Z0.2055
G1 X43.9690 Y-23.3418 Z0.1927
G1 X43.9690 Y-23.0708 Z0.2080 F22.
G1 X43.9690 Y-22.7994 Z0.2131
G1 X43.9690 Y-22.5281 Z0.2081
G1 X43.9690 Y-22.2571 Z0.1929
G1 X43.9690 Y-22.2571 Z0.2929 F21.
G0 Z0.3404
G0 X43.9690 Y-22.2571 
G0 Z0.3404
G0 X43.9690 Y-23.1433 
G1 X43.9690 Y-23.1433 Z0.2154 F21.
G1 X43.9690 Y-23.1974 Z0.2059
G1 X43.9690 Y-23.2696 Z0.1932
G1 X43.9690 Y-23.3418 Z0.1804
G1 X43.9690 Y-23.0708 Z0.1957 F22.
G1 X43.9690 Y-22.7994 Z0.2009
G1 X43.9690 Y-22.5281 Z0.1958
G1 X43.9690 Y-22.2571 Z0.1806
G1 X43.9690 Y-22.2571 Z0.2806 F21.
G0 Z0.3282
G0 X43.9690 Y-22.2571 
G0 Z0.3282
G0 X43.9690 Y-23.1433 
G1 X43.9690 Y-23.1433 Z0.2032 F21.
G1 X43.9690 Y-23.1974 Z0.1936
G1 X43.9690 Y-23.2696 Z0.1809
G1 X43.9690 Y-23.3418 Z0.1682
G1 X43.9690 Y-23.0708 Z0.1834 F22.
G1 X43.9690 Y-22.7994 Z0.1886
G1 X43.9690 Y-22.5281 Z0.1835
G1 X43.9690 Y-22.2571 Z0.1683
G1 X43.9690 Y-22.2571 Z0.2683 F21.
G0 Z0.3159
G0 X43.9690 Y-22.2571 
G0 Z0.3159
G0 X43.9690 Y-23.1433 
G1 X43.9690 Y-23.1433 Z0.1909 F21.
G1 X43.9690 Y-23.1974 Z0.1813
G1 X43.9690 Y-23.2696 Z0.1686
G1 X43.9690 Y-23.3418 Z0.1559
G1 X43.9690 Y-23.0708 Z0.1712 F22.
G1 X43.9690 Y-22.7994 Z0.1763
G1 X43.9690 Y-22.5281 Z0.1713
G1 X43.9690 Y-22.2571 Z0.1561
G1 X43.9690 Y-22.2571 Z0.2561 F21.
G0 Z0.3036
G0 X43.9690 Y-22.2571 
G0 Z0.3036
G0 X43.9690 Y-23.1433 
G1 X43.9690 Y-23.1433 Z0.1786 F21.
G1 X43.9690 Y-23.1974 Z0.1691
G1 X43.9690 Y-23.2696 Z0.1563
G1 X43.9690 Y-23.3418 Z0.1436
G1 X43.9690 Y-23.0708 Z0.1589 F22.
G1 X43.9690 Y-22.7994 Z0.1640
G1 X43.9690 Y-22.5281 Z0.1590
G1 X43.9690 Y-22.2571 Z0.1438
G1 X43.9690 Y-22.2571 Z0.2438 F21.
G0 Z0.3784
G0 X43.9690 Y-22.2571 
G0 Z0.3784
G0 X45.0815 Y-23.1288 
G1 X45.0815 Y-23.1288 Z0.2534 F21.
G1 X45.0815 Y-23.1867 Z0.2432
G1 X45.0815 Y-23.2570 Z0.2308
G1 X45.0815 Y-23.3273 Z0.2184
G1 X45.0815 Y-23.0635 Z0.2329 F22.
G1 X45.0815 Y-22.7994 Z0.2377
G1 X45.0815 Y-22.5353 Z0.2329
G1 X45.0815 Y-22.2716 Z0.2186
G1 X45.0815 Y-22.2716 Z0.3186 F21.
G0 Z0.3661
G0 X45.0815 Y-22.2716 
G0 Z0.3661
G0 X45.0815 Y-23.1288 
G1 X45.0815 Y-23.1288 Z0.2411 F21.
G1 X45.0815 Y-23.1867 Z0.2309
G1 X45.0815 Y-23.2570 Z0.2185
G1 X45.0815 Y-23.3273 Z0.2061
G1 X45.0815 Y-23.0635 Z0.2206 F22.
G1 X45.0815 Y-22.7994 Z0.2254
G1 X45.0815 Y-22.5353 Z0.2207
G1 X45.0815 Y-22.2716 Z0.2063
G1 X45.0815 Y-22.2716 Z0.3063 F21.
G0 Z0.3538
G0 X45.0815 Y-22.2716 
G0 Z0.3538
G0 X45.0815 Y-23.1288 
G1 X45.0815 Y-23.1288 Z0.2288 F21.
G1 X45.0815 Y-23.1867 Z0.2186
G1 X45.0815 Y-23.2570 Z0.2062
G1 X45.0815 Y-23.3273 Z0.1938
G1 X45.0815 Y-23.0635 Z0.2083 F22.
G1 X45.0815 Y-22.7994 Z0.2131
G1 X45.0815 Y-22.5353 Z0.2084
G1 X45.0815 Y-22.2716 Z0.1940
G1 X45.0815 Y-22.2716 Z0.2940 F21.
G0 Z0.3415
G0 X45.0815 Y-22.2716 
G0 Z0.3415
G0 X45.0815 Y-23.1288 
G1 X45.0815 Y-23.1288 Z0.2165 F21.
G1 X45.0815 Y-23.1867 Z0.2063
G1 X45.0815 Y-23.2570 Z0.1939
G1 X45.0815 Y-23.3273 Z0.1815
G1 X45.0815 Y-23.0635 Z0.1960 F22.
G1 X45.0815 Y-22.7994 Z0.2009
G1 X45.0815 Y-22.5353 Z0.1961
G1 X45.0815 Y-22.2716 Z0.1817
G1 X45.0815 Y-22.2716 Z0.2817 F21.
G0 Z0.3292
G0 X45.0815 Y-22.2716 
G0 Z0.3292
G0 X45.0815 Y-23.1288 
G1 X45.0815 Y-23.1288 Z0.2042 F21.
G1 X45.0815 Y-23.1867 Z0.1940
G1 X45.0815 Y-23.2570 Z0.1816
G1 X45.0815 Y-23.3273 Z0.1692
G1 X45.0815 Y-23.0635 Z0.1837 F22.
G1 X45.0815 Y-22.7994 Z0.1886
G1 X45.0815 Y-22.5353 Z0.1838
G1 X45.0815 Y-22.2716 Z0.1694
G1 X45.0815 Y-22.2716 Z0.2694 F21.
G0 Z0.3170
G0 X45.0815 Y-22.2716 
G0 Z0.3170
G0 X45.0815 Y-23.1288 
G1 X45.0815 Y-23.1288 Z0.1920 F21.
G1 X45.0815 Y-23.1867 Z0.1817
G1 X45.0815 Y-23.2570 Z0.1693
G1 X45.0815 Y-23.3273 Z0.1570
G1 X45.0815 Y-23.0635 Z0.1714 F22.
G1 X45.0815 Y-22.7994 Z0.1763
G1 X45.0815 Y-22.5353 Z0.1715
G1 X45.0815 Y-22.2716 Z0.1571
G1 X45.0815 Y-22.2716 Z0.2571 F21.
G0 Z0.3047
G0 X45.0815 Y-22.2716 
G0 Z0.3047
G0 X45.0815 Y-23.1288 
G1 X45.0815 Y-23.1288 Z0.1797 F21.
G1 X45.0815 Y-23.1867 Z0.1695
G1 X45.0815 Y-23.2570 Z0.1571
G1 X45.0815 Y-23.3273 Z0.1447
G1 X45.0815 Y-23.0635 Z0.1591 F22.
G1 X45.0815 Y-22.7994 Z0.1640
G1 X45.0815 Y-22.5353 Z0.1592
G1 X45.0815 Y-22.2716 Z0.1448
G1 X45.0815 Y-22.2716 Z0.2448 F21.
G0 Z1.3000
G0 X45.0815 Y-22.2716 
M5
G53 Z
X2Y0
