( MOP:  03-frets-r1016-s25PT5-NFrets24-JumboDepth-StandardKerf )
( FILE: G:\Shared drives\AlloyProjectFiles\Customer CAD files\Alloy-Standard-Builds-CAM\Fingerboards-in\03-frets-r1016-s25PT5-NFrets24-JumboDepth-StandardKerf.nc)
G90
(  BEGIN TOOL LIST )
(  TOOL 15 - Fretkerf PT025 - DESC: 0.0250 DIA, 2 FLUTE,  CARBIDE MAT )
(  ENDOF TOOL LIST )
( 03-frets-r1016-s25PT5-NFrets24-JumboDepth-StandardKerf)
T15
S14000
M3
G0 Z4.0000
G0 X27.1351 Y-23.9097 
G1 X27.1351 Y-23.9097 Z0.2104 F21.
G1 X27.1351 Y-24.0232 Z0.1904
G1 X27.1351 Y-23.8015 Z0.2056 F22.
G1 X27.1353 Y-23.5518 Z0.2190
G1 X27.1355 Y-23.3019 Z0.2286
G1 X27.1356 Y-23.0518 Z0.2344
G1 X27.1356 Y-22.8015 Z0.2363
G1 X27.1356 Y-22.5513 Z0.2344
G1 X27.1355 Y-22.3012 Z0.2286
G1 X27.1353 Y-22.0512 Z0.2190
G1 X27.1351 Y-21.8015 Z0.2056
G1 X27.1351 Y-21.5830 Z0.1906
G0 Z0.3717
G0 X27.1351 Y-21.5830 
G0 Z0.3717
G0 X27.1351 Y-23.9097 
G1 X27.1351 Y-23.9097 Z0.1967 F21.
G1 X27.1351 Y-24.0232 Z0.1767
G1 X27.1351 Y-23.8015 Z0.1919 F22.
G1 X27.1353 Y-23.5518 Z0.2053
G1 X27.1355 Y-23.3019 Z0.2149
G1 X27.1356 Y-23.0518 Z0.2207
G1 X27.1356 Y-22.8015 Z0.2226
G1 X27.1356 Y-22.5513 Z0.2207
G1 X27.1355 Y-22.3012 Z0.2149
G1 X27.1353 Y-22.0512 Z0.2053
G1 X27.1351 Y-21.8015 Z0.1919
G1 X27.1351 Y-21.5830 Z0.1769
G0 Z0.3580
G0 X27.1351 Y-21.5830 
G0 Z0.3580
G0 X27.1351 Y-23.9097 
G1 X27.1351 Y-23.9097 Z0.1830 F21.
G1 X27.1351 Y-24.0232 Z0.1630
G1 X27.1351 Y-23.8015 Z0.1781 F22.
G1 X27.1353 Y-23.5518 Z0.1916
G1 X27.1355 Y-23.3019 Z0.2012
G1 X27.1356 Y-23.0518 Z0.2069
G1 X27.1356 Y-22.8015 Z0.2089
G1 X27.1356 Y-22.5513 Z0.2069
G1 X27.1355 Y-22.3012 Z0.2012
G1 X27.1353 Y-22.0512 Z0.1916
G1 X27.1351 Y-21.8015 Z0.1781
G1 X27.1351 Y-21.5830 Z0.1632
G0 Z0.3443
G0 X27.1351 Y-21.5830 
G0 Z0.3443
G0 X27.1351 Y-23.9097 
G1 X27.1351 Y-23.9097 Z0.1693 F21.
G1 X27.1351 Y-24.0232 Z0.1493
G1 X27.1351 Y-23.8015 Z0.1644 F22.
G1 X27.1353 Y-23.5518 Z0.1779
G1 X27.1355 Y-23.3019 Z0.1875
G1 X27.1356 Y-23.0518 Z0.1932
G1 X27.1356 Y-22.8015 Z0.1951
G1 X27.1356 Y-22.5513 Z0.1932
G1 X27.1355 Y-22.3012 Z0.1875
G1 X27.1353 Y-22.0512 Z0.1779
G1 X27.1351 Y-21.8015 Z0.1644
G1 X27.1351 Y-21.5830 Z0.1495
G0 Z0.3306
G0 X27.1351 Y-21.5830 
G0 Z0.3306
G0 X27.1351 Y-23.9097 
G1 X27.1351 Y-23.9097 Z0.1556 F21.
G1 X27.1351 Y-24.0232 Z0.1356
G1 X27.1351 Y-23.8015 Z0.1507 F22.
G1 X27.1353 Y-23.5518 Z0.1641
G1 X27.1355 Y-23.3019 Z0.1737
G1 X27.1356 Y-23.0518 Z0.1795
G1 X27.1356 Y-22.8015 Z0.1814
G1 X27.1356 Y-22.5513 Z0.1795
G1 X27.1355 Y-22.3012 Z0.1737
G1 X27.1353 Y-22.0512 Z0.1641
G1 X27.1351 Y-21.8015 Z0.1507
G1 X27.1351 Y-21.5830 Z0.1358
G0 Z0.3168
G0 X27.1351 Y-21.5830 
G0 Z0.3168
G0 X27.1351 Y-23.9097 
G1 X27.1351 Y-23.9097 Z0.1418 F21.
G1 X27.1351 Y-24.0232 Z0.1218
G1 X27.1351 Y-23.8015 Z0.1370 F22.
G1 X27.1353 Y-23.5518 Z0.1504
G1 X27.1355 Y-23.3019 Z0.1600
G1 X27.1356 Y-23.0518 Z0.1658
G1 X27.1356 Y-22.8015 Z0.1677
G1 X27.1356 Y-22.5513 Z0.1658
G1 X27.1355 Y-22.3012 Z0.1600
G1 X27.1353 Y-22.0512 Z0.1504
G1 X27.1351 Y-21.8015 Z0.1370
G1 X27.1351 Y-21.5830 Z0.1221
G0 Z0.3031
G0 X27.1351 Y-21.5830 
G0 Z0.3031
G0 X27.1351 Y-23.9097 
G1 X27.1351 Y-23.9097 Z0.1281 F21.
G1 X27.1351 Y-24.0232 Z0.1081
G1 X27.1351 Y-23.8015 Z0.1233 F22.
G1 X27.1353 Y-23.5518 Z0.1367
G1 X27.1355 Y-23.3019 Z0.1463
G1 X27.1356 Y-23.0518 Z0.1521
G1 X27.1356 Y-22.8015 Z0.1540
G1 X27.1356 Y-22.5513 Z0.1521
G1 X27.1355 Y-22.3012 Z0.1463
G1 X27.1353 Y-22.0512 Z0.1367
G1 X27.1351 Y-21.8015 Z0.1233
G1 X27.1351 Y-21.5830 Z0.1084
G0 Z0.3854
G0 X27.1351 Y-21.5830 
G0 Z0.3854
G0 X27.5142 Y-23.9047 
G1 X27.5142 Y-23.9047 Z0.2104 F21.
G1 X27.5142 Y-23.9314 Z0.2057
G1 X27.5142 Y-24.0181 Z0.1904
G1 X27.5142 Y-23.9314 Z0.1967 F22.
G1 X27.5142 Y-23.8448 Z0.2026
G1 X27.5142 Y-23.7581 Z0.2080
G1 X27.5143 Y-23.6713 Z0.2129
G1 X27.5143 Y-23.5846 Z0.2174
G1 X27.5143 Y-23.4978 Z0.2213
G1 X27.5143 Y-23.4110 Z0.2249
G1 X27.5143 Y-23.3242 Z0.2279
G1 X27.5143 Y-23.2374 Z0.2305
G1 X27.5143 Y-23.1505 Z0.2326
G1 X27.5143 Y-23.0637 Z0.2343
G1 X27.5143 Y-22.9768 Z0.2354
G1 X27.5143 Y-22.8899 Z0.2362
G1 X27.5143 Y-22.8031 Z0.2364
G1 X27.5143 Y-22.7162 Z0.2362
G1 X27.5143 Y-22.6293 Z0.2355
G1 X27.5143 Y-22.5425 Z0.2343
G1 X27.5143 Y-22.4556 Z0.2327
G1 X27.5143 Y-22.3688 Z0.2306
G1 X27.5143 Y-22.2819 Z0.2280
G1 X27.5143 Y-22.1951 Z0.2250
G1 X27.5143 Y-22.1083 Z0.2215
G1 X27.5143 Y-22.0215 Z0.2175
G1 X27.5143 Y-21.9348 Z0.2131
G1 X27.5142 Y-21.8481 Z0.2082
G1 X27.5142 Y-21.7613 Z0.2028
G1 X27.5142 Y-21.6747 Z0.1969
G1 X27.5142 Y-21.5880 Z0.1906
G0 Z0.3717
G0 X27.5142 Y-21.5880 
G0 Z0.3717
G0 X27.5142 Y-23.9047 
G1 X27.5142 Y-23.9047 Z0.1967 F21.
G1 X27.5142 Y-23.9314 Z0.1920
G1 X27.5142 Y-24.0181 Z0.1767
G1 X27.5142 Y-23.9314 Z0.1830 F22.
G1 X27.5142 Y-23.8448 Z0.1889
G1 X27.5142 Y-23.7581 Z0.1943
G1 X27.5143 Y-23.6713 Z0.1992
G1 X27.5143 Y-23.5846 Z0.2036
G1 X27.5143 Y-23.4978 Z0.2076
G1 X27.5143 Y-23.4110 Z0.2112
G1 X27.5143 Y-23.3242 Z0.2142
G1 X27.5143 Y-23.2374 Z0.2168
G1 X27.5143 Y-23.1505 Z0.2189
G1 X27.5143 Y-23.0637 Z0.2206
G1 X27.5143 Y-22.9768 Z0.2217
G1 X27.5143 Y-22.8899 Z0.2224
G1 X27.5143 Y-22.8031 Z0.2227
G1 X27.5143 Y-22.7162 Z0.2225
G1 X27.5143 Y-22.6293 Z0.2218
G1 X27.5143 Y-22.5425 Z0.2206
G1 X27.5143 Y-22.4556 Z0.2190
G1 X27.5143 Y-22.3688 Z0.2169
G1 X27.5143 Y-22.2819 Z0.2143
G1 X27.5143 Y-22.1951 Z0.2113
G1 X27.5143 Y-22.1083 Z0.2078
G1 X27.5143 Y-22.0215 Z0.2038
G1 X27.5143 Y-21.9348 Z0.1994
G1 X27.5142 Y-21.8481 Z0.1944
G1 X27.5142 Y-21.7613 Z0.1891
G1 X27.5142 Y-21.6747 Z0.1832
G1 X27.5142 Y-21.5880 Z0.1769
G0 Z0.3580
G0 X27.5142 Y-21.5880 
G0 Z0.3580
G0 X27.5142 Y-23.9047 
G1 X27.5142 Y-23.9047 Z0.1830 F21.
G1 X27.5142 Y-23.9314 Z0.1783
G1 X27.5142 Y-24.0181 Z0.1630
G1 X27.5142 Y-23.9314 Z0.1693 F22.
G1 X27.5142 Y-23.8448 Z0.1752
G1 X27.5142 Y-23.7581 Z0.1805
G1 X27.5143 Y-23.6713 Z0.1855
G1 X27.5143 Y-23.5846 Z0.1899
G1 X27.5143 Y-23.4978 Z0.1939
G1 X27.5143 Y-23.4110 Z0.1974
G1 X27.5143 Y-23.3242 Z0.2005
G1 X27.5143 Y-23.2374 Z0.2031
G1 X27.5143 Y-23.1505 Z0.2052
G1 X27.5143 Y-23.0637 Z0.2068
G1 X27.5143 Y-22.9768 Z0.2080
G1 X27.5143 Y-22.8899 Z0.2087
G1 X27.5143 Y-22.8031 Z0.2090
G1 X27.5143 Y-22.7162 Z0.2087
G1 X27.5143 Y-22.6293 Z0.2080
G1 X27.5143 Y-22.5425 Z0.2069
G1 X27.5143 Y-22.4556 Z0.2053
G1 X27.5143 Y-22.3688 Z0.2032
G1 X27.5143 Y-22.2819 Z0.2006
G1 X27.5143 Y-22.1951 Z0.1976
G1 X27.5143 Y-22.1083 Z0.1940
G1 X27.5143 Y-22.0215 Z0.1901
G1 X27.5143 Y-21.9348 Z0.1856
G1 X27.5142 Y-21.8481 Z0.1807
G1 X27.5142 Y-21.7613 Z0.1754
G1 X27.5142 Y-21.6747 Z0.1695
G1 X27.5142 Y-21.5880 Z0.1632
G0 Z0.3443
G0 X27.5142 Y-21.5880 
G0 Z0.3443
G0 X27.5142 Y-23.9047 
G1 X27.5142 Y-23.9047 Z0.1693 F21.
G1 X27.5142 Y-23.9314 Z0.1645
G1 X27.5142 Y-24.0181 Z0.1493
G1 X27.5142 Y-23.9314 Z0.1556 F22.
G1 X27.5142 Y-23.8448 Z0.1614
G1 X27.5142 Y-23.7581 Z0.1668
G1 X27.5143 Y-23.6713 Z0.1718
G1 X27.5143 Y-23.5846 Z0.1762
G1 X27.5143 Y-23.4978 Z0.1802
G1 X27.5143 Y-23.4110 Z0.1837
G1 X27.5143 Y-23.3242 Z0.1868
G1 X27.5143 Y-23.2374 Z0.1894
G1 X27.5143 Y-23.1505 Z0.1915
G1 X27.5143 Y-23.0637 Z0.1931
G1 X27.5143 Y-22.9768 Z0.1943
G1 X27.5143 Y-22.8899 Z0.1950
G1 X27.5143 Y-22.8031 Z0.1953
G1 X27.5143 Y-22.7162 Z0.1950
G1 X27.5143 Y-22.6293 Z0.1943
G1 X27.5143 Y-22.5425 Z0.1932
G1 X27.5143 Y-22.4556 Z0.1915
G1 X27.5143 Y-22.3688 Z0.1894
G1 X27.5143 Y-22.2819 Z0.1869
G1 X27.5143 Y-22.1951 Z0.1838
G1 X27.5143 Y-22.1083 Z0.1803
G1 X27.5143 Y-22.0215 Z0.1764
G1 X27.5143 Y-21.9348 Z0.1719
G1 X27.5142 Y-21.8481 Z0.1670
G1 X27.5142 Y-21.7613 Z0.1616
G1 X27.5142 Y-21.6747 Z0.1558
G1 X27.5142 Y-21.5880 Z0.1495
G0 Z0.3305
G0 X27.5142 Y-21.5880 
G0 Z0.3305
G0 X27.5142 Y-23.9047 
G1 X27.5142 Y-23.9047 Z0.1555 F21.
G1 X27.5142 Y-23.9314 Z0.1508
G1 X27.5142 Y-24.0181 Z0.1355
G1 X27.5142 Y-23.9314 Z0.1419 F22.
G1 X27.5142 Y-23.8448 Z0.1477
G1 X27.5142 Y-23.7581 Z0.1531
G1 X27.5143 Y-23.6713 Z0.1580
G1 X27.5143 Y-23.5846 Z0.1625
G1 X27.5143 Y-23.4978 Z0.1665
G1 X27.5143 Y-23.4110 Z0.1700
G1 X27.5143 Y-23.3242 Z0.1731
G1 X27.5143 Y-23.2374 Z0.1756
G1 X27.5143 Y-23.1505 Z0.1778
G1 X27.5143 Y-23.0637 Z0.1794
G1 X27.5143 Y-22.9768 Z0.1806
G1 X27.5143 Y-22.8899 Z0.1813
G1 X27.5143 Y-22.8031 Z0.1815
G1 X27.5143 Y-22.7162 Z0.1813
G1 X27.5143 Y-22.6293 Z0.1806
G1 X27.5143 Y-22.5425 Z0.1795
G1 X27.5143 Y-22.4556 Z0.1778
G1 X27.5143 Y-22.3688 Z0.1757
G1 X27.5143 Y-22.2819 Z0.1732
G1 X27.5143 Y-22.1951 Z0.1701
G1 X27.5143 Y-22.1083 Z0.1666
G1 X27.5143 Y-22.0215 Z0.1626
G1 X27.5143 Y-21.9348 Z0.1582
G1 X27.5142 Y-21.8481 Z0.1533
G1 X27.5142 Y-21.7613 Z0.1479
G1 X27.5142 Y-21.6747 Z0.1421
G1 X27.5142 Y-21.5880 Z0.1358
G0 Z0.3168
G0 X27.5142 Y-21.5880 
G0 Z0.3168
G0 X27.5142 Y-23.9047 
G1 X27.5142 Y-23.9047 Z0.1418 F21.
G1 X27.5142 Y-23.9314 Z0.1371
G1 X27.5142 Y-24.0181 Z0.1218
G1 X27.5142 Y-23.9314 Z0.1282 F22.
G1 X27.5142 Y-23.8448 Z0.1340
G1 X27.5142 Y-23.7581 Z0.1394
G1 X27.5143 Y-23.6713 Z0.1443
G1 X27.5143 Y-23.5846 Z0.1488
G1 X27.5143 Y-23.4978 Z0.1528
G1 X27.5143 Y-23.4110 Z0.1563
G1 X27.5143 Y-23.3242 Z0.1593
G1 X27.5143 Y-23.2374 Z0.1619
G1 X27.5143 Y-23.1505 Z0.1640
G1 X27.5143 Y-23.0637 Z0.1657
G1 X27.5143 Y-22.9768 Z0.1669
G1 X27.5143 Y-22.8899 Z0.1676
G1 X27.5143 Y-22.8031 Z0.1678
G1 X27.5143 Y-22.7162 Z0.1676
G1 X27.5143 Y-22.6293 Z0.1669
G1 X27.5143 Y-22.5425 Z0.1657
G1 X27.5143 Y-22.4556 Z0.1641
G1 X27.5143 Y-22.3688 Z0.1620
G1 X27.5143 Y-22.2819 Z0.1594
G1 X27.5143 Y-22.1951 Z0.1564
G1 X27.5143 Y-22.1083 Z0.1529
G1 X27.5143 Y-22.0215 Z0.1489
G1 X27.5143 Y-21.9348 Z0.1445
G1 X27.5142 Y-21.8481 Z0.1396
G1 X27.5142 Y-21.7613 Z0.1342
G1 X27.5142 Y-21.6747 Z0.1284
G1 X27.5142 Y-21.5880 Z0.1221
G0 Z0.3031
G0 X27.5142 Y-21.5880 
G0 Z0.3031
G0 X27.5142 Y-23.9047 
G1 X27.5142 Y-23.9047 Z0.1281 F21.
G1 X27.5142 Y-23.9314 Z0.1234
G1 X27.5142 Y-24.0181 Z0.1081
G1 X27.5142 Y-23.9314 Z0.1144 F22.
G1 X27.5142 Y-23.8448 Z0.1203
G1 X27.5142 Y-23.7581 Z0.1257
G1 X27.5143 Y-23.6713 Z0.1306
G1 X27.5143 Y-23.5846 Z0.1351
G1 X27.5143 Y-23.4978 Z0.1391
G1 X27.5143 Y-23.4110 Z0.1426
G1 X27.5143 Y-23.3242 Z0.1456
G1 X27.5143 Y-23.2374 Z0.1482
G1 X27.5143 Y-23.1505 Z0.1503
G1 X27.5143 Y-23.0637 Z0.1520
G1 X27.5143 Y-22.9768 Z0.1532
G1 X27.5143 Y-22.8899 Z0.1539
G1 X27.5143 Y-22.8031 Z0.1541
G1 X27.5143 Y-22.7162 Z0.1539
G1 X27.5143 Y-22.6293 Z0.1532
G1 X27.5143 Y-22.5425 Z0.1520
G1 X27.5143 Y-22.4556 Z0.1504
G1 X27.5143 Y-22.3688 Z0.1483
G1 X27.5143 Y-22.2819 Z0.1457
G1 X27.5143 Y-22.1951 Z0.1427
G1 X27.5143 Y-22.1083 Z0.1392
G1 X27.5143 Y-22.0215 Z0.1352
G1 X27.5143 Y-21.9348 Z0.1308
G1 X27.5142 Y-21.8481 Z0.1259
G1 X27.5142 Y-21.7613 Z0.1205
G1 X27.5142 Y-21.6747 Z0.1147
G1 X27.5142 Y-21.5880 Z0.1083
G0 Z0.3854
G0 X27.5142 Y-21.5880 
G0 Z0.3854
G0 X27.9158 Y-23.8993 
G1 X27.9158 Y-23.8993 Z0.2104 F21.
G1 X27.9158 Y-23.9264 Z0.2056
G1 X27.9158 Y-24.0127 Z0.1904
G1 X27.9158 Y-23.9264 Z0.1967 F22.
G1 X27.9158 Y-23.8401 Z0.2025
G1 X27.9158 Y-23.7538 Z0.2079
G1 X27.9158 Y-23.6675 Z0.2128
G1 X27.9158 Y-23.5811 Z0.2173
G1 X27.9158 Y-23.4947 Z0.2213
G1 X27.9158 Y-23.4083 Z0.2248
G1 X27.9158 Y-23.3219 Z0.2278
G1 X27.9158 Y-23.2354 Z0.2304
G1 X27.9158 Y-23.1489 Z0.2325
G1 X27.9158 Y-23.0625 Z0.2342
G1 X27.9158 Y-22.9760 Z0.2353
G1 X27.9158 Y-22.8895 Z0.2360
G1 X27.9158 Y-22.8030 Z0.2363
G1 X27.9158 Y-22.7165 Z0.2361
G1 X27.9158 Y-22.6301 Z0.2354
G1 X27.9158 Y-22.5436 Z0.2342
G1 X27.9158 Y-22.4571 Z0.2326
G1 X27.9158 Y-22.3706 Z0.2305
G1 X27.9158 Y-22.2842 Z0.2279
G1 X27.9158 Y-22.1978 Z0.2249
G1 X27.9158 Y-22.1114 Z0.2214
G1 X27.9158 Y-22.0250 Z0.2174
G1 X27.9158 Y-21.9386 Z0.2130
G1 X27.9158 Y-21.8522 Z0.2081
G1 X27.9158 Y-21.7659 Z0.2027
G1 X27.9158 Y-21.6796 Z0.1969
G1 X27.9158 Y-21.5934 Z0.1906
G0 Z0.3717
G0 X27.9158 Y-21.5934 
G0 Z0.3717
G0 X27.9158 Y-23.8993 
G1 X27.9158 Y-23.8993 Z0.1967 F21.
G1 X27.9158 Y-23.9264 Z0.1919
G1 X27.9158 Y-24.0127 Z0.1767
G1 X27.9158 Y-23.9264 Z0.1830 F22.
G1 X27.9158 Y-23.8401 Z0.1888
G1 X27.9158 Y-23.7538 Z0.1942
G1 X27.9158 Y-23.6675 Z0.1991
G1 X27.9158 Y-23.5811 Z0.2036
G1 X27.9158 Y-23.4947 Z0.2076
G1 X27.9158 Y-23.4083 Z0.2111
G1 X27.9158 Y-23.3219 Z0.2141
G1 X27.9158 Y-23.2354 Z0.2167
G1 X27.9158 Y-23.1489 Z0.2188
G1 X27.9158 Y-23.0625 Z0.2204
G1 X27.9158 Y-22.9760 Z0.2216
G1 X27.9158 Y-22.8895 Z0.2223
G1 X27.9158 Y-22.8030 Z0.2226
G1 X27.9158 Y-22.7165 Z0.2223
G1 X27.9158 Y-22.6301 Z0.2217
G1 X27.9158 Y-22.5436 Z0.2205
G1 X27.9158 Y-22.4571 Z0.2189
G1 X27.9158 Y-22.3706 Z0.2168
G1 X27.9158 Y-22.2842 Z0.2142
G1 X27.9158 Y-22.1978 Z0.2112
G1 X27.9158 Y-22.1114 Z0.2077
G1 X27.9158 Y-22.0250 Z0.2037
G1 X27.9158 Y-21.9386 Z0.1993
G1 X27.9158 Y-21.8522 Z0.1944
G1 X27.9158 Y-21.7659 Z0.1890
G1 X27.9158 Y-21.6796 Z0.1832
G1 X27.9158 Y-21.5934 Z0.1769
G0 Z0.3580
G0 X27.9158 Y-21.5934 
G0 Z0.3580
G0 X27.9158 Y-23.8993 
G1 X27.9158 Y-23.8993 Z0.1830 F21.
G1 X27.9158 Y-23.9264 Z0.1782
G1 X27.9158 Y-24.0127 Z0.1630
G1 X27.9158 Y-23.9264 Z0.1693 F22.
G1 X27.9158 Y-23.8401 Z0.1751
G1 X27.9158 Y-23.7538 Z0.1805
G1 X27.9158 Y-23.6675 Z0.1854
G1 X27.9158 Y-23.5811 Z0.1899
G1 X27.9158 Y-23.4947 Z0.1938
G1 X27.9158 Y-23.4083 Z0.1974
G1 X27.9158 Y-23.3219 Z0.2004
G1 X27.9158 Y-23.2354 Z0.2030
G1 X27.9158 Y-23.1489 Z0.2051
G1 X27.9158 Y-23.0625 Z0.2067
G1 X27.9158 Y-22.9760 Z0.2079
G1 X27.9158 Y-22.8895 Z0.2086
G1 X27.9158 Y-22.8030 Z0.2089
G1 X27.9158 Y-22.7165 Z0.2086
G1 X27.9158 Y-22.6301 Z0.2079
G1 X27.9158 Y-22.5436 Z0.2068
G1 X27.9158 Y-22.4571 Z0.2052
G1 X27.9158 Y-22.3706 Z0.2031
G1 X27.9158 Y-22.2842 Z0.2005
G1 X27.9158 Y-22.1978 Z0.1975
G1 X27.9158 Y-22.1114 Z0.1940
G1 X27.9158 Y-22.0250 Z0.1900
G1 X27.9158 Y-21.9386 Z0.1856
G1 X27.9158 Y-21.8522 Z0.1807
G1 X27.9158 Y-21.7659 Z0.1753
G1 X27.9158 Y-21.6796 Z0.1695
G1 X27.9158 Y-21.5934 Z0.1632
G0 Z0.3442
G0 X27.9158 Y-21.5934 
G0 Z0.3442
G0 X27.9158 Y-23.8993 
G1 X27.9158 Y-23.8993 Z0.1692 F21.
G1 X27.9158 Y-23.9264 Z0.1645
G1 X27.9158 Y-24.0127 Z0.1492
G1 X27.9158 Y-23.9264 Z0.1556 F22.
G1 X27.9158 Y-23.8401 Z0.1614
G1 X27.9158 Y-23.7538 Z0.1668
G1 X27.9158 Y-23.6675 Z0.1717
G1 X27.9158 Y-23.5811 Z0.1761
G1 X27.9158 Y-23.4947 Z0.1801
G1 X27.9158 Y-23.4083 Z0.1836
G1 X27.9158 Y-23.3219 Z0.1867
G1 X27.9158 Y-23.2354 Z0.1893
G1 X27.9158 Y-23.1489 Z0.1914
G1 X27.9158 Y-23.0625 Z0.1930
G1 X27.9158 Y-22.9760 Z0.1942
G1 X27.9158 Y-22.8895 Z0.1949
G1 X27.9158 Y-22.8030 Z0.1951
G1 X27.9158 Y-22.7165 Z0.1949
G1 X27.9158 Y-22.6301 Z0.1942
G1 X27.9158 Y-22.5436 Z0.1931
G1 X27.9158 Y-22.4571 Z0.1914
G1 X27.9158 Y-22.3706 Z0.1893
G1 X27.9158 Y-22.2842 Z0.1868
G1 X27.9158 Y-22.1978 Z0.1838
G1 X27.9158 Y-22.1114 Z0.1803
G1 X27.9158 Y-22.0250 Z0.1763
G1 X27.9158 Y-21.9386 Z0.1719
G1 X27.9158 Y-21.8522 Z0.1670
G1 X27.9158 Y-21.7659 Z0.1616
G1 X27.9158 Y-21.6796 Z0.1558
G1 X27.9158 Y-21.5934 Z0.1495
G0 Z0.3305
G0 X27.9158 Y-21.5934 
G0 Z0.3305
G0 X27.9158 Y-23.8993 
G1 X27.9158 Y-23.8993 Z0.1555 F21.
G1 X27.9158 Y-23.9264 Z0.1507
G1 X27.9158 Y-24.0127 Z0.1355
G1 X27.9158 Y-23.9264 Z0.1418 F22.
G1 X27.9158 Y-23.8401 Z0.1477
G1 X27.9158 Y-23.7538 Z0.1531
G1 X27.9158 Y-23.6675 Z0.1580
G1 X27.9158 Y-23.5811 Z0.1624
G1 X27.9158 Y-23.4947 Z0.1664
G1 X27.9158 Y-23.4083 Z0.1699
G1 X27.9158 Y-23.3219 Z0.1730
G1 X27.9158 Y-23.2354 Z0.1755
G1 X27.9158 Y-23.1489 Z0.1777
G1 X27.9158 Y-23.0625 Z0.1793
G1 X27.9158 Y-22.9760 Z0.1805
G1 X27.9158 Y-22.8895 Z0.1812
G1 X27.9158 Y-22.8030 Z0.1814
G1 X27.9158 Y-22.7165 Z0.1812
G1 X27.9158 Y-22.6301 Z0.1805
G1 X27.9158 Y-22.5436 Z0.1794
G1 X27.9158 Y-22.4571 Z0.1777
G1 X27.9158 Y-22.3706 Z0.1756
G1 X27.9158 Y-22.2842 Z0.1731
G1 X27.9158 Y-22.1978 Z0.1700
G1 X27.9158 Y-22.1114 Z0.1665
G1 X27.9158 Y-22.0250 Z0.1626
G1 X27.9158 Y-21.9386 Z0.1581
G1 X27.9158 Y-21.8522 Z0.1532
G1 X27.9158 Y-21.7659 Z0.1479
G1 X27.9158 Y-21.6796 Z0.1421
G1 X27.9158 Y-21.5934 Z0.1358
G0 Z0.3168
G0 X27.9158 Y-21.5934 
G0 Z0.3168
G0 X27.9158 Y-23.8993 
G1 X27.9158 Y-23.8993 Z0.1418 F21.
G1 X27.9158 Y-23.9264 Z0.1370
G1 X27.9158 Y-24.0127 Z0.1218
G1 X27.9158 Y-23.9264 Z0.1281 F22.
G1 X27.9158 Y-23.8401 Z0.1340
G1 X27.9158 Y-23.7538 Z0.1394
G1 X27.9158 Y-23.6675 Z0.1443
G1 X27.9158 Y-23.5811 Z0.1487
G1 X27.9158 Y-23.4947 Z0.1527
G1 X27.9158 Y-23.4083 Z0.1562
G1 X27.9158 Y-23.3219 Z0.1593
G1 X27.9158 Y-23.2354 Z0.1618
G1 X27.9158 Y-23.1489 Z0.1639
G1 X27.9158 Y-23.0625 Z0.1656
G1 X27.9158 Y-22.9760 Z0.1668
G1 X27.9158 Y-22.8895 Z0.1675
G1 X27.9158 Y-22.8030 Z0.1677
G1 X27.9158 Y-22.7165 Z0.1675
G1 X27.9158 Y-22.6301 Z0.1668
G1 X27.9158 Y-22.5436 Z0.1656
G1 X27.9158 Y-22.4571 Z0.1640
G1 X27.9158 Y-22.3706 Z0.1619
G1 X27.9158 Y-22.2842 Z0.1594
G1 X27.9158 Y-22.1978 Z0.1563
G1 X27.9158 Y-22.1114 Z0.1528
G1 X27.9158 Y-22.0250 Z0.1489
G1 X27.9158 Y-21.9386 Z0.1444
G1 X27.9158 Y-21.8522 Z0.1395
G1 X27.9158 Y-21.7659 Z0.1342
G1 X27.9158 Y-21.6796 Z0.1283
G1 X27.9158 Y-21.5934 Z0.1220
G0 Z0.3031
G0 X27.9158 Y-21.5934 
G0 Z0.3031
G0 X27.9158 Y-23.8993 
G1 X27.9158 Y-23.8993 Z0.1281 F21.
G1 X27.9158 Y-23.9264 Z0.1233
G1 X27.9158 Y-24.0127 Z0.1081
G1 X27.9158 Y-23.9264 Z0.1144 F22.
G1 X27.9158 Y-23.8401 Z0.1203
G1 X27.9158 Y-23.7538 Z0.1256
G1 X27.9158 Y-23.6675 Z0.1306
G1 X27.9158 Y-23.5811 Z0.1350
G1 X27.9158 Y-23.4947 Z0.1390
G1 X27.9158 Y-23.4083 Z0.1425
G1 X27.9158 Y-23.3219 Z0.1455
G1 X27.9158 Y-23.2354 Z0.1481
G1 X27.9158 Y-23.1489 Z0.1502
G1 X27.9158 Y-23.0625 Z0.1519
G1 X27.9158 Y-22.9760 Z0.1531
G1 X27.9158 Y-22.8895 Z0.1538
G1 X27.9158 Y-22.8030 Z0.1540
G1 X27.9158 Y-22.7165 Z0.1538
G1 X27.9158 Y-22.6301 Z0.1531
G1 X27.9158 Y-22.5436 Z0.1519
G1 X27.9158 Y-22.4571 Z0.1503
G1 X27.9158 Y-22.3706 Z0.1482
G1 X27.9158 Y-22.2842 Z0.1456
G1 X27.9158 Y-22.1978 Z0.1426
G1 X27.9158 Y-22.1114 Z0.1391
G1 X27.9158 Y-22.0250 Z0.1351
G1 X27.9158 Y-21.9386 Z0.1307
G1 X27.9158 Y-21.8522 Z0.1258
G1 X27.9158 Y-21.7659 Z0.1205
G1 X27.9158 Y-21.6796 Z0.1146
G1 X27.9158 Y-21.5934 Z0.1083
G0 Z0.3854
G0 X27.9158 Y-21.5934 
G0 Z0.3854
G0 X28.3413 Y-23.8935 
G1 X28.3413 Y-23.8935 Z0.2104 F21.
G1 X28.3413 Y-23.9211 Z0.2055
G1 X28.3413 Y-24.0070 Z0.1904
G1 X28.3413 Y-23.9211 Z0.1967 F22.
G1 X28.3413 Y-23.8352 Z0.2026
G1 X28.3413 Y-23.7493 Z0.2080
G1 X28.3413 Y-23.6634 Z0.2129
G1 X28.3413 Y-23.5774 Z0.2173
G1 X28.3412 Y-23.4914 Z0.2213
G1 X28.3412 Y-23.4054 Z0.2249
G1 X28.3412 Y-23.3194 Z0.2279
G1 X28.3412 Y-23.2333 Z0.2305
G1 X28.3412 Y-23.1473 Z0.2326
G1 X28.3412 Y-23.0612 Z0.2343
G1 X28.3412 Y-22.9752 Z0.2354
G1 X28.3412 Y-22.8891 Z0.2362
G1 X28.3412 Y-22.8030 Z0.2364
G1 X28.3412 Y-22.7169 Z0.2362
G1 X28.3412 Y-22.6308 Z0.2355
G1 X28.3412 Y-22.5448 Z0.2343
G1 X28.3412 Y-22.4587 Z0.2327
G1 X28.3412 Y-22.3726 Z0.2306
G1 X28.3412 Y-22.2866 Z0.2280
G1 X28.3412 Y-22.2006 Z0.2250
G1 X28.3412 Y-22.1146 Z0.2215
G1 X28.3413 Y-22.0286 Z0.2175
G1 X28.3413 Y-21.9426 Z0.2130
G1 X28.3413 Y-21.8567 Z0.2081
G1 X28.3413 Y-21.7708 Z0.2028
G1 X28.3413 Y-21.6849 Z0.1969
G1 X28.3413 Y-21.5990 Z0.1906
G0 Z0.3717
G0 X28.3413 Y-21.5990 
G0 Z0.3717
G0 X28.3413 Y-23.8935 
G1 X28.3413 Y-23.8935 Z0.1967 F21.
G1 X28.3413 Y-23.9211 Z0.1918
G1 X28.3413 Y-24.0070 Z0.1767
G1 X28.3413 Y-23.9211 Z0.1830 F22.
G1 X28.3413 Y-23.8352 Z0.1889
G1 X28.3413 Y-23.7493 Z0.1942
G1 X28.3413 Y-23.6634 Z0.1992
G1 X28.3413 Y-23.5774 Z0.2036
G1 X28.3412 Y-23.4914 Z0.2076
G1 X28.3412 Y-23.4054 Z0.2111
G1 X28.3412 Y-23.3194 Z0.2142
G1 X28.3412 Y-23.2333 Z0.2168
G1 X28.3412 Y-23.1473 Z0.2189
G1 X28.3412 Y-23.0612 Z0.2205
G1 X28.3412 Y-22.9752 Z0.2217
G1 X28.3412 Y-22.8891 Z0.2224
G1 X28.3412 Y-22.8030 Z0.2227
G1 X28.3412 Y-22.7169 Z0.2225
G1 X28.3412 Y-22.6308 Z0.2218
G1 X28.3412 Y-22.5448 Z0.2206
G1 X28.3412 Y-22.4587 Z0.2190
G1 X28.3412 Y-22.3726 Z0.2169
G1 X28.3412 Y-22.2866 Z0.2143
G1 X28.3412 Y-22.2006 Z0.2113
G1 X28.3412 Y-22.1146 Z0.2077
G1 X28.3413 Y-22.0286 Z0.2038
G1 X28.3413 Y-21.9426 Z0.1993
G1 X28.3413 Y-21.8567 Z0.1944
G1 X28.3413 Y-21.7708 Z0.1890
G1 X28.3413 Y-21.6849 Z0.1832
G1 X28.3413 Y-21.5990 Z0.1769
G0 Z0.3579
G0 X28.3413 Y-21.5990 
G0 Z0.3579
G0 X28.3413 Y-23.8935 
G1 X28.3413 Y-23.8935 Z0.1829 F21.
G1 X28.3413 Y-23.9211 Z0.1781
G1 X28.3413 Y-24.0070 Z0.1629
G1 X28.3413 Y-23.9211 Z0.1693 F22.
G1 X28.3413 Y-23.8352 Z0.1751
G1 X28.3413 Y-23.7493 Z0.1805
G1 X28.3413 Y-23.6634 Z0.1855
G1 X28.3413 Y-23.5774 Z0.1899
G1 X28.3412 Y-23.4914 Z0.1939
G1 X28.3412 Y-23.4054 Z0.1974
G1 X28.3412 Y-23.3194 Z0.2005
G1 X28.3412 Y-23.2333 Z0.2031
G1 X28.3412 Y-23.1473 Z0.2052
G1 X28.3412 Y-23.0612 Z0.2068
G1 X28.3412 Y-22.9752 Z0.2080
G1 X28.3412 Y-22.8891 Z0.2087
G1 X28.3412 Y-22.8030 Z0.2090
G1 X28.3412 Y-22.7169 Z0.2087
G1 X28.3412 Y-22.6308 Z0.2080
G1 X28.3412 Y-22.5448 Z0.2069
G1 X28.3412 Y-22.4587 Z0.2052
G1 X28.3412 Y-22.3726 Z0.2031
G1 X28.3412 Y-22.2866 Z0.2006
G1 X28.3412 Y-22.2006 Z0.1975
G1 X28.3412 Y-22.1146 Z0.1940
G1 X28.3413 Y-22.0286 Z0.1901
G1 X28.3413 Y-21.9426 Z0.1856
G1 X28.3413 Y-21.8567 Z0.1807
G1 X28.3413 Y-21.7708 Z0.1753
G1 X28.3413 Y-21.6849 Z0.1695
G1 X28.3413 Y-21.5990 Z0.1632
G0 Z0.3442
G0 X28.3413 Y-21.5990 
G0 Z0.3442
G0 X28.3413 Y-23.8935 
G1 X28.3413 Y-23.8935 Z0.1692 F21.
G1 X28.3413 Y-23.9211 Z0.1644
G1 X28.3413 Y-24.0070 Z0.1492
G1 X28.3413 Y-23.9211 Z0.1556 F22.
G1 X28.3413 Y-23.8352 Z0.1614
G1 X28.3413 Y-23.7493 Z0.1668
G1 X28.3413 Y-23.6634 Z0.1717
G1 X28.3413 Y-23.5774 Z0.1762
G1 X28.3412 Y-23.4914 Z0.1802
G1 X28.3412 Y-23.4054 Z0.1837
G1 X28.3412 Y-23.3194 Z0.1868
G1 X28.3412 Y-23.2333 Z0.1894
G1 X28.3412 Y-23.1473 Z0.1915
G1 X28.3412 Y-23.0612 Z0.1931
G1 X28.3412 Y-22.9752 Z0.1943
G1 X28.3412 Y-22.8891 Z0.1950
G1 X28.3412 Y-22.8030 Z0.1952
G1 X28.3412 Y-22.7169 Z0.1950
G1 X28.3412 Y-22.6308 Z0.1943
G1 X28.3412 Y-22.5448 Z0.1932
G1 X28.3412 Y-22.4587 Z0.1915
G1 X28.3412 Y-22.3726 Z0.1894
G1 X28.3412 Y-22.2866 Z0.1869
G1 X28.3412 Y-22.2006 Z0.1838
G1 X28.3412 Y-22.1146 Z0.1803
G1 X28.3413 Y-22.0286 Z0.1763
G1 X28.3413 Y-21.9426 Z0.1719
G1 X28.3413 Y-21.8567 Z0.1670
G1 X28.3413 Y-21.7708 Z0.1616
G1 X28.3413 Y-21.6849 Z0.1558
G1 X28.3413 Y-21.5990 Z0.1495
G0 Z0.3305
G0 X28.3413 Y-21.5990 
G0 Z0.3305
G0 X28.3413 Y-23.8935 
G1 X28.3413 Y-23.8935 Z0.1555 F21.
G1 X28.3413 Y-23.9211 Z0.1507
G1 X28.3413 Y-24.0070 Z0.1355
G1 X28.3413 Y-23.9211 Z0.1418 F22.
G1 X28.3413 Y-23.8352 Z0.1477
G1 X28.3413 Y-23.7493 Z0.1531
G1 X28.3413 Y-23.6634 Z0.1580
G1 X28.3413 Y-23.5774 Z0.1625
G1 X28.3412 Y-23.4914 Z0.1665
G1 X28.3412 Y-23.4054 Z0.1700
G1 X28.3412 Y-23.3194 Z0.1731
G1 X28.3412 Y-23.2333 Z0.1756
G1 X28.3412 Y-23.1473 Z0.1778
G1 X28.3412 Y-23.0612 Z0.1794
G1 X28.3412 Y-22.9752 Z0.1806
G1 X28.3412 Y-22.8891 Z0.1813
G1 X28.3412 Y-22.8030 Z0.1815
G1 X28.3412 Y-22.7169 Z0.1813
G1 X28.3412 Y-22.6308 Z0.1806
G1 X28.3412 Y-22.5448 Z0.1795
G1 X28.3412 Y-22.4587 Z0.1778
G1 X28.3412 Y-22.3726 Z0.1757
G1 X28.3412 Y-22.2866 Z0.1731
G1 X28.3412 Y-22.2006 Z0.1701
G1 X28.3412 Y-22.1146 Z0.1666
G1 X28.3413 Y-22.0286 Z0.1626
G1 X28.3413 Y-21.9426 Z0.1582
G1 X28.3413 Y-21.8567 Z0.1533
G1 X28.3413 Y-21.7708 Z0.1479
G1 X28.3413 Y-21.6849 Z0.1421
G1 X28.3413 Y-21.5990 Z0.1357
G0 Z0.3168
G0 X28.3413 Y-21.5990 
G0 Z0.3168
G0 X28.3413 Y-23.8935 
G1 X28.3413 Y-23.8935 Z0.1418 F21.
G1 X28.3413 Y-23.9211 Z0.1369
G1 X28.3413 Y-24.0070 Z0.1218
G1 X28.3413 Y-23.9211 Z0.1281 F22.
G1 X28.3413 Y-23.8352 Z0.1340
G1 X28.3413 Y-23.7493 Z0.1394
G1 X28.3413 Y-23.6634 Z0.1443
G1 X28.3413 Y-23.5774 Z0.1488
G1 X28.3412 Y-23.4914 Z0.1528
G1 X28.3412 Y-23.4054 Z0.1563
G1 X28.3412 Y-23.3194 Z0.1593
G1 X28.3412 Y-23.2333 Z0.1619
G1 X28.3412 Y-23.1473 Z0.1640
G1 X28.3412 Y-23.0612 Z0.1657
G1 X28.3412 Y-22.9752 Z0.1669
G1 X28.3412 Y-22.8891 Z0.1676
G1 X28.3412 Y-22.8030 Z0.1678
G1 X28.3412 Y-22.7169 Z0.1676
G1 X28.3412 Y-22.6308 Z0.1669
G1 X28.3412 Y-22.5448 Z0.1657
G1 X28.3412 Y-22.4587 Z0.1641
G1 X28.3412 Y-22.3726 Z0.1620
G1 X28.3412 Y-22.2866 Z0.1594
G1 X28.3412 Y-22.2006 Z0.1564
G1 X28.3412 Y-22.1146 Z0.1529
G1 X28.3413 Y-22.0286 Z0.1489
G1 X28.3413 Y-21.9426 Z0.1445
G1 X28.3413 Y-21.8567 Z0.1396
G1 X28.3413 Y-21.7708 Z0.1342
G1 X28.3413 Y-21.6849 Z0.1283
G1 X28.3413 Y-21.5990 Z0.1220
G0 Z0.3031
G0 X28.3413 Y-21.5990 
G0 Z0.3031
G0 X28.3413 Y-23.8935 
G1 X28.3413 Y-23.8935 Z0.1281 F21.
G1 X28.3413 Y-23.9211 Z0.1232
G1 X28.3413 Y-24.0070 Z0.1081
G1 X28.3413 Y-23.9211 Z0.1144 F22.
G1 X28.3413 Y-23.8352 Z0.1203
G1 X28.3413 Y-23.7493 Z0.1257
G1 X28.3413 Y-23.6634 Z0.1306
G1 X28.3413 Y-23.5774 Z0.1351
G1 X28.3412 Y-23.4914 Z0.1390
G1 X28.3412 Y-23.4054 Z0.1426
G1 X28.3412 Y-23.3194 Z0.1456
G1 X28.3412 Y-23.2333 Z0.1482
G1 X28.3412 Y-23.1473 Z0.1503
G1 X28.3412 Y-23.0612 Z0.1520
G1 X28.3412 Y-22.9752 Z0.1532
G1 X28.3412 Y-22.8891 Z0.1539
G1 X28.3412 Y-22.8030 Z0.1541
G1 X28.3412 Y-22.7169 Z0.1539
G1 X28.3412 Y-22.6308 Z0.1532
G1 X28.3412 Y-22.5448 Z0.1520
G1 X28.3412 Y-22.4587 Z0.1504
G1 X28.3412 Y-22.3726 Z0.1483
G1 X28.3412 Y-22.2866 Z0.1457
G1 X28.3412 Y-22.2006 Z0.1427
G1 X28.3412 Y-22.1146 Z0.1392
G1 X28.3413 Y-22.0286 Z0.1352
G1 X28.3413 Y-21.9426 Z0.1308
G1 X28.3413 Y-21.8567 Z0.1258
G1 X28.3413 Y-21.7708 Z0.1205
G1 X28.3413 Y-21.6849 Z0.1146
G1 X28.3413 Y-21.5990 Z0.1083
G0 Z0.3854
G0 X28.3413 Y-21.5990 
G0 Z0.3854
G0 X28.7921 Y-23.8875 
G1 X28.7921 Y-23.8875 Z0.2104 F21.
G1 X28.7921 Y-24.0009 Z0.1904
G1 X28.7921 Y-23.8015 Z0.2044 F22.
G1 X28.7919 Y-23.5519 Z0.2183
G1 X28.7917 Y-23.3019 Z0.2283
G1 X28.7917 Y-23.0518 Z0.2343
G1 X28.7916 Y-22.8015 Z0.2363
G1 X28.7917 Y-22.5513 Z0.2343
G1 X28.7917 Y-22.3011 Z0.2283
G1 X28.7919 Y-22.0512 Z0.2183
G1 X28.7921 Y-21.8015 Z0.2044
G1 X28.7921 Y-21.6050 Z0.1906
G0 Z0.3716
G0 X28.7921 Y-21.6050 
G0 Z0.3716
G0 X28.7921 Y-23.8875 
G1 X28.7921 Y-23.8875 Z0.1966 F21.
G1 X28.7921 Y-24.0009 Z0.1766
G1 X28.7921 Y-23.8015 Z0.1907 F22.
G1 X28.7919 Y-23.5519 Z0.2046
G1 X28.7917 Y-23.3019 Z0.2146
G1 X28.7917 Y-23.0518 Z0.2206
G1 X28.7916 Y-22.8015 Z0.2226
G1 X28.7917 Y-22.5513 Z0.2206
G1 X28.7917 Y-22.3011 Z0.2146
G1 X28.7919 Y-22.0512 Z0.2046
G1 X28.7921 Y-21.8015 Z0.1907
G1 X28.7921 Y-21.6050 Z0.1769
G0 Z0.3579
G0 X28.7921 Y-21.6050 
G0 Z0.3579
G0 X28.7921 Y-23.8875 
G1 X28.7921 Y-23.8875 Z0.1829 F21.
G1 X28.7921 Y-24.0009 Z0.1629
G1 X28.7921 Y-23.8015 Z0.1769 F22.
G1 X28.7919 Y-23.5519 Z0.1909
G1 X28.7917 Y-23.3019 Z0.2009
G1 X28.7917 Y-23.0518 Z0.2069
G1 X28.7916 Y-22.8015 Z0.2089
G1 X28.7917 Y-22.5513 Z0.2069
G1 X28.7917 Y-22.3011 Z0.2009
G1 X28.7919 Y-22.0512 Z0.1909
G1 X28.7921 Y-21.8015 Z0.1769
G1 X28.7921 Y-21.6050 Z0.1631
G0 Z0.3442
G0 X28.7921 Y-21.6050 
G0 Z0.3442
G0 X28.7921 Y-23.8875 
G1 X28.7921 Y-23.8875 Z0.1692 F21.
G1 X28.7921 Y-24.0009 Z0.1492
G1 X28.7921 Y-23.8015 Z0.1632 F22.
G1 X28.7919 Y-23.5519 Z0.1772
G1 X28.7917 Y-23.3019 Z0.1872
G1 X28.7917 Y-23.0518 Z0.1931
G1 X28.7916 Y-22.8015 Z0.1951
G1 X28.7917 Y-22.5513 Z0.1931
G1 X28.7917 Y-22.3011 Z0.1872
G1 X28.7919 Y-22.0512 Z0.1772
G1 X28.7921 Y-21.8015 Z0.1632
G1 X28.7921 Y-21.6050 Z0.1494
G0 Z0.3305
G0 X28.7921 Y-21.6050 
G0 Z0.3305
G0 X28.7921 Y-23.8875 
G1 X28.7921 Y-23.8875 Z0.1555 F21.
G1 X28.7921 Y-24.0009 Z0.1355
G1 X28.7921 Y-23.8015 Z0.1495 F22.
G1 X28.7919 Y-23.5519 Z0.1635
G1 X28.7917 Y-23.3019 Z0.1734
G1 X28.7917 Y-23.0518 Z0.1794
G1 X28.7916 Y-22.8015 Z0.1814
G1 X28.7917 Y-22.5513 Z0.1794
G1 X28.7917 Y-22.3011 Z0.1734
G1 X28.7919 Y-22.0512 Z0.1635
G1 X28.7921 Y-21.8015 Z0.1495
G1 X28.7921 Y-21.6050 Z0.1357
G0 Z0.3168
G0 X28.7921 Y-21.6050 
G0 Z0.3168
G0 X28.7921 Y-23.8875 
G1 X28.7921 Y-23.8875 Z0.1418 F21.
G1 X28.7921 Y-24.0009 Z0.1218
G1 X28.7921 Y-23.8015 Z0.1358 F22.
G1 X28.7919 Y-23.5519 Z0.1498
G1 X28.7917 Y-23.3019 Z0.1597
G1 X28.7917 Y-23.0518 Z0.1657
G1 X28.7916 Y-22.8015 Z0.1677
G1 X28.7917 Y-22.5513 Z0.1657
G1 X28.7917 Y-22.3011 Z0.1597
G1 X28.7919 Y-22.0512 Z0.1498
G1 X28.7921 Y-21.8015 Z0.1358
G1 X28.7921 Y-21.6050 Z0.1220
G0 Z0.3031
G0 X28.7921 Y-21.6050 
G0 Z0.3031
G0 X28.7921 Y-23.8875 
G1 X28.7921 Y-23.8875 Z0.1281 F21.
G1 X28.7921 Y-24.0009 Z0.1081
G1 X28.7921 Y-23.8015 Z0.1221 F22.
G1 X28.7919 Y-23.5519 Z0.1360
G1 X28.7917 Y-23.3019 Z0.1460
G1 X28.7917 Y-23.0518 Z0.1520
G1 X28.7916 Y-22.8015 Z0.1540
G1 X28.7917 Y-22.5513 Z0.1520
G1 X28.7917 Y-22.3011 Z0.1460
G1 X28.7919 Y-22.0512 Z0.1360
G1 X28.7921 Y-21.8015 Z0.1221
G1 X28.7921 Y-21.6050 Z0.1083
G0 Z0.3853
G0 X28.7921 Y-21.6050 
G0 Z0.3853
G0 X29.2697 Y-23.8811 
G1 X29.2697 Y-23.8811 Z0.2103 F21.
G1 X29.2697 Y-23.9945 Z0.1903
G1 X29.2697 Y-23.5977 Z0.2158 F22.
G1 X29.2697 Y-23.2005 Z0.2312
G1 X29.2697 Y-22.8029 Z0.2363
G1 X29.2697 Y-22.4054 Z0.2312
G1 X29.2697 Y-22.0081 Z0.2160
G1 X29.2697 Y-21.6113 Z0.1906
G0 Z0.3716
G0 X29.2697 Y-21.6113 
G0 Z0.3716
G0 X29.2697 Y-23.8811 
G1 X29.2697 Y-23.8811 Z0.1966 F21.
G1 X29.2697 Y-23.9945 Z0.1766
G1 X29.2697 Y-23.5977 Z0.2021 F22.
G1 X29.2697 Y-23.2005 Z0.2174
G1 X29.2697 Y-22.8029 Z0.2226
G1 X29.2697 Y-22.4054 Z0.2175
G1 X29.2697 Y-22.0081 Z0.2023
G1 X29.2697 Y-21.6113 Z0.1768
G0 Z0.3579
G0 X29.2697 Y-21.6113 
G0 Z0.3579
G0 X29.2697 Y-23.8811 
G1 X29.2697 Y-23.8811 Z0.1829 F21.
G1 X29.2697 Y-23.9945 Z0.1629
G1 X29.2697 Y-23.5977 Z0.1884 F22.
G1 X29.2697 Y-23.2005 Z0.2037
G1 X29.2697 Y-22.8029 Z0.2089
G1 X29.2697 Y-22.4054 Z0.2038
G1 X29.2697 Y-22.0081 Z0.1886
G1 X29.2697 Y-21.6113 Z0.1631
G0 Z0.3442
G0 X29.2697 Y-21.6113 
G0 Z0.3442
G0 X29.2697 Y-23.8811 
G1 X29.2697 Y-23.8811 Z0.1692 F21.
G1 X29.2697 Y-23.9945 Z0.1492
G1 X29.2697 Y-23.5977 Z0.1747 F22.
G1 X29.2697 Y-23.2005 Z0.1900
G1 X29.2697 Y-22.8029 Z0.1951
G1 X29.2697 Y-22.4054 Z0.1901
G1 X29.2697 Y-22.0081 Z0.1748
G1 X29.2697 Y-21.6113 Z0.1494
G0 Z0.3305
G0 X29.2697 Y-21.6113 
G0 Z0.3305
G0 X29.2697 Y-23.8811 
G1 X29.2697 Y-23.8811 Z0.1555 F21.
G1 X29.2697 Y-23.9945 Z0.1355
G1 X29.2697 Y-23.5977 Z0.1610 F22.
G1 X29.2697 Y-23.2005 Z0.1763
G1 X29.2697 Y-22.8029 Z0.1814
G1 X29.2697 Y-22.4054 Z0.1764
G1 X29.2697 Y-22.0081 Z0.1611
G1 X29.2697 Y-21.6113 Z0.1357
G0 Z0.3168
G0 X29.2697 Y-21.6113 
G0 Z0.3168
G0 X29.2697 Y-23.8811 
G1 X29.2697 Y-23.8811 Z0.1418 F21.
G1 X29.2697 Y-23.9945 Z0.1218
G1 X29.2697 Y-23.5977 Z0.1473 F22.
G1 X29.2697 Y-23.2005 Z0.1626
G1 X29.2697 Y-22.8029 Z0.1677
G1 X29.2697 Y-22.4054 Z0.1627
G1 X29.2697 Y-22.0081 Z0.1474
G1 X29.2697 Y-21.6113 Z0.1220
G0 Z0.3031
G0 X29.2697 Y-21.6113 
G0 Z0.3031
G0 X29.2697 Y-23.8811 
G1 X29.2697 Y-23.8811 Z0.1281 F21.
G1 X29.2697 Y-23.9945 Z0.1081
G1 X29.2697 Y-23.5977 Z0.1336 F22.
G1 X29.2697 Y-23.2005 Z0.1489
G1 X29.2697 Y-22.8029 Z0.1540
G1 X29.2697 Y-22.4054 Z0.1489
G1 X29.2697 Y-22.0081 Z0.1337
G1 X29.2697 Y-21.6113 Z0.1083
G0 Z0.3853
G0 X29.2697 Y-21.6113 
G0 Z0.3853
G0 X29.7757 Y-23.8743 
G1 X29.7757 Y-23.8743 Z0.2103 F21.
G1 X29.7757 Y-23.9877 Z0.1903
G1 X29.7757 Y-23.5932 Z0.2158 F22.
G1 X29.7757 Y-23.1982 Z0.2312
G1 X29.7757 Y-22.8029 Z0.2363
G1 X29.7757 Y-22.4076 Z0.2312
G1 X29.7757 Y-22.0126 Z0.2160
G1 X29.7757 Y-21.6181 Z0.1905
G0 Z0.3716
G0 X29.7757 Y-21.6181 
G0 Z0.3716
G0 X29.7757 Y-23.8743 
G1 X29.7757 Y-23.8743 Z0.1966 F21.
G1 X29.7757 Y-23.9877 Z0.1766
G1 X29.7757 Y-23.5932 Z0.2021 F22.
G1 X29.7757 Y-23.1982 Z0.2174
G1 X29.7757 Y-22.8029 Z0.2226
G1 X29.7757 Y-22.4076 Z0.2175
G1 X29.7757 Y-22.0126 Z0.2023
G1 X29.7757 Y-21.6181 Z0.1768
G0 Z0.3579
G0 X29.7757 Y-21.6181 
G0 Z0.3579
G0 X29.7757 Y-23.8743 
G1 X29.7757 Y-23.8743 Z0.1829 F21.
G1 X29.7757 Y-23.9877 Z0.1629
G1 X29.7757 Y-23.5932 Z0.1884 F22.
G1 X29.7757 Y-23.1982 Z0.2037
G1 X29.7757 Y-22.8029 Z0.2089
G1 X29.7757 Y-22.4076 Z0.2038
G1 X29.7757 Y-22.0126 Z0.1885
G1 X29.7757 Y-21.6181 Z0.1631
G0 Z0.3442
G0 X29.7757 Y-21.6181 
G0 Z0.3442
G0 X29.7757 Y-23.8743 
G1 X29.7757 Y-23.8743 Z0.1692 F21.
G1 X29.7757 Y-23.9877 Z0.1492
G1 X29.7757 Y-23.5932 Z0.1747 F22.
G1 X29.7757 Y-23.1982 Z0.1900
G1 X29.7757 Y-22.8029 Z0.1951
G1 X29.7757 Y-22.4076 Z0.1901
G1 X29.7757 Y-22.0126 Z0.1748
G1 X29.7757 Y-21.6181 Z0.1494
G0 Z0.3305
G0 X29.7757 Y-21.6181 
G0 Z0.3305
G0 X29.7757 Y-23.8743 
G1 X29.7757 Y-23.8743 Z0.1555 F21.
G1 X29.7757 Y-23.9877 Z0.1355
G1 X29.7757 Y-23.5932 Z0.1610 F22.
G1 X29.7757 Y-23.1982 Z0.1763
G1 X29.7757 Y-22.8029 Z0.1814
G1 X29.7757 Y-22.4076 Z0.1764
G1 X29.7757 Y-22.0126 Z0.1611
G1 X29.7757 Y-21.6181 Z0.1357
G0 Z0.3168
G0 X29.7757 Y-21.6181 
G0 Z0.3168
G0 X29.7757 Y-23.8743 
G1 X29.7757 Y-23.8743 Z0.1418 F21.
G1 X29.7757 Y-23.9877 Z0.1218
G1 X29.7757 Y-23.5932 Z0.1473 F22.
G1 X29.7757 Y-23.1982 Z0.1626
G1 X29.7757 Y-22.8029 Z0.1677
G1 X29.7757 Y-22.4076 Z0.1627
G1 X29.7757 Y-22.0126 Z0.1474
G1 X29.7757 Y-21.6181 Z0.1220
G0 Z0.3030
G0 X29.7757 Y-21.6181 
G0 Z0.3030
G0 X29.7757 Y-23.8743 
G1 X29.7757 Y-23.8743 Z0.1280 F21.
G1 X29.7757 Y-23.9877 Z0.1080
G1 X29.7757 Y-23.5932 Z0.1335 F22.
G1 X29.7757 Y-23.1982 Z0.1489
G1 X29.7757 Y-22.8029 Z0.1540
G1 X29.7757 Y-22.4076 Z0.1489
G1 X29.7757 Y-22.0126 Z0.1337
G1 X29.7757 Y-21.6181 Z0.1082
G0 Z0.3853
G0 X29.7757 Y-21.6181 
G0 Z0.3853
G0 X30.3118 Y-23.8670 
G1 X30.3118 Y-23.8670 Z0.2103 F21.
G1 X30.3118 Y-23.9805 Z0.1903
G1 X30.3118 Y-23.5884 Z0.2158 F22.
G1 X30.3118 Y-23.1957 Z0.2312
G1 X30.3118 Y-22.8028 Z0.2363
G1 X30.3118 Y-22.4099 Z0.2312
G1 X30.3118 Y-22.0173 Z0.2160
G1 X30.3118 Y-21.6252 Z0.1905
G0 Z0.3716
G0 X30.3118 Y-21.6252 
G0 Z0.3716
G0 X30.3118 Y-23.8670 
G1 X30.3118 Y-23.8670 Z0.1966 F21.
G1 X30.3118 Y-23.9805 Z0.1766
G1 X30.3118 Y-23.5884 Z0.2021 F22.
G1 X30.3118 Y-23.1957 Z0.2174
G1 X30.3118 Y-22.8028 Z0.2226
G1 X30.3118 Y-22.4099 Z0.2175
G1 X30.3118 Y-22.0173 Z0.2022
G1 X30.3118 Y-21.6252 Z0.1768
G0 Z0.3579
G0 X30.3118 Y-21.6252 
G0 Z0.3579
G0 X30.3118 Y-23.8670 
G1 X30.3118 Y-23.8670 Z0.1829 F21.
G1 X30.3118 Y-23.9805 Z0.1629
G1 X30.3118 Y-23.5884 Z0.1884 F22.
G1 X30.3118 Y-23.1957 Z0.2037
G1 X30.3118 Y-22.8028 Z0.2089
G1 X30.3118 Y-22.4099 Z0.2038
G1 X30.3118 Y-22.0173 Z0.1885
G1 X30.3118 Y-21.6252 Z0.1631
G0 Z0.3442
G0 X30.3118 Y-21.6252 
G0 Z0.3442
G0 X30.3118 Y-23.8670 
G1 X30.3118 Y-23.8670 Z0.1692 F21.
G1 X30.3118 Y-23.9805 Z0.1492
G1 X30.3118 Y-23.5884 Z0.1747 F22.
G1 X30.3118 Y-23.1957 Z0.1900
G1 X30.3118 Y-22.8028 Z0.1951
G1 X30.3118 Y-22.4099 Z0.1901
G1 X30.3118 Y-22.0173 Z0.1748
G1 X30.3118 Y-21.6252 Z0.1494
G0 Z0.3305
G0 X30.3118 Y-21.6252 
G0 Z0.3305
G0 X30.3118 Y-23.8670 
G1 X30.3118 Y-23.8670 Z0.1555 F21.
G1 X30.3118 Y-23.9805 Z0.1355
G1 X30.3118 Y-23.5884 Z0.1610 F22.
G1 X30.3118 Y-23.1957 Z0.1763
G1 X30.3118 Y-22.8028 Z0.1814
G1 X30.3118 Y-22.4099 Z0.1764
G1 X30.3118 Y-22.0173 Z0.1611
G1 X30.3118 Y-21.6252 Z0.1357
G0 Z0.3167
G0 X30.3118 Y-21.6252 
G0 Z0.3167
G0 X30.3118 Y-23.8670 
G1 X30.3118 Y-23.8670 Z0.1417 F21.
G1 X30.3118 Y-23.9805 Z0.1217
G1 X30.3118 Y-23.5884 Z0.1473 F22.
G1 X30.3118 Y-23.1957 Z0.1626
G1 X30.3118 Y-22.8028 Z0.1677
G1 X30.3118 Y-22.4099 Z0.1627
G1 X30.3118 Y-22.0173 Z0.1474
G1 X30.3118 Y-21.6252 Z0.1219
G0 Z0.3030
G0 X30.3118 Y-21.6252 
G0 Z0.3030
G0 X30.3118 Y-23.8670 
G1 X30.3118 Y-23.8670 Z0.1280 F21.
G1 X30.3118 Y-23.9805 Z0.1080
G1 X30.3118 Y-23.5884 Z0.1335 F22.
G1 X30.3118 Y-23.1957 Z0.1489
G1 X30.3118 Y-22.8028 Z0.1540
G1 X30.3118 Y-22.4099 Z0.1489
G1 X30.3118 Y-22.0173 Z0.1337
G1 X30.3118 Y-21.6252 Z0.1082
G0 Z0.3853
G0 X30.3118 Y-21.6252 
G0 Z0.3853
G0 X30.8798 Y-23.8594 
G1 X30.8798 Y-23.8594 Z0.2103 F21.
G1 X30.8798 Y-23.9728 Z0.1903
G1 X30.8798 Y-23.5833 Z0.2158 F22.
G1 X30.8798 Y-23.1932 Z0.2312
G1 X30.8798 Y-22.8028 Z0.2363
G1 X30.8798 Y-22.4124 Z0.2312
G1 X30.8798 Y-22.0223 Z0.2159
G1 X30.8798 Y-21.6327 Z0.1905
G0 Z0.3716
G0 X30.8798 Y-21.6327 
G0 Z0.3716
G0 X30.8798 Y-23.8594 
G1 X30.8798 Y-23.8594 Z0.1966 F21.
G1 X30.8798 Y-23.9728 Z0.1766
G1 X30.8798 Y-23.5833 Z0.2021 F22.
G1 X30.8798 Y-23.1932 Z0.2174
G1 X30.8798 Y-22.8028 Z0.2226
G1 X30.8798 Y-22.4124 Z0.2175
G1 X30.8798 Y-22.0223 Z0.2022
G1 X30.8798 Y-21.6327 Z0.1768
G0 Z0.3579
G0 X30.8798 Y-21.6327 
G0 Z0.3579
G0 X30.8798 Y-23.8594 
G1 X30.8798 Y-23.8594 Z0.1829 F21.
G1 X30.8798 Y-23.9728 Z0.1629
G1 X30.8798 Y-23.5833 Z0.1884 F22.
G1 X30.8798 Y-23.1932 Z0.2037
G1 X30.8798 Y-22.8028 Z0.2089
G1 X30.8798 Y-22.4124 Z0.2038
G1 X30.8798 Y-22.0223 Z0.1885
G1 X30.8798 Y-21.6327 Z0.1631
G0 Z0.3441
G0 X30.8798 Y-21.6327 
G0 Z0.3441
G0 X30.8798 Y-23.8594 
G1 X30.8798 Y-23.8594 Z0.1691 F21.
G1 X30.8798 Y-23.9728 Z0.1491
G1 X30.8798 Y-23.5833 Z0.1747 F22.
G1 X30.8798 Y-23.1932 Z0.1900
G1 X30.8798 Y-22.8028 Z0.1951
G1 X30.8798 Y-22.4124 Z0.1901
G1 X30.8798 Y-22.0223 Z0.1748
G1 X30.8798 Y-21.6327 Z0.1493
G0 Z0.3304
G0 X30.8798 Y-21.6327 
G0 Z0.3304
G0 X30.8798 Y-23.8594 
G1 X30.8798 Y-23.8594 Z0.1554 F21.
G1 X30.8798 Y-23.9728 Z0.1354
G1 X30.8798 Y-23.5833 Z0.1610 F22.
G1 X30.8798 Y-23.1932 Z0.1763
G1 X30.8798 Y-22.8028 Z0.1814
G1 X30.8798 Y-22.4124 Z0.1764
G1 X30.8798 Y-22.0223 Z0.1611
G1 X30.8798 Y-21.6327 Z0.1356
G0 Z0.3167
G0 X30.8798 Y-21.6327 
G0 Z0.3167
G0 X30.8798 Y-23.8594 
G1 X30.8798 Y-23.8594 Z0.1417 F21.
G1 X30.8798 Y-23.9728 Z0.1217
G1 X30.8798 Y-23.5833 Z0.1472 F22.
G1 X30.8798 Y-23.1932 Z0.1626
G1 X30.8798 Y-22.8028 Z0.1677
G1 X30.8798 Y-22.4124 Z0.1626
G1 X30.8798 Y-22.0223 Z0.1474
G1 X30.8798 Y-21.6327 Z0.1219
G0 Z0.3030
G0 X30.8798 Y-21.6327 
G0 Z0.3030
G0 X30.8798 Y-23.8594 
G1 X30.8798 Y-23.8594 Z0.1280 F21.
G1 X30.8798 Y-23.9728 Z0.1080
G1 X30.8798 Y-23.5833 Z0.1335 F22.
G1 X30.8798 Y-23.1932 Z0.1489
G1 X30.8798 Y-22.8028 Z0.1540
G1 X30.8798 Y-22.4124 Z0.1489
G1 X30.8798 Y-22.0223 Z0.1337
G1 X30.8798 Y-21.6327 Z0.1082
G0 Z0.3853
G0 X30.8798 Y-21.6327 
G0 Z0.3853
G0 X31.4816 Y-23.8513 
G1 X31.4816 Y-23.8513 Z0.2103 F21.
G1 X31.4816 Y-23.9647 Z0.1903
G1 X31.4816 Y-23.5779 Z0.2158 F22.
G1 X31.4816 Y-23.1904 Z0.2312
G1 X31.4816 Y-22.8027 Z0.2363
G1 X31.4816 Y-22.4150 Z0.2312
G1 X31.4816 Y-22.0276 Z0.2159
G1 X31.4816 Y-21.6407 Z0.1905
G0 Z0.3716
G0 X31.4816 Y-21.6407 
G0 Z0.3716
G0 X31.4816 Y-23.8513 
G1 X31.4816 Y-23.8513 Z0.1966 F21.
G1 X31.4816 Y-23.9647 Z0.1766
G1 X31.4816 Y-23.5779 Z0.2021 F22.
G1 X31.4816 Y-23.1904 Z0.2174
G1 X31.4816 Y-22.8027 Z0.2226
G1 X31.4816 Y-22.4150 Z0.2175
G1 X31.4816 Y-22.0276 Z0.2022
G1 X31.4816 Y-21.6407 Z0.1767
G0 Z0.3578
G0 X31.4816 Y-21.6407 
G0 Z0.3578
G0 X31.4816 Y-23.8513 
G1 X31.4816 Y-23.8513 Z0.1828 F21.
G1 X31.4816 Y-23.9647 Z0.1628
G1 X31.4816 Y-23.5779 Z0.1884 F22.
G1 X31.4816 Y-23.1904 Z0.2037
G1 X31.4816 Y-22.8027 Z0.2089
G1 X31.4816 Y-22.4150 Z0.2038
G1 X31.4816 Y-22.0276 Z0.1885
G1 X31.4816 Y-21.6407 Z0.1630
G0 Z0.3441
G0 X31.4816 Y-21.6407 
G0 Z0.3441
G0 X31.4816 Y-23.8513 
G1 X31.4816 Y-23.8513 Z0.1691 F21.
G1 X31.4816 Y-23.9647 Z0.1491
G1 X31.4816 Y-23.5779 Z0.1747 F22.
G1 X31.4816 Y-23.1904 Z0.1900
G1 X31.4816 Y-22.8027 Z0.1951
G1 X31.4816 Y-22.4150 Z0.1901
G1 X31.4816 Y-22.0276 Z0.1748
G1 X31.4816 Y-21.6407 Z0.1493
G0 Z0.3304
G0 X31.4816 Y-21.6407 
G0 Z0.3304
G0 X31.4816 Y-23.8513 
G1 X31.4816 Y-23.8513 Z0.1554 F21.
G1 X31.4816 Y-23.9647 Z0.1354
G1 X31.4816 Y-23.5779 Z0.1610 F22.
G1 X31.4816 Y-23.1904 Z0.1763
G1 X31.4816 Y-22.8027 Z0.1814
G1 X31.4816 Y-22.4150 Z0.1764
G1 X31.4816 Y-22.0276 Z0.1611
G1 X31.4816 Y-21.6407 Z0.1356
G0 Z0.3167
G0 X31.4816 Y-21.6407 
G0 Z0.3167
G0 X31.4816 Y-23.8513 
G1 X31.4816 Y-23.8513 Z0.1417 F21.
G1 X31.4816 Y-23.9647 Z0.1217
G1 X31.4816 Y-23.5779 Z0.1472 F22.
G1 X31.4816 Y-23.1904 Z0.1626
G1 X31.4816 Y-22.8027 Z0.1677
G1 X31.4816 Y-22.4150 Z0.1626
G1 X31.4816 Y-22.0276 Z0.1474
G1 X31.4816 Y-21.6407 Z0.1219
G0 Z0.3030
G0 X31.4816 Y-21.6407 
G0 Z0.3030
G0 X31.4816 Y-23.8513 
G1 X31.4816 Y-23.8513 Z0.1280 F21.
G1 X31.4816 Y-23.9647 Z0.1080
G1 X31.4816 Y-23.5779 Z0.1335 F22.
G1 X31.4816 Y-23.1904 Z0.1489
G1 X31.4816 Y-22.8027 Z0.1540
G1 X31.4816 Y-22.4150 Z0.1489
G1 X31.4816 Y-22.0276 Z0.1336
G1 X31.4816 Y-21.6407 Z0.1082
G0 Z0.3852
G0 X31.4816 Y-21.6407 
G0 Z0.3852
G0 X32.1191 Y-23.8428 
G1 X32.1191 Y-23.8428 Z0.2102 F21.
G1 X32.1191 Y-23.9562 Z0.1902
G1 X32.1191 Y-23.8015 Z0.2018 F22.
G1 X32.1191 Y-23.5517 Z0.2169
G1 X32.1191 Y-23.3018 Z0.2277
G1 X32.1191 Y-23.0517 Z0.2341
G1 X32.1191 Y-22.8015 Z0.2363
G1 X32.1191 Y-22.5514 Z0.2341
G1 X32.1191 Y-22.3013 Z0.2277
G1 X32.1191 Y-22.0513 Z0.2169
G1 X32.1191 Y-21.8015 Z0.2018
G1 X32.1191 Y-21.6492 Z0.1904
G0 Z0.3715
G0 X32.1191 Y-21.6492 
G0 Z0.3715
G0 X32.1191 Y-23.8428 
G1 X32.1191 Y-23.8428 Z0.1965 F21.
G1 X32.1191 Y-23.9562 Z0.1765
G1 X32.1191 Y-23.8015 Z0.1881 F22.
G1 X32.1191 Y-23.5517 Z0.2032
G1 X32.1191 Y-23.3018 Z0.2139
G1 X32.1191 Y-23.0517 Z0.2204
G1 X32.1191 Y-22.8015 Z0.2226
G1 X32.1191 Y-22.5514 Z0.2204
G1 X32.1191 Y-22.3013 Z0.2139
G1 X32.1191 Y-22.0513 Z0.2032
G1 X32.1191 Y-21.8015 Z0.1881
G1 X32.1191 Y-21.6492 Z0.1767
G0 Z0.3578
G0 X32.1191 Y-21.6492 
G0 Z0.3578
G0 X32.1191 Y-23.8428 
G1 X32.1191 Y-23.8428 Z0.1828 F21.
G1 X32.1191 Y-23.9562 Z0.1628
G1 X32.1191 Y-23.8015 Z0.1743 F22.
G1 X32.1191 Y-23.5517 Z0.1894
G1 X32.1191 Y-23.3018 Z0.2002
G1 X32.1191 Y-23.0517 Z0.2067
G1 X32.1191 Y-22.8015 Z0.2089
G1 X32.1191 Y-22.5514 Z0.2067
G1 X32.1191 Y-22.3013 Z0.2002
G1 X32.1191 Y-22.0513 Z0.1894
G1 X32.1191 Y-21.8015 Z0.1743
G1 X32.1191 Y-21.6492 Z0.1630
G0 Z0.3441
G0 X32.1191 Y-21.6492 
G0 Z0.3441
G0 X32.1191 Y-23.8428 
G1 X32.1191 Y-23.8428 Z0.1691 F21.
G1 X32.1191 Y-23.9562 Z0.1491
G1 X32.1191 Y-23.8015 Z0.1606 F22.
G1 X32.1191 Y-23.5517 Z0.1757
G1 X32.1191 Y-23.3018 Z0.1865
G1 X32.1191 Y-23.0517 Z0.1930
G1 X32.1191 Y-22.8015 Z0.1951
G1 X32.1191 Y-22.5514 Z0.1930
G1 X32.1191 Y-22.3013 Z0.1865
G1 X32.1191 Y-22.0513 Z0.1757
G1 X32.1191 Y-21.8015 Z0.1606
G1 X32.1191 Y-21.6492 Z0.1493
G0 Z0.3304
G0 X32.1191 Y-21.6492 
G0 Z0.3304
G0 X32.1191 Y-23.8428 
G1 X32.1191 Y-23.8428 Z0.1554 F21.
G1 X32.1191 Y-23.9562 Z0.1354
G1 X32.1191 Y-23.8015 Z0.1469 F22.
G1 X32.1191 Y-23.5517 Z0.1620
G1 X32.1191 Y-23.3018 Z0.1728
G1 X32.1191 Y-23.0517 Z0.1793
G1 X32.1191 Y-22.8015 Z0.1814
G1 X32.1191 Y-22.5514 Z0.1793
G1 X32.1191 Y-22.3013 Z0.1728
G1 X32.1191 Y-22.0513 Z0.1620
G1 X32.1191 Y-21.8015 Z0.1469
G1 X32.1191 Y-21.6492 Z0.1356
G0 Z0.3167
G0 X32.1191 Y-21.6492 
G0 Z0.3167
G0 X32.1191 Y-23.8428 
G1 X32.1191 Y-23.8428 Z0.1417 F21.
G1 X32.1191 Y-23.9562 Z0.1217
G1 X32.1191 Y-23.8015 Z0.1332 F22.
G1 X32.1191 Y-23.5517 Z0.1483
G1 X32.1191 Y-23.3018 Z0.1591
G1 X32.1191 Y-23.0517 Z0.1656
G1 X32.1191 Y-22.8015 Z0.1677
G1 X32.1191 Y-22.5514 Z0.1656
G1 X32.1191 Y-22.3013 Z0.1591
G1 X32.1191 Y-22.0513 Z0.1483
G1 X32.1191 Y-21.8015 Z0.1332
G1 X32.1191 Y-21.6492 Z0.1219
G0 Z0.3030
G0 X32.1191 Y-21.6492 
G0 Z0.3030
G0 X32.1191 Y-23.8428 
G1 X32.1191 Y-23.8428 Z0.1280 F21.
G1 X32.1191 Y-23.9562 Z0.1080
G1 X32.1191 Y-23.8015 Z0.1195 F22.
G1 X32.1191 Y-23.5517 Z0.1346
G1 X32.1191 Y-23.3018 Z0.1454
G1 X32.1191 Y-23.0517 Z0.1518
G1 X32.1191 Y-22.8015 Z0.1540
G1 X32.1191 Y-22.5514 Z0.1518
G1 X32.1191 Y-22.3013 Z0.1454
G1 X32.1191 Y-22.0513 Z0.1346
G1 X32.1191 Y-21.8015 Z0.1195
G1 X32.1191 Y-21.6492 Z0.1081
G0 Z0.3852
G0 X32.1191 Y-21.6492 
G0 Z0.3852
G0 X32.7945 Y-23.8337 
G1 X32.7945 Y-23.8337 Z0.2102 F21.
G1 X32.7945 Y-23.9471 Z0.1902
G1 X32.7945 Y-23.8015 Z0.2012 F22.
G1 X32.7945 Y-23.5517 Z0.2166
G1 X32.7945 Y-23.3018 Z0.2275
G1 X32.7945 Y-23.0517 Z0.2341
G1 X32.7945 Y-22.8015 Z0.2363
G1 X32.7945 Y-22.5514 Z0.2341
G1 X32.7945 Y-22.3013 Z0.2275
G1 X32.7945 Y-22.0513 Z0.2166
G1 X32.7945 Y-21.8015 Z0.2012
G1 X32.7945 Y-21.6582 Z0.1904
G0 Z0.3715
G0 X32.7945 Y-21.6582 
G0 Z0.3715
G0 X32.7945 Y-23.8337 
G1 X32.7945 Y-23.8337 Z0.1965 F21.
G1 X32.7945 Y-23.9471 Z0.1765
G1 X32.7945 Y-23.8015 Z0.1875 F22.
G1 X32.7945 Y-23.5517 Z0.2028
G1 X32.7945 Y-23.3018 Z0.2138
G1 X32.7945 Y-23.0517 Z0.2204
G1 X32.7945 Y-22.8015 Z0.2226
G1 X32.7945 Y-22.5514 Z0.2204
G1 X32.7945 Y-22.3013 Z0.2138
G1 X32.7945 Y-22.0513 Z0.2028
G1 X32.7945 Y-21.8015 Z0.1875
G1 X32.7945 Y-21.6582 Z0.1767
G0 Z0.3578
G0 X32.7945 Y-21.6582 
G0 Z0.3578
G0 X32.7945 Y-23.8337 
G1 X32.7945 Y-23.8337 Z0.1828 F21.
G1 X32.7945 Y-23.9471 Z0.1628
G1 X32.7945 Y-23.8015 Z0.1738 F22.
G1 X32.7945 Y-23.5517 Z0.1891
G1 X32.7945 Y-23.3018 Z0.2001
G1 X32.7945 Y-23.0517 Z0.2067
G1 X32.7945 Y-22.8015 Z0.2089
G1 X32.7945 Y-22.5514 Z0.2067
G1 X32.7945 Y-22.3013 Z0.2001
G1 X32.7945 Y-22.0513 Z0.1891
G1 X32.7945 Y-21.8015 Z0.1738
G1 X32.7945 Y-21.6582 Z0.1630
G0 Z0.3441
G0 X32.7945 Y-21.6582 
G0 Z0.3441
G0 X32.7945 Y-23.8337 
G1 X32.7945 Y-23.8337 Z0.1691 F21.
G1 X32.7945 Y-23.9471 Z0.1491
G1 X32.7945 Y-23.8015 Z0.1601 F22.
G1 X32.7945 Y-23.5517 Z0.1754
G1 X32.7945 Y-23.3018 Z0.1864
G1 X32.7945 Y-23.0517 Z0.1930
G1 X32.7945 Y-22.8015 Z0.1951
G1 X32.7945 Y-22.5514 Z0.1930
G1 X32.7945 Y-22.3013 Z0.1864
G1 X32.7945 Y-22.0513 Z0.1754
G1 X32.7945 Y-21.8015 Z0.1601
G1 X32.7945 Y-21.6582 Z0.1493
G0 Z0.3304
G0 X32.7945 Y-21.6582 
G0 Z0.3304
G0 X32.7945 Y-23.8337 
G1 X32.7945 Y-23.8337 Z0.1554 F21.
G1 X32.7945 Y-23.9471 Z0.1354
G1 X32.7945 Y-23.8015 Z0.1463 F22.
G1 X32.7945 Y-23.5517 Z0.1617
G1 X32.7945 Y-23.3018 Z0.1727
G1 X32.7945 Y-23.0517 Z0.1792
G1 X32.7945 Y-22.8015 Z0.1814
G1 X32.7945 Y-22.5514 Z0.1792
G1 X32.7945 Y-22.3013 Z0.1727
G1 X32.7945 Y-22.0513 Z0.1617
G1 X32.7945 Y-21.8015 Z0.1463
G1 X32.7945 Y-21.6582 Z0.1355
G0 Z0.3166
G0 X32.7945 Y-21.6582 
G0 Z0.3166
G0 X32.7945 Y-23.8337 
G1 X32.7945 Y-23.8337 Z0.1416 F21.
G1 X32.7945 Y-23.9471 Z0.1216
G1 X32.7945 Y-23.8015 Z0.1326 F22.
G1 X32.7945 Y-23.5517 Z0.1480
G1 X32.7945 Y-23.3018 Z0.1589
G1 X32.7945 Y-23.0517 Z0.1655
G1 X32.7945 Y-22.8015 Z0.1677
G1 X32.7945 Y-22.5514 Z0.1655
G1 X32.7945 Y-22.3013 Z0.1589
G1 X32.7945 Y-22.0513 Z0.1480
G1 X32.7945 Y-21.8015 Z0.1326
G1 X32.7945 Y-21.6582 Z0.1218
G0 Z0.3029
G0 X32.7945 Y-21.6582 
G0 Z0.3029
G0 X32.7945 Y-23.8337 
G1 X32.7945 Y-23.8337 Z0.1279 F21.
G1 X32.7945 Y-23.9471 Z0.1079
G1 X32.7945 Y-23.8015 Z0.1189 F22.
G1 X32.7945 Y-23.5517 Z0.1343
G1 X32.7945 Y-23.3018 Z0.1452
G1 X32.7945 Y-23.0517 Z0.1518
G1 X32.7945 Y-22.8015 Z0.1540
G1 X32.7945 Y-22.5514 Z0.1518
G1 X32.7945 Y-22.3013 Z0.1452
G1 X32.7945 Y-22.0513 Z0.1343
G1 X32.7945 Y-21.8015 Z0.1189
G1 X32.7945 Y-21.6582 Z0.1081
G0 Z0.3852
G0 X32.7945 Y-21.6582 
G0 Z0.3852
G0 X33.5101 Y-23.8241 
G1 X33.5101 Y-23.8241 Z0.2102 F21.
G1 X33.5101 Y-23.9375 Z0.1902
G1 X33.5101 Y-23.8015 Z0.2006 F22.
G1 X33.5101 Y-23.5517 Z0.2162
G1 X33.5101 Y-23.3018 Z0.2274
G1 X33.5101 Y-23.0517 Z0.2341
G1 X33.5101 Y-22.8015 Z0.2363
G1 X33.5101 Y-22.5514 Z0.2341
G1 X33.5101 Y-22.3013 Z0.2274
G1 X33.5101 Y-22.0513 Z0.2162
G1 X33.5101 Y-21.8015 Z0.2006
G1 X33.5101 Y-21.6677 Z0.1904
G0 Z0.3715
G0 X33.5101 Y-21.6677 
G0 Z0.3715
G0 X33.5101 Y-23.8241 
G1 X33.5101 Y-23.8241 Z0.1965 F21.
G1 X33.5101 Y-23.9375 Z0.1765
G1 X33.5101 Y-23.8015 Z0.1869 F22.
G1 X33.5101 Y-23.5517 Z0.2025
G1 X33.5101 Y-23.3018 Z0.2136
G1 X33.5101 Y-23.0517 Z0.2203
G1 X33.5101 Y-22.8015 Z0.2226
G1 X33.5101 Y-22.5514 Z0.2203
G1 X33.5101 Y-22.3013 Z0.2136
G1 X33.5101 Y-22.0513 Z0.2025
G1 X33.5101 Y-21.8015 Z0.1869
G1 X33.5101 Y-21.6677 Z0.1766
G0 Z0.3578
G0 X33.5101 Y-21.6677 
G0 Z0.3578
G0 X33.5101 Y-23.8241 
G1 X33.5101 Y-23.8241 Z0.1828 F21.
G1 X33.5101 Y-23.9375 Z0.1628
G1 X33.5101 Y-23.8015 Z0.1732 F22.
G1 X33.5101 Y-23.5517 Z0.1888
G1 X33.5101 Y-23.3018 Z0.1999
G1 X33.5101 Y-23.0517 Z0.2066
G1 X33.5101 Y-22.8015 Z0.2089
G1 X33.5101 Y-22.5514 Z0.2066
G1 X33.5101 Y-22.3013 Z0.1999
G1 X33.5101 Y-22.0513 Z0.1888
G1 X33.5101 Y-21.8015 Z0.1732
G1 X33.5101 Y-21.6677 Z0.1629
G0 Z0.3441
G0 X33.5101 Y-21.6677 
G0 Z0.3441
G0 X33.5101 Y-23.8241 
G1 X33.5101 Y-23.8241 Z0.1691 F21.
G1 X33.5101 Y-23.9375 Z0.1491
G1 X33.5101 Y-23.8015 Z0.1594 F22.
G1 X33.5101 Y-23.5517 Z0.1751
G1 X33.5101 Y-23.3018 Z0.1862
G1 X33.5101 Y-23.0517 Z0.1929
G1 X33.5101 Y-22.8015 Z0.1951
G1 X33.5101 Y-22.5514 Z0.1929
G1 X33.5101 Y-22.3013 Z0.1862
G1 X33.5101 Y-22.0513 Z0.1751
G1 X33.5101 Y-21.8015 Z0.1594
G1 X33.5101 Y-21.6677 Z0.1492
G0 Z0.3303
G0 X33.5101 Y-21.6677 
G0 Z0.3303
G0 X33.5101 Y-23.8241 
G1 X33.5101 Y-23.8241 Z0.1553 F21.
G1 X33.5101 Y-23.9375 Z0.1353
G1 X33.5101 Y-23.8015 Z0.1457 F22.
G1 X33.5101 Y-23.5517 Z0.1613
G1 X33.5101 Y-23.3018 Z0.1725
G1 X33.5101 Y-23.0517 Z0.1792
G1 X33.5101 Y-22.8015 Z0.1814
G1 X33.5101 Y-22.5514 Z0.1792
G1 X33.5101 Y-22.3013 Z0.1725
G1 X33.5101 Y-22.0513 Z0.1613
G1 X33.5101 Y-21.8015 Z0.1457
G1 X33.5101 Y-21.6677 Z0.1355
G0 Z0.3166
G0 X33.5101 Y-21.6677 
G0 Z0.3166
G0 X33.5101 Y-23.8241 
G1 X33.5101 Y-23.8241 Z0.1416 F21.
G1 X33.5101 Y-23.9375 Z0.1216
G1 X33.5101 Y-23.8015 Z0.1320 F22.
G1 X33.5101 Y-23.5517 Z0.1476
G1 X33.5101 Y-23.3018 Z0.1588
G1 X33.5101 Y-23.0517 Z0.1655
G1 X33.5101 Y-22.8015 Z0.1677
G1 X33.5101 Y-22.5514 Z0.1655
G1 X33.5101 Y-22.3013 Z0.1588
G1 X33.5101 Y-22.0513 Z0.1476
G1 X33.5101 Y-21.8015 Z0.1320
G1 X33.5101 Y-21.6677 Z0.1218
G0 Z0.3029
G0 X33.5101 Y-21.6677 
G0 Z0.3029
G0 X33.5101 Y-23.8241 
G1 X33.5101 Y-23.8241 Z0.1279 F21.
G1 X33.5101 Y-23.9375 Z0.1079
G1 X33.5101 Y-23.8015 Z0.1183 F22.
G1 X33.5101 Y-23.5517 Z0.1339
G1 X33.5101 Y-23.3018 Z0.1451
G1 X33.5101 Y-23.0517 Z0.1518
G1 X33.5101 Y-22.8015 Z0.1540
G1 X33.5101 Y-22.5514 Z0.1518
G1 X33.5101 Y-22.3013 Z0.1451
G1 X33.5101 Y-22.0513 Z0.1339
G1 X33.5101 Y-21.8015 Z0.1183
G1 X33.5101 Y-21.6677 Z0.1081
G0 Z0.3852
G0 X33.5101 Y-21.6677 
G0 Z0.3852
G0 X34.2683 Y-23.8139 
G1 X34.2683 Y-23.8139 Z0.2102 F21.
G1 X34.2683 Y-23.9273 Z0.1902
G1 X34.2683 Y-23.8015 Z0.1999 F22.
G1 X34.2683 Y-23.5517 Z0.2158
G1 X34.2683 Y-23.3018 Z0.2272
G1 X34.2683 Y-23.0517 Z0.2340
G1 X34.2683 Y-22.8015 Z0.2363
G1 X34.2683 Y-22.5514 Z0.2340
G1 X34.2683 Y-22.3013 Z0.2272
G1 X34.2683 Y-22.0513 Z0.2158
G1 X34.2683 Y-21.8015 Z0.1999
G1 X34.2683 Y-21.6777 Z0.1903
G0 Z0.3715
G0 X34.2683 Y-21.6777 
G0 Z0.3715
G0 X34.2683 Y-23.8139 
G1 X34.2683 Y-23.8139 Z0.1965 F21.
G1 X34.2683 Y-23.9273 Z0.1765
G1 X34.2683 Y-23.8015 Z0.1862 F22.
G1 X34.2683 Y-23.5517 Z0.2021
G1 X34.2683 Y-23.3018 Z0.2135
G1 X34.2683 Y-23.0517 Z0.2203
G1 X34.2683 Y-22.8015 Z0.2226
G1 X34.2683 Y-22.5514 Z0.2203
G1 X34.2683 Y-22.3013 Z0.2135
G1 X34.2683 Y-22.0513 Z0.2021
G1 X34.2683 Y-21.8015 Z0.1862
G1 X34.2683 Y-21.6777 Z0.1766
G0 Z0.3577
G0 X34.2683 Y-21.6777 
G0 Z0.3577
G0 X34.2683 Y-23.8139 
G1 X34.2683 Y-23.8139 Z0.1827 F21.
G1 X34.2683 Y-23.9273 Z0.1627
G1 X34.2683 Y-23.8015 Z0.1725 F22.
G1 X34.2683 Y-23.5517 Z0.1884
G1 X34.2683 Y-23.3018 Z0.1998
G1 X34.2683 Y-23.0517 Z0.2066
G1 X34.2683 Y-22.8015 Z0.2089
G1 X34.2683 Y-22.5514 Z0.2066
G1 X34.2683 Y-22.3013 Z0.1998
G1 X34.2683 Y-22.0513 Z0.1884
G1 X34.2683 Y-21.8015 Z0.1725
G1 X34.2683 Y-21.6777 Z0.1629
G0 Z0.3440
G0 X34.2683 Y-21.6777 
G0 Z0.3440
G0 X34.2683 Y-23.8139 
G1 X34.2683 Y-23.8139 Z0.1690 F21.
G1 X34.2683 Y-23.9273 Z0.1490
G1 X34.2683 Y-23.8015 Z0.1588 F22.
G1 X34.2683 Y-23.5517 Z0.1747
G1 X34.2683 Y-23.3018 Z0.1861
G1 X34.2683 Y-23.0517 Z0.1929
G1 X34.2683 Y-22.8015 Z0.1951
G1 X34.2683 Y-22.5514 Z0.1929
G1 X34.2683 Y-22.3013 Z0.1861
G1 X34.2683 Y-22.0513 Z0.1747
G1 X34.2683 Y-21.8015 Z0.1588
G1 X34.2683 Y-21.6777 Z0.1492
G0 Z0.3303
G0 X34.2683 Y-21.6777 
G0 Z0.3303
G0 X34.2683 Y-23.8139 
G1 X34.2683 Y-23.8139 Z0.1553 F21.
G1 X34.2683 Y-23.9273 Z0.1353
G1 X34.2683 Y-23.8015 Z0.1451 F22.
G1 X34.2683 Y-23.5517 Z0.1610
G1 X34.2683 Y-23.3018 Z0.1723
G1 X34.2683 Y-23.0517 Z0.1792
G1 X34.2683 Y-22.8015 Z0.1814
G1 X34.2683 Y-22.5514 Z0.1792
G1 X34.2683 Y-22.3013 Z0.1723
G1 X34.2683 Y-22.0513 Z0.1610
G1 X34.2683 Y-21.8015 Z0.1451
G1 X34.2683 Y-21.6777 Z0.1355
G0 Z0.3166
G0 X34.2683 Y-21.6777 
G0 Z0.3166
G0 X34.2683 Y-23.8139 
G1 X34.2683 Y-23.8139 Z0.1416 F21.
G1 X34.2683 Y-23.9273 Z0.1216
G1 X34.2683 Y-23.8015 Z0.1313 F22.
G1 X34.2683 Y-23.5517 Z0.1473
G1 X34.2683 Y-23.3018 Z0.1586
G1 X34.2683 Y-23.0517 Z0.1654
G1 X34.2683 Y-22.8015 Z0.1677
G1 X34.2683 Y-22.5514 Z0.1654
G1 X34.2683 Y-22.3013 Z0.1586
G1 X34.2683 Y-22.0513 Z0.1473
G1 X34.2683 Y-21.8015 Z0.1313
G1 X34.2683 Y-21.6777 Z0.1218
G0 Z0.3029
G0 X34.2683 Y-21.6777 
G0 Z0.3029
G0 X34.2683 Y-23.8139 
G1 X34.2683 Y-23.8139 Z0.1279 F21.
G1 X34.2683 Y-23.9273 Z0.1079
G1 X34.2683 Y-23.8015 Z0.1176 F22.
G1 X34.2683 Y-23.5517 Z0.1335
G1 X34.2683 Y-23.3018 Z0.1449
G1 X34.2683 Y-23.0517 Z0.1517
G1 X34.2683 Y-22.8015 Z0.1540
G1 X34.2683 Y-22.5514 Z0.1517
G1 X34.2683 Y-22.3013 Z0.1449
G1 X34.2683 Y-22.0513 Z0.1335
G1 X34.2683 Y-21.8015 Z0.1176
G1 X34.2683 Y-21.6777 Z0.1080
G0 Z0.3851
G0 X34.2683 Y-21.6777 
G0 Z0.3851
G0 X35.0715 Y-23.8031 
G1 X35.0715 Y-23.8031 Z0.2101 F21.
G1 X35.0715 Y-23.9165 Z0.1901
G1 X35.0715 Y-23.8015 Z0.1992 F22.
G1 X35.0715 Y-23.5518 Z0.2154
G1 X35.0715 Y-23.3018 Z0.2270
G1 X35.0715 Y-23.0517 Z0.2340
G1 X35.0715 Y-22.8015 Z0.2363
G1 X35.0715 Y-22.5514 Z0.2340
G1 X35.0715 Y-22.3013 Z0.2270
G1 X35.0715 Y-22.0513 Z0.2154
G1 X35.0715 Y-21.8015 Z0.1992
G1 X35.0715 Y-21.6884 Z0.1903
G0 Z0.3714
G0 X35.0715 Y-21.6884 
G0 Z0.3714
G0 X35.0715 Y-23.8031 
G1 X35.0715 Y-23.8031 Z0.1964 F21.
G1 X35.0715 Y-23.9165 Z0.1764
G1 X35.0715 Y-23.8015 Z0.1855 F22.
G1 X35.0715 Y-23.5518 Z0.2017
G1 X35.0715 Y-23.3018 Z0.2133
G1 X35.0715 Y-23.0517 Z0.2203
G1 X35.0715 Y-22.8015 Z0.2226
G1 X35.0715 Y-22.5514 Z0.2203
G1 X35.0715 Y-22.3013 Z0.2133
G1 X35.0715 Y-22.0513 Z0.2017
G1 X35.0715 Y-21.8015 Z0.1855
G1 X35.0715 Y-21.6884 Z0.1766
G0 Z0.3577
G0 X35.0715 Y-21.6884 
G0 Z0.3577
G0 X35.0715 Y-23.8031 
G1 X35.0715 Y-23.8031 Z0.1827 F21.
G1 X35.0715 Y-23.9165 Z0.1627
G1 X35.0715 Y-23.8015 Z0.1717 F22.
G1 X35.0715 Y-23.5518 Z0.1880
G1 X35.0715 Y-23.3018 Z0.1996
G1 X35.0715 Y-23.0517 Z0.2065
G1 X35.0715 Y-22.8015 Z0.2089
G1 X35.0715 Y-22.5514 Z0.2065
G1 X35.0715 Y-22.3013 Z0.1996
G1 X35.0715 Y-22.0513 Z0.1880
G1 X35.0715 Y-21.8015 Z0.1717
G1 X35.0715 Y-21.6884 Z0.1629
G0 Z0.3440
G0 X35.0715 Y-21.6884 
G0 Z0.3440
G0 X35.0715 Y-23.8031 
G1 X35.0715 Y-23.8031 Z0.1690 F21.
G1 X35.0715 Y-23.9165 Z0.1490
G1 X35.0715 Y-23.8015 Z0.1580 F22.
G1 X35.0715 Y-23.5518 Z0.1743
G1 X35.0715 Y-23.3018 Z0.1859
G1 X35.0715 Y-23.0517 Z0.1928
G1 X35.0715 Y-22.8015 Z0.1951
G1 X35.0715 Y-22.5514 Z0.1928
G1 X35.0715 Y-22.3013 Z0.1859
G1 X35.0715 Y-22.0513 Z0.1743
G1 X35.0715 Y-21.8015 Z0.1580
G1 X35.0715 Y-21.6884 Z0.1491
G0 Z0.3303
G0 X35.0715 Y-21.6884 
G0 Z0.3303
G0 X35.0715 Y-23.8031 
G1 X35.0715 Y-23.8031 Z0.1553 F21.
G1 X35.0715 Y-23.9165 Z0.1353
G1 X35.0715 Y-23.8015 Z0.1443 F22.
G1 X35.0715 Y-23.5518 Z0.1606
G1 X35.0715 Y-23.3018 Z0.1722
G1 X35.0715 Y-23.0517 Z0.1791
G1 X35.0715 Y-22.8015 Z0.1814
G1 X35.0715 Y-22.5514 Z0.1791
G1 X35.0715 Y-22.3013 Z0.1722
G1 X35.0715 Y-22.0513 Z0.1606
G1 X35.0715 Y-21.8015 Z0.1443
G1 X35.0715 Y-21.6884 Z0.1354
G0 Z0.3166
G0 X35.0715 Y-21.6884 
G0 Z0.3166
G0 X35.0715 Y-23.8031 
G1 X35.0715 Y-23.8031 Z0.1416 F21.
G1 X35.0715 Y-23.9165 Z0.1216
G1 X35.0715 Y-23.8015 Z0.1306 F22.
G1 X35.0715 Y-23.5518 Z0.1468
G1 X35.0715 Y-23.3018 Z0.1584
G1 X35.0715 Y-23.0517 Z0.1654
G1 X35.0715 Y-22.8015 Z0.1677
G1 X35.0715 Y-22.5514 Z0.1654
G1 X35.0715 Y-22.3013 Z0.1584
G1 X35.0715 Y-22.0513 Z0.1468
G1 X35.0715 Y-21.8015 Z0.1306
G1 X35.0715 Y-21.6884 Z0.1217
G0 Z0.3029
G0 X35.0715 Y-21.6884 
G0 Z0.3029
G0 X35.0715 Y-23.8031 
G1 X35.0715 Y-23.8031 Z0.1279 F21.
G1 X35.0715 Y-23.9165 Z0.1079
G1 X35.0715 Y-23.8015 Z0.1169 F22.
G1 X35.0715 Y-23.5518 Z0.1331
G1 X35.0715 Y-23.3018 Z0.1447
G1 X35.0715 Y-23.0517 Z0.1517
G1 X35.0715 Y-22.8015 Z0.1540
G1 X35.0715 Y-22.5514 Z0.1517
G1 X35.0715 Y-22.3013 Z0.1447
G1 X35.0715 Y-22.0513 Z0.1331
G1 X35.0715 Y-21.8015 Z0.1169
G1 X35.0715 Y-21.6884 Z0.1080
G0 Z0.3851
G0 X35.0715 Y-21.6884 
G0 Z0.3851
G0 X35.9225 Y-23.7916 
G1 X35.9225 Y-23.7916 Z0.2101 F21.
G1 X35.9225 Y-23.8015 Z0.2084
G1 X35.9225 Y-23.9051 Z0.1901
G1 X35.9225 Y-23.8015 Z0.1984 F22.
G1 X35.9225 Y-23.5518 Z0.2150
G1 X35.9225 Y-23.3018 Z0.2268
G1 X35.9225 Y-23.0517 Z0.2339
G1 X35.9225 Y-22.8015 Z0.2363
G1 X35.9225 Y-22.5514 Z0.2339
G1 X35.9225 Y-22.3013 Z0.2268
G1 X35.9225 Y-22.0513 Z0.2150
G1 X35.9225 Y-21.8015 Z0.1984
G1 X35.9225 Y-21.6997 Z0.1902
G0 Z0.3714
G0 X35.9225 Y-21.6997 
G0 Z0.3714
G0 X35.9225 Y-23.7916 
G1 X35.9225 Y-23.7916 Z0.1964 F21.
G1 X35.9225 Y-23.8015 Z0.1946
G1 X35.9225 Y-23.9051 Z0.1764
G1 X35.9225 Y-23.8015 Z0.1847 F22.
G1 X35.9225 Y-23.5518 Z0.2012
G1 X35.9225 Y-23.3018 Z0.2131
G1 X35.9225 Y-23.0517 Z0.2202
G1 X35.9225 Y-22.8015 Z0.2226
G1 X35.9225 Y-22.5514 Z0.2202
G1 X35.9225 Y-22.3013 Z0.2131
G1 X35.9225 Y-22.0513 Z0.2012
G1 X35.9225 Y-21.8015 Z0.1847
G1 X35.9225 Y-21.6997 Z0.1765
G0 Z0.3577
G0 X35.9225 Y-21.6997 
G0 Z0.3577
G0 X35.9225 Y-23.7916 
G1 X35.9225 Y-23.7916 Z0.1827 F21.
G1 X35.9225 Y-23.8015 Z0.1809
G1 X35.9225 Y-23.9051 Z0.1627
G1 X35.9225 Y-23.8015 Z0.1709 F22.
G1 X35.9225 Y-23.5518 Z0.1875
G1 X35.9225 Y-23.3018 Z0.1994
G1 X35.9225 Y-23.0517 Z0.2065
G1 X35.9225 Y-22.8015 Z0.2089
G1 X35.9225 Y-22.5514 Z0.2065
G1 X35.9225 Y-22.3013 Z0.1994
G1 X35.9225 Y-22.0513 Z0.1875
G1 X35.9225 Y-21.8015 Z0.1709
G1 X35.9225 Y-21.6997 Z0.1628
G0 Z0.3440
G0 X35.9225 Y-21.6997 
G0 Z0.3440
G0 X35.9225 Y-23.7916 
G1 X35.9225 Y-23.7916 Z0.1690 F21.
G1 X35.9225 Y-23.8015 Z0.1672
G1 X35.9225 Y-23.9051 Z0.1490
G1 X35.9225 Y-23.8015 Z0.1572 F22.
G1 X35.9225 Y-23.5518 Z0.1738
G1 X35.9225 Y-23.3018 Z0.1857
G1 X35.9225 Y-23.0517 Z0.1928
G1 X35.9225 Y-22.8015 Z0.1951
G1 X35.9225 Y-22.5514 Z0.1928
G1 X35.9225 Y-22.3013 Z0.1857
G1 X35.9225 Y-22.0513 Z0.1738
G1 X35.9225 Y-21.8015 Z0.1572
G1 X35.9225 Y-21.6997 Z0.1491
G0 Z0.3302
G0 X35.9225 Y-21.6997 
G0 Z0.3302
G0 X35.9225 Y-23.7916 
G1 X35.9225 Y-23.7916 Z0.1552 F21.
G1 X35.9225 Y-23.8015 Z0.1535
G1 X35.9225 Y-23.9051 Z0.1352
G1 X35.9225 Y-23.8015 Z0.1435 F22.
G1 X35.9225 Y-23.5518 Z0.1601
G1 X35.9225 Y-23.3018 Z0.1720
G1 X35.9225 Y-23.0517 Z0.1791
G1 X35.9225 Y-22.8015 Z0.1814
G1 X35.9225 Y-22.5514 Z0.1791
G1 X35.9225 Y-22.3013 Z0.1720
G1 X35.9225 Y-22.0513 Z0.1601
G1 X35.9225 Y-21.8015 Z0.1435
G1 X35.9225 Y-21.6997 Z0.1354
G0 Z0.3165
G0 X35.9225 Y-21.6997 
G0 Z0.3165
G0 X35.9225 Y-23.7916 
G1 X35.9225 Y-23.7916 Z0.1415 F21.
G1 X35.9225 Y-23.8015 Z0.1398
G1 X35.9225 Y-23.9051 Z0.1215
G1 X35.9225 Y-23.8015 Z0.1298 F22.
G1 X35.9225 Y-23.5518 Z0.1464
G1 X35.9225 Y-23.3018 Z0.1582
G1 X35.9225 Y-23.0517 Z0.1653
G1 X35.9225 Y-22.8015 Z0.1677
G1 X35.9225 Y-22.5514 Z0.1653
G1 X35.9225 Y-22.3013 Z0.1582
G1 X35.9225 Y-22.0513 Z0.1464
G1 X35.9225 Y-21.8015 Z0.1298
G1 X35.9225 Y-21.6997 Z0.1217
G0 Z0.3028
G0 X35.9225 Y-21.6997 
G0 Z0.3028
G0 X35.9225 Y-23.7916 
G1 X35.9225 Y-23.7916 Z0.1278 F21.
G1 X35.9225 Y-23.8015 Z0.1261
G1 X35.9225 Y-23.9051 Z0.1078
G1 X35.9225 Y-23.8015 Z0.1161 F22.
G1 X35.9225 Y-23.5518 Z0.1327
G1 X35.9225 Y-23.3018 Z0.1445
G1 X35.9225 Y-23.0517 Z0.1516
G1 X35.9225 Y-22.8015 Z0.1540
G1 X35.9225 Y-22.5514 Z0.1516
G1 X35.9225 Y-22.3013 Z0.1445
G1 X35.9225 Y-22.0513 Z0.1327
G1 X35.9225 Y-21.8015 Z0.1161
G1 X35.9225 Y-21.6997 Z0.1080
G0 Z0.3851
G0 X35.9225 Y-21.6997 
G0 Z0.3851
G0 X36.8241 Y-23.7795 
G1 X36.8241 Y-23.7795 Z0.2101 F21.
G1 X36.8241 Y-23.8015 Z0.2062
G1 X36.8241 Y-23.8929 Z0.1901
G1 X36.8241 Y-23.8015 Z0.1975 F22.
G1 X36.8241 Y-23.5518 Z0.2145
G1 X36.8241 Y-23.3018 Z0.2266
G1 X36.8241 Y-23.0517 Z0.2339
G1 X36.8241 Y-22.8015 Z0.2363
G1 X36.8241 Y-22.5514 Z0.2339
G1 X36.8241 Y-22.3013 Z0.2266
G1 X36.8241 Y-22.0513 Z0.2145
G1 X36.8241 Y-21.8015 Z0.1975
G1 X36.8241 Y-21.7117 Z0.1902
G0 Z0.3714
G0 X36.8241 Y-21.7117 
G0 Z0.3714
G0 X36.8241 Y-23.7795 
G1 X36.8241 Y-23.7795 Z0.1964 F21.
G1 X36.8241 Y-23.8015 Z0.1925
G1 X36.8241 Y-23.8929 Z0.1764
G1 X36.8241 Y-23.8015 Z0.1838 F22.
G1 X36.8241 Y-23.5518 Z0.2008
G1 X36.8241 Y-23.3018 Z0.2129
G1 X36.8241 Y-23.0517 Z0.2202
G1 X36.8241 Y-22.8015 Z0.2226
G1 X36.8241 Y-22.5514 Z0.2202
G1 X36.8241 Y-22.3013 Z0.2129
G1 X36.8241 Y-22.0513 Z0.2008
G1 X36.8241 Y-21.8015 Z0.1838
G1 X36.8241 Y-21.7117 Z0.1765
G0 Z0.3576
G0 X36.8241 Y-21.7117 
G0 Z0.3576
G0 X36.8241 Y-23.7795 
G1 X36.8241 Y-23.7795 Z0.1826 F21.
G1 X36.8241 Y-23.8015 Z0.1788
G1 X36.8241 Y-23.8929 Z0.1626
G1 X36.8241 Y-23.8015 Z0.1701 F22.
G1 X36.8241 Y-23.5518 Z0.1870
G1 X36.8241 Y-23.3018 Z0.1992
G1 X36.8241 Y-23.0517 Z0.2064
G1 X36.8241 Y-22.8015 Z0.2089
G1 X36.8241 Y-22.5514 Z0.2064
G1 X36.8241 Y-22.3013 Z0.1992
G1 X36.8241 Y-22.0513 Z0.1870
G1 X36.8241 Y-21.8015 Z0.1701
G1 X36.8241 Y-21.7117 Z0.1628
G0 Z0.3439
G0 X36.8241 Y-21.7117 
G0 Z0.3439
G0 X36.8241 Y-23.7795 
G1 X36.8241 Y-23.7795 Z0.1689 F21.
G1 X36.8241 Y-23.8015 Z0.1650
G1 X36.8241 Y-23.8929 Z0.1489
G1 X36.8241 Y-23.8015 Z0.1564 F22.
G1 X36.8241 Y-23.5518 Z0.1733
G1 X36.8241 Y-23.3018 Z0.1854
G1 X36.8241 Y-23.0517 Z0.1927
G1 X36.8241 Y-22.8015 Z0.1951
G1 X36.8241 Y-22.5514 Z0.1927
G1 X36.8241 Y-22.3013 Z0.1854
G1 X36.8241 Y-22.0513 Z0.1733
G1 X36.8241 Y-21.8015 Z0.1564
G1 X36.8241 Y-21.7117 Z0.1491
G0 Z0.3302
G0 X36.8241 Y-21.7117 
G0 Z0.3302
G0 X36.8241 Y-23.7795 
G1 X36.8241 Y-23.7795 Z0.1552 F21.
G1 X36.8241 Y-23.8015 Z0.1513
G1 X36.8241 Y-23.8929 Z0.1352
G1 X36.8241 Y-23.8015 Z0.1426 F22.
G1 X36.8241 Y-23.5518 Z0.1596
G1 X36.8241 Y-23.3018 Z0.1717
G1 X36.8241 Y-23.0517 Z0.1790
G1 X36.8241 Y-22.8015 Z0.1814
G1 X36.8241 Y-22.5514 Z0.1790
G1 X36.8241 Y-22.3013 Z0.1717
G1 X36.8241 Y-22.0513 Z0.1596
G1 X36.8241 Y-21.8015 Z0.1426
G1 X36.8241 Y-21.7117 Z0.1353
G0 Z0.3165
G0 X36.8241 Y-21.7117 
G0 Z0.3165
G0 X36.8241 Y-23.7795 
G1 X36.8241 Y-23.7795 Z0.1415 F21.
G1 X36.8241 Y-23.8015 Z0.1376
G1 X36.8241 Y-23.8929 Z0.1215
G1 X36.8241 Y-23.8015 Z0.1289 F22.
G1 X36.8241 Y-23.5518 Z0.1459
G1 X36.8241 Y-23.3018 Z0.1580
G1 X36.8241 Y-23.0517 Z0.1653
G1 X36.8241 Y-22.8015 Z0.1677
G1 X36.8241 Y-22.5514 Z0.1653
G1 X36.8241 Y-22.3013 Z0.1580
G1 X36.8241 Y-22.0513 Z0.1459
G1 X36.8241 Y-21.8015 Z0.1289
G1 X36.8241 Y-21.7117 Z0.1216
G0 Z0.3028
G0 X36.8241 Y-21.7117 
G0 Z0.3028
G0 X36.8241 Y-23.7795 
G1 X36.8241 Y-23.7795 Z0.1278 F21.
G1 X36.8241 Y-23.8015 Z0.1239
G1 X36.8241 Y-23.8929 Z0.1078
G1 X36.8241 Y-23.8015 Z0.1152 F22.
G1 X36.8241 Y-23.5518 Z0.1322
G1 X36.8241 Y-23.3018 Z0.1443
G1 X36.8241 Y-23.0517 Z0.1516
G1 X36.8241 Y-22.8015 Z0.1540
G1 X36.8241 Y-22.5514 Z0.1516
G1 X36.8241 Y-22.3013 Z0.1443
G1 X36.8241 Y-22.0513 Z0.1322
G1 X36.8241 Y-21.8015 Z0.1152
G1 X36.8241 Y-21.7117 Z0.1079
G0 Z0.3850
G0 X36.8241 Y-21.7117 
G0 Z0.3850
G0 X37.7793 Y-23.7667 
G1 X37.7793 Y-23.7667 Z0.2100 F21.
G1 X37.7793 Y-23.8015 Z0.2039
G1 X37.7793 Y-23.8801 Z0.1900
G1 X37.7793 Y-23.8015 Z0.1965 F22.
G1 X37.7793 Y-23.5518 Z0.2139
G1 X37.7793 Y-23.3018 Z0.2264
G1 X37.7793 Y-23.0517 Z0.2338
G1 X37.7793 Y-22.8015 Z0.2363
G1 X37.7793 Y-22.5514 Z0.2338
G1 X37.7793 Y-22.3012 Z0.2264
G1 X37.7793 Y-22.0513 Z0.2139
G1 X37.7793 Y-21.8015 Z0.1965
G1 X37.7793 Y-21.7243 Z0.1901
G0 Z0.3713
G0 X37.7793 Y-21.7243 
G0 Z0.3713
G0 X37.7793 Y-23.7667 
G1 X37.7793 Y-23.7667 Z0.1963 F21.
G1 X37.7793 Y-23.8015 Z0.1902
G1 X37.7793 Y-23.8801 Z0.1763
G1 X37.7793 Y-23.8015 Z0.1828 F22.
G1 X37.7793 Y-23.5518 Z0.2002
G1 X37.7793 Y-23.3018 Z0.2126
G1 X37.7793 Y-23.0517 Z0.2201
G1 X37.7793 Y-22.8015 Z0.2226
G1 X37.7793 Y-22.5514 Z0.2201
G1 X37.7793 Y-22.3012 Z0.2126
G1 X37.7793 Y-22.0513 Z0.2002
G1 X37.7793 Y-21.8015 Z0.1828
G1 X37.7793 Y-21.7243 Z0.1764
G0 Z0.3576
G0 X37.7793 Y-21.7243 
G0 Z0.3576
G0 X37.7793 Y-23.7667 
G1 X37.7793 Y-23.7667 Z0.1826 F21.
G1 X37.7793 Y-23.8015 Z0.1765
G1 X37.7793 Y-23.8801 Z0.1626
G1 X37.7793 Y-23.8015 Z0.1691 F22.
G1 X37.7793 Y-23.5518 Z0.1865
G1 X37.7793 Y-23.3018 Z0.1989
G1 X37.7793 Y-23.0517 Z0.2064
G1 X37.7793 Y-22.8015 Z0.2089
G1 X37.7793 Y-22.5514 Z0.2064
G1 X37.7793 Y-22.3012 Z0.1989
G1 X37.7793 Y-22.0513 Z0.1865
G1 X37.7793 Y-21.8015 Z0.1691
G1 X37.7793 Y-21.7243 Z0.1627
G0 Z0.3439
G0 X37.7793 Y-21.7243 
G0 Z0.3439
G0 X37.7793 Y-23.7667 
G1 X37.7793 Y-23.7667 Z0.1689 F21.
G1 X37.7793 Y-23.8015 Z0.1627
G1 X37.7793 Y-23.8801 Z0.1489
G1 X37.7793 Y-23.8015 Z0.1554 F22.
G1 X37.7793 Y-23.5518 Z0.1728
G1 X37.7793 Y-23.3018 Z0.1852
G1 X37.7793 Y-23.0517 Z0.1927
G1 X37.7793 Y-22.8015 Z0.1951
G1 X37.7793 Y-22.5514 Z0.1927
G1 X37.7793 Y-22.3012 Z0.1852
G1 X37.7793 Y-22.0513 Z0.1728
G1 X37.7793 Y-21.8015 Z0.1554
G1 X37.7793 Y-21.7243 Z0.1490
G0 Z0.3302
G0 X37.7793 Y-21.7243 
G0 Z0.3302
G0 X37.7793 Y-23.7667 
G1 X37.7793 Y-23.7667 Z0.1552 F21.
G1 X37.7793 Y-23.8015 Z0.1490
G1 X37.7793 Y-23.8801 Z0.1352
G1 X37.7793 Y-23.8015 Z0.1417 F22.
G1 X37.7793 Y-23.5518 Z0.1591
G1 X37.7793 Y-23.3018 Z0.1715
G1 X37.7793 Y-23.0517 Z0.1789
G1 X37.7793 Y-22.8015 Z0.1814
G1 X37.7793 Y-22.5514 Z0.1789
G1 X37.7793 Y-22.3012 Z0.1715
G1 X37.7793 Y-22.0513 Z0.1591
G1 X37.7793 Y-21.8015 Z0.1417
G1 X37.7793 Y-21.7243 Z0.1353
G0 Z0.3165
G0 X37.7793 Y-21.7243 
G0 Z0.3165
G0 X37.7793 Y-23.7667 
G1 X37.7793 Y-23.7667 Z0.1415 F21.
G1 X37.7793 Y-23.8015 Z0.1353
G1 X37.7793 Y-23.8801 Z0.1215
G1 X37.7793 Y-23.8015 Z0.1280 F22.
G1 X37.7793 Y-23.5518 Z0.1454
G1 X37.7793 Y-23.3018 Z0.1578
G1 X37.7793 Y-23.0517 Z0.1652
G1 X37.7793 Y-22.8015 Z0.1677
G1 X37.7793 Y-22.5514 Z0.1652
G1 X37.7793 Y-22.3012 Z0.1578
G1 X37.7793 Y-22.0513 Z0.1454
G1 X37.7793 Y-21.8015 Z0.1280
G1 X37.7793 Y-21.7243 Z0.1216
G0 Z0.3027
G0 X37.7793 Y-21.7243 
G0 Z0.3027
G0 X37.7793 Y-23.7667 
G1 X37.7793 Y-23.7667 Z0.1277 F21.
G1 X37.7793 Y-23.8015 Z0.1216
G1 X37.7793 Y-23.8801 Z0.1077
G1 X37.7793 Y-23.8015 Z0.1142 F22.
G1 X37.7793 Y-23.5518 Z0.1316
G1 X37.7793 Y-23.3018 Z0.1441
G1 X37.7793 Y-23.0517 Z0.1515
G1 X37.7793 Y-22.8015 Z0.1540
G1 X37.7793 Y-22.5514 Z0.1515
G1 X37.7793 Y-22.3012 Z0.1441
G1 X37.7793 Y-22.0513 Z0.1316
G1 X37.7793 Y-21.8015 Z0.1142
G1 X37.7793 Y-21.7243 Z0.1079
G0 Z0.3850
G0 X37.7793 Y-21.7243 
G0 Z0.3850
G0 X38.7913 Y-23.7531 
G1 X38.7913 Y-23.7531 Z0.2100 F21.
G1 X38.7913 Y-23.8015 Z0.2014
G1 X38.7913 Y-23.8665 Z0.1900
G1 X38.7913 Y-23.8015 Z0.1955 F22.
G1 X38.7913 Y-23.5518 Z0.2133
G1 X38.7913 Y-23.3018 Z0.2261
G1 X38.7913 Y-23.0517 Z0.2337
G1 X38.7913 Y-22.8015 Z0.2363
G1 X38.7913 Y-22.5513 Z0.2337
G1 X38.7913 Y-22.3012 Z0.2261
G1 X38.7913 Y-22.0513 Z0.2133
G1 X38.7913 Y-21.8015 Z0.1955
G1 X38.7913 Y-21.7378 Z0.1901
G0 Z0.3713
G0 X38.7913 Y-21.7378 
G0 Z0.3713
G0 X38.7913 Y-23.7531 
G1 X38.7913 Y-23.7531 Z0.1963 F21.
G1 X38.7913 Y-23.8015 Z0.1877
G1 X38.7913 Y-23.8665 Z0.1763
G1 X38.7913 Y-23.8015 Z0.1818 F22.
G1 X38.7913 Y-23.5518 Z0.1996
G1 X38.7913 Y-23.3018 Z0.2124
G1 X38.7913 Y-23.0517 Z0.2200
G1 X38.7913 Y-22.8015 Z0.2226
G1 X38.7913 Y-22.5513 Z0.2200
G1 X38.7913 Y-22.3012 Z0.2124
G1 X38.7913 Y-22.0513 Z0.1996
G1 X38.7913 Y-21.8015 Z0.1818
G1 X38.7913 Y-21.7378 Z0.1764
G0 Z0.3576
G0 X38.7913 Y-21.7378 
G0 Z0.3576
G0 X38.7913 Y-23.7531 
G1 X38.7913 Y-23.7531 Z0.1826 F21.
G1 X38.7913 Y-23.8015 Z0.1740
G1 X38.7913 Y-23.8665 Z0.1626
G1 X38.7913 Y-23.8015 Z0.1680 F22.
G1 X38.7913 Y-23.5518 Z0.1859
G1 X38.7913 Y-23.3018 Z0.1987
G1 X38.7913 Y-23.0517 Z0.2063
G1 X38.7913 Y-22.8015 Z0.2089
G1 X38.7913 Y-22.5513 Z0.2063
G1 X38.7913 Y-22.3012 Z0.1987
G1 X38.7913 Y-22.0513 Z0.1859
G1 X38.7913 Y-21.8015 Z0.1680
G1 X38.7913 Y-21.7378 Z0.1627
G0 Z0.3438
G0 X38.7913 Y-21.7378 
G0 Z0.3438
G0 X38.7913 Y-23.7531 
G1 X38.7913 Y-23.7531 Z0.1688 F21.
G1 X38.7913 Y-23.8015 Z0.1603
G1 X38.7913 Y-23.8665 Z0.1488
G1 X38.7913 Y-23.8015 Z0.1543 F22.
G1 X38.7913 Y-23.5518 Z0.1722
G1 X38.7913 Y-23.3018 Z0.1849
G1 X38.7913 Y-23.0517 Z0.1926
G1 X38.7913 Y-22.8015 Z0.1951
G1 X38.7913 Y-22.5513 Z0.1926
G1 X38.7913 Y-22.3012 Z0.1849
G1 X38.7913 Y-22.0513 Z0.1722
G1 X38.7913 Y-21.8015 Z0.1543
G1 X38.7913 Y-21.7378 Z0.1490
G0 Z0.3301
G0 X38.7913 Y-21.7378 
G0 Z0.3301
G0 X38.7913 Y-23.7531 
G1 X38.7913 Y-23.7531 Z0.1551 F21.
G1 X38.7913 Y-23.8015 Z0.1466
G1 X38.7913 Y-23.8665 Z0.1351
G1 X38.7913 Y-23.8015 Z0.1406 F22.
G1 X38.7913 Y-23.5518 Z0.1585
G1 X38.7913 Y-23.3018 Z0.1712
G1 X38.7913 Y-23.0517 Z0.1789
G1 X38.7913 Y-22.8015 Z0.1814
G1 X38.7913 Y-22.5513 Z0.1789
G1 X38.7913 Y-22.3012 Z0.1712
G1 X38.7913 Y-22.0513 Z0.1585
G1 X38.7913 Y-21.8015 Z0.1406
G1 X38.7913 Y-21.7378 Z0.1352
G0 Z0.3164
G0 X38.7913 Y-21.7378 
G0 Z0.3164
G0 X38.7913 Y-23.7531 
G1 X38.7913 Y-23.7531 Z0.1414 F21.
G1 X38.7913 Y-23.8015 Z0.1329
G1 X38.7913 Y-23.8665 Z0.1214
G1 X38.7913 Y-23.8015 Z0.1269 F22.
G1 X38.7913 Y-23.5518 Z0.1448
G1 X38.7913 Y-23.3018 Z0.1575
G1 X38.7913 Y-23.0517 Z0.1652
G1 X38.7913 Y-22.8015 Z0.1677
G1 X38.7913 Y-22.5513 Z0.1652
G1 X38.7913 Y-22.3012 Z0.1575
G1 X38.7913 Y-22.0513 Z0.1448
G1 X38.7913 Y-21.8015 Z0.1269
G1 X38.7913 Y-21.7378 Z0.1215
G0 Z0.3027
G0 X38.7913 Y-21.7378 
G0 Z0.3027
G0 X38.7913 Y-23.7531 
G1 X38.7913 Y-23.7531 Z0.1277 F21.
G1 X38.7913 Y-23.8015 Z0.1192
G1 X38.7913 Y-23.8665 Z0.1077
G1 X38.7913 Y-23.8015 Z0.1132 F22.
G1 X38.7913 Y-23.5518 Z0.1310
G1 X38.7913 Y-23.3018 Z0.1438
G1 X38.7913 Y-23.0517 Z0.1515
G1 X38.7913 Y-22.8015 Z0.1540
G1 X38.7913 Y-22.5513 Z0.1515
G1 X38.7913 Y-22.3012 Z0.1438
G1 X38.7913 Y-22.0513 Z0.1310
G1 X38.7913 Y-21.8015 Z0.1132
G1 X38.7913 Y-21.7378 Z0.1078
G0 Z0.3849
G0 X38.7913 Y-21.7378 
G0 Z0.3849
G0 X39.8635 Y-23.7387 
G1 X39.8635 Y-23.7387 Z0.2099 F21.
G1 X39.8635 Y-23.8015 Z0.1989
G1 X39.8635 Y-23.8521 Z0.1899
G1 X39.8635 Y-23.8015 Z0.1943 F22.
G1 X39.8635 Y-23.5518 Z0.2127
G1 X39.8635 Y-23.3019 Z0.2258
G1 X39.8635 Y-23.0517 Z0.2337
G1 X39.8635 Y-22.8015 Z0.2363
G1 X39.8635 Y-22.5513 Z0.2337
G1 X39.8635 Y-22.3012 Z0.2258
G1 X39.8635 Y-22.0512 Z0.2127
G1 X39.8635 Y-21.8015 Z0.1943
G1 X39.8635 Y-21.7520 Z0.1900
G0 Z0.3712
G0 X39.8635 Y-21.7520 
G0 Z0.3712
G0 X39.8635 Y-23.7387 
G1 X39.8635 Y-23.7387 Z0.1962 F21.
G1 X39.8635 Y-23.8015 Z0.1851
G1 X39.8635 Y-23.8521 Z0.1762
G1 X39.8635 Y-23.8015 Z0.1806 F22.
G1 X39.8635 Y-23.5518 Z0.1990
G1 X39.8635 Y-23.3019 Z0.2121
G1 X39.8635 Y-23.0517 Z0.2200
G1 X39.8635 Y-22.8015 Z0.2226
G1 X39.8635 Y-22.5513 Z0.2200
G1 X39.8635 Y-22.3012 Z0.2121
G1 X39.8635 Y-22.0512 Z0.1990
G1 X39.8635 Y-21.8015 Z0.1806
G1 X39.8635 Y-21.7520 Z0.1763
G0 Z0.3575
G0 X39.8635 Y-21.7520 
G0 Z0.3575
G0 X39.8635 Y-23.7387 
G1 X39.8635 Y-23.7387 Z0.1825 F21.
G1 X39.8635 Y-23.8015 Z0.1714
G1 X39.8635 Y-23.8521 Z0.1625
G1 X39.8635 Y-23.8015 Z0.1669 F22.
G1 X39.8635 Y-23.5518 Z0.1852
G1 X39.8635 Y-23.3019 Z0.1984
G1 X39.8635 Y-23.0517 Z0.2062
G1 X39.8635 Y-22.8015 Z0.2089
G1 X39.8635 Y-22.5513 Z0.2062
G1 X39.8635 Y-22.3012 Z0.1984
G1 X39.8635 Y-22.0512 Z0.1852
G1 X39.8635 Y-21.8015 Z0.1669
G1 X39.8635 Y-21.7520 Z0.1626
G0 Z0.3438
G0 X39.8635 Y-21.7520 
G0 Z0.3438
G0 X39.8635 Y-23.7387 
G1 X39.8635 Y-23.7387 Z0.1688 F21.
G1 X39.8635 Y-23.8015 Z0.1577
G1 X39.8635 Y-23.8521 Z0.1488
G1 X39.8635 Y-23.8015 Z0.1532 F22.
G1 X39.8635 Y-23.5518 Z0.1715
G1 X39.8635 Y-23.3019 Z0.1847
G1 X39.8635 Y-23.0517 Z0.1925
G1 X39.8635 Y-22.8015 Z0.1951
G1 X39.8635 Y-22.5513 Z0.1925
G1 X39.8635 Y-22.3012 Z0.1847
G1 X39.8635 Y-22.0512 Z0.1715
G1 X39.8635 Y-21.8015 Z0.1532
G1 X39.8635 Y-21.7520 Z0.1489
G0 Z0.3301
G0 X39.8635 Y-21.7520 
G0 Z0.3301
G0 X39.8635 Y-23.7387 
G1 X39.8635 Y-23.7387 Z0.1551 F21.
G1 X39.8635 Y-23.8015 Z0.1440
G1 X39.8635 Y-23.8521 Z0.1351
G1 X39.8635 Y-23.8015 Z0.1394 F22.
G1 X39.8635 Y-23.5518 Z0.1578
G1 X39.8635 Y-23.3019 Z0.1709
G1 X39.8635 Y-23.0517 Z0.1788
G1 X39.8635 Y-22.8015 Z0.1814
G1 X39.8635 Y-22.5513 Z0.1788
G1 X39.8635 Y-22.3012 Z0.1709
G1 X39.8635 Y-22.0512 Z0.1578
G1 X39.8635 Y-21.8015 Z0.1394
G1 X39.8635 Y-21.7520 Z0.1352
G0 Z0.3164
G0 X39.8635 Y-21.7520 
G0 Z0.3164
G0 X39.8635 Y-23.7387 
G1 X39.8635 Y-23.7387 Z0.1414 F21.
G1 X39.8635 Y-23.8015 Z0.1303
G1 X39.8635 Y-23.8521 Z0.1214
G1 X39.8635 Y-23.8015 Z0.1257 F22.
G1 X39.8635 Y-23.5518 Z0.1441
G1 X39.8635 Y-23.3019 Z0.1572
G1 X39.8635 Y-23.0517 Z0.1651
G1 X39.8635 Y-22.8015 Z0.1677
G1 X39.8635 Y-22.5513 Z0.1651
G1 X39.8635 Y-22.3012 Z0.1572
G1 X39.8635 Y-22.0512 Z0.1441
G1 X39.8635 Y-21.8015 Z0.1257
G1 X39.8635 Y-21.7520 Z0.1215
G0 Z0.3027
G0 X39.8635 Y-21.7520 
G0 Z0.3027
G0 X39.8635 Y-23.7387 
G1 X39.8635 Y-23.7387 Z0.1277 F21.
G1 X39.8635 Y-23.8015 Z0.1166
G1 X39.8635 Y-23.8521 Z0.1077
G1 X39.8635 Y-23.8015 Z0.1120 F22.
G1 X39.8635 Y-23.5518 Z0.1304
G1 X39.8635 Y-23.3019 Z0.1435
G1 X39.8635 Y-23.0517 Z0.1514
G1 X39.8635 Y-22.8015 Z0.1540
G1 X39.8635 Y-22.5513 Z0.1514
G1 X39.8635 Y-22.3012 Z0.1435
G1 X39.8635 Y-22.0512 Z0.1304
G1 X39.8635 Y-21.8015 Z0.1120
G1 X39.8635 Y-21.7520 Z0.1078
G0 Z0.3849
G0 X39.8635 Y-21.7520 
G0 Z0.3849
G0 X40.9995 Y-23.7234 
G1 X40.9995 Y-23.7234 Z0.2099 F21.
G1 X40.9995 Y-23.8015 Z0.1961
G1 X40.9995 Y-23.8368 Z0.1899
G1 X40.9995 Y-23.8015 Z0.1930 F22.
G1 X40.9995 Y-23.5518 Z0.2119
G1 X40.9995 Y-23.3019 Z0.2255
G1 X40.9995 Y-23.0517 Z0.2336
G1 X40.9995 Y-22.8015 Z0.2363
G1 X40.9995 Y-22.5513 Z0.2336
G1 X40.9995 Y-22.3012 Z0.2255
G1 X40.9995 Y-22.0512 Z0.2119
G1 X40.9995 Y-21.8015 Z0.1930
G1 X40.9995 Y-21.7671 Z0.1900
G0 Z0.3712
G0 X40.9995 Y-21.7671 
G0 Z0.3712
G0 X40.9995 Y-23.7234 
G1 X40.9995 Y-23.7234 Z0.1962 F21.
G1 X40.9995 Y-23.8015 Z0.1824
G1 X40.9995 Y-23.8368 Z0.1762
G1 X40.9995 Y-23.8015 Z0.1793 F22.
G1 X40.9995 Y-23.5518 Z0.1982
G1 X40.9995 Y-23.3019 Z0.2118
G1 X40.9995 Y-23.0517 Z0.2199
G1 X40.9995 Y-22.8015 Z0.2226
G1 X40.9995 Y-22.5513 Z0.2199
G1 X40.9995 Y-22.3012 Z0.2118
G1 X40.9995 Y-22.0512 Z0.1982
G1 X40.9995 Y-21.8015 Z0.1793
G1 X40.9995 Y-21.7671 Z0.1763
G0 Z0.3575
G0 X40.9995 Y-21.7671 
G0 Z0.3575
G0 X40.9995 Y-23.7234 
G1 X40.9995 Y-23.7234 Z0.1825 F21.
G1 X40.9995 Y-23.8015 Z0.1687
G1 X40.9995 Y-23.8368 Z0.1625
G1 X40.9995 Y-23.8015 Z0.1656 F22.
G1 X40.9995 Y-23.5518 Z0.1845
G1 X40.9995 Y-23.3019 Z0.1980
G1 X40.9995 Y-23.0517 Z0.2062
G1 X40.9995 Y-22.8015 Z0.2089
G1 X40.9995 Y-22.5513 Z0.2062
G1 X40.9995 Y-22.3012 Z0.1980
G1 X40.9995 Y-22.0512 Z0.1845
G1 X40.9995 Y-21.8015 Z0.1656
G1 X40.9995 Y-21.7671 Z0.1625
G0 Z0.3438
G0 X40.9995 Y-21.7671 
G0 Z0.3438
G0 X40.9995 Y-23.7234 
G1 X40.9995 Y-23.7234 Z0.1688 F21.
G1 X40.9995 Y-23.8015 Z0.1550
G1 X40.9995 Y-23.8368 Z0.1488
G1 X40.9995 Y-23.8015 Z0.1519 F22.
G1 X40.9995 Y-23.5518 Z0.1708
G1 X40.9995 Y-23.3019 Z0.1843
G1 X40.9995 Y-23.0517 Z0.1924
G1 X40.9995 Y-22.8015 Z0.1951
G1 X40.9995 Y-22.5513 Z0.1924
G1 X40.9995 Y-22.3012 Z0.1843
G1 X40.9995 Y-22.0512 Z0.1708
G1 X40.9995 Y-21.8015 Z0.1519
G1 X40.9995 Y-21.7671 Z0.1488
G0 Z0.3300
G0 X40.9995 Y-21.7671 
G0 Z0.3300
G0 X40.9995 Y-23.7234 
G1 X40.9995 Y-23.7234 Z0.1550 F21.
G1 X40.9995 Y-23.8015 Z0.1413
G1 X40.9995 Y-23.8368 Z0.1350
G1 X40.9995 Y-23.8015 Z0.1382 F22.
G1 X40.9995 Y-23.5518 Z0.1571
G1 X40.9995 Y-23.3019 Z0.1706
G1 X40.9995 Y-23.0517 Z0.1787
G1 X40.9995 Y-22.8015 Z0.1814
G1 X40.9995 Y-22.5513 Z0.1787
G1 X40.9995 Y-22.3012 Z0.1706
G1 X40.9995 Y-22.0512 Z0.1571
G1 X40.9995 Y-21.8015 Z0.1382
G1 X40.9995 Y-21.7671 Z0.1351
G0 Z0.3163
G0 X40.9995 Y-21.7671 
G0 Z0.3163
G0 X40.9995 Y-23.7234 
G1 X40.9995 Y-23.7234 Z0.1413 F21.
G1 X40.9995 Y-23.8015 Z0.1275
G1 X40.9995 Y-23.8368 Z0.1213
G1 X40.9995 Y-23.8015 Z0.1244 F22.
G1 X40.9995 Y-23.5518 Z0.1434
G1 X40.9995 Y-23.3019 Z0.1569
G1 X40.9995 Y-23.0517 Z0.1650
G1 X40.9995 Y-22.8015 Z0.1677
G1 X40.9995 Y-22.5513 Z0.1650
G1 X40.9995 Y-22.3012 Z0.1569
G1 X40.9995 Y-22.0512 Z0.1434
G1 X40.9995 Y-21.8015 Z0.1244
G1 X40.9995 Y-21.7671 Z0.1214
G0 Z0.3026
G0 X40.9995 Y-21.7671 
G0 Z0.3026
G0 X40.9995 Y-23.7234 
G1 X40.9995 Y-23.7234 Z0.1276 F21.
G1 X40.9995 Y-23.8015 Z0.1138
G1 X40.9995 Y-23.8368 Z0.1076
G1 X40.9995 Y-23.8015 Z0.1107 F22.
G1 X40.9995 Y-23.5518 Z0.1297
G1 X40.9995 Y-23.3019 Z0.1432
G1 X40.9995 Y-23.0517 Z0.1513
G1 X40.9995 Y-22.8015 Z0.1540
G1 X40.9995 Y-22.5513 Z0.1513
G1 X40.9995 Y-22.3012 Z0.1432
G1 X40.9995 Y-22.0512 Z0.1297
G1 X40.9995 Y-21.8015 Z0.1107
G1 X40.9995 Y-21.7671 Z0.1077
G0 Z0.3848
G0 X40.9995 Y-21.7671 
G0 Z0.3848
G0 X42.2030 Y-23.7072 
G1 X42.2030 Y-23.7072 Z0.2098 F21.
G1 X42.2030 Y-23.7190 Z0.2078
G1 X42.2030 Y-23.8206 Z0.1898
G1 X42.2030 Y-23.4816 Z0.2156 F22.
G1 X42.2030 Y-23.1419 Z0.2311
G1 X42.2030 Y-22.8019 Z0.2363
G1 X42.2030 Y-22.4619 Z0.2311
G1 X42.2030 Y-22.1222 Z0.2157
G1 X42.2030 Y-21.7831 Z0.1899
G0 Z0.3711
G0 X42.2030 Y-21.7831 
G0 Z0.3711
G0 X42.2030 Y-23.7072 
G1 X42.2030 Y-23.7072 Z0.1961 F21.
G1 X42.2030 Y-23.7190 Z0.1941
G1 X42.2030 Y-23.8206 Z0.1761
G1 X42.2030 Y-23.4816 Z0.2019 F22.
G1 X42.2030 Y-23.1419 Z0.2174
G1 X42.2030 Y-22.8019 Z0.2226
G1 X42.2030 Y-22.4619 Z0.2174
G1 X42.2030 Y-22.1222 Z0.2020
G1 X42.2030 Y-21.7831 Z0.1762
G0 Z0.3574
G0 X42.2030 Y-21.7831 
G0 Z0.3574
G0 X42.2030 Y-23.7072 
G1 X42.2030 Y-23.7072 Z0.1824 F21.
G1 X42.2030 Y-23.7190 Z0.1803
G1 X42.2030 Y-23.8206 Z0.1624
G1 X42.2030 Y-23.4816 Z0.1882 F22.
G1 X42.2030 Y-23.1419 Z0.2037
G1 X42.2030 Y-22.8019 Z0.2089
G1 X42.2030 Y-22.4619 Z0.2037
G1 X42.2030 Y-22.1222 Z0.1882
G1 X42.2030 Y-21.7831 Z0.1625
G0 Z0.3437
G0 X42.2030 Y-21.7831 
G0 Z0.3437
G0 X42.2030 Y-23.7072 
G1 X42.2030 Y-23.7072 Z0.1687 F21.
G1 X42.2030 Y-23.7190 Z0.1666
G1 X42.2030 Y-23.8206 Z0.1487
G1 X42.2030 Y-23.4816 Z0.1745 F22.
G1 X42.2030 Y-23.1419 Z0.1900
G1 X42.2030 Y-22.8019 Z0.1951
G1 X42.2030 Y-22.4619 Z0.1900
G1 X42.2030 Y-22.1222 Z0.1745
G1 X42.2030 Y-21.7831 Z0.1488
G0 Z0.3300
G0 X42.2030 Y-21.7831 
G0 Z0.3300
G0 X42.2030 Y-23.7072 
G1 X42.2030 Y-23.7072 Z0.1550 F21.
G1 X42.2030 Y-23.7190 Z0.1529
G1 X42.2030 Y-23.8206 Z0.1350
G1 X42.2030 Y-23.4816 Z0.1608 F22.
G1 X42.2030 Y-23.1419 Z0.1763
G1 X42.2030 Y-22.8019 Z0.1814
G1 X42.2030 Y-22.4619 Z0.1763
G1 X42.2030 Y-22.1222 Z0.1608
G1 X42.2030 Y-21.7831 Z0.1350
G0 Z0.3163
G0 X42.2030 Y-21.7831 
G0 Z0.3163
G0 X42.2030 Y-23.7072 
G1 X42.2030 Y-23.7072 Z0.1413 F21.
G1 X42.2030 Y-23.7190 Z0.1392
G1 X42.2030 Y-23.8206 Z0.1213
G1 X42.2030 Y-23.4816 Z0.1471 F22.
G1 X42.2030 Y-23.1419 Z0.1625
G1 X42.2030 Y-22.8019 Z0.1677
G1 X42.2030 Y-22.4619 Z0.1626
G1 X42.2030 Y-22.1222 Z0.1471
G1 X42.2030 Y-21.7831 Z0.1213
G0 Z0.3026
G0 X42.2030 Y-21.7831 
G0 Z0.3026
G0 X42.2030 Y-23.7072 
G1 X42.2030 Y-23.7072 Z0.1276 F21.
G1 X42.2030 Y-23.7190 Z0.1255
G1 X42.2030 Y-23.8206 Z0.1076
G1 X42.2030 Y-23.4816 Z0.1333 F22.
G1 X42.2030 Y-23.1419 Z0.1488
G1 X42.2030 Y-22.8019 Z0.1540
G1 X42.2030 Y-22.4619 Z0.1489
G1 X42.2030 Y-22.1222 Z0.1334
G1 X42.2030 Y-21.7831 Z0.1076
G0 Z0.3848
G0 X42.2030 Y-21.7831 
G0 Z0.3848
G0 X43.4780 Y-23.6901 
G1 X43.4780 Y-23.6901 Z0.2098 F21.
G1 X43.4780 Y-23.7036 Z0.2074
G1 X43.4780 Y-23.8035 Z0.1898
G1 X43.4780 Y-23.4701 Z0.2156 F22.
G1 X43.4780 Y-23.1361 Z0.2311
G1 X43.4780 Y-22.8018 Z0.2363
G1 X43.4780 Y-22.4674 Z0.2311
G1 X43.4780 Y-22.1334 Z0.2156
G1 X43.4780 Y-21.8000 Z0.1898
G0 Z0.3711
G0 X43.4780 Y-21.8000 
G0 Z0.3711
G0 X43.4780 Y-23.6901 
G1 X43.4780 Y-23.6901 Z0.1961 F21.
G1 X43.4780 Y-23.7036 Z0.1937
G1 X43.4780 Y-23.8035 Z0.1761
G1 X43.4780 Y-23.4701 Z0.2019 F22.
G1 X43.4780 Y-23.1361 Z0.2174
G1 X43.4780 Y-22.8018 Z0.2226
G1 X43.4780 Y-22.4674 Z0.2174
G1 X43.4780 Y-22.1334 Z0.2019
G1 X43.4780 Y-21.8000 Z0.1761
G0 Z0.3574
G0 X43.4780 Y-21.8000 
G0 Z0.3574
G0 X43.4780 Y-23.6901 
G1 X43.4780 Y-23.6901 Z0.1824 F21.
G1 X43.4780 Y-23.7036 Z0.1800
G1 X43.4780 Y-23.8035 Z0.1624
G1 X43.4780 Y-23.4701 Z0.1882 F22.
G1 X43.4780 Y-23.1361 Z0.2037
G1 X43.4780 Y-22.8018 Z0.2089
G1 X43.4780 Y-22.4674 Z0.2037
G1 X43.4780 Y-22.1334 Z0.1882
G1 X43.4780 Y-21.8000 Z0.1624
G0 Z0.3436
G0 X43.4780 Y-21.8000 
G0 Z0.3436
G0 X43.4780 Y-23.6901 
G1 X43.4780 Y-23.6901 Z0.1686 F21.
G1 X43.4780 Y-23.7036 Z0.1663
G1 X43.4780 Y-23.8035 Z0.1486
G1 X43.4780 Y-23.4701 Z0.1745 F22.
G1 X43.4780 Y-23.1361 Z0.1900
G1 X43.4780 Y-22.8018 Z0.1951
G1 X43.4780 Y-22.4674 Z0.1900
G1 X43.4780 Y-22.1334 Z0.1745
G1 X43.4780 Y-21.8000 Z0.1487
G0 Z0.3299
G0 X43.4780 Y-21.8000 
G0 Z0.3299
G0 X43.4780 Y-23.6901 
G1 X43.4780 Y-23.6901 Z0.1549 F21.
G1 X43.4780 Y-23.7036 Z0.1526
G1 X43.4780 Y-23.8035 Z0.1349
G1 X43.4780 Y-23.4701 Z0.1608 F22.
G1 X43.4780 Y-23.1361 Z0.1763
G1 X43.4780 Y-22.8018 Z0.1814
G1 X43.4780 Y-22.4674 Z0.1763
G1 X43.4780 Y-22.1334 Z0.1608
G1 X43.4780 Y-21.8000 Z0.1350
G0 Z0.3162
G0 X43.4780 Y-21.8000 
G0 Z0.3162
G0 X43.4780 Y-23.6901 
G1 X43.4780 Y-23.6901 Z0.1412 F21.
G1 X43.4780 Y-23.7036 Z0.1388
G1 X43.4780 Y-23.8035 Z0.1212
G1 X43.4780 Y-23.4701 Z0.1470 F22.
G1 X43.4780 Y-23.1361 Z0.1625
G1 X43.4780 Y-22.8018 Z0.1677
G1 X43.4780 Y-22.4674 Z0.1626
G1 X43.4780 Y-22.1334 Z0.1471
G1 X43.4780 Y-21.8000 Z0.1213
G0 Z0.3025
G0 X43.4780 Y-21.8000 
G0 Z0.3025
G0 X43.4780 Y-23.6901 
G1 X43.4780 Y-23.6901 Z0.1275 F21.
G1 X43.4780 Y-23.7036 Z0.1251
G1 X43.4780 Y-23.8035 Z0.1075
G1 X43.4780 Y-23.4701 Z0.1333 F22.
G1 X43.4780 Y-23.1361 Z0.1488
G1 X43.4780 Y-22.8018 Z0.1540
G1 X43.4780 Y-22.4674 Z0.1488
G1 X43.4780 Y-22.1334 Z0.1334
G1 X43.4780 Y-21.8000 Z0.1075
G0 Z0.3847
G0 X43.4780 Y-21.8000 
G0 Z0.3847
G0 X44.8289 Y-23.6719 
G1 X44.8289 Y-23.6719 Z0.2097 F21.
G1 X44.8289 Y-23.6872 Z0.2070
G1 X44.8289 Y-23.7853 Z0.1897
G1 X44.8289 Y-23.4580 Z0.2156 F22.
G1 X44.8289 Y-23.1300 Z0.2311
G1 X44.8289 Y-22.8016 Z0.2363
G1 X44.8289 Y-22.4733 Z0.2311
G1 X44.8289 Y-22.1453 Z0.2156
G1 X44.8289 Y-21.8180 Z0.1897
G0 Z0.3710
G0 X44.8289 Y-21.8180 
G0 Z0.3710
G0 X44.8289 Y-23.6719 
G1 X44.8289 Y-23.6719 Z0.1960 F21.
G1 X44.8289 Y-23.6872 Z0.1933
G1 X44.8289 Y-23.7853 Z0.1760
G1 X44.8289 Y-23.4580 Z0.2019 F22.
G1 X44.8289 Y-23.1300 Z0.2174
G1 X44.8289 Y-22.8016 Z0.2226
G1 X44.8289 Y-22.4733 Z0.2174
G1 X44.8289 Y-22.1453 Z0.2019
G1 X44.8289 Y-21.8180 Z0.1760
G0 Z0.3573
G0 X44.8289 Y-21.8180 
G0 Z0.3573
G0 X44.8289 Y-23.6719 
G1 X44.8289 Y-23.6719 Z0.1823 F21.
G1 X44.8289 Y-23.6872 Z0.1796
G1 X44.8289 Y-23.7853 Z0.1623
G1 X44.8289 Y-23.4580 Z0.1882 F22.
G1 X44.8289 Y-23.1300 Z0.2037
G1 X44.8289 Y-22.8016 Z0.2089
G1 X44.8289 Y-22.4733 Z0.2037
G1 X44.8289 Y-22.1453 Z0.1882
G1 X44.8289 Y-21.8180 Z0.1623
G0 Z0.3436
G0 X44.8289 Y-21.8180 
G0 Z0.3436
G0 X44.8289 Y-23.6719 
G1 X44.8289 Y-23.6719 Z0.1686 F21.
G1 X44.8289 Y-23.6872 Z0.1659
G1 X44.8289 Y-23.7853 Z0.1486
G1 X44.8289 Y-23.4580 Z0.1744 F22.
G1 X44.8289 Y-23.1300 Z0.1900
G1 X44.8289 Y-22.8016 Z0.1951
G1 X44.8289 Y-22.4733 Z0.1900
G1 X44.8289 Y-22.1453 Z0.1745
G1 X44.8289 Y-21.8180 Z0.1486
G0 Z0.3299
G0 X44.8289 Y-21.8180 
G0 Z0.3299
G0 X44.8289 Y-23.6719 
G1 X44.8289 Y-23.6719 Z0.1549 F21.
G1 X44.8289 Y-23.6872 Z0.1522
G1 X44.8289 Y-23.7853 Z0.1349
G1 X44.8289 Y-23.4580 Z0.1607 F22.
G1 X44.8289 Y-23.1300 Z0.1763
G1 X44.8289 Y-22.8016 Z0.1814
G1 X44.8289 Y-22.4733 Z0.1763
G1 X44.8289 Y-22.1453 Z0.1607
G1 X44.8289 Y-21.8180 Z0.1349
G0 Z0.3162
G0 X44.8289 Y-21.8180 
G0 Z0.3162
G0 X44.8289 Y-23.6719 
G1 X44.8289 Y-23.6719 Z0.1412 F21.
G1 X44.8289 Y-23.6872 Z0.1385
G1 X44.8289 Y-23.7853 Z0.1212
G1 X44.8289 Y-23.4580 Z0.1470 F22.
G1 X44.8289 Y-23.1300 Z0.1625
G1 X44.8289 Y-22.8016 Z0.1677
G1 X44.8289 Y-22.4733 Z0.1625
G1 X44.8289 Y-22.1453 Z0.1470
G1 X44.8289 Y-21.8180 Z0.1212
G0 Z0.3024
G0 X44.8289 Y-21.8180 
G0 Z0.3024
G0 X44.8289 Y-23.6719 
G1 X44.8289 Y-23.6719 Z0.1274 F21.
G1 X44.8289 Y-23.6872 Z0.1247
G1 X44.8289 Y-23.7853 Z0.1074
G1 X44.8289 Y-23.4580 Z0.1333 F22.
G1 X44.8289 Y-23.1300 Z0.1488
G1 X44.8289 Y-22.8016 Z0.1540
G1 X44.8289 Y-22.4733 Z0.1488
G1 X44.8289 Y-22.1453 Z0.1333
G1 X44.8289 Y-21.8180 Z0.1075
G0 Z4.0000
G0 X44.8289 Y-21.8180 
M5
G53 Z
X2Y0
