( MOP:  03-frets-r10-s25PT5-NFrets24-JumboDepth-StandardKerf )
( FILE: G:\Shared drives\AlloyProjectFiles\Customer CAD files\Alloy-Standard-Builds-CAM\Fingerboards-in\03-frets-r10-s25PT5-NFrets24-JumboDepth-StandardKerf.nc)
G90
(  BEGIN TOOL LIST )
(  TOOL 15 - Fretkerf PT025 - DESC: 0.0250 DIA, 2 FLUTE,  CARBIDE MAT )
(  ENDOF TOOL LIST )
( 03-frets-r10-s25PT5-NFrets24-JumboDepth-StandardKerf)
T15
S14000
M3
G0 Z1.0000
G0 X27.1351 Y-23.9097 
G1 X27.1351 Y-23.9097 Z0.1803 F21.
G1 X27.1351 Y-23.9260 Z0.1774
G1 X27.1351 Y-24.0232 Z0.1603
G1 X27.1351 Y-23.7192 Z0.1933 F22.
G1 X27.1351 Y-23.4143 Z0.2170
G1 X27.1351 Y-23.1089 Z0.2313
G1 X27.1351 Y-22.8032 Z0.2363
G1 X27.1351 Y-22.4974 Z0.2319
G1 X27.1351 Y-22.1920 Z0.2182
G1 X27.1351 Y-21.8871 Z0.1952
G1 X27.1351 Y-21.5830 Z0.1628
G0 Z0.3416
G0 X27.1351 Y-21.5830 
G0 Z0.3416
G0 X27.1351 Y-23.9097 
G1 X27.1351 Y-23.9097 Z0.1666 F21.
G1 X27.1351 Y-23.9260 Z0.1637
G1 X27.1351 Y-24.0232 Z0.1466
G1 X27.1351 Y-23.7192 Z0.1796 F22.
G1 X27.1351 Y-23.4143 Z0.2032
G1 X27.1351 Y-23.1089 Z0.2176
G1 X27.1351 Y-22.8032 Z0.2226
G1 X27.1351 Y-22.4974 Z0.2182
G1 X27.1351 Y-22.1920 Z0.2045
G1 X27.1351 Y-21.8871 Z0.1815
G1 X27.1351 Y-21.5830 Z0.1491
G0 Z0.3279
G0 X27.1351 Y-21.5830 
G0 Z0.3279
G0 X27.1351 Y-23.9097 
G1 X27.1351 Y-23.9097 Z0.1529 F21.
G1 X27.1351 Y-23.9260 Z0.1500
G1 X27.1351 Y-24.0232 Z0.1329
G1 X27.1351 Y-23.7192 Z0.1659 F22.
G1 X27.1351 Y-23.4143 Z0.1895
G1 X27.1351 Y-23.1089 Z0.2039
G1 X27.1351 Y-22.8032 Z0.2089
G1 X27.1351 Y-22.4974 Z0.2045
G1 X27.1351 Y-22.1920 Z0.1908
G1 X27.1351 Y-21.8871 Z0.1678
G1 X27.1351 Y-21.5830 Z0.1354
G0 Z0.3142
G0 X27.1351 Y-21.5830 
G0 Z0.3142
G0 X27.1351 Y-23.9097 
G1 X27.1351 Y-23.9097 Z0.1392 F21.
G1 X27.1351 Y-23.9260 Z0.1363
G1 X27.1351 Y-24.0232 Z0.1192
G1 X27.1351 Y-23.7192 Z0.1521 F22.
G1 X27.1351 Y-23.4143 Z0.1758
G1 X27.1351 Y-23.1089 Z0.1902
G1 X27.1351 Y-22.8032 Z0.1951
G1 X27.1351 Y-22.4974 Z0.1908
G1 X27.1351 Y-22.1920 Z0.1771
G1 X27.1351 Y-21.8871 Z0.1540
G1 X27.1351 Y-21.5830 Z0.1217
G0 Z0.3005
G0 X27.1351 Y-21.5830 
G0 Z0.3005
G0 X27.1351 Y-23.9097 
G1 X27.1351 Y-23.9097 Z0.1255 F21.
G1 X27.1351 Y-23.9260 Z0.1226
G1 X27.1351 Y-24.0232 Z0.1055
G1 X27.1351 Y-23.7192 Z0.1384 F22.
G1 X27.1351 Y-23.4143 Z0.1621
G1 X27.1351 Y-23.1089 Z0.1764
G1 X27.1351 Y-22.8032 Z0.1814
G1 X27.1351 Y-22.4974 Z0.1771
G1 X27.1351 Y-22.1920 Z0.1634
G1 X27.1351 Y-21.8871 Z0.1403
G1 X27.1351 Y-21.5830 Z0.1080
G0 Z0.2867
G0 X27.1351 Y-21.5830 
G0 Z0.2867
G0 X27.1351 Y-23.9097 
G1 X27.1351 Y-23.9097 Z0.1117 F21.
G1 X27.1351 Y-23.9260 Z0.1089
G1 X27.1351 Y-24.0232 Z0.0917
G1 X27.1351 Y-23.7192 Z0.1247 F22.
G1 X27.1351 Y-23.4143 Z0.1484
G1 X27.1351 Y-23.1089 Z0.1627
G1 X27.1351 Y-22.8032 Z0.1677
G1 X27.1351 Y-22.4974 Z0.1634
G1 X27.1351 Y-22.1920 Z0.1496
G1 X27.1351 Y-21.8871 Z0.1266
G1 X27.1351 Y-21.5830 Z0.0943
G0 Z0.2730
G0 X27.1351 Y-21.5830 
G0 Z0.2730
G0 X27.1351 Y-23.9097 
G1 X27.1351 Y-23.9097 Z0.0980 F21.
G1 X27.1351 Y-23.9260 Z0.0952
G1 X27.1351 Y-24.0232 Z0.0780
G1 X27.1351 Y-23.7192 Z0.1110 F22.
G1 X27.1351 Y-23.4143 Z0.1347
G1 X27.1351 Y-23.1089 Z0.1490
G1 X27.1351 Y-22.8032 Z0.1540
G1 X27.1351 Y-22.4974 Z0.1496
G1 X27.1351 Y-22.1920 Z0.1359
G1 X27.1351 Y-21.8871 Z0.1129
G1 X27.1351 Y-21.5830 Z0.0805
G0 Z0.3559
G0 X27.1351 Y-21.5830 
G0 Z0.3559
G0 X27.5142 Y-23.9047 
G1 X27.5142 Y-23.9047 Z0.1809 F21.
G1 X27.5142 Y-23.9213 Z0.1780
G1 X27.5142 Y-24.0181 Z0.1609
G1 X27.5142 Y-23.7153 Z0.1936 F22.
G1 X27.5142 Y-23.4118 Z0.2171
G1 X27.5142 Y-23.1076 Z0.2313
G1 X27.5142 Y-22.8031 Z0.2363
G1 X27.5142 Y-22.4987 Z0.2320
G1 X27.5142 Y-22.1945 Z0.2184
G1 X27.5142 Y-21.8908 Z0.1955
G1 X27.5142 Y-21.5880 Z0.1634
G0 Z0.3422
G0 X27.5142 Y-21.5880 
G0 Z0.3422
G0 X27.5142 Y-23.9047 
G1 X27.5142 Y-23.9047 Z0.1672 F21.
G1 X27.5142 Y-23.9213 Z0.1643
G1 X27.5142 Y-24.0181 Z0.1472
G1 X27.5142 Y-23.7153 Z0.1799 F22.
G1 X27.5142 Y-23.4118 Z0.2034
G1 X27.5142 Y-23.1076 Z0.2176
G1 X27.5142 Y-22.8031 Z0.2226
G1 X27.5142 Y-22.4987 Z0.2182
G1 X27.5142 Y-22.1945 Z0.2047
G1 X27.5142 Y-21.8908 Z0.1818
G1 X27.5142 Y-21.5880 Z0.1497
G0 Z0.3285
G0 X27.5142 Y-21.5880 
G0 Z0.3285
G0 X27.5142 Y-23.9047 
G1 X27.5142 Y-23.9047 Z0.1535 F21.
G1 X27.5142 Y-23.9213 Z0.1506
G1 X27.5142 Y-24.0181 Z0.1335
G1 X27.5142 Y-23.7153 Z0.1662 F22.
G1 X27.5142 Y-23.4118 Z0.1897
G1 X27.5142 Y-23.1076 Z0.2039
G1 X27.5142 Y-22.8031 Z0.2089
G1 X27.5142 Y-22.4987 Z0.2045
G1 X27.5142 Y-22.1945 Z0.1909
G1 X27.5142 Y-21.8908 Z0.1681
G1 X27.5142 Y-21.5880 Z0.1360
G0 Z0.3148
G0 X27.5142 Y-21.5880 
G0 Z0.3148
G0 X27.5142 Y-23.9047 
G1 X27.5142 Y-23.9047 Z0.1398 F21.
G1 X27.5142 Y-23.9213 Z0.1369
G1 X27.5142 Y-24.0181 Z0.1198
G1 X27.5142 Y-23.7153 Z0.1525 F22.
G1 X27.5142 Y-23.4118 Z0.1760
G1 X27.5142 Y-23.1076 Z0.1902
G1 X27.5142 Y-22.8031 Z0.1951
G1 X27.5142 Y-22.4987 Z0.1908
G1 X27.5142 Y-22.1945 Z0.1772
G1 X27.5142 Y-21.8908 Z0.1544
G1 X27.5142 Y-21.5880 Z0.1223
G0 Z0.3011
G0 X27.5142 Y-21.5880 
G0 Z0.3011
G0 X27.5142 Y-23.9047 
G1 X27.5142 Y-23.9047 Z0.1261 F21.
G1 X27.5142 Y-23.9213 Z0.1232
G1 X27.5142 Y-24.0181 Z0.1061
G1 X27.5142 Y-23.7153 Z0.1388 F22.
G1 X27.5142 Y-23.4118 Z0.1623
G1 X27.5142 Y-23.1076 Z0.1765
G1 X27.5142 Y-22.8031 Z0.1814
G1 X27.5142 Y-22.4987 Z0.1771
G1 X27.5142 Y-22.1945 Z0.1635
G1 X27.5142 Y-21.8908 Z0.1407
G1 X27.5142 Y-21.5880 Z0.1086
G0 Z0.2874
G0 X27.5142 Y-21.5880 
G0 Z0.2874
G0 X27.5142 Y-23.9047 
G1 X27.5142 Y-23.9047 Z0.1124 F21.
G1 X27.5142 Y-23.9213 Z0.1094
G1 X27.5142 Y-24.0181 Z0.0924
G1 X27.5142 Y-23.7153 Z0.1251 F22.
G1 X27.5142 Y-23.4118 Z0.1485
G1 X27.5142 Y-23.1076 Z0.1628
G1 X27.5142 Y-22.8031 Z0.1677
G1 X27.5142 Y-22.4987 Z0.1634
G1 X27.5142 Y-22.1945 Z0.1498
G1 X27.5142 Y-21.8908 Z0.1270
G1 X27.5142 Y-21.5880 Z0.0949
G0 Z0.2737
G0 X27.5142 Y-21.5880 
G0 Z0.2737
G0 X27.5142 Y-23.9047 
G1 X27.5142 Y-23.9047 Z0.0987 F21.
G1 X27.5142 Y-23.9213 Z0.0957
G1 X27.5142 Y-24.0181 Z0.0787
G1 X27.5142 Y-23.7153 Z0.1114 F22.
G1 X27.5142 Y-23.4118 Z0.1348
G1 X27.5142 Y-23.1076 Z0.1490
G1 X27.5142 Y-22.8031 Z0.1540
G1 X27.5142 Y-22.4987 Z0.1497
G1 X27.5142 Y-22.1945 Z0.1361
G1 X27.5142 Y-21.8908 Z0.1132
G1 X27.5142 Y-21.5880 Z0.0812
G0 Z0.3566
G0 X27.5142 Y-21.5880 
G0 Z0.3566
G0 X27.9158 Y-23.8993 
G1 X27.9158 Y-23.8993 Z0.1816 F21.
G1 X27.9158 Y-23.9163 Z0.1786
G1 X27.9158 Y-24.0127 Z0.1616
G1 X27.9158 Y-23.7113 Z0.1940 F22.
G1 X27.9158 Y-23.4090 Z0.2173
G1 X27.9158 Y-23.1062 Z0.2314
G1 X27.9158 Y-22.8031 Z0.2363
G1 X27.9158 Y-22.5000 Z0.2320
G1 X27.9158 Y-22.1971 Z0.2185
G1 X27.9158 Y-21.8948 Z0.1959
G1 X27.9158 Y-21.5934 Z0.1641
G0 Z0.3429
G0 X27.9158 Y-21.5934 
G0 Z0.3429
G0 X27.9158 Y-23.8993 
G1 X27.9158 Y-23.8993 Z0.1679 F21.
G1 X27.9158 Y-23.9163 Z0.1649
G1 X27.9158 Y-24.0127 Z0.1479
G1 X27.9158 Y-23.7113 Z0.1803 F22.
G1 X27.9158 Y-23.4090 Z0.2036
G1 X27.9158 Y-23.1062 Z0.2177
G1 X27.9158 Y-22.8031 Z0.2226
G1 X27.9158 Y-22.5000 Z0.2183
G1 X27.9158 Y-22.1971 Z0.2048
G1 X27.9158 Y-21.8948 Z0.1822
G1 X27.9158 Y-21.5934 Z0.1504
G0 Z0.3292
G0 X27.9158 Y-21.5934 
G0 Z0.3292
G0 X27.9158 Y-23.8993 
G1 X27.9158 Y-23.8993 Z0.1542 F21.
G1 X27.9158 Y-23.9163 Z0.1512
G1 X27.9158 Y-24.0127 Z0.1342
G1 X27.9158 Y-23.7113 Z0.1666 F22.
G1 X27.9158 Y-23.4090 Z0.1899
G1 X27.9158 Y-23.1062 Z0.2039
G1 X27.9158 Y-22.8031 Z0.2089
G1 X27.9158 Y-22.5000 Z0.2046
G1 X27.9158 Y-22.1971 Z0.1911
G1 X27.9158 Y-21.8948 Z0.1685
G1 X27.9158 Y-21.5934 Z0.1367
G0 Z0.3155
G0 X27.9158 Y-21.5934 
G0 Z0.3155
G0 X27.9158 Y-23.8993 
G1 X27.9158 Y-23.8993 Z0.1405 F21.
G1 X27.9158 Y-23.9163 Z0.1375
G1 X27.9158 Y-24.0127 Z0.1205
G1 X27.9158 Y-23.7113 Z0.1529 F22.
G1 X27.9158 Y-23.4090 Z0.1761
G1 X27.9158 Y-23.1062 Z0.1902
G1 X27.9158 Y-22.8031 Z0.1951
G1 X27.9158 Y-22.5000 Z0.1909
G1 X27.9158 Y-22.1971 Z0.1774
G1 X27.9158 Y-21.8948 Z0.1547
G1 X27.9158 Y-21.5934 Z0.1229
G0 Z0.3018
G0 X27.9158 Y-21.5934 
G0 Z0.3018
G0 X27.9158 Y-23.8993 
G1 X27.9158 Y-23.8993 Z0.1268 F21.
G1 X27.9158 Y-23.9163 Z0.1237
G1 X27.9158 Y-24.0127 Z0.1068
G1 X27.9158 Y-23.7113 Z0.1392 F22.
G1 X27.9158 Y-23.4090 Z0.1624
G1 X27.9158 Y-23.1062 Z0.1765
G1 X27.9158 Y-22.8031 Z0.1814
G1 X27.9158 Y-22.5000 Z0.1771
G1 X27.9158 Y-22.1971 Z0.1637
G1 X27.9158 Y-21.8948 Z0.1410
G1 X27.9158 Y-21.5934 Z0.1092
G0 Z0.2880
G0 X27.9158 Y-21.5934 
G0 Z0.2880
G0 X27.9158 Y-23.8993 
G1 X27.9158 Y-23.8993 Z0.1130 F21.
G1 X27.9158 Y-23.9163 Z0.1100
G1 X27.9158 Y-24.0127 Z0.0930
G1 X27.9158 Y-23.7113 Z0.1255 F22.
G1 X27.9158 Y-23.4090 Z0.1487
G1 X27.9158 Y-23.1062 Z0.1628
G1 X27.9158 Y-22.8031 Z0.1677
G1 X27.9158 Y-22.5000 Z0.1634
G1 X27.9158 Y-22.1971 Z0.1500
G1 X27.9158 Y-21.8948 Z0.1273
G1 X27.9158 Y-21.5934 Z0.0955
G0 Z0.2743
G0 X27.9158 Y-21.5934 
G0 Z0.2743
G0 X27.9158 Y-23.8993 
G1 X27.9158 Y-23.8993 Z0.0993 F21.
G1 X27.9158 Y-23.9163 Z0.0963
G1 X27.9158 Y-24.0127 Z0.0793
G1 X27.9158 Y-23.7113 Z0.1117 F22.
G1 X27.9158 Y-23.4090 Z0.1350
G1 X27.9158 Y-23.1062 Z0.1491
G1 X27.9158 Y-22.8031 Z0.1540
G1 X27.9158 Y-22.5000 Z0.1497
G1 X27.9158 Y-22.1971 Z0.1362
G1 X27.9158 Y-21.8948 Z0.1136
G1 X27.9158 Y-21.5934 Z0.0818
G0 Z0.3573
G0 X27.9158 Y-21.5934 
G0 Z0.3573
G0 X28.3413 Y-23.8935 
G1 X28.3413 Y-23.8935 Z0.1823 F21.
G1 X28.3413 Y-23.9111 Z0.1792
G1 X28.3413 Y-24.0070 Z0.1623
G1 X28.3413 Y-23.7070 Z0.1944 F22.
G1 X28.3413 Y-23.4061 Z0.2175
G1 X28.3413 Y-23.1047 Z0.2314
G1 X28.3413 Y-22.8031 Z0.2363
G1 X28.3413 Y-22.5014 Z0.2320
G1 X28.3413 Y-22.2000 Z0.2187
G1 X28.3413 Y-21.8991 Z0.1963
G1 X28.3413 Y-21.5990 Z0.1648
G0 Z0.3436
G0 X28.3413 Y-21.5990 
G0 Z0.3436
G0 X28.3413 Y-23.8935 
G1 X28.3413 Y-23.8935 Z0.1686 F21.
G1 X28.3413 Y-23.9111 Z0.1655
G1 X28.3413 Y-24.0070 Z0.1486
G1 X28.3413 Y-23.7070 Z0.1807 F22.
G1 X28.3413 Y-23.4061 Z0.2038
G1 X28.3413 Y-23.1047 Z0.2177
G1 X28.3413 Y-22.8031 Z0.2226
G1 X28.3413 Y-22.5014 Z0.2183
G1 X28.3413 Y-22.2000 Z0.2050
G1 X28.3413 Y-21.8991 Z0.1826
G1 X28.3413 Y-21.5990 Z0.1511
G0 Z0.3299
G0 X28.3413 Y-21.5990 
G0 Z0.3299
G0 X28.3413 Y-23.8935 
G1 X28.3413 Y-23.8935 Z0.1549 F21.
G1 X28.3413 Y-23.9111 Z0.1518
G1 X28.3413 Y-24.0070 Z0.1349
G1 X28.3413 Y-23.7070 Z0.1670 F22.
G1 X28.3413 Y-23.4061 Z0.1900
G1 X28.3413 Y-23.1047 Z0.2040
G1 X28.3413 Y-22.8031 Z0.2089
G1 X28.3413 Y-22.5014 Z0.2046
G1 X28.3413 Y-22.2000 Z0.1913
G1 X28.3413 Y-21.8991 Z0.1688
G1 X28.3413 Y-21.5990 Z0.1373
G0 Z0.3162
G0 X28.3413 Y-21.5990 
G0 Z0.3162
G0 X28.3413 Y-23.8935 
G1 X28.3413 Y-23.8935 Z0.1412 F21.
G1 X28.3413 Y-23.9111 Z0.1381
G1 X28.3413 Y-24.0070 Z0.1212
G1 X28.3413 Y-23.7070 Z0.1533 F22.
G1 X28.3413 Y-23.4061 Z0.1763
G1 X28.3413 Y-23.1047 Z0.1903
G1 X28.3413 Y-22.8031 Z0.1951
G1 X28.3413 Y-22.5014 Z0.1909
G1 X28.3413 Y-22.2000 Z0.1776
G1 X28.3413 Y-21.8991 Z0.1551
G1 X28.3413 Y-21.5990 Z0.1236
G0 Z0.3025
G0 X28.3413 Y-21.5990 
G0 Z0.3025
G0 X28.3413 Y-23.8935 
G1 X28.3413 Y-23.8935 Z0.1275 F21.
G1 X28.3413 Y-23.9111 Z0.1244
G1 X28.3413 Y-24.0070 Z0.1075
G1 X28.3413 Y-23.7070 Z0.1396 F22.
G1 X28.3413 Y-23.4061 Z0.1626
G1 X28.3413 Y-23.1047 Z0.1766
G1 X28.3413 Y-22.8031 Z0.1814
G1 X28.3413 Y-22.5014 Z0.1772
G1 X28.3413 Y-22.2000 Z0.1638
G1 X28.3413 Y-21.8991 Z0.1414
G1 X28.3413 Y-21.5990 Z0.1099
G0 Z0.2887
G0 X28.3413 Y-21.5990 
G0 Z0.2887
G0 X28.3413 Y-23.8935 
G1 X28.3413 Y-23.8935 Z0.1137 F21.
G1 X28.3413 Y-23.9111 Z0.1106
G1 X28.3413 Y-24.0070 Z0.0937
G1 X28.3413 Y-23.7070 Z0.1259 F22.
G1 X28.3413 Y-23.4061 Z0.1489
G1 X28.3413 Y-23.1047 Z0.1629
G1 X28.3413 Y-22.8031 Z0.1677
G1 X28.3413 Y-22.5014 Z0.1635
G1 X28.3413 Y-22.2000 Z0.1501
G1 X28.3413 Y-21.8991 Z0.1277
G1 X28.3413 Y-21.5990 Z0.0962
G0 Z0.2750
G0 X28.3413 Y-21.5990 
G0 Z0.2750
G0 X28.3413 Y-23.8935 
G1 X28.3413 Y-23.8935 Z0.1000 F21.
G1 X28.3413 Y-23.9111 Z0.0969
G1 X28.3413 Y-24.0070 Z0.0800
G1 X28.3413 Y-23.7070 Z0.1121 F22.
G1 X28.3413 Y-23.4061 Z0.1352
G1 X28.3413 Y-23.1047 Z0.1491
G1 X28.3413 Y-22.8031 Z0.1540
G1 X28.3413 Y-22.5014 Z0.1498
G1 X28.3413 Y-22.2000 Z0.1364
G1 X28.3413 Y-21.8991 Z0.1140
G1 X28.3413 Y-21.5990 Z0.0825
G0 Z0.3581
G0 X28.3413 Y-21.5990 
G0 Z0.3581
G0 X28.7921 Y-23.8875 
G1 X28.7921 Y-23.8875 Z0.1831 F21.
G1 X28.7921 Y-23.9055 Z0.1799
G1 X28.7921 Y-24.0009 Z0.1631
G1 X28.7921 Y-23.7024 Z0.1948 F22.
G1 X28.7921 Y-23.4031 Z0.2177
G1 X28.7921 Y-23.1032 Z0.2315
G1 X28.7921 Y-22.8030 Z0.2363
G1 X28.7921 Y-22.5029 Z0.2321
G1 X28.7921 Y-22.2030 Z0.2189
G1 X28.7921 Y-21.9036 Z0.1967
G1 X28.7921 Y-21.6050 Z0.1655
G0 Z0.3443
G0 X28.7921 Y-21.6050 
G0 Z0.3443
G0 X28.7921 Y-23.8875 
G1 X28.7921 Y-23.8875 Z0.1693 F21.
G1 X28.7921 Y-23.9055 Z0.1662
G1 X28.7921 Y-24.0009 Z0.1493
G1 X28.7921 Y-23.7024 Z0.1811 F22.
G1 X28.7921 Y-23.4031 Z0.2039
G1 X28.7921 Y-23.1032 Z0.2178
G1 X28.7921 Y-22.8030 Z0.2226
G1 X28.7921 Y-22.5029 Z0.2184
G1 X28.7921 Y-22.2030 Z0.2052
G1 X28.7921 Y-21.9036 Z0.1830
G1 X28.7921 Y-21.6050 Z0.1518
G0 Z0.3306
G0 X28.7921 Y-21.6050 
G0 Z0.3306
G0 X28.7921 Y-23.8875 
G1 X28.7921 Y-23.8875 Z0.1556 F21.
G1 X28.7921 Y-23.9055 Z0.1524
G1 X28.7921 Y-24.0009 Z0.1356
G1 X28.7921 Y-23.7024 Z0.1674 F22.
G1 X28.7921 Y-23.4031 Z0.1902
G1 X28.7921 Y-23.1032 Z0.2040
G1 X28.7921 Y-22.8030 Z0.2089
G1 X28.7921 Y-22.5029 Z0.2047
G1 X28.7921 Y-22.2030 Z0.1914
G1 X28.7921 Y-21.9036 Z0.1692
G1 X28.7921 Y-21.6050 Z0.1381
G0 Z0.3169
G0 X28.7921 Y-21.6050 
G0 Z0.3169
G0 X28.7921 Y-23.8875 
G1 X28.7921 Y-23.8875 Z0.1419 F21.
G1 X28.7921 Y-23.9055 Z0.1387
G1 X28.7921 Y-24.0009 Z0.1219
G1 X28.7921 Y-23.7024 Z0.1537 F22.
G1 X28.7921 Y-23.4031 Z0.1765
G1 X28.7921 Y-23.1032 Z0.1903
G1 X28.7921 Y-22.8030 Z0.1951
G1 X28.7921 Y-22.5029 Z0.1909
G1 X28.7921 Y-22.2030 Z0.1777
G1 X28.7921 Y-21.9036 Z0.1555
G1 X28.7921 Y-21.6050 Z0.1243
G0 Z0.3032
G0 X28.7921 Y-21.6050 
G0 Z0.3032
G0 X28.7921 Y-23.8875 
G1 X28.7921 Y-23.8875 Z0.1282 F21.
G1 X28.7921 Y-23.9055 Z0.1250
G1 X28.7921 Y-24.0009 Z0.1082
G1 X28.7921 Y-23.7024 Z0.1400 F22.
G1 X28.7921 Y-23.4031 Z0.1628
G1 X28.7921 Y-23.1032 Z0.1766
G1 X28.7921 Y-22.8030 Z0.1814
G1 X28.7921 Y-22.5029 Z0.1772
G1 X28.7921 Y-22.2030 Z0.1640
G1 X28.7921 Y-21.9036 Z0.1418
G1 X28.7921 Y-21.6050 Z0.1106
G0 Z0.2895
G0 X28.7921 Y-21.6050 
G0 Z0.2895
G0 X28.7921 Y-23.8875 
G1 X28.7921 Y-23.8875 Z0.1145 F21.
G1 X28.7921 Y-23.9055 Z0.1113
G1 X28.7921 Y-24.0009 Z0.0945
G1 X28.7921 Y-23.7024 Z0.1263 F22.
G1 X28.7921 Y-23.4031 Z0.1491
G1 X28.7921 Y-23.1032 Z0.1629
G1 X28.7921 Y-22.8030 Z0.1677
G1 X28.7921 Y-22.5029 Z0.1635
G1 X28.7921 Y-22.2030 Z0.1503
G1 X28.7921 Y-21.9036 Z0.1281
G1 X28.7921 Y-21.6050 Z0.0969
G0 Z0.2758
G0 X28.7921 Y-21.6050 
G0 Z0.2758
G0 X28.7921 Y-23.8875 
G1 X28.7921 Y-23.8875 Z0.1008 F21.
G1 X28.7921 Y-23.9055 Z0.0976
G1 X28.7921 Y-24.0009 Z0.0808
G1 X28.7921 Y-23.7024 Z0.1126 F22.
G1 X28.7921 Y-23.4031 Z0.1354
G1 X28.7921 Y-23.1032 Z0.1492
G1 X28.7921 Y-22.8030 Z0.1540
G1 X28.7921 Y-22.5029 Z0.1498
G1 X28.7921 Y-22.2030 Z0.1366
G1 X28.7921 Y-21.9036 Z0.1144
G1 X28.7921 Y-21.6050 Z0.0832
G0 Z0.3588
G0 X28.7921 Y-21.6050 
G0 Z0.3588
G0 X29.2697 Y-23.8811 
G1 X29.2697 Y-23.8811 Z0.1838 F21.
G1 X29.2697 Y-23.8996 Z0.1806
G1 X29.2697 Y-23.9945 Z0.1638
G1 X29.2697 Y-23.6976 Z0.1953 F22.
G1 X29.2697 Y-23.3998 Z0.2179
G1 X29.2697 Y-23.1015 Z0.2315
G1 X29.2697 Y-22.8030 Z0.2363
G1 X29.2697 Y-22.5044 Z0.2321
G1 X29.2697 Y-22.2061 Z0.2191
G1 X29.2697 Y-21.9083 Z0.1971
G1 X29.2697 Y-21.6113 Z0.1662
G0 Z0.3451
G0 X29.2697 Y-21.6113 
G0 Z0.3451
G0 X29.2697 Y-23.8811 
G1 X29.2697 Y-23.8811 Z0.1701 F21.
G1 X29.2697 Y-23.8996 Z0.1669
G1 X29.2697 Y-23.9945 Z0.1501
G1 X29.2697 Y-23.6976 Z0.1816 F22.
G1 X29.2697 Y-23.3998 Z0.2041
G1 X29.2697 Y-23.1015 Z0.2178
G1 X29.2697 Y-22.8030 Z0.2226
G1 X29.2697 Y-22.5044 Z0.2184
G1 X29.2697 Y-22.2061 Z0.2053
G1 X29.2697 Y-21.9083 Z0.1834
G1 X29.2697 Y-21.6113 Z0.1525
G0 Z0.3314
G0 X29.2697 Y-21.6113 
G0 Z0.3314
G0 X29.2697 Y-23.8811 
G1 X29.2697 Y-23.8811 Z0.1564 F21.
G1 X29.2697 Y-23.8996 Z0.1531
G1 X29.2697 Y-23.9945 Z0.1364
G1 X29.2697 Y-23.6976 Z0.1679 F22.
G1 X29.2697 Y-23.3998 Z0.1904
G1 X29.2697 Y-23.1015 Z0.2041
G1 X29.2697 Y-22.8030 Z0.2089
G1 X29.2697 Y-22.5044 Z0.2047
G1 X29.2697 Y-22.2061 Z0.1916
G1 X29.2697 Y-21.9083 Z0.1697
G1 X29.2697 Y-21.6113 Z0.1388
G0 Z0.3177
G0 X29.2697 Y-21.6113 
G0 Z0.3177
G0 X29.2697 Y-23.8811 
G1 X29.2697 Y-23.8811 Z0.1427 F21.
G1 X29.2697 Y-23.8996 Z0.1394
G1 X29.2697 Y-23.9945 Z0.1227
G1 X29.2697 Y-23.6976 Z0.1541 F22.
G1 X29.2697 Y-23.3998 Z0.1767
G1 X29.2697 Y-23.1015 Z0.1904
G1 X29.2697 Y-22.8030 Z0.1951
G1 X29.2697 Y-22.5044 Z0.1910
G1 X29.2697 Y-22.2061 Z0.1779
G1 X29.2697 Y-21.9083 Z0.1560
G1 X29.2697 Y-21.6113 Z0.1251
G0 Z0.3040
G0 X29.2697 Y-21.6113 
G0 Z0.3040
G0 X29.2697 Y-23.8811 
G1 X29.2697 Y-23.8811 Z0.1290 F21.
G1 X29.2697 Y-23.8996 Z0.1257
G1 X29.2697 Y-23.9945 Z0.1090
G1 X29.2697 Y-23.6976 Z0.1404 F22.
G1 X29.2697 Y-23.3998 Z0.1630
G1 X29.2697 Y-23.1015 Z0.1767
G1 X29.2697 Y-22.8030 Z0.1814
G1 X29.2697 Y-22.5044 Z0.1773
G1 X29.2697 Y-22.2061 Z0.1642
G1 X29.2697 Y-21.9083 Z0.1422
G1 X29.2697 Y-21.6113 Z0.1114
G0 Z0.2903
G0 X29.2697 Y-21.6113 
G0 Z0.2903
G0 X29.2697 Y-23.8811 
G1 X29.2697 Y-23.8811 Z0.1153 F21.
G1 X29.2697 Y-23.8996 Z0.1120
G1 X29.2697 Y-23.9945 Z0.0953
G1 X29.2697 Y-23.6976 Z0.1267 F22.
G1 X29.2697 Y-23.3998 Z0.1493
G1 X29.2697 Y-23.1015 Z0.1630
G1 X29.2697 Y-22.8030 Z0.1677
G1 X29.2697 Y-22.5044 Z0.1636
G1 X29.2697 Y-22.2061 Z0.1505
G1 X29.2697 Y-21.9083 Z0.1285
G1 X29.2697 Y-21.6113 Z0.0977
G0 Z0.2765
G0 X29.2697 Y-21.6113 
G0 Z0.2765
G0 X29.2697 Y-23.8811 
G1 X29.2697 Y-23.8811 Z0.1015 F21.
G1 X29.2697 Y-23.8996 Z0.0983
G1 X29.2697 Y-23.9945 Z0.0815
G1 X29.2697 Y-23.6976 Z0.1130 F22.
G1 X29.2697 Y-23.3998 Z0.1356
G1 X29.2697 Y-23.1015 Z0.1492
G1 X29.2697 Y-22.8030 Z0.1540
G1 X29.2697 Y-22.5044 Z0.1498
G1 X29.2697 Y-22.2061 Z0.1368
G1 X29.2697 Y-21.9083 Z0.1148
G1 X29.2697 Y-21.6113 Z0.0840
G0 Z0.3597
G0 X29.2697 Y-21.6113 
G0 Z0.3597
G0 X29.7757 Y-23.8743 
G1 X29.7757 Y-23.8743 Z0.1847 F21.
G1 X29.7757 Y-23.8933 Z0.1813
G1 X29.7757 Y-23.9877 Z0.1647
G1 X29.7757 Y-23.6924 Z0.1957 F22.
G1 X29.7757 Y-23.3964 Z0.2181
G1 X29.7757 Y-23.0998 Z0.2316
G1 X29.7757 Y-22.8029 Z0.2363
G1 X29.7757 Y-22.5061 Z0.2322
G1 X29.7757 Y-22.2095 Z0.2193
G1 X29.7757 Y-21.9134 Z0.1975
G1 X29.7757 Y-21.6181 Z0.1670
G0 Z0.3459
G0 X29.7757 Y-21.6181 
G0 Z0.3459
G0 X29.7757 Y-23.8743 
G1 X29.7757 Y-23.8743 Z0.1709 F21.
G1 X29.7757 Y-23.8933 Z0.1676
G1 X29.7757 Y-23.9877 Z0.1509
G1 X29.7757 Y-23.6924 Z0.1820 F22.
G1 X29.7757 Y-23.3964 Z0.2043
G1 X29.7757 Y-23.0998 Z0.2179
G1 X29.7757 Y-22.8029 Z0.2226
G1 X29.7757 Y-22.5061 Z0.2185
G1 X29.7757 Y-22.2095 Z0.2055
G1 X29.7757 Y-21.9134 Z0.1838
G1 X29.7757 Y-21.6181 Z0.1533
G0 Z0.3322
G0 X29.7757 Y-21.6181 
G0 Z0.3322
G0 X29.7757 Y-23.8743 
G1 X29.7757 Y-23.8743 Z0.1572 F21.
G1 X29.7757 Y-23.8933 Z0.1539
G1 X29.7757 Y-23.9877 Z0.1372
G1 X29.7757 Y-23.6924 Z0.1683 F22.
G1 X29.7757 Y-23.3964 Z0.1906
G1 X29.7757 Y-23.0998 Z0.2041
G1 X29.7757 Y-22.8029 Z0.2089
G1 X29.7757 Y-22.5061 Z0.2047
G1 X29.7757 Y-22.2095 Z0.1918
G1 X29.7757 Y-21.9134 Z0.1701
G1 X29.7757 Y-21.6181 Z0.1396
G0 Z0.3185
G0 X29.7757 Y-21.6181 
G0 Z0.3185
G0 X29.7757 Y-23.8743 
G1 X29.7757 Y-23.8743 Z0.1435 F21.
G1 X29.7757 Y-23.8933 Z0.1402
G1 X29.7757 Y-23.9877 Z0.1235
G1 X29.7757 Y-23.6924 Z0.1546 F22.
G1 X29.7757 Y-23.3964 Z0.1769
G1 X29.7757 Y-23.0998 Z0.1904
G1 X29.7757 Y-22.8029 Z0.1951
G1 X29.7757 Y-22.5061 Z0.1910
G1 X29.7757 Y-22.2095 Z0.1781
G1 X29.7757 Y-21.9134 Z0.1564
G1 X29.7757 Y-21.6181 Z0.1259
G0 Z0.3048
G0 X29.7757 Y-21.6181 
G0 Z0.3048
G0 X29.7757 Y-23.8743 
G1 X29.7757 Y-23.8743 Z0.1298 F21.
G1 X29.7757 Y-23.8933 Z0.1264
G1 X29.7757 Y-23.9877 Z0.1098
G1 X29.7757 Y-23.6924 Z0.1409 F22.
G1 X29.7757 Y-23.3964 Z0.1632
G1 X29.7757 Y-23.0998 Z0.1767
G1 X29.7757 Y-22.8029 Z0.1814
G1 X29.7757 Y-22.5061 Z0.1773
G1 X29.7757 Y-22.2095 Z0.1644
G1 X29.7757 Y-21.9134 Z0.1427
G1 X29.7757 Y-21.6181 Z0.1122
G0 Z0.2911
G0 X29.7757 Y-21.6181 
G0 Z0.2911
G0 X29.7757 Y-23.8743 
G1 X29.7757 Y-23.8743 Z0.1161 F21.
G1 X29.7757 Y-23.8933 Z0.1127
G1 X29.7757 Y-23.9877 Z0.0961
G1 X29.7757 Y-23.6924 Z0.1272 F22.
G1 X29.7757 Y-23.3964 Z0.1495
G1 X29.7757 Y-23.0998 Z0.1630
G1 X29.7757 Y-22.8029 Z0.1677
G1 X29.7757 Y-22.5061 Z0.1636
G1 X29.7757 Y-22.2095 Z0.1507
G1 X29.7757 Y-21.9134 Z0.1290
G1 X29.7757 Y-21.6181 Z0.0985
G0 Z0.2774
G0 X29.7757 Y-21.6181 
G0 Z0.2774
G0 X29.7757 Y-23.8743 
G1 X29.7757 Y-23.8743 Z0.1024 F21.
G1 X29.7757 Y-23.8933 Z0.0990
G1 X29.7757 Y-23.9877 Z0.0824
G1 X29.7757 Y-23.6924 Z0.1135 F22.
G1 X29.7757 Y-23.3964 Z0.1358
G1 X29.7757 Y-23.0998 Z0.1493
G1 X29.7757 Y-22.8029 Z0.1540
G1 X29.7757 Y-22.5061 Z0.1499
G1 X29.7757 Y-22.2095 Z0.1370
G1 X29.7757 Y-21.9134 Z0.1153
G1 X29.7757 Y-21.6181 Z0.0848
G0 Z0.3605
G0 X29.7757 Y-21.6181 
G0 Z0.3605
G0 X30.3118 Y-23.8670 
G1 X30.3118 Y-23.8670 Z0.1855 F21.
G1 X30.3118 Y-23.8867 Z0.1821
G1 X30.3118 Y-23.9805 Z0.1655
G1 X30.3118 Y-23.6870 Z0.1962 F22.
G1 X30.3118 Y-23.3927 Z0.2183
G1 X30.3118 Y-23.0979 Z0.2316
G1 X30.3118 Y-22.8029 Z0.2363
G1 X30.3118 Y-22.5078 Z0.2322
G1 X30.3118 Y-22.2130 Z0.2195
G1 X30.3118 Y-21.9187 Z0.1980
G1 X30.3118 Y-21.6252 Z0.1679
G0 Z0.3468
G0 X30.3118 Y-21.6252 
G0 Z0.3468
G0 X30.3118 Y-23.8670 
G1 X30.3118 Y-23.8670 Z0.1718 F21.
G1 X30.3118 Y-23.8867 Z0.1683
G1 X30.3118 Y-23.9805 Z0.1518
G1 X30.3118 Y-23.6870 Z0.1825 F22.
G1 X30.3118 Y-23.3927 Z0.2046
G1 X30.3118 Y-23.0979 Z0.2179
G1 X30.3118 Y-22.8029 Z0.2226
G1 X30.3118 Y-22.5078 Z0.2185
G1 X30.3118 Y-22.2130 Z0.2058
G1 X30.3118 Y-21.9187 Z0.1843
G1 X30.3118 Y-21.6252 Z0.1542
G0 Z0.3331
G0 X30.3118 Y-21.6252 
G0 Z0.3331
G0 X30.3118 Y-23.8670 
G1 X30.3118 Y-23.8670 Z0.1581 F21.
G1 X30.3118 Y-23.8867 Z0.1546
G1 X30.3118 Y-23.9805 Z0.1381
G1 X30.3118 Y-23.6870 Z0.1688 F22.
G1 X30.3118 Y-23.3927 Z0.1909
G1 X30.3118 Y-23.0979 Z0.2042
G1 X30.3118 Y-22.8029 Z0.2089
G1 X30.3118 Y-22.5078 Z0.2048
G1 X30.3118 Y-22.2130 Z0.1920
G1 X30.3118 Y-21.9187 Z0.1706
G1 X30.3118 Y-21.6252 Z0.1405
G0 Z0.3194
G0 X30.3118 Y-21.6252 
G0 Z0.3194
G0 X30.3118 Y-23.8670 
G1 X30.3118 Y-23.8670 Z0.1444 F21.
G1 X30.3118 Y-23.8867 Z0.1409
G1 X30.3118 Y-23.9805 Z0.1244
G1 X30.3118 Y-23.6870 Z0.1551 F22.
G1 X30.3118 Y-23.3927 Z0.1771
G1 X30.3118 Y-23.0979 Z0.1905
G1 X30.3118 Y-22.8029 Z0.1951
G1 X30.3118 Y-22.5078 Z0.1911
G1 X30.3118 Y-22.2130 Z0.1783
G1 X30.3118 Y-21.9187 Z0.1569
G1 X30.3118 Y-21.6252 Z0.1267
G0 Z0.3057
G0 X30.3118 Y-21.6252 
G0 Z0.3057
G0 X30.3118 Y-23.8670 
G1 X30.3118 Y-23.8670 Z0.1307 F21.
G1 X30.3118 Y-23.8867 Z0.1272
G1 X30.3118 Y-23.9805 Z0.1107
G1 X30.3118 Y-23.6870 Z0.1414 F22.
G1 X30.3118 Y-23.3927 Z0.1634
G1 X30.3118 Y-23.0979 Z0.1768
G1 X30.3118 Y-22.8029 Z0.1814
G1 X30.3118 Y-22.5078 Z0.1774
G1 X30.3118 Y-22.2130 Z0.1646
G1 X30.3118 Y-21.9187 Z0.1432
G1 X30.3118 Y-21.6252 Z0.1130
G0 Z0.2919
G0 X30.3118 Y-21.6252 
G0 Z0.2919
G0 X30.3118 Y-23.8670 
G1 X30.3118 Y-23.8670 Z0.1169 F21.
G1 X30.3118 Y-23.8867 Z0.1135
G1 X30.3118 Y-23.9805 Z0.0969
G1 X30.3118 Y-23.6870 Z0.1277 F22.
G1 X30.3118 Y-23.3927 Z0.1497
G1 X30.3118 Y-23.0979 Z0.1631
G1 X30.3118 Y-22.8029 Z0.1677
G1 X30.3118 Y-22.5078 Z0.1637
G1 X30.3118 Y-22.2130 Z0.1509
G1 X30.3118 Y-21.9187 Z0.1294
G1 X30.3118 Y-21.6252 Z0.0993
G0 Z0.2782
G0 X30.3118 Y-21.6252 
G0 Z0.2782
G0 X30.3118 Y-23.8670 
G1 X30.3118 Y-23.8670 Z0.1032 F21.
G1 X30.3118 Y-23.8867 Z0.0998
G1 X30.3118 Y-23.9805 Z0.0832
G1 X30.3118 Y-23.6870 Z0.1139 F22.
G1 X30.3118 Y-23.3927 Z0.1360
G1 X30.3118 Y-23.0979 Z0.1493
G1 X30.3118 Y-22.8029 Z0.1540
G1 X30.3118 Y-22.5078 Z0.1499
G1 X30.3118 Y-22.2130 Z0.1372
G1 X30.3118 Y-21.9187 Z0.1157
G1 X30.3118 Y-21.6252 Z0.0856
G0 Z0.3614
G0 X30.3118 Y-21.6252 
G0 Z0.3614
G0 X30.8798 Y-23.8594 
G1 X30.8798 Y-23.8594 Z0.1864 F21.
G1 X30.8798 Y-23.8757 Z0.1835
G1 X30.8798 Y-23.9728 Z0.1664
G1 X30.8798 Y-23.6812 Z0.1967 F22.
G1 X30.8798 Y-23.3889 Z0.2185
G1 X30.8798 Y-23.0960 Z0.2317
G1 X30.8798 Y-22.8029 Z0.2363
G1 X30.8798 Y-22.5097 Z0.2323
G1 X30.8798 Y-22.2168 Z0.2197
G1 X30.8798 Y-21.9244 Z0.1985
G1 X30.8798 Y-21.6327 Z0.1688
G0 Z0.3477
G0 X30.8798 Y-21.6327 
G0 Z0.3477
G0 X30.8798 Y-23.8594 
G1 X30.8798 Y-23.8594 Z0.1727 F21.
G1 X30.8798 Y-23.8757 Z0.1698
G1 X30.8798 Y-23.9728 Z0.1527
G1 X30.8798 Y-23.6812 Z0.1830 F22.
G1 X30.8798 Y-23.3889 Z0.2048
G1 X30.8798 Y-23.0960 Z0.2180
G1 X30.8798 Y-22.8029 Z0.2226
G1 X30.8798 Y-22.5097 Z0.2186
G1 X30.8798 Y-22.2168 Z0.2060
G1 X30.8798 Y-21.9244 Z0.1848
G1 X30.8798 Y-21.6327 Z0.1551
G0 Z0.3340
G0 X30.8798 Y-21.6327 
G0 Z0.3340
G0 X30.8798 Y-23.8594 
G1 X30.8798 Y-23.8594 Z0.1590 F21.
G1 X30.8798 Y-23.8757 Z0.1561
G1 X30.8798 Y-23.9728 Z0.1390
G1 X30.8798 Y-23.6812 Z0.1693 F22.
G1 X30.8798 Y-23.3889 Z0.1911
G1 X30.8798 Y-23.0960 Z0.2043
G1 X30.8798 Y-22.8029 Z0.2089
G1 X30.8798 Y-22.5097 Z0.2049
G1 X30.8798 Y-22.2168 Z0.1923
G1 X30.8798 Y-21.9244 Z0.1711
G1 X30.8798 Y-21.6327 Z0.1413
G0 Z0.3203
G0 X30.8798 Y-21.6327 
G0 Z0.3203
G0 X30.8798 Y-23.8594 
G1 X30.8798 Y-23.8594 Z0.1453 F21.
G1 X30.8798 Y-23.8757 Z0.1424
G1 X30.8798 Y-23.9728 Z0.1253
G1 X30.8798 Y-23.6812 Z0.1556 F22.
G1 X30.8798 Y-23.3889 Z0.1774
G1 X30.8798 Y-23.0960 Z0.1906
G1 X30.8798 Y-22.8029 Z0.1951
G1 X30.8798 Y-22.5097 Z0.1911
G1 X30.8798 Y-22.2168 Z0.1785
G1 X30.8798 Y-21.9244 Z0.1574
G1 X30.8798 Y-21.6327 Z0.1276
G0 Z0.3066
G0 X30.8798 Y-21.6327 
G0 Z0.3066
G0 X30.8798 Y-23.8594 
G1 X30.8798 Y-23.8594 Z0.1316 F21.
G1 X30.8798 Y-23.8757 Z0.1287
G1 X30.8798 Y-23.9728 Z0.1116
G1 X30.8798 Y-23.6812 Z0.1419 F22.
G1 X30.8798 Y-23.3889 Z0.1637
G1 X30.8798 Y-23.0960 Z0.1768
G1 X30.8798 Y-22.8029 Z0.1814
G1 X30.8798 Y-22.5097 Z0.1774
G1 X30.8798 Y-22.2168 Z0.1648
G1 X30.8798 Y-21.9244 Z0.1436
G1 X30.8798 Y-21.6327 Z0.1139
G0 Z0.2929
G0 X30.8798 Y-21.6327 
G0 Z0.2929
G0 X30.8798 Y-23.8594 
G1 X30.8798 Y-23.8594 Z0.1179 F21.
G1 X30.8798 Y-23.8757 Z0.1150
G1 X30.8798 Y-23.9728 Z0.0979
G1 X30.8798 Y-23.6812 Z0.1282 F22.
G1 X30.8798 Y-23.3889 Z0.1499
G1 X30.8798 Y-23.0960 Z0.1631
G1 X30.8798 Y-22.8029 Z0.1677
G1 X30.8798 Y-22.5097 Z0.1637
G1 X30.8798 Y-22.2168 Z0.1511
G1 X30.8798 Y-21.9244 Z0.1299
G1 X30.8798 Y-21.6327 Z0.1002
G0 Z0.2791
G0 X30.8798 Y-21.6327 
G0 Z0.2791
G0 X30.8798 Y-23.8594 
G1 X30.8798 Y-23.8594 Z0.1041 F21.
G1 X30.8798 Y-23.8757 Z0.1013
G1 X30.8798 Y-23.9728 Z0.0841
G1 X30.8798 Y-23.6812 Z0.1145 F22.
G1 X30.8798 Y-23.3889 Z0.1362
G1 X30.8798 Y-23.0960 Z0.1494
G1 X30.8798 Y-22.8029 Z0.1540
G1 X30.8798 Y-22.5097 Z0.1500
G1 X30.8798 Y-22.2168 Z0.1374
G1 X30.8798 Y-21.9244 Z0.1162
G1 X30.8798 Y-21.6327 Z0.0865
G0 Z0.3624
G0 X30.8798 Y-21.6327 
G0 Z0.3624
G0 X31.4816 Y-23.8513 
G1 X31.4816 Y-23.8513 Z0.1874 F21.
G1 X31.4816 Y-23.8683 Z0.1844
G1 X31.4816 Y-23.9647 Z0.1674
G1 X31.4816 Y-23.6751 Z0.1973 F22.
G1 X31.4816 Y-23.3848 Z0.2188
G1 X31.4816 Y-23.0939 Z0.2318
G1 X31.4816 Y-22.8028 Z0.2363
G1 X31.4816 Y-22.5117 Z0.2323
G1 X31.4816 Y-22.2208 Z0.2199
G1 X31.4816 Y-21.9304 Z0.1990
G1 X31.4816 Y-21.6407 Z0.1697
G0 Z0.3487
G0 X31.4816 Y-21.6407 
G0 Z0.3487
G0 X31.4816 Y-23.8513 
G1 X31.4816 Y-23.8513 Z0.1737 F21.
G1 X31.4816 Y-23.8683 Z0.1707
G1 X31.4816 Y-23.9647 Z0.1537
G1 X31.4816 Y-23.6751 Z0.1836 F22.
G1 X31.4816 Y-23.3848 Z0.2050
G1 X31.4816 Y-23.0939 Z0.2180
G1 X31.4816 Y-22.8028 Z0.2226
G1 X31.4816 Y-22.5117 Z0.2186
G1 X31.4816 Y-22.2208 Z0.2062
G1 X31.4816 Y-21.9304 Z0.1853
G1 X31.4816 Y-21.6407 Z0.1560
G0 Z0.3350
G0 X31.4816 Y-21.6407 
G0 Z0.3350
G0 X31.4816 Y-23.8513 
G1 X31.4816 Y-23.8513 Z0.1600 F21.
G1 X31.4816 Y-23.8683 Z0.1570
G1 X31.4816 Y-23.9647 Z0.1400
G1 X31.4816 Y-23.6751 Z0.1699 F22.
G1 X31.4816 Y-23.3848 Z0.1913
G1 X31.4816 Y-23.0939 Z0.2043
G1 X31.4816 Y-22.8028 Z0.2089
G1 X31.4816 Y-22.5117 Z0.2049
G1 X31.4816 Y-22.2208 Z0.1925
G1 X31.4816 Y-21.9304 Z0.1716
G1 X31.4816 Y-21.6407 Z0.1423
G0 Z0.3212
G0 X31.4816 Y-21.6407 
G0 Z0.3212
G0 X31.4816 Y-23.8513 
G1 X31.4816 Y-23.8513 Z0.1462 F21.
G1 X31.4816 Y-23.8683 Z0.1432
G1 X31.4816 Y-23.9647 Z0.1262
G1 X31.4816 Y-23.6751 Z0.1561 F22.
G1 X31.4816 Y-23.3848 Z0.1776
G1 X31.4816 Y-23.0939 Z0.1906
G1 X31.4816 Y-22.8028 Z0.1951
G1 X31.4816 Y-22.5117 Z0.1912
G1 X31.4816 Y-22.2208 Z0.1788
G1 X31.4816 Y-21.9304 Z0.1579
G1 X31.4816 Y-21.6407 Z0.1286
G0 Z0.3075
G0 X31.4816 Y-21.6407 
G0 Z0.3075
G0 X31.4816 Y-23.8513 
G1 X31.4816 Y-23.8513 Z0.1325 F21.
G1 X31.4816 Y-23.8683 Z0.1295
G1 X31.4816 Y-23.9647 Z0.1125
G1 X31.4816 Y-23.6751 Z0.1424 F22.
G1 X31.4816 Y-23.3848 Z0.1639
G1 X31.4816 Y-23.0939 Z0.1769
G1 X31.4816 Y-22.8028 Z0.1814
G1 X31.4816 Y-22.5117 Z0.1775
G1 X31.4816 Y-22.2208 Z0.1651
G1 X31.4816 Y-21.9304 Z0.1442
G1 X31.4816 Y-21.6407 Z0.1148
G0 Z0.2938
G0 X31.4816 Y-21.6407 
G0 Z0.2938
G0 X31.4816 Y-23.8513 
G1 X31.4816 Y-23.8513 Z0.1188 F21.
G1 X31.4816 Y-23.8683 Z0.1158
G1 X31.4816 Y-23.9647 Z0.0988
G1 X31.4816 Y-23.6751 Z0.1287 F22.
G1 X31.4816 Y-23.3848 Z0.1502
G1 X31.4816 Y-23.0939 Z0.1632
G1 X31.4816 Y-22.8028 Z0.1677
G1 X31.4816 Y-22.5117 Z0.1638
G1 X31.4816 Y-22.2208 Z0.1513
G1 X31.4816 Y-21.9304 Z0.1305
G1 X31.4816 Y-21.6407 Z0.1011
G0 Z0.2801
G0 X31.4816 Y-21.6407 
G0 Z0.2801
G0 X31.4816 Y-23.8513 
G1 X31.4816 Y-23.8513 Z0.1051 F21.
G1 X31.4816 Y-23.8683 Z0.1021
G1 X31.4816 Y-23.9647 Z0.0851
G1 X31.4816 Y-23.6751 Z0.1150 F22.
G1 X31.4816 Y-23.3848 Z0.1365
G1 X31.4816 Y-23.0939 Z0.1495
G1 X31.4816 Y-22.8028 Z0.1540
G1 X31.4816 Y-22.5117 Z0.1500
G1 X31.4816 Y-22.2208 Z0.1376
G1 X31.4816 Y-21.9304 Z0.1167
G1 X31.4816 Y-21.6407 Z0.0874
G0 Z0.3634
G0 X31.4816 Y-21.6407 
G0 Z0.3634
G0 X32.1191 Y-23.8428 
G1 X32.1191 Y-23.8428 Z0.1884 F21.
G1 X32.1191 Y-23.8604 Z0.1853
G1 X32.1191 Y-23.9562 Z0.1684
G1 X32.1191 Y-23.6687 Z0.1979 F22.
G1 X32.1191 Y-23.3804 Z0.2190
G1 X32.1191 Y-23.0917 Z0.2318
G1 X32.1191 Y-22.8027 Z0.2363
G1 X32.1191 Y-22.5138 Z0.2324
G1 X32.1191 Y-22.2250 Z0.2202
G1 X32.1191 Y-21.9367 Z0.1996
G1 X32.1191 Y-21.6492 Z0.1707
G0 Z0.3497
G0 X32.1191 Y-21.6492 
G0 Z0.3497
G0 X32.1191 Y-23.8428 
G1 X32.1191 Y-23.8428 Z0.1747 F21.
G1 X32.1191 Y-23.8604 Z0.1716
G1 X32.1191 Y-23.9562 Z0.1547
G1 X32.1191 Y-23.6687 Z0.1841 F22.
G1 X32.1191 Y-23.3804 Z0.2053
G1 X32.1191 Y-23.0917 Z0.2181
G1 X32.1191 Y-22.8027 Z0.2226
G1 X32.1191 Y-22.5138 Z0.2187
G1 X32.1191 Y-22.2250 Z0.2064
G1 X32.1191 Y-21.9367 Z0.1859
G1 X32.1191 Y-21.6492 Z0.1570
G0 Z0.3360
G0 X32.1191 Y-21.6492 
G0 Z0.3360
G0 X32.1191 Y-23.8428 
G1 X32.1191 Y-23.8428 Z0.1610 F21.
G1 X32.1191 Y-23.8604 Z0.1578
G1 X32.1191 Y-23.9562 Z0.1410
G1 X32.1191 Y-23.6687 Z0.1704 F22.
G1 X32.1191 Y-23.3804 Z0.1916
G1 X32.1191 Y-23.0917 Z0.2044
G1 X32.1191 Y-22.8027 Z0.2089
G1 X32.1191 Y-22.5138 Z0.2050
G1 X32.1191 Y-22.2250 Z0.1927
G1 X32.1191 Y-21.9367 Z0.1721
G1 X32.1191 Y-21.6492 Z0.1432
G0 Z0.3222
G0 X32.1191 Y-21.6492 
G0 Z0.3222
G0 X32.1191 Y-23.8428 
G1 X32.1191 Y-23.8428 Z0.1472 F21.
G1 X32.1191 Y-23.8604 Z0.1441
G1 X32.1191 Y-23.9562 Z0.1272
G1 X32.1191 Y-23.6687 Z0.1567 F22.
G1 X32.1191 Y-23.3804 Z0.1779
G1 X32.1191 Y-23.0917 Z0.1907
G1 X32.1191 Y-22.8027 Z0.1951
G1 X32.1191 Y-22.5138 Z0.1913
G1 X32.1191 Y-22.2250 Z0.1790
G1 X32.1191 Y-21.9367 Z0.1584
G1 X32.1191 Y-21.6492 Z0.1295
G0 Z0.3085
G0 X32.1191 Y-21.6492 
G0 Z0.3085
G0 X32.1191 Y-23.8428 
G1 X32.1191 Y-23.8428 Z0.1335 F21.
G1 X32.1191 Y-23.8604 Z0.1304
G1 X32.1191 Y-23.9562 Z0.1135
G1 X32.1191 Y-23.6687 Z0.1430 F22.
G1 X32.1191 Y-23.3804 Z0.1642
G1 X32.1191 Y-23.0917 Z0.1770
G1 X32.1191 Y-22.8027 Z0.1814
G1 X32.1191 Y-22.5138 Z0.1775
G1 X32.1191 Y-22.2250 Z0.1653
G1 X32.1191 Y-21.9367 Z0.1447
G1 X32.1191 Y-21.6492 Z0.1158
G0 Z0.2948
G0 X32.1191 Y-21.6492 
G0 Z0.2948
G0 X32.1191 Y-23.8428 
G1 X32.1191 Y-23.8428 Z0.1198 F21.
G1 X32.1191 Y-23.8604 Z0.1167
G1 X32.1191 Y-23.9562 Z0.0998
G1 X32.1191 Y-23.6687 Z0.1293 F22.
G1 X32.1191 Y-23.3804 Z0.1504
G1 X32.1191 Y-23.0917 Z0.1633
G1 X32.1191 Y-22.8027 Z0.1677
G1 X32.1191 Y-22.5138 Z0.1638
G1 X32.1191 Y-22.2250 Z0.1516
G1 X32.1191 Y-21.9367 Z0.1310
G1 X32.1191 Y-21.6492 Z0.1021
G0 Z0.2811
G0 X32.1191 Y-21.6492 
G0 Z0.2811
G0 X32.1191 Y-23.8428 
G1 X32.1191 Y-23.8428 Z0.1061 F21.
G1 X32.1191 Y-23.8604 Z0.1030
G1 X32.1191 Y-23.9562 Z0.0861
G1 X32.1191 Y-23.6687 Z0.1156 F22.
G1 X32.1191 Y-23.3804 Z0.1367
G1 X32.1191 Y-23.0917 Z0.1495
G1 X32.1191 Y-22.8027 Z0.1540
G1 X32.1191 Y-22.5138 Z0.1501
G1 X32.1191 Y-22.2250 Z0.1379
G1 X32.1191 Y-21.9367 Z0.1173
G1 X32.1191 Y-21.6492 Z0.0884
G0 Z0.3645
G0 X32.1191 Y-21.6492 
G0 Z0.3645
G0 X32.7945 Y-23.8337 
G1 X32.7945 Y-23.8337 Z0.1895 F21.
G1 X32.7945 Y-23.8521 Z0.1862
G1 X32.7945 Y-23.9471 Z0.1695
G1 X32.7945 Y-23.6618 Z0.1985 F22.
G1 X32.7945 Y-23.3759 Z0.2193
G1 X32.7945 Y-23.0894 Z0.2319
G1 X32.7945 Y-22.8027 Z0.2363
G1 X32.7945 Y-22.5160 Z0.2325
G1 X32.7945 Y-22.2295 Z0.2204
G1 X32.7945 Y-21.9435 Z0.2002
G1 X32.7945 Y-21.6582 Z0.1717
G0 Z0.3507
G0 X32.7945 Y-21.6582 
G0 Z0.3507
G0 X32.7945 Y-23.8337 
G1 X32.7945 Y-23.8337 Z0.1757 F21.
G1 X32.7945 Y-23.8521 Z0.1725
G1 X32.7945 Y-23.9471 Z0.1557
G1 X32.7945 Y-23.6618 Z0.1847 F22.
G1 X32.7945 Y-23.3759 Z0.2056
G1 X32.7945 Y-23.0894 Z0.2182
G1 X32.7945 Y-22.8027 Z0.2226
G1 X32.7945 Y-22.5160 Z0.2187
G1 X32.7945 Y-22.2295 Z0.2067
G1 X32.7945 Y-21.9435 Z0.1864
G1 X32.7945 Y-21.6582 Z0.1580
G0 Z0.3370
G0 X32.7945 Y-21.6582 
G0 Z0.3370
G0 X32.7945 Y-23.8337 
G1 X32.7945 Y-23.8337 Z0.1620 F21.
G1 X32.7945 Y-23.8521 Z0.1588
G1 X32.7945 Y-23.9471 Z0.1420
G1 X32.7945 Y-23.6618 Z0.1710 F22.
G1 X32.7945 Y-23.3759 Z0.1919
G1 X32.7945 Y-23.0894 Z0.2045
G1 X32.7945 Y-22.8027 Z0.2089
G1 X32.7945 Y-22.5160 Z0.2050
G1 X32.7945 Y-22.2295 Z0.1930
G1 X32.7945 Y-21.9435 Z0.1727
G1 X32.7945 Y-21.6582 Z0.1443
G0 Z0.3233
G0 X32.7945 Y-21.6582 
G0 Z0.3233
G0 X32.7945 Y-23.8337 
G1 X32.7945 Y-23.8337 Z0.1483 F21.
G1 X32.7945 Y-23.8521 Z0.1451
G1 X32.7945 Y-23.9471 Z0.1283
G1 X32.7945 Y-23.6618 Z0.1573 F22.
G1 X32.7945 Y-23.3759 Z0.1781
G1 X32.7945 Y-23.0894 Z0.1907
G1 X32.7945 Y-22.8027 Z0.1951
G1 X32.7945 Y-22.5160 Z0.1913
G1 X32.7945 Y-22.2295 Z0.1793
G1 X32.7945 Y-21.9435 Z0.1590
G1 X32.7945 Y-21.6582 Z0.1306
G0 Z0.3096
G0 X32.7945 Y-21.6582 
G0 Z0.3096
G0 X32.7945 Y-23.8337 
G1 X32.7945 Y-23.8337 Z0.1346 F21.
G1 X32.7945 Y-23.8521 Z0.1313
G1 X32.7945 Y-23.9471 Z0.1146
G1 X32.7945 Y-23.6618 Z0.1436 F22.
G1 X32.7945 Y-23.3759 Z0.1644
G1 X32.7945 Y-23.0894 Z0.1770
G1 X32.7945 Y-22.8027 Z0.1814
G1 X32.7945 Y-22.5160 Z0.1776
G1 X32.7945 Y-22.2295 Z0.1656
G1 X32.7945 Y-21.9435 Z0.1453
G1 X32.7945 Y-21.6582 Z0.1168
G0 Z0.2959
G0 X32.7945 Y-21.6582 
G0 Z0.2959
G0 X32.7945 Y-23.8337 
G1 X32.7945 Y-23.8337 Z0.1209 F21.
G1 X32.7945 Y-23.8521 Z0.1176
G1 X32.7945 Y-23.9471 Z0.1009
G1 X32.7945 Y-23.6618 Z0.1299 F22.
G1 X32.7945 Y-23.3759 Z0.1507
G1 X32.7945 Y-23.0894 Z0.1633
G1 X32.7945 Y-22.8027 Z0.1677
G1 X32.7945 Y-22.5160 Z0.1639
G1 X32.7945 Y-22.2295 Z0.1518
G1 X32.7945 Y-21.9435 Z0.1316
G1 X32.7945 Y-21.6582 Z0.1031
G0 Z0.2822
G0 X32.7945 Y-21.6582 
G0 Z0.2822
G0 X32.7945 Y-23.8337 
G1 X32.7945 Y-23.8337 Z0.1072 F21.
G1 X32.7945 Y-23.8521 Z0.1039
G1 X32.7945 Y-23.9471 Z0.0872
G1 X32.7945 Y-23.6618 Z0.1162 F22.
G1 X32.7945 Y-23.3759 Z0.1370
G1 X32.7945 Y-23.0894 Z0.1496
G1 X32.7945 Y-22.8027 Z0.1540
G1 X32.7945 Y-22.5160 Z0.1502
G1 X32.7945 Y-22.2295 Z0.1381
G1 X32.7945 Y-21.9435 Z0.1179
G1 X32.7945 Y-21.6582 Z0.0894
G0 Z0.3656
G0 X32.7945 Y-21.6582 
G0 Z0.3656
G0 X33.5101 Y-23.8241 
G1 X33.5101 Y-23.8241 Z0.1906 F21.
G1 X33.5101 Y-23.8433 Z0.1872
G1 X33.5101 Y-23.9375 Z0.1706
G1 X33.5101 Y-23.6546 Z0.1991 F22.
G1 X33.5101 Y-23.3710 Z0.2196
G1 X33.5101 Y-23.0869 Z0.2320
G1 X33.5101 Y-22.8026 Z0.2363
G1 X33.5101 Y-22.5183 Z0.2325
G1 X33.5101 Y-22.2342 Z0.2207
G1 X33.5101 Y-21.9506 Z0.2008
G1 X33.5101 Y-21.6677 Z0.1728
G0 Z0.3518
G0 X33.5101 Y-21.6677 
G0 Z0.3518
G0 X33.5101 Y-23.8241 
G1 X33.5101 Y-23.8241 Z0.1768 F21.
G1 X33.5101 Y-23.8433 Z0.1735
G1 X33.5101 Y-23.9375 Z0.1568
G1 X33.5101 Y-23.6546 Z0.1854 F22.
G1 X33.5101 Y-23.3710 Z0.2058
G1 X33.5101 Y-23.0869 Z0.2182
G1 X33.5101 Y-22.8026 Z0.2226
G1 X33.5101 Y-22.5183 Z0.2188
G1 X33.5101 Y-22.2342 Z0.2070
G1 X33.5101 Y-21.9506 Z0.1870
G1 X33.5101 Y-21.6677 Z0.1591
G0 Z0.3381
G0 X33.5101 Y-21.6677 
G0 Z0.3381
G0 X33.5101 Y-23.8241 
G1 X33.5101 Y-23.8241 Z0.1631 F21.
G1 X33.5101 Y-23.8433 Z0.1597
G1 X33.5101 Y-23.9375 Z0.1431
G1 X33.5101 Y-23.6546 Z0.1717 F22.
G1 X33.5101 Y-23.3710 Z0.1921
G1 X33.5101 Y-23.0869 Z0.2045
G1 X33.5101 Y-22.8026 Z0.2089
G1 X33.5101 Y-22.5183 Z0.2051
G1 X33.5101 Y-22.2342 Z0.1932
G1 X33.5101 Y-21.9506 Z0.1733
G1 X33.5101 Y-21.6677 Z0.1454
G0 Z0.3244
G0 X33.5101 Y-21.6677 
G0 Z0.3244
G0 X33.5101 Y-23.8241 
G1 X33.5101 Y-23.8241 Z0.1494 F21.
G1 X33.5101 Y-23.8433 Z0.1460
G1 X33.5101 Y-23.9375 Z0.1294
G1 X33.5101 Y-23.6546 Z0.1579 F22.
G1 X33.5101 Y-23.3710 Z0.1784
G1 X33.5101 Y-23.0869 Z0.1908
G1 X33.5101 Y-22.8026 Z0.1951
G1 X33.5101 Y-22.5183 Z0.1914
G1 X33.5101 Y-22.2342 Z0.1795
G1 X33.5101 Y-21.9506 Z0.1596
G1 X33.5101 Y-21.6677 Z0.1316
G0 Z0.3107
G0 X33.5101 Y-21.6677 
G0 Z0.3107
G0 X33.5101 Y-23.8241 
G1 X33.5101 Y-23.8241 Z0.1357 F21.
G1 X33.5101 Y-23.8433 Z0.1323
G1 X33.5101 Y-23.9375 Z0.1157
G1 X33.5101 Y-23.6546 Z0.1442 F22.
G1 X33.5101 Y-23.3710 Z0.1647
G1 X33.5101 Y-23.0869 Z0.1771
G1 X33.5101 Y-22.8026 Z0.1814
G1 X33.5101 Y-22.5183 Z0.1777
G1 X33.5101 Y-22.2342 Z0.1658
G1 X33.5101 Y-21.9506 Z0.1459
G1 X33.5101 Y-21.6677 Z0.1179
G0 Z0.2970
G0 X33.5101 Y-21.6677 
G0 Z0.2970
G0 X33.5101 Y-23.8241 
G1 X33.5101 Y-23.8241 Z0.1220 F21.
G1 X33.5101 Y-23.8433 Z0.1186
G1 X33.5101 Y-23.9375 Z0.1020
G1 X33.5101 Y-23.6546 Z0.1305 F22.
G1 X33.5101 Y-23.3710 Z0.1510
G1 X33.5101 Y-23.0869 Z0.1634
G1 X33.5101 Y-22.8026 Z0.1677
G1 X33.5101 Y-22.5183 Z0.1639
G1 X33.5101 Y-22.2342 Z0.1521
G1 X33.5101 Y-21.9506 Z0.1322
G1 X33.5101 Y-21.6677 Z0.1042
G0 Z0.2833
G0 X33.5101 Y-21.6677 
G0 Z0.2833
G0 X33.5101 Y-23.8241 
G1 X33.5101 Y-23.8241 Z0.1083 F21.
G1 X33.5101 Y-23.8433 Z0.1049
G1 X33.5101 Y-23.9375 Z0.0883
G1 X33.5101 Y-23.6546 Z0.1168 F22.
G1 X33.5101 Y-23.3710 Z0.1373
G1 X33.5101 Y-23.0869 Z0.1497
G1 X33.5101 Y-22.8026 Z0.1540
G1 X33.5101 Y-22.5183 Z0.1502
G1 X33.5101 Y-22.2342 Z0.1384
G1 X33.5101 Y-21.9506 Z0.1185
G1 X33.5101 Y-21.6677 Z0.0905
G0 Z0.3667
G0 X33.5101 Y-21.6677 
G0 Z0.3667
G0 X34.2683 Y-23.8139 
G1 X34.2683 Y-23.8139 Z0.1917 F21.
G1 X34.2683 Y-23.8299 Z0.1889
G1 X34.2683 Y-23.9273 Z0.1717
G1 X34.2683 Y-23.6068 Z0.2031 F22.
G1 X34.2683 Y-23.2854 Z0.2241
G1 X34.2683 Y-22.9636 Z0.2348
G1 X34.2683 Y-22.6415 Z0.2351
G1 X34.2683 Y-22.3197 Z0.2251
G1 X34.2683 Y-21.9983 Z0.2047
G1 X34.2683 Y-21.6777 Z0.1739
G0 Z0.3530
G0 X34.2683 Y-21.6777 
G0 Z0.3530
G0 X34.2683 Y-23.8139 
G1 X34.2683 Y-23.8139 Z0.1780 F21.
G1 X34.2683 Y-23.8299 Z0.1752
G1 X34.2683 Y-23.9273 Z0.1580
G1 X34.2683 Y-23.6068 Z0.1894 F22.
G1 X34.2683 Y-23.2854 Z0.2104
G1 X34.2683 Y-22.9636 Z0.2211
G1 X34.2683 Y-22.6415 Z0.2214
G1 X34.2683 Y-22.3197 Z0.2114
G1 X34.2683 Y-21.9983 Z0.1910
G1 X34.2683 Y-21.6777 Z0.1602
G0 Z0.3393
G0 X34.2683 Y-21.6777 
G0 Z0.3393
G0 X34.2683 Y-23.8139 
G1 X34.2683 Y-23.8139 Z0.1643 F21.
G1 X34.2683 Y-23.8299 Z0.1615
G1 X34.2683 Y-23.9273 Z0.1443
G1 X34.2683 Y-23.6068 Z0.1757 F22.
G1 X34.2683 Y-23.2854 Z0.1967
G1 X34.2683 Y-22.9636 Z0.2074
G1 X34.2683 Y-22.6415 Z0.2077
G1 X34.2683 Y-22.3197 Z0.1977
G1 X34.2683 Y-21.9983 Z0.1772
G1 X34.2683 Y-21.6777 Z0.1465
G0 Z0.3256
G0 X34.2683 Y-21.6777 
G0 Z0.3256
G0 X34.2683 Y-23.8139 
G1 X34.2683 Y-23.8139 Z0.1506 F21.
G1 X34.2683 Y-23.8299 Z0.1478
G1 X34.2683 Y-23.9273 Z0.1306
G1 X34.2683 Y-23.6068 Z0.1620 F22.
G1 X34.2683 Y-23.2854 Z0.1830
G1 X34.2683 Y-22.9636 Z0.1937
G1 X34.2683 Y-22.6415 Z0.1940
G1 X34.2683 Y-22.3197 Z0.1839
G1 X34.2683 Y-21.9983 Z0.1635
G1 X34.2683 Y-21.6777 Z0.1328
G0 Z0.3119
G0 X34.2683 Y-21.6777 
G0 Z0.3119
G0 X34.2683 Y-23.8139 
G1 X34.2683 Y-23.8139 Z0.1369 F21.
G1 X34.2683 Y-23.8299 Z0.1341
G1 X34.2683 Y-23.9273 Z0.1169
G1 X34.2683 Y-23.6068 Z0.1483 F22.
G1 X34.2683 Y-23.2854 Z0.1693
G1 X34.2683 Y-22.9636 Z0.1800
G1 X34.2683 Y-22.6415 Z0.1803
G1 X34.2683 Y-22.3197 Z0.1702
G1 X34.2683 Y-21.9983 Z0.1498
G1 X34.2683 Y-21.6777 Z0.1191
G0 Z0.2982
G0 X34.2683 Y-21.6777 
G0 Z0.2982
G0 X34.2683 Y-23.8139 
G1 X34.2683 Y-23.8139 Z0.1232 F21.
G1 X34.2683 Y-23.8299 Z0.1203
G1 X34.2683 Y-23.9273 Z0.1032
G1 X34.2683 Y-23.6068 Z0.1345 F22.
G1 X34.2683 Y-23.2854 Z0.1556
G1 X34.2683 Y-22.9636 Z0.1663
G1 X34.2683 Y-22.6415 Z0.1666
G1 X34.2683 Y-22.3197 Z0.1565
G1 X34.2683 Y-21.9983 Z0.1361
G1 X34.2683 Y-21.6777 Z0.1053
G0 Z0.2844
G0 X34.2683 Y-21.6777 
G0 Z0.2844
G0 X34.2683 Y-23.8139 
G1 X34.2683 Y-23.8139 Z0.1094 F21.
G1 X34.2683 Y-23.8299 Z0.1066
G1 X34.2683 Y-23.9273 Z0.0894
G1 X34.2683 Y-23.6068 Z0.1208 F22.
G1 X34.2683 Y-23.2854 Z0.1419
G1 X34.2683 Y-22.9636 Z0.1525
G1 X34.2683 Y-22.6415 Z0.1529
G1 X34.2683 Y-22.3197 Z0.1428
G1 X34.2683 Y-21.9983 Z0.1224
G1 X34.2683 Y-21.6777 Z0.0916
G0 Z0.3680
G0 X34.2683 Y-21.6777 
G0 Z0.3680
G0 X35.0715 Y-23.8031 
G1 X35.0715 Y-23.8031 Z0.1930 F21.
G1 X35.0715 Y-23.8200 Z0.1900
G1 X35.0715 Y-23.9165 Z0.1730
G1 X35.0715 Y-23.5990 Z0.2037 F22.
G1 X35.0715 Y-23.2808 Z0.2244
G1 X35.0715 Y-22.9620 Z0.2349
G1 X35.0715 Y-22.6430 Z0.2352
G1 X35.0715 Y-22.3242 Z0.2253
G1 X35.0715 Y-22.0059 Z0.2053
G1 X35.0715 Y-21.6884 Z0.1751
G0 Z0.3542
G0 X35.0715 Y-21.6884 
G0 Z0.3542
G0 X35.0715 Y-23.8031 
G1 X35.0715 Y-23.8031 Z0.1792 F21.
G1 X35.0715 Y-23.8200 Z0.1763
G1 X35.0715 Y-23.9165 Z0.1592
G1 X35.0715 Y-23.5990 Z0.1900 F22.
G1 X35.0715 Y-23.2808 Z0.2107
G1 X35.0715 Y-22.9620 Z0.2211
G1 X35.0715 Y-22.6430 Z0.2215
G1 X35.0715 Y-22.3242 Z0.2116
G1 X35.0715 Y-22.0059 Z0.1916
G1 X35.0715 Y-21.6884 Z0.1614
G0 Z0.3405
G0 X35.0715 Y-21.6884 
G0 Z0.3405
G0 X35.0715 Y-23.8031 
G1 X35.0715 Y-23.8031 Z0.1655 F21.
G1 X35.0715 Y-23.8200 Z0.1625
G1 X35.0715 Y-23.9165 Z0.1455
G1 X35.0715 Y-23.5990 Z0.1763 F22.
G1 X35.0715 Y-23.2808 Z0.1970
G1 X35.0715 Y-22.9620 Z0.2074
G1 X35.0715 Y-22.6430 Z0.2077
G1 X35.0715 Y-22.3242 Z0.1979
G1 X35.0715 Y-22.0059 Z0.1778
G1 X35.0715 Y-21.6884 Z0.1477
G0 Z0.3268
G0 X35.0715 Y-21.6884 
G0 Z0.3268
G0 X35.0715 Y-23.8031 
G1 X35.0715 Y-23.8031 Z0.1518 F21.
G1 X35.0715 Y-23.8200 Z0.1488
G1 X35.0715 Y-23.9165 Z0.1318
G1 X35.0715 Y-23.5990 Z0.1626 F22.
G1 X35.0715 Y-23.2808 Z0.1832
G1 X35.0715 Y-22.9620 Z0.1937
G1 X35.0715 Y-22.6430 Z0.1940
G1 X35.0715 Y-22.3242 Z0.1842
G1 X35.0715 Y-22.0059 Z0.1641
G1 X35.0715 Y-21.6884 Z0.1340
G0 Z0.3131
G0 X35.0715 Y-21.6884 
G0 Z0.3131
G0 X35.0715 Y-23.8031 
G1 X35.0715 Y-23.8031 Z0.1381 F21.
G1 X35.0715 Y-23.8200 Z0.1351
G1 X35.0715 Y-23.9165 Z0.1181
G1 X35.0715 Y-23.5990 Z0.1489 F22.
G1 X35.0715 Y-23.2808 Z0.1695
G1 X35.0715 Y-22.9620 Z0.1800
G1 X35.0715 Y-22.6430 Z0.1803
G1 X35.0715 Y-22.3242 Z0.1704
G1 X35.0715 Y-22.0059 Z0.1504
G1 X35.0715 Y-21.6884 Z0.1203
G0 Z0.2994
G0 X35.0715 Y-21.6884 
G0 Z0.2994
G0 X35.0715 Y-23.8031 
G1 X35.0715 Y-23.8031 Z0.1244 F21.
G1 X35.0715 Y-23.8200 Z0.1214
G1 X35.0715 Y-23.9165 Z0.1044
G1 X35.0715 Y-23.5990 Z0.1352 F22.
G1 X35.0715 Y-23.2808 Z0.1558
G1 X35.0715 Y-22.9620 Z0.1663
G1 X35.0715 Y-22.6430 Z0.1666
G1 X35.0715 Y-22.3242 Z0.1567
G1 X35.0715 Y-22.0059 Z0.1367
G1 X35.0715 Y-21.6884 Z0.1065
G0 Z0.2857
G0 X35.0715 Y-21.6884 
G0 Z0.2857
G0 X35.0715 Y-23.8031 
G1 X35.0715 Y-23.8031 Z0.1107 F21.
G1 X35.0715 Y-23.8200 Z0.1077
G1 X35.0715 Y-23.9165 Z0.0907
G1 X35.0715 Y-23.5990 Z0.1215 F22.
G1 X35.0715 Y-23.2808 Z0.1421
G1 X35.0715 Y-22.9620 Z0.1526
G1 X35.0715 Y-22.6430 Z0.1529
G1 X35.0715 Y-22.3242 Z0.1430
G1 X35.0715 Y-22.0059 Z0.1230
G1 X35.0715 Y-21.6884 Z0.0928
G0 Z0.3692
G0 X35.0715 Y-21.6884 
G0 Z0.3692
G0 X35.9225 Y-23.7916 
G1 X35.9225 Y-23.7916 Z0.1942 F21.
G1 X35.9225 Y-23.8095 Z0.1911
G1 X35.9225 Y-23.9051 Z0.1742
G1 X35.9225 Y-23.5908 Z0.2044 F22.
G1 X35.9225 Y-23.2758 Z0.2246
G1 X35.9225 Y-22.9603 Z0.2349
G1 X35.9225 Y-22.6446 Z0.2352
G1 X35.9225 Y-22.3291 Z0.2255
G1 X35.9225 Y-22.0140 Z0.2059
G1 X35.9225 Y-21.6997 Z0.1764
G0 Z0.3555
G0 X35.9225 Y-21.6997 
G0 Z0.3555
G0 X35.9225 Y-23.7916 
G1 X35.9225 Y-23.7916 Z0.1805 F21.
G1 X35.9225 Y-23.8095 Z0.1774
G1 X35.9225 Y-23.9051 Z0.1605
G1 X35.9225 Y-23.5908 Z0.1907 F22.
G1 X35.9225 Y-23.2758 Z0.2109
G1 X35.9225 Y-22.9603 Z0.2212
G1 X35.9225 Y-22.6446 Z0.2215
G1 X35.9225 Y-22.3291 Z0.2118
G1 X35.9225 Y-22.0140 Z0.1922
G1 X35.9225 Y-21.6997 Z0.1626
G0 Z0.3418
G0 X35.9225 Y-21.6997 
G0 Z0.3418
G0 X35.9225 Y-23.7916 
G1 X35.9225 Y-23.7916 Z0.1668 F21.
G1 X35.9225 Y-23.8095 Z0.1637
G1 X35.9225 Y-23.9051 Z0.1468
G1 X35.9225 Y-23.5908 Z0.1770 F22.
G1 X35.9225 Y-23.2758 Z0.1972
G1 X35.9225 Y-22.9603 Z0.2075
G1 X35.9225 Y-22.6446 Z0.2078
G1 X35.9225 Y-22.3291 Z0.1981
G1 X35.9225 Y-22.0140 Z0.1785
G1 X35.9225 Y-21.6997 Z0.1489
G0 Z0.3281
G0 X35.9225 Y-21.6997 
G0 Z0.3281
G0 X35.9225 Y-23.7916 
G1 X35.9225 Y-23.7916 Z0.1531 F21.
G1 X35.9225 Y-23.8095 Z0.1499
G1 X35.9225 Y-23.9051 Z0.1331
G1 X35.9225 Y-23.5908 Z0.1633 F22.
G1 X35.9225 Y-23.2758 Z0.1835
G1 X35.9225 Y-22.9603 Z0.1937
G1 X35.9225 Y-22.6446 Z0.1940
G1 X35.9225 Y-22.3291 Z0.1844
G1 X35.9225 Y-22.0140 Z0.1648
G1 X35.9225 Y-21.6997 Z0.1352
G0 Z0.3144
G0 X35.9225 Y-21.6997 
G0 Z0.3144
G0 X35.9225 Y-23.7916 
G1 X35.9225 Y-23.7916 Z0.1394 F21.
G1 X35.9225 Y-23.8095 Z0.1362
G1 X35.9225 Y-23.9051 Z0.1194
G1 X35.9225 Y-23.5908 Z0.1495 F22.
G1 X35.9225 Y-23.2758 Z0.1698
G1 X35.9225 Y-22.9603 Z0.1800
G1 X35.9225 Y-22.6446 Z0.1803
G1 X35.9225 Y-22.3291 Z0.1707
G1 X35.9225 Y-22.0140 Z0.1511
G1 X35.9225 Y-21.6997 Z0.1215
G0 Z0.3007
G0 X35.9225 Y-21.6997 
G0 Z0.3007
G0 X35.9225 Y-23.7916 
G1 X35.9225 Y-23.7916 Z0.1257 F21.
G1 X35.9225 Y-23.8095 Z0.1225
G1 X35.9225 Y-23.9051 Z0.1057
G1 X35.9225 Y-23.5908 Z0.1358 F22.
G1 X35.9225 Y-23.2758 Z0.1560
G1 X35.9225 Y-22.9603 Z0.1663
G1 X35.9225 Y-22.6446 Z0.1666
G1 X35.9225 Y-22.3291 Z0.1570
G1 X35.9225 Y-22.0140 Z0.1373
G1 X35.9225 Y-21.6997 Z0.1078
G0 Z0.2870
G0 X35.9225 Y-21.6997 
G0 Z0.2870
G0 X35.9225 Y-23.7916 
G1 X35.9225 Y-23.7916 Z0.1120 F21.
G1 X35.9225 Y-23.8095 Z0.1088
G1 X35.9225 Y-23.9051 Z0.0920
G1 X35.9225 Y-23.5908 Z0.1221 F22.
G1 X35.9225 Y-23.2758 Z0.1423
G1 X35.9225 Y-22.9603 Z0.1526
G1 X35.9225 Y-22.6446 Z0.1529
G1 X35.9225 Y-22.3291 Z0.1432
G1 X35.9225 Y-22.0140 Z0.1236
G1 X35.9225 Y-21.6997 Z0.0941
G0 Z0.3706
G0 X35.9225 Y-21.6997 
G0 Z0.3706
G0 X36.8241 Y-23.7795 
G1 X36.8241 Y-23.7795 Z0.1956 F21.
G1 X36.8241 Y-23.7984 Z0.1923
G1 X36.8241 Y-23.8929 Z0.1756
G1 X36.8241 Y-23.5821 Z0.2051 F22.
G1 X36.8241 Y-23.2705 Z0.2249
G1 X36.8241 Y-22.9585 Z0.2349
G1 X36.8241 Y-22.6462 Z0.2352
G1 X36.8241 Y-22.3342 Z0.2258
G1 X36.8241 Y-22.0225 Z0.2066
G1 X36.8241 Y-21.7117 Z0.1777
G0 Z0.3569
G0 X36.8241 Y-21.7117 
G0 Z0.3569
G0 X36.8241 Y-23.7795 
G1 X36.8241 Y-23.7795 Z0.1819 F21.
G1 X36.8241 Y-23.7984 Z0.1785
G1 X36.8241 Y-23.8929 Z0.1619
G1 X36.8241 Y-23.5821 Z0.1914 F22.
G1 X36.8241 Y-23.2705 Z0.2112
G1 X36.8241 Y-22.9585 Z0.2212
G1 X36.8241 Y-22.6462 Z0.2215
G1 X36.8241 Y-22.3342 Z0.2120
G1 X36.8241 Y-22.0225 Z0.1929
G1 X36.8241 Y-21.7117 Z0.1640
G0 Z0.3432
G0 X36.8241 Y-21.7117 
G0 Z0.3432
G0 X36.8241 Y-23.7795 
G1 X36.8241 Y-23.7795 Z0.1682 F21.
G1 X36.8241 Y-23.7984 Z0.1648
G1 X36.8241 Y-23.8929 Z0.1482
G1 X36.8241 Y-23.5821 Z0.1777 F22.
G1 X36.8241 Y-23.2705 Z0.1974
G1 X36.8241 Y-22.9585 Z0.2075
G1 X36.8241 Y-22.6462 Z0.2078
G1 X36.8241 Y-22.3342 Z0.1983
G1 X36.8241 Y-22.0225 Z0.1791
G1 X36.8241 Y-21.7117 Z0.1502
G0 Z0.3295
G0 X36.8241 Y-21.7117 
G0 Z0.3295
G0 X36.8241 Y-23.7795 
G1 X36.8241 Y-23.7795 Z0.1545 F21.
G1 X36.8241 Y-23.7984 Z0.1511
G1 X36.8241 Y-23.8929 Z0.1345
G1 X36.8241 Y-23.5821 Z0.1640 F22.
G1 X36.8241 Y-23.2705 Z0.1837
G1 X36.8241 Y-22.9585 Z0.1938
G1 X36.8241 Y-22.6462 Z0.1941
G1 X36.8241 Y-22.3342 Z0.1846
G1 X36.8241 Y-22.0225 Z0.1654
G1 X36.8241 Y-21.7117 Z0.1365
G0 Z0.3157
G0 X36.8241 Y-21.7117 
G0 Z0.3157
G0 X36.8241 Y-23.7795 
G1 X36.8241 Y-23.7795 Z0.1407 F21.
G1 X36.8241 Y-23.7984 Z0.1374
G1 X36.8241 Y-23.8929 Z0.1207
G1 X36.8241 Y-23.5821 Z0.1502 F22.
G1 X36.8241 Y-23.2705 Z0.1700
G1 X36.8241 Y-22.9585 Z0.1801
G1 X36.8241 Y-22.6462 Z0.1804
G1 X36.8241 Y-22.3342 Z0.1709
G1 X36.8241 Y-22.0225 Z0.1517
G1 X36.8241 Y-21.7117 Z0.1228
G0 Z0.3020
G0 X36.8241 Y-21.7117 
G0 Z0.3020
G0 X36.8241 Y-23.7795 
G1 X36.8241 Y-23.7795 Z0.1270 F21.
G1 X36.8241 Y-23.7984 Z0.1237
G1 X36.8241 Y-23.8929 Z0.1070
G1 X36.8241 Y-23.5821 Z0.1365 F22.
G1 X36.8241 Y-23.2705 Z0.1563
G1 X36.8241 Y-22.9585 Z0.1663
G1 X36.8241 Y-22.6462 Z0.1666
G1 X36.8241 Y-22.3342 Z0.1572
G1 X36.8241 Y-22.0225 Z0.1380
G1 X36.8241 Y-21.7117 Z0.1091
G0 Z0.2883
G0 X36.8241 Y-21.7117 
G0 Z0.2883
G0 X36.8241 Y-23.7795 
G1 X36.8241 Y-23.7795 Z0.1133 F21.
G1 X36.8241 Y-23.7984 Z0.1100
G1 X36.8241 Y-23.8929 Z0.0933
G1 X36.8241 Y-23.5821 Z0.1228 F22.
G1 X36.8241 Y-23.2705 Z0.1426
G1 X36.8241 Y-22.9585 Z0.1526
G1 X36.8241 Y-22.6462 Z0.1529
G1 X36.8241 Y-22.3342 Z0.1435
G1 X36.8241 Y-22.0225 Z0.1243
G1 X36.8241 Y-21.7117 Z0.0954
G0 Z0.3720
G0 X36.8241 Y-21.7117 
G0 Z0.3720
G0 X37.7793 Y-23.7667 
G1 X37.7793 Y-23.7667 Z0.1970 F21.
G1 X37.7793 Y-23.7824 Z0.1942
G1 X37.7793 Y-23.8801 Z0.1770
G1 X37.7793 Y-23.5729 Z0.2058 F22.
G1 X37.7793 Y-23.2649 Z0.2251
G1 X37.7793 Y-22.9566 Z0.2349
G1 X37.7793 Y-22.6480 Z0.2352
G1 X37.7793 Y-22.3396 Z0.2260
G1 X37.7793 Y-22.0316 Z0.2073
G1 X37.7793 Y-21.7243 Z0.1790
G0 Z0.3583
G0 X37.7793 Y-21.7243 
G0 Z0.3583
G0 X37.7793 Y-23.7667 
G1 X37.7793 Y-23.7667 Z0.1833 F21.
G1 X37.7793 Y-23.7824 Z0.1805
G1 X37.7793 Y-23.8801 Z0.1633
G1 X37.7793 Y-23.5729 Z0.1921 F22.
G1 X37.7793 Y-23.2649 Z0.2114
G1 X37.7793 Y-22.9566 Z0.2212
G1 X37.7793 Y-22.6480 Z0.2215
G1 X37.7793 Y-22.3396 Z0.2123
G1 X37.7793 Y-22.0316 Z0.1936
G1 X37.7793 Y-21.7243 Z0.1653
G0 Z0.3446
G0 X37.7793 Y-21.7243 
G0 Z0.3446
G0 X37.7793 Y-23.7667 
G1 X37.7793 Y-23.7667 Z0.1696 F21.
G1 X37.7793 Y-23.7824 Z0.1668
G1 X37.7793 Y-23.8801 Z0.1496
G1 X37.7793 Y-23.5729 Z0.1784 F22.
G1 X37.7793 Y-23.2649 Z0.1977
G1 X37.7793 Y-22.9566 Z0.2075
G1 X37.7793 Y-22.6480 Z0.2078
G1 X37.7793 Y-22.3396 Z0.1986
G1 X37.7793 Y-22.0316 Z0.1798
G1 X37.7793 Y-21.7243 Z0.1516
G0 Z0.3309
G0 X37.7793 Y-21.7243 
G0 Z0.3309
G0 X37.7793 Y-23.7667 
G1 X37.7793 Y-23.7667 Z0.1559 F21.
G1 X37.7793 Y-23.7824 Z0.1531
G1 X37.7793 Y-23.8801 Z0.1359
G1 X37.7793 Y-23.5729 Z0.1647 F22.
G1 X37.7793 Y-23.2649 Z0.1840
G1 X37.7793 Y-22.9566 Z0.1938
G1 X37.7793 Y-22.6480 Z0.1941
G1 X37.7793 Y-22.3396 Z0.1849
G1 X37.7793 Y-22.0316 Z0.1661
G1 X37.7793 Y-21.7243 Z0.1379
G0 Z0.3172
G0 X37.7793 Y-21.7243 
G0 Z0.3172
G0 X37.7793 Y-23.7667 
G1 X37.7793 Y-23.7667 Z0.1422 F21.
G1 X37.7793 Y-23.7824 Z0.1394
G1 X37.7793 Y-23.8801 Z0.1222
G1 X37.7793 Y-23.5729 Z0.1510 F22.
G1 X37.7793 Y-23.2649 Z0.1703
G1 X37.7793 Y-22.9566 Z0.1801
G1 X37.7793 Y-22.6480 Z0.1804
G1 X37.7793 Y-22.3396 Z0.1712
G1 X37.7793 Y-22.0316 Z0.1524
G1 X37.7793 Y-21.7243 Z0.1242
G0 Z0.3034
G0 X37.7793 Y-21.7243 
G0 Z0.3034
G0 X37.7793 Y-23.7667 
G1 X37.7793 Y-23.7667 Z0.1284 F21.
G1 X37.7793 Y-23.7824 Z0.1257
G1 X37.7793 Y-23.8801 Z0.1084
G1 X37.7793 Y-23.5729 Z0.1372 F22.
G1 X37.7793 Y-23.2649 Z0.1566
G1 X37.7793 Y-22.9566 Z0.1664
G1 X37.7793 Y-22.6480 Z0.1667
G1 X37.7793 Y-22.3396 Z0.1574
G1 X37.7793 Y-22.0316 Z0.1387
G1 X37.7793 Y-21.7243 Z0.1105
G0 Z0.2897
G0 X37.7793 Y-21.7243 
G0 Z0.2897
G0 X37.7793 Y-23.7667 
G1 X37.7793 Y-23.7667 Z0.1147 F21.
G1 X37.7793 Y-23.7824 Z0.1119
G1 X37.7793 Y-23.8801 Z0.0947
G1 X37.7793 Y-23.5729 Z0.1235 F22.
G1 X37.7793 Y-23.2649 Z0.1429
G1 X37.7793 Y-22.9566 Z0.1527
G1 X37.7793 Y-22.6480 Z0.1530
G1 X37.7793 Y-22.3396 Z0.1437
G1 X37.7793 Y-22.0316 Z0.1250
G1 X37.7793 Y-21.7243 Z0.0968
G0 Z0.3735
G0 X37.7793 Y-21.7243 
G0 Z0.3735
G0 X38.7913 Y-23.7531 
G1 X38.7913 Y-23.7531 Z0.1985 F21.
G1 X38.7913 Y-23.7701 Z0.1955
G1 X38.7913 Y-23.8665 Z0.1785
G1 X38.7913 Y-23.5631 Z0.2066 F22.
G1 X38.7913 Y-23.2590 Z0.2254
G1 X38.7913 Y-22.9545 Z0.2350
G1 X38.7913 Y-22.6499 Z0.2353
G1 X38.7913 Y-22.3453 Z0.2263
G1 X38.7913 Y-22.0412 Z0.2080
G1 X38.7913 Y-21.7378 Z0.1805
G0 Z0.3598
G0 X38.7913 Y-21.7378 
G0 Z0.3598
G0 X38.7913 Y-23.7531 
G1 X38.7913 Y-23.7531 Z0.1848 F21.
G1 X38.7913 Y-23.7701 Z0.1818
G1 X38.7913 Y-23.8665 Z0.1648
G1 X38.7913 Y-23.5631 Z0.1929 F22.
G1 X38.7913 Y-23.2590 Z0.2117
G1 X38.7913 Y-22.9545 Z0.2213
G1 X38.7913 Y-22.6499 Z0.2216
G1 X38.7913 Y-22.3453 Z0.2126
G1 X38.7913 Y-22.0412 Z0.1943
G1 X38.7913 Y-21.7378 Z0.1668
G0 Z0.3461
G0 X38.7913 Y-21.7378 
G0 Z0.3461
G0 X38.7913 Y-23.7531 
G1 X38.7913 Y-23.7531 Z0.1711 F21.
G1 X38.7913 Y-23.7701 Z0.1681
G1 X38.7913 Y-23.8665 Z0.1511
G1 X38.7913 Y-23.5631 Z0.1791 F22.
G1 X38.7913 Y-23.2590 Z0.1980
G1 X38.7913 Y-22.9545 Z0.2076
G1 X38.7913 Y-22.6499 Z0.2078
G1 X38.7913 Y-22.3453 Z0.1988
G1 X38.7913 Y-22.0412 Z0.1806
G1 X38.7913 Y-21.7378 Z0.1530
G0 Z0.3323
G0 X38.7913 Y-21.7378 
G0 Z0.3323
G0 X38.7913 Y-23.7531 
G1 X38.7913 Y-23.7531 Z0.1573 F21.
G1 X38.7913 Y-23.7701 Z0.1543
G1 X38.7913 Y-23.8665 Z0.1373
G1 X38.7913 Y-23.5631 Z0.1654 F22.
G1 X38.7913 Y-23.2590 Z0.1843
G1 X38.7913 Y-22.9545 Z0.1938
G1 X38.7913 Y-22.6499 Z0.1941
G1 X38.7913 Y-22.3453 Z0.1851
G1 X38.7913 Y-22.0412 Z0.1669
G1 X38.7913 Y-21.7378 Z0.1393
G0 Z0.3186
G0 X38.7913 Y-21.7378 
G0 Z0.3186
G0 X38.7913 Y-23.7531 
G1 X38.7913 Y-23.7531 Z0.1436 F21.
G1 X38.7913 Y-23.7701 Z0.1406
G1 X38.7913 Y-23.8665 Z0.1236
G1 X38.7913 Y-23.5631 Z0.1517 F22.
G1 X38.7913 Y-23.2590 Z0.1706
G1 X38.7913 Y-22.9545 Z0.1801
G1 X38.7913 Y-22.6499 Z0.1804
G1 X38.7913 Y-22.3453 Z0.1714
G1 X38.7913 Y-22.0412 Z0.1531
G1 X38.7913 Y-21.7378 Z0.1256
G0 Z0.3049
G0 X38.7913 Y-21.7378 
G0 Z0.3049
G0 X38.7913 Y-23.7531 
G1 X38.7913 Y-23.7531 Z0.1299 F21.
G1 X38.7913 Y-23.7701 Z0.1269
G1 X38.7913 Y-23.8665 Z0.1099
G1 X38.7913 Y-23.5631 Z0.1380 F22.
G1 X38.7913 Y-23.2590 Z0.1568
G1 X38.7913 Y-22.9545 Z0.1664
G1 X38.7913 Y-22.6499 Z0.1667
G1 X38.7913 Y-22.3453 Z0.1577
G1 X38.7913 Y-22.0412 Z0.1394
G1 X38.7913 Y-21.7378 Z0.1119
G0 Z0.2912
G0 X38.7913 Y-21.7378 
G0 Z0.2912
G0 X38.7913 Y-23.7531 
G1 X38.7913 Y-23.7531 Z0.1162 F21.
G1 X38.7913 Y-23.7701 Z0.1132
G1 X38.7913 Y-23.8665 Z0.0962
G1 X38.7913 Y-23.5631 Z0.1243 F22.
G1 X38.7913 Y-23.2590 Z0.1431
G1 X38.7913 Y-22.9545 Z0.1527
G1 X38.7913 Y-22.6499 Z0.1530
G1 X38.7913 Y-22.3453 Z0.1440
G1 X38.7913 Y-22.0412 Z0.1257
G1 X38.7913 Y-21.7378 Z0.0982
G0 Z0.3750
G0 X38.7913 Y-21.7378 
G0 Z0.3750
G0 X39.8635 Y-23.7387 
G1 X39.8635 Y-23.7387 Z0.2000 F21.
G1 X39.8635 Y-23.7569 Z0.1968
G1 X39.8635 Y-23.8521 Z0.1800
G1 X39.8635 Y-23.5528 Z0.2074 F22.
G1 X39.8635 Y-23.2528 Z0.2257
G1 X39.8635 Y-22.9524 Z0.2350
G1 X39.8635 Y-22.6518 Z0.2353
G1 X39.8635 Y-22.3514 Z0.2265
G1 X39.8635 Y-22.0514 Z0.2088
G1 X39.8635 Y-21.7520 Z0.1820
G0 Z0.3613
G0 X39.8635 Y-21.7520 
G0 Z0.3613
G0 X39.8635 Y-23.7387 
G1 X39.8635 Y-23.7387 Z0.1863 F21.
G1 X39.8635 Y-23.7569 Z0.1831
G1 X39.8635 Y-23.8521 Z0.1663
G1 X39.8635 Y-23.5528 Z0.1937 F22.
G1 X39.8635 Y-23.2528 Z0.2120
G1 X39.8635 Y-22.9524 Z0.2213
G1 X39.8635 Y-22.6518 Z0.2216
G1 X39.8635 Y-22.3514 Z0.2128
G1 X39.8635 Y-22.0514 Z0.1950
G1 X39.8635 Y-21.7520 Z0.1683
G0 Z0.3476
G0 X39.8635 Y-21.7520 
G0 Z0.3476
G0 X39.8635 Y-23.7387 
G1 X39.8635 Y-23.7387 Z0.1726 F21.
G1 X39.8635 Y-23.7569 Z0.1694
G1 X39.8635 Y-23.8521 Z0.1526
G1 X39.8635 Y-23.5528 Z0.1799 F22.
G1 X39.8635 Y-23.2528 Z0.1983
G1 X39.8635 Y-22.9524 Z0.2076
G1 X39.8635 Y-22.6518 Z0.2079
G1 X39.8635 Y-22.3514 Z0.1991
G1 X39.8635 Y-22.0514 Z0.1813
G1 X39.8635 Y-21.7520 Z0.1545
G0 Z0.3339
G0 X39.8635 Y-21.7520 
G0 Z0.3339
G0 X39.8635 Y-23.7387 
G1 X39.8635 Y-23.7387 Z0.1589 F21.
G1 X39.8635 Y-23.7569 Z0.1557
G1 X39.8635 Y-23.8521 Z0.1389
G1 X39.8635 Y-23.5528 Z0.1662 F22.
G1 X39.8635 Y-23.2528 Z0.1846
G1 X39.8635 Y-22.9524 Z0.1939
G1 X39.8635 Y-22.6518 Z0.1942
G1 X39.8635 Y-22.3514 Z0.1854
G1 X39.8635 Y-22.0514 Z0.1676
G1 X39.8635 Y-21.7520 Z0.1408
G0 Z0.3202
G0 X39.8635 Y-21.7520 
G0 Z0.3202
G0 X39.8635 Y-23.7387 
G1 X39.8635 Y-23.7387 Z0.1452 F21.
G1 X39.8635 Y-23.7569 Z0.1420
G1 X39.8635 Y-23.8521 Z0.1252
G1 X39.8635 Y-23.5528 Z0.1525 F22.
G1 X39.8635 Y-23.2528 Z0.1708
G1 X39.8635 Y-22.9524 Z0.1802
G1 X39.8635 Y-22.6518 Z0.1804
G1 X39.8635 Y-22.3514 Z0.1717
G1 X39.8635 Y-22.0514 Z0.1539
G1 X39.8635 Y-21.7520 Z0.1271
G0 Z0.3065
G0 X39.8635 Y-21.7520 
G0 Z0.3065
G0 X39.8635 Y-23.7387 
G1 X39.8635 Y-23.7387 Z0.1315 F21.
G1 X39.8635 Y-23.7569 Z0.1282
G1 X39.8635 Y-23.8521 Z0.1115
G1 X39.8635 Y-23.5528 Z0.1388 F22.
G1 X39.8635 Y-23.2528 Z0.1571
G1 X39.8635 Y-22.9524 Z0.1664
G1 X39.8635 Y-22.6518 Z0.1667
G1 X39.8635 Y-22.3514 Z0.1580
G1 X39.8635 Y-22.0514 Z0.1402
G1 X39.8635 Y-21.7520 Z0.1134
G0 Z0.2927
G0 X39.8635 Y-21.7520 
G0 Z0.2927
G0 X39.8635 Y-23.7387 
G1 X39.8635 Y-23.7387 Z0.1177 F21.
G1 X39.8635 Y-23.7569 Z0.1145
G1 X39.8635 Y-23.8521 Z0.0977
G1 X39.8635 Y-23.5528 Z0.1251 F22.
G1 X39.8635 Y-23.2528 Z0.1434
G1 X39.8635 Y-22.9524 Z0.1527
G1 X39.8635 Y-22.6518 Z0.1530
G1 X39.8635 Y-22.3514 Z0.1443
G1 X39.8635 Y-22.0514 Z0.1265
G1 X39.8635 Y-21.7520 Z0.0997
G0 Z0.3766
G0 X39.8635 Y-21.7520 
G0 Z0.3766
G0 X40.9995 Y-23.7234 
G1 X40.9995 Y-23.7234 Z0.2016 F21.
G1 X40.9995 Y-23.7386 Z0.1990
G1 X40.9995 Y-23.8368 Z0.1816
G1 X40.9995 Y-23.5418 Z0.2082 F22.
G1 X40.9995 Y-23.2462 Z0.2260
G1 X40.9995 Y-22.9501 Z0.2351
G1 X40.9995 Y-22.6539 Z0.2353
G1 X40.9995 Y-22.3578 Z0.2268
G1 X40.9995 Y-22.0622 Z0.2096
G1 X40.9995 Y-21.7671 Z0.1835
G0 Z0.3629
G0 X40.9995 Y-21.7671 
G0 Z0.3629
G0 X40.9995 Y-23.7234 
G1 X40.9995 Y-23.7234 Z0.1879 F21.
G1 X40.9995 Y-23.7386 Z0.1853
G1 X40.9995 Y-23.8368 Z0.1679
G1 X40.9995 Y-23.5418 Z0.1945 F22.
G1 X40.9995 Y-23.2462 Z0.2123
G1 X40.9995 Y-22.9501 Z0.2213
G1 X40.9995 Y-22.6539 Z0.2216
G1 X40.9995 Y-22.3578 Z0.2131
G1 X40.9995 Y-22.0622 Z0.1958
G1 X40.9995 Y-21.7671 Z0.1698
G0 Z0.3492
G0 X40.9995 Y-21.7671 
G0 Z0.3492
G0 X40.9995 Y-23.7234 
G1 X40.9995 Y-23.7234 Z0.1742 F21.
G1 X40.9995 Y-23.7386 Z0.1715
G1 X40.9995 Y-23.8368 Z0.1542
G1 X40.9995 Y-23.5418 Z0.1808 F22.
G1 X40.9995 Y-23.2462 Z0.1986
G1 X40.9995 Y-22.9501 Z0.2076
G1 X40.9995 Y-22.6539 Z0.2079
G1 X40.9995 Y-22.3578 Z0.1994
G1 X40.9995 Y-22.0622 Z0.1821
G1 X40.9995 Y-21.7671 Z0.1561
G0 Z0.3355
G0 X40.9995 Y-21.7671 
G0 Z0.3355
G0 X40.9995 Y-23.7234 
G1 X40.9995 Y-23.7234 Z0.1605 F21.
G1 X40.9995 Y-23.7386 Z0.1578
G1 X40.9995 Y-23.8368 Z0.1405
G1 X40.9995 Y-23.5418 Z0.1671 F22.
G1 X40.9995 Y-23.2462 Z0.1849
G1 X40.9995 Y-22.9501 Z0.1939
G1 X40.9995 Y-22.6539 Z0.1942
G1 X40.9995 Y-22.3578 Z0.1857
G1 X40.9995 Y-22.0622 Z0.1684
G1 X40.9995 Y-21.7671 Z0.1424
G0 Z0.3218
G0 X40.9995 Y-21.7671 
G0 Z0.3218
G0 X40.9995 Y-23.7234 
G1 X40.9995 Y-23.7234 Z0.1468 F21.
G1 X40.9995 Y-23.7386 Z0.1441
G1 X40.9995 Y-23.8368 Z0.1268
G1 X40.9995 Y-23.5418 Z0.1533 F22.
G1 X40.9995 Y-23.2462 Z0.1712
G1 X40.9995 Y-22.9501 Z0.1802
G1 X40.9995 Y-22.6539 Z0.1805
G1 X40.9995 Y-22.3578 Z0.1720
G1 X40.9995 Y-22.0622 Z0.1547
G1 X40.9995 Y-21.7671 Z0.1287
G0 Z0.3081
G0 X40.9995 Y-21.7671 
G0 Z0.3081
G0 X40.9995 Y-23.7234 
G1 X40.9995 Y-23.7234 Z0.1331 F21.
G1 X40.9995 Y-23.7386 Z0.1304
G1 X40.9995 Y-23.8368 Z0.1131
G1 X40.9995 Y-23.5418 Z0.1396 F22.
G1 X40.9995 Y-23.2462 Z0.1574
G1 X40.9995 Y-22.9501 Z0.1665
G1 X40.9995 Y-22.6539 Z0.1668
G1 X40.9995 Y-22.3578 Z0.1583
G1 X40.9995 Y-22.0622 Z0.1410
G1 X40.9995 Y-21.7671 Z0.1150
G0 Z0.2944
G0 X40.9995 Y-21.7671 
G0 Z0.2944
G0 X40.9995 Y-23.7234 
G1 X40.9995 Y-23.7234 Z0.1194 F21.
G1 X40.9995 Y-23.7386 Z0.1167
G1 X40.9995 Y-23.8368 Z0.0994
G1 X40.9995 Y-23.5418 Z0.1259 F22.
G1 X40.9995 Y-23.2462 Z0.1437
G1 X40.9995 Y-22.9501 Z0.1528
G1 X40.9995 Y-22.6539 Z0.1530
G1 X40.9995 Y-22.3578 Z0.1445
G1 X40.9995 Y-22.0622 Z0.1273
G1 X40.9995 Y-21.7671 Z0.1013
G0 Z0.3783
G0 X40.9995 Y-21.7671 
G0 Z0.3783
G0 X42.2030 Y-23.7072 
G1 X42.2030 Y-23.7072 Z0.2033 F21.
G1 X42.2030 Y-23.7239 Z0.2004
G1 X42.2030 Y-23.8206 Z0.1833
G1 X42.2030 Y-23.5302 Z0.2091 F22.
G1 X42.2030 Y-23.2391 Z0.2263
G1 X42.2030 Y-22.9477 Z0.2351
G1 X42.2030 Y-22.6561 Z0.2354
G1 X42.2030 Y-22.3647 Z0.2271
G1 X42.2030 Y-22.0736 Z0.2104
G1 X42.2030 Y-21.7831 Z0.1852
G0 Z0.3646
G0 X42.2030 Y-21.7831 
G0 Z0.3646
G0 X42.2030 Y-23.7072 
G1 X42.2030 Y-23.7072 Z0.1896 F21.
G1 X42.2030 Y-23.7239 Z0.1867
G1 X42.2030 Y-23.8206 Z0.1696
G1 X42.2030 Y-23.5302 Z0.1954 F22.
G1 X42.2030 Y-23.2391 Z0.2126
G1 X42.2030 Y-22.9477 Z0.2214
G1 X42.2030 Y-22.6561 Z0.2216
G1 X42.2030 Y-22.3647 Z0.2134
G1 X42.2030 Y-22.0736 Z0.1967
G1 X42.2030 Y-21.7831 Z0.1715
G0 Z0.3509
G0 X42.2030 Y-21.7831 
G0 Z0.3509
G0 X42.2030 Y-23.7072 
G1 X42.2030 Y-23.7072 Z0.1759 F21.
G1 X42.2030 Y-23.7239 Z0.1730
G1 X42.2030 Y-23.8206 Z0.1559
G1 X42.2030 Y-23.5302 Z0.1816 F22.
G1 X42.2030 Y-23.2391 Z0.1989
G1 X42.2030 Y-22.9477 Z0.2077
G1 X42.2030 Y-22.6561 Z0.2079
G1 X42.2030 Y-22.3647 Z0.1997
G1 X42.2030 Y-22.0736 Z0.1830
G1 X42.2030 Y-21.7831 Z0.1577
G0 Z0.3372
G0 X42.2030 Y-21.7831 
G0 Z0.3372
G0 X42.2030 Y-23.7072 
G1 X42.2030 Y-23.7072 Z0.1622 F21.
G1 X42.2030 Y-23.7239 Z0.1592
G1 X42.2030 Y-23.8206 Z0.1422
G1 X42.2030 Y-23.5302 Z0.1679 F22.
G1 X42.2030 Y-23.2391 Z0.1852
G1 X42.2030 Y-22.9477 Z0.1939
G1 X42.2030 Y-22.6561 Z0.1942
G1 X42.2030 Y-22.3647 Z0.1860
G1 X42.2030 Y-22.0736 Z0.1692
G1 X42.2030 Y-21.7831 Z0.1440
G0 Z0.3235
G0 X42.2030 Y-21.7831 
G0 Z0.3235
G0 X42.2030 Y-23.7072 
G1 X42.2030 Y-23.7072 Z0.1485 F21.
G1 X42.2030 Y-23.7239 Z0.1455
G1 X42.2030 Y-23.8206 Z0.1285
G1 X42.2030 Y-23.5302 Z0.1542 F22.
G1 X42.2030 Y-23.2391 Z0.1715
G1 X42.2030 Y-22.9477 Z0.1802
G1 X42.2030 Y-22.6561 Z0.1805
G1 X42.2030 Y-22.3647 Z0.1723
G1 X42.2030 Y-22.0736 Z0.1555
G1 X42.2030 Y-21.7831 Z0.1303
G0 Z0.3098
G0 X42.2030 Y-21.7831 
G0 Z0.3098
G0 X42.2030 Y-23.7072 
G1 X42.2030 Y-23.7072 Z0.1348 F21.
G1 X42.2030 Y-23.7239 Z0.1318
G1 X42.2030 Y-23.8206 Z0.1148
G1 X42.2030 Y-23.5302 Z0.1405 F22.
G1 X42.2030 Y-23.2391 Z0.1578
G1 X42.2030 Y-22.9477 Z0.1665
G1 X42.2030 Y-22.6561 Z0.1668
G1 X42.2030 Y-22.3647 Z0.1585
G1 X42.2030 Y-22.0736 Z0.1418
G1 X42.2030 Y-21.7831 Z0.1166
G0 Z0.2960
G0 X42.2030 Y-21.7831 
G0 Z0.2960
G0 X42.2030 Y-23.7072 
G1 X42.2030 Y-23.7072 Z0.1210 F21.
G1 X42.2030 Y-23.7239 Z0.1181
G1 X42.2030 Y-23.8206 Z0.1010
G1 X42.2030 Y-23.5302 Z0.1268 F22.
G1 X42.2030 Y-23.2391 Z0.1440
G1 X42.2030 Y-22.9477 Z0.1528
G1 X42.2030 Y-22.6561 Z0.1531
G1 X42.2030 Y-22.3647 Z0.1448
G1 X42.2030 Y-22.0736 Z0.1281
G1 X42.2030 Y-21.7831 Z0.1029
G0 Z0.3801
G0 X42.2030 Y-21.7831 
G0 Z0.3801
G0 X43.4780 Y-23.6901 
G1 X43.4780 Y-23.6901 Z0.2051 F21.
G1 X43.4780 Y-23.7084 Z0.2019
G1 X43.4780 Y-23.8035 Z0.1851
G1 X43.4780 Y-23.5179 Z0.2100 F22.
G1 X43.4780 Y-23.2317 Z0.2267
G1 X43.4780 Y-22.9451 Z0.2351
G1 X43.4780 Y-22.6585 Z0.2354
G1 X43.4780 Y-22.3719 Z0.2274
G1 X43.4780 Y-22.0857 Z0.2113
G1 X43.4780 Y-21.8000 Z0.1869
G0 Z0.3664
G0 X43.4780 Y-21.8000 
G0 Z0.3664
G0 X43.4780 Y-23.6901 
G1 X43.4780 Y-23.6901 Z0.1914 F21.
G1 X43.4780 Y-23.7084 Z0.1881
G1 X43.4780 Y-23.8035 Z0.1714
G1 X43.4780 Y-23.5179 Z0.1963 F22.
G1 X43.4780 Y-23.2317 Z0.2129
G1 X43.4780 Y-22.9451 Z0.2214
G1 X43.4780 Y-22.6585 Z0.2217
G1 X43.4780 Y-22.3719 Z0.2137
G1 X43.4780 Y-22.0857 Z0.1975
G1 X43.4780 Y-21.8000 Z0.1732
G0 Z0.3527
G0 X43.4780 Y-21.8000 
G0 Z0.3527
G0 X43.4780 Y-23.6901 
G1 X43.4780 Y-23.6901 Z0.1777 F21.
G1 X43.4780 Y-23.7084 Z0.1744
G1 X43.4780 Y-23.8035 Z0.1577
G1 X43.4780 Y-23.5179 Z0.1825 F22.
G1 X43.4780 Y-23.2317 Z0.1992
G1 X43.4780 Y-22.9451 Z0.2077
G1 X43.4780 Y-22.6585 Z0.2080
G1 X43.4780 Y-22.3719 Z0.2000
G1 X43.4780 Y-22.0857 Z0.1838
G1 X43.4780 Y-21.8000 Z0.1595
G0 Z0.3389
G0 X43.4780 Y-21.8000 
G0 Z0.3389
G0 X43.4780 Y-23.6901 
G1 X43.4780 Y-23.6901 Z0.1639 F21.
G1 X43.4780 Y-23.7084 Z0.1607
G1 X43.4780 Y-23.8035 Z0.1439
G1 X43.4780 Y-23.5179 Z0.1688 F22.
G1 X43.4780 Y-23.2317 Z0.1855
G1 X43.4780 Y-22.9451 Z0.1940
G1 X43.4780 Y-22.6585 Z0.1942
G1 X43.4780 Y-22.3719 Z0.1863
G1 X43.4780 Y-22.0857 Z0.1701
G1 X43.4780 Y-21.8000 Z0.1457
G0 Z0.3252
G0 X43.4780 Y-21.8000 
G0 Z0.3252
G0 X43.4780 Y-23.6901 
G1 X43.4780 Y-23.6901 Z0.1502 F21.
G1 X43.4780 Y-23.7084 Z0.1470
G1 X43.4780 Y-23.8035 Z0.1302
G1 X43.4780 Y-23.5179 Z0.1551 F22.
G1 X43.4780 Y-23.2317 Z0.1718
G1 X43.4780 Y-22.9451 Z0.1803
G1 X43.4780 Y-22.6585 Z0.1805
G1 X43.4780 Y-22.3719 Z0.1726
G1 X43.4780 Y-22.0857 Z0.1564
G1 X43.4780 Y-21.8000 Z0.1320
G0 Z0.3115
G0 X43.4780 Y-21.8000 
G0 Z0.3115
G0 X43.4780 Y-23.6901 
G1 X43.4780 Y-23.6901 Z0.1365 F21.
G1 X43.4780 Y-23.7084 Z0.1333
G1 X43.4780 Y-23.8035 Z0.1165
G1 X43.4780 Y-23.5179 Z0.1414 F22.
G1 X43.4780 Y-23.2317 Z0.1581
G1 X43.4780 Y-22.9451 Z0.1666
G1 X43.4780 Y-22.6585 Z0.1668
G1 X43.4780 Y-22.3719 Z0.1589
G1 X43.4780 Y-22.0857 Z0.1427
G1 X43.4780 Y-21.8000 Z0.1183
G0 Z0.2978
G0 X43.4780 Y-21.8000 
G0 Z0.2978
G0 X43.4780 Y-23.6901 
G1 X43.4780 Y-23.6901 Z0.1228 F21.
G1 X43.4780 Y-23.7084 Z0.1196
G1 X43.4780 Y-23.8035 Z0.1028
G1 X43.4780 Y-23.5179 Z0.1277 F22.
G1 X43.4780 Y-23.2317 Z0.1444
G1 X43.4780 Y-22.9451 Z0.1528
G1 X43.4780 Y-22.6585 Z0.1531
G1 X43.4780 Y-22.3719 Z0.1451
G1 X43.4780 Y-22.0857 Z0.1290
G1 X43.4780 Y-21.8000 Z0.1046
G0 Z0.3819
G0 X43.4780 Y-21.8000 
G0 Z0.3819
G0 X44.8289 Y-23.6719 
G1 X44.8289 Y-23.6719 Z0.2069 F21.
G1 X44.8289 Y-23.6873 Z0.2042
G1 X44.8289 Y-23.7853 Z0.1869
G1 X44.8289 Y-23.4581 Z0.2141 F22.
G1 X44.8289 Y-23.1301 Z0.2306
G1 X44.8289 Y-22.8017 Z0.2363
G1 X44.8289 Y-22.4733 Z0.2312
G1 X44.8289 Y-22.1453 Z0.2153
G1 X44.8289 Y-21.8180 Z0.1887
G0 Z0.3682
G0 X44.8289 Y-21.8180 
G0 Z0.3682
G0 X44.8289 Y-23.6719 
G1 X44.8289 Y-23.6719 Z0.1932 F21.
G1 X44.8289 Y-23.6873 Z0.1905
G1 X44.8289 Y-23.7853 Z0.1732
G1 X44.8289 Y-23.4581 Z0.2004 F22.
G1 X44.8289 Y-23.1301 Z0.2169
G1 X44.8289 Y-22.8017 Z0.2226
G1 X44.8289 Y-22.4733 Z0.2175
G1 X44.8289 Y-22.1453 Z0.2016
G1 X44.8289 Y-21.8180 Z0.1749
G0 Z0.3545
G0 X44.8289 Y-21.8180 
G0 Z0.3545
G0 X44.8289 Y-23.6719 
G1 X44.8289 Y-23.6719 Z0.1795 F21.
G1 X44.8289 Y-23.6873 Z0.1768
G1 X44.8289 Y-23.7853 Z0.1595
G1 X44.8289 Y-23.4581 Z0.1867 F22.
G1 X44.8289 Y-23.1301 Z0.2032
G1 X44.8289 Y-22.8017 Z0.2089
G1 X44.8289 Y-22.4733 Z0.2038
G1 X44.8289 Y-22.1453 Z0.1879
G1 X44.8289 Y-21.8180 Z0.1612
G0 Z0.3408
G0 X44.8289 Y-21.8180 
G0 Z0.3408
G0 X44.8289 Y-23.6719 
G1 X44.8289 Y-23.6719 Z0.1658 F21.
G1 X44.8289 Y-23.6873 Z0.1631
G1 X44.8289 Y-23.7853 Z0.1458
G1 X44.8289 Y-23.4581 Z0.1730 F22.
G1 X44.8289 Y-23.1301 Z0.1895
G1 X44.8289 Y-22.8017 Z0.1951
G1 X44.8289 Y-22.4733 Z0.1900
G1 X44.8289 Y-22.1453 Z0.1742
G1 X44.8289 Y-21.8180 Z0.1475
G0 Z0.3271
G0 X44.8289 Y-21.8180 
G0 Z0.3271
G0 X44.8289 Y-23.6719 
G1 X44.8289 Y-23.6719 Z0.1521 F21.
G1 X44.8289 Y-23.6873 Z0.1494
G1 X44.8289 Y-23.7853 Z0.1321
G1 X44.8289 Y-23.4581 Z0.1593 F22.
G1 X44.8289 Y-23.1301 Z0.1757
G1 X44.8289 Y-22.8017 Z0.1814
G1 X44.8289 Y-22.4733 Z0.1763
G1 X44.8289 Y-22.1453 Z0.1604
G1 X44.8289 Y-21.8180 Z0.1338
G0 Z0.3133
G0 X44.8289 Y-21.8180 
G0 Z0.3133
G0 X44.8289 Y-23.6719 
G1 X44.8289 Y-23.6719 Z0.1383 F21.
G1 X44.8289 Y-23.6873 Z0.1356
G1 X44.8289 Y-23.7853 Z0.1183
G1 X44.8289 Y-23.4581 Z0.1456 F22.
G1 X44.8289 Y-23.1301 Z0.1620
G1 X44.8289 Y-22.8017 Z0.1677
G1 X44.8289 Y-22.4733 Z0.1626
G1 X44.8289 Y-22.1453 Z0.1467
G1 X44.8289 Y-21.8180 Z0.1201
G0 Z0.2996
G0 X44.8289 Y-21.8180 
G0 Z0.2996
G0 X44.8289 Y-23.6719 
G1 X44.8289 Y-23.6719 Z0.1246 F21.
G1 X44.8289 Y-23.6873 Z0.1219
G1 X44.8289 Y-23.7853 Z0.1046
G1 X44.8289 Y-23.4581 Z0.1319 F22.
G1 X44.8289 Y-23.1301 Z0.1483
G1 X44.8289 Y-22.8017 Z0.1540
G1 X44.8289 Y-22.4733 Z0.1489
G1 X44.8289 Y-22.1453 Z0.1330
G1 X44.8289 Y-21.8180 Z0.1064
G0 Z1.0000
G0 X44.8289 Y-21.8180 
M5
G53 Z
X2Y0
