( MOP:  02-radius-r9PT5-AnyScale-final-start-NOMIRROR-01a )
( FILE: G:\Shared drives\AlloyProjectFiles\Customer CAD files\Alloy-Standard-Builds-CAM\Fingerboards-in\03-radius-r9PT5-AnyScale-final-start-NOMIRROR-01.nc)
G90
(  BEGIN TOOL LIST )
(  TOOL 3 - Downcut PT750 - DESC: 0.7500 DIA, 2 FLUTE,  CARBIDE MAT )
(  ENDOF TOOL LIST )
( 02-radius-r9PT5-AnyScale-final-start-NOMIRROR-01a)
T03
S14000
M3
G0 Z4.0000
G0 X25.1260 Y-22.7982 
G1 X25.1260 Y-22.7982 Z0.6100 F75.
G1 X25.1260 Y-22.7982 Z0.5100 F30.
G1 X25.1272 Y-22.7982 Z0.4855
G1 X25.1308 Y-22.7982 Z0.4612
G1 X25.1368 Y-22.7982 Z0.4374
G1 X25.1450 Y-22.7982 Z0.4143
G1 X25.1555 Y-22.7982 Z0.3922
G1 X25.1681 Y-22.7982 Z0.3711
G1 X25.1827 Y-22.7982 Z0.3514
G1 X25.1992 Y-22.7982 Z0.3332
G1 X25.2174 Y-22.7982 Z0.3167
G1 X25.2371 Y-22.7982 Z0.3021
G1 X25.2582 Y-22.7982 Z0.2895
G1 X25.2803 Y-22.7982 Z0.2790
G1 X25.3034 Y-22.7982 Z0.2708
G1 X25.3272 Y-22.7982 Z0.2648
G1 X25.3515 Y-22.7982 Z0.2612
G1 X25.3760 Y-22.7982 Z0.2600
G1 X47.3697 Y-22.7982 Z0.2600 F60.
G1 X47.3942 Y-22.7982 Z0.2612
G1 X47.4184 Y-22.7982 Z0.2648
G1 X47.4422 Y-22.7982 Z0.2708
G1 X47.4653 Y-22.7982 Z0.2790
G1 X47.4875 Y-22.7982 Z0.2895
G1 X47.5086 Y-22.7982 Z0.3021
G1 X47.5283 Y-22.7982 Z0.3167
G1 X47.5464 Y-22.7982 Z0.3332
G1 X47.5629 Y-22.7982 Z0.3514
G1 X47.5775 Y-22.7982 Z0.3711
G1 X47.5901 Y-22.7982 Z0.3922
G1 X47.6006 Y-22.7982 Z0.4143
G1 X47.6089 Y-22.7982 Z0.4374
G1 X47.6149 Y-22.7982 Z0.4612
G1 X47.6185 Y-22.7982 Z0.4855
G1 X47.6197 Y-22.7982 Z0.5100
G1 X47.6197 Y-22.7982 Z0.6100 F75.
G0 Z4.0000
G0 X47.6197 Y-22.7982 
( 02-radius-r9PT5-AnyScale-final-start-NOMIRROR-01b)
G0 Z4.0000
G0 X47.2601 Y-22.8744 
G1 X47.2601 Y-22.8744 Z0.3575 F110.
G1 X47.2601 Y-22.8749 Z0.3477 F25.
G1 X47.2601 Y-22.8764 Z0.3380
G1 X47.2601 Y-22.8787 Z0.3285
G1 X47.2601 Y-22.8820 Z0.3193
G1 X47.2601 Y-22.8862 Z0.3104
G1 X47.2601 Y-22.8913 Z0.3020
G1 X47.2601 Y-22.8971 Z0.2941
G1 X47.2601 Y-22.9037 Z0.2868
G1 X47.2601 Y-22.9110 Z0.2802
G1 X47.2601 Y-22.9189 Z0.2744
G1 X47.2601 Y-22.9273 Z0.2694
G1 X47.2601 Y-22.9362 Z0.2652
G1 X47.2601 Y-22.9454 Z0.2619
G1 X47.2601 Y-22.9549 Z0.2595
G1 X47.2601 Y-22.9646 Z0.2580
G1 X47.2601 Y-22.9744 Z0.2576
G1 X47.2601 Y-23.1657 Z0.2575 F50.
G1 X47.2601 Y-23.1896 Z0.2575
G1 X47.2601 Y-23.2016 Z0.2575
G1 X47.2601 Y-23.2135 Z0.2574
G1 X47.2601 Y-23.2374 Z0.2573
G1 X47.2601 Y-23.2613 Z0.2570
G1 X47.2601 Y-23.2853 Z0.2568
G1 X47.2601 Y-23.2972 Z0.2566
G1 X47.2601 Y-23.3092 Z0.2564
G1 X47.2601 Y-23.3331 Z0.2561
G1 X47.2601 Y-23.3689 Z0.2553
G1 X47.2601 Y-23.4048 Z0.2545
G1 X47.2601 Y-23.4407 Z0.2535
G1 X47.2601 Y-23.4765 Z0.2524
G1 X47.2601 Y-23.5004 Z0.2516
G1 X47.2601 Y-23.5124 Z0.2512
G1 X47.2601 Y-23.5243 Z0.2507
G1 X47.2601 Y-23.5483 Z0.2498
G1 X47.2601 Y-23.5722 Z0.2488
G1 X47.2601 Y-23.6080 Z0.2472
G1 X47.2601 Y-23.6200 Z0.2466
G1 X47.2601 Y-23.6439 Z0.2455
G1 X47.2601 Y-23.6798 Z0.2436
G1 X47.2601 Y-23.7156 Z0.2416
G1 X47.2601 Y-23.7395 Z0.2401
G1 X47.2601 Y-23.7515 Z0.2394
G1 X47.2601 Y-23.7634 Z0.2386
G1 X47.2601 Y-23.7874 Z0.2371
G1 X47.2601 Y-23.8113 Z0.2355
G1 X47.2601 Y-23.8352 Z0.2339
G1 X47.2601 Y-23.8471 Z0.2330
G1 X47.2601 Y-23.8591 Z0.2321
G1 X47.2601 Y-23.8830 Z0.2304
G1 X47.2601 Y-23.9189 Z0.2276
G1 X47.2601 Y-23.9547 Z0.2246
G1 X47.2601 Y-23.9786 Z0.2226
G1 X47.2601 Y-23.9906 Z0.2216
G1 X47.2601 Y-24.0025 Z0.2205
G1 X47.2601 Y-24.0264 Z0.2184
G1 X47.2601 Y-24.0504 Z0.2162
G1 X47.2601 Y-24.0743 Z0.2139
G1 X47.2601 Y-24.0862 Z0.2128
G1 X47.2601 Y-24.0982 Z0.2116
G1 X47.2601 Y-24.1221 Z0.2092
G1 X47.2601 Y-24.1521 Z0.2061
G1 X47.2601 Y-24.1820 Z0.2029
G1 X47.2601 Y-24.1970 Z0.2013
G1 X47.2601 Y-24.2270 Z0.1980
G1 X47.2601 Y-24.2570 Z0.1946
G1 X47.2601 Y-24.2870 Z0.1910
G1 X47.2601 Y-24.3020 Z0.1892
G1 X47.2601 Y-24.3320 Z0.1856
G1 X47.2601 Y-24.3619 Z0.1818
G1 X47.2601 Y-24.3672 Z0.1815
G1 X47.2601 Y-24.3725 Z0.1816
G1 X47.2601 Y-24.3778 Z0.1824
G1 X47.2601 Y-24.3829 Z0.1837
G1 X47.2601 Y-24.3879 Z0.1855
G1 X47.2601 Y-24.3926 Z0.1878
G1 X47.2601 Y-24.3971 Z0.1907
G1 X47.2601 Y-24.4012 Z0.1940
G1 X47.2601 Y-24.4050 Z0.1977
G1 X47.2601 Y-24.4084 Z0.2018
G1 X47.2601 Y-24.4113 Z0.2062
G1 X47.2601 Y-24.4137 Z0.2109
G1 X47.2601 Y-24.4156 Z0.2158
G1 X47.2601 Y-24.4170 Z0.2209
G1 X47.2601 Y-24.4179 Z0.2262
G1 X47.2601 Y-24.4181 Z0.2315
G0 Z0.3576
G0 X47.2601 Y-24.4181 
G0 Z0.3576
G0 X47.0951 Y-22.8744 
G1 X47.0951 Y-22.8749 Z0.3477 F25.
G1 X47.0951 Y-22.8764 Z0.3380
G1 X47.0951 Y-22.8787 Z0.3285
G1 X47.0951 Y-22.8820 Z0.3193
G1 X47.0951 Y-22.8862 Z0.3104
G1 X47.0951 Y-22.8913 Z0.3020
G1 X47.0951 Y-22.8971 Z0.2941
G1 X47.0951 Y-22.9037 Z0.2868
G1 X47.0951 Y-22.9110 Z0.2802
G1 X47.0951 Y-22.9189 Z0.2744
G1 X47.0951 Y-22.9273 Z0.2694
G1 X47.0951 Y-22.9362 Z0.2652
G1 X47.0951 Y-22.9454 Z0.2619
G1 X47.0951 Y-22.9549 Z0.2595
G1 X47.0951 Y-22.9646 Z0.2580
G1 X47.0951 Y-22.9744 Z0.2576
G1 X47.0951 Y-23.1657 Z0.2575 F50.
G1 X47.0951 Y-23.1896 Z0.2575
G1 X47.0951 Y-23.2016 Z0.2575
G1 X47.0951 Y-23.2135 Z0.2574
G1 X47.0951 Y-23.2374 Z0.2573
G1 X47.0951 Y-23.2613 Z0.2570
G1 X47.0951 Y-23.2853 Z0.2568
G1 X47.0951 Y-23.2972 Z0.2566
G1 X47.0951 Y-23.3092 Z0.2564
G1 X47.0951 Y-23.3331 Z0.2561
G1 X47.0951 Y-23.3689 Z0.2553
G1 X47.0951 Y-23.4048 Z0.2545
G1 X47.0951 Y-23.4407 Z0.2535
G1 X47.0951 Y-23.4765 Z0.2524
G1 X47.0951 Y-23.5004 Z0.2516
G1 X47.0951 Y-23.5124 Z0.2512
G1 X47.0951 Y-23.5243 Z0.2507
G1 X47.0951 Y-23.5483 Z0.2498
G1 X47.0951 Y-23.5722 Z0.2488
G1 X47.0951 Y-23.6080 Z0.2472
G1 X47.0951 Y-23.6200 Z0.2466
G1 X47.0951 Y-23.6439 Z0.2455
G1 X47.0951 Y-23.6798 Z0.2436
G1 X47.0951 Y-23.7156 Z0.2416
G1 X47.0951 Y-23.7395 Z0.2401
G1 X47.0951 Y-23.7515 Z0.2394
G1 X47.0951 Y-23.7634 Z0.2386
G1 X47.0951 Y-23.7874 Z0.2371
G1 X47.0951 Y-23.8113 Z0.2355
G1 X47.0951 Y-23.8352 Z0.2339
G1 X47.0951 Y-23.8471 Z0.2330
G1 X47.0951 Y-23.8591 Z0.2321
G1 X47.0951 Y-23.8830 Z0.2304
G1 X47.0951 Y-23.9189 Z0.2276
G1 X47.0951 Y-23.9547 Z0.2246
G1 X47.0951 Y-23.9786 Z0.2226
G1 X47.0951 Y-23.9906 Z0.2216
G1 X47.0951 Y-24.0025 Z0.2205
G1 X47.0951 Y-24.0264 Z0.2184
G1 X47.0951 Y-24.0504 Z0.2162
G1 X47.0951 Y-24.0743 Z0.2139
G1 X47.0951 Y-24.0862 Z0.2128
G1 X47.0951 Y-24.0982 Z0.2116
G1 X47.0951 Y-24.1221 Z0.2092
G1 X47.0951 Y-24.1523 Z0.2061
G1 X47.0951 Y-24.1824 Z0.2029
G1 X47.0951 Y-24.1975 Z0.2013
G1 X47.0951 Y-24.2126 Z0.1996
G1 X47.0951 Y-24.2277 Z0.1979
G1 X47.0951 Y-24.2579 Z0.1945
G1 X47.0951 Y-24.2880 Z0.1909
G1 X47.0951 Y-24.3031 Z0.1891
G1 X47.0951 Y-24.3333 Z0.1854
G1 X47.0951 Y-24.3635 Z0.1816
G1 X47.0951 Y-24.3687 Z0.1813
G1 X47.0951 Y-24.3740 Z0.1814
G1 X47.0951 Y-24.3793 Z0.1822
G1 X47.0951 Y-24.3844 Z0.1835
G1 X47.0951 Y-24.3894 Z0.1853
G1 X47.0951 Y-24.3941 Z0.1876
G1 X47.0951 Y-24.3986 Z0.1905
G1 X47.0951 Y-24.4028 Z0.1938
G1 X47.0951 Y-24.4065 Z0.1975
G1 X47.0951 Y-24.4099 Z0.2016
G1 X47.0951 Y-24.4128 Z0.2060
G1 X47.0951 Y-24.4152 Z0.2107
G1 X47.0951 Y-24.4172 Z0.2156
G1 X47.0951 Y-24.4186 Z0.2207
G1 X47.0951 Y-24.4194 Z0.2260
G1 X47.0951 Y-24.4197 Z0.2313
G0 Z0.3576
G0 X47.0951 Y-24.4197 
G0 Z0.3576
G0 X46.9301 Y-22.8744 
G1 X46.9301 Y-22.8749 Z0.3477 F25.
G1 X46.9301 Y-22.8764 Z0.3380
G1 X46.9301 Y-22.8787 Z0.3285
G1 X46.9301 Y-22.8820 Z0.3193
G1 X46.9301 Y-22.8862 Z0.3104
G1 X46.9301 Y-22.8913 Z0.3020
G1 X46.9301 Y-22.8971 Z0.2941
G1 X46.9301 Y-22.9037 Z0.2868
G1 X46.9301 Y-22.9110 Z0.2802
G1 X46.9301 Y-22.9189 Z0.2744
G1 X46.9301 Y-22.9273 Z0.2694
G1 X46.9301 Y-22.9362 Z0.2652
G1 X46.9301 Y-22.9454 Z0.2619
G1 X46.9301 Y-22.9549 Z0.2595
G1 X46.9301 Y-22.9646 Z0.2580
G1 X46.9301 Y-22.9744 Z0.2576
G1 X46.9301 Y-23.1657 Z0.2575 F50.
G1 X46.9301 Y-23.1896 Z0.2575
G1 X46.9301 Y-23.2016 Z0.2575
G1 X46.9301 Y-23.2135 Z0.2574
G1 X46.9301 Y-23.2374 Z0.2573
G1 X46.9301 Y-23.2613 Z0.2570
G1 X46.9301 Y-23.2853 Z0.2568
G1 X46.9301 Y-23.2972 Z0.2566
G1 X46.9301 Y-23.3092 Z0.2564
G1 X46.9301 Y-23.3331 Z0.2561
G1 X46.9301 Y-23.3689 Z0.2553
G1 X46.9301 Y-23.4048 Z0.2545
G1 X46.9301 Y-23.4407 Z0.2535
G1 X46.9301 Y-23.4765 Z0.2524
G1 X46.9301 Y-23.5004 Z0.2516
G1 X46.9301 Y-23.5124 Z0.2512
G1 X46.9301 Y-23.5243 Z0.2507
G1 X46.9301 Y-23.5483 Z0.2498
G1 X46.9301 Y-23.5722 Z0.2488
G1 X46.9301 Y-23.6080 Z0.2472
G1 X46.9301 Y-23.6200 Z0.2466
G1 X46.9301 Y-23.6439 Z0.2455
G1 X46.9301 Y-23.6798 Z0.2436
G1 X46.9301 Y-23.7156 Z0.2416
G1 X46.9301 Y-23.7395 Z0.2401
G1 X46.9301 Y-23.7515 Z0.2394
G1 X46.9301 Y-23.7634 Z0.2386
G1 X46.9301 Y-23.7874 Z0.2371
G1 X46.9301 Y-23.8113 Z0.2355
G1 X46.9301 Y-23.8352 Z0.2339
G1 X46.9301 Y-23.8471 Z0.2330
G1 X46.9301 Y-23.8591 Z0.2321
G1 X46.9301 Y-23.8830 Z0.2304
G1 X46.9301 Y-23.9189 Z0.2276
G1 X46.9301 Y-23.9547 Z0.2246
G1 X46.9301 Y-23.9786 Z0.2226
G1 X46.9301 Y-23.9906 Z0.2216
G1 X46.9301 Y-24.0025 Z0.2205
G1 X46.9301 Y-24.0264 Z0.2184
G1 X46.9301 Y-24.0504 Z0.2162
G1 X46.9301 Y-24.0743 Z0.2139
G1 X46.9301 Y-24.0862 Z0.2128
G1 X46.9301 Y-24.0982 Z0.2116
G1 X46.9301 Y-24.1221 Z0.2092
G1 X46.9301 Y-24.1524 Z0.2061
G1 X46.9301 Y-24.1904 Z0.2020
G1 X46.9301 Y-24.2132 Z0.1995
G1 X46.9301 Y-24.2284 Z0.1978
G1 X46.9301 Y-24.2587 Z0.1944
G1 X46.9301 Y-24.2891 Z0.1908
G1 X46.9301 Y-24.3043 Z0.1890
G1 X46.9301 Y-24.3270 Z0.1862
G1 X46.9301 Y-24.3650 Z0.1814
G1 X46.9301 Y-24.3703 Z0.1811
G1 X46.9301 Y-24.3756 Z0.1812
G1 X46.9301 Y-24.3808 Z0.1820
G1 X46.9301 Y-24.3859 Z0.1833
G1 X46.9301 Y-24.3909 Z0.1851
G1 X46.9301 Y-24.3957 Z0.1874
G1 X46.9301 Y-24.4001 Z0.1903
G1 X46.9301 Y-24.4043 Z0.1936
G1 X46.9301 Y-24.4081 Z0.1973
G1 X46.9301 Y-24.4114 Z0.2014
G1 X46.9301 Y-24.4143 Z0.2058
G1 X46.9301 Y-24.4168 Z0.2105
G1 X46.9301 Y-24.4187 Z0.2154
G1 X46.9301 Y-24.4201 Z0.2205
G1 X46.9301 Y-24.4209 Z0.2258
G1 X46.9301 Y-24.4212 Z0.2311
G0 Z0.3576
G0 X46.9301 Y-24.4212 
G0 Z0.3576
G0 X46.7651 Y-22.8744 
G1 X46.7651 Y-22.8749 Z0.3477 F25.
G1 X46.7651 Y-22.8764 Z0.3380
G1 X46.7651 Y-22.8787 Z0.3285
G1 X46.7651 Y-22.8820 Z0.3193
G1 X46.7651 Y-22.8862 Z0.3104
G1 X46.7651 Y-22.8913 Z0.3020
G1 X46.7651 Y-22.8971 Z0.2941
G1 X46.7651 Y-22.9037 Z0.2868
G1 X46.7651 Y-22.9110 Z0.2802
G1 X46.7651 Y-22.9189 Z0.2744
G1 X46.7651 Y-22.9273 Z0.2694
G1 X46.7651 Y-22.9362 Z0.2652
G1 X46.7651 Y-22.9454 Z0.2619
G1 X46.7651 Y-22.9549 Z0.2595
G1 X46.7651 Y-22.9646 Z0.2580
G1 X46.7651 Y-22.9744 Z0.2576
G1 X46.7651 Y-23.1657 Z0.2575 F50.
G1 X46.7651 Y-23.1896 Z0.2575
G1 X46.7651 Y-23.2016 Z0.2575
G1 X46.7651 Y-23.2135 Z0.2574
G1 X46.7651 Y-23.2374 Z0.2573
G1 X46.7651 Y-23.2613 Z0.2570
G1 X46.7651 Y-23.2853 Z0.2568
G1 X46.7651 Y-23.2972 Z0.2566
G1 X46.7651 Y-23.3092 Z0.2564
G1 X46.7651 Y-23.3331 Z0.2561
G1 X46.7651 Y-23.3689 Z0.2553
G1 X46.7651 Y-23.4048 Z0.2545
G1 X46.7651 Y-23.4407 Z0.2535
G1 X46.7651 Y-23.4765 Z0.2524
G1 X46.7651 Y-23.5004 Z0.2516
G1 X46.7651 Y-23.5124 Z0.2512
G1 X46.7651 Y-23.5243 Z0.2507
G1 X46.7651 Y-23.5483 Z0.2498
G1 X46.7651 Y-23.5722 Z0.2488
G1 X46.7651 Y-23.6080 Z0.2472
G1 X46.7651 Y-23.6200 Z0.2466
G1 X46.7651 Y-23.6439 Z0.2455
G1 X46.7651 Y-23.6798 Z0.2436
G1 X46.7651 Y-23.7156 Z0.2416
G1 X46.7651 Y-23.7395 Z0.2401
G1 X46.7651 Y-23.7515 Z0.2394
G1 X46.7651 Y-23.7634 Z0.2386
G1 X46.7651 Y-23.7874 Z0.2371
G1 X46.7651 Y-23.8113 Z0.2355
G1 X46.7651 Y-23.8352 Z0.2339
G1 X46.7651 Y-23.8471 Z0.2330
G1 X46.7651 Y-23.8591 Z0.2321
G1 X46.7651 Y-23.8830 Z0.2304
G1 X46.7651 Y-23.9189 Z0.2276
G1 X46.7651 Y-23.9547 Z0.2246
G1 X46.7651 Y-23.9786 Z0.2226
G1 X46.7651 Y-23.9906 Z0.2216
G1 X46.7651 Y-24.0025 Z0.2205
G1 X46.7651 Y-24.0264 Z0.2184
G1 X46.7651 Y-24.0504 Z0.2162
G1 X46.7651 Y-24.0743 Z0.2139
G1 X46.7651 Y-24.0862 Z0.2128
G1 X46.7651 Y-24.0982 Z0.2116
G1 X46.7651 Y-24.1221 Z0.2092
G1 X46.7651 Y-24.1526 Z0.2061
G1 X46.7651 Y-24.1908 Z0.2020
G1 X46.7651 Y-24.2137 Z0.1995
G1 X46.7651 Y-24.2290 Z0.1978
G1 X46.7651 Y-24.2596 Z0.1943
G1 X46.7651 Y-24.2901 Z0.1907
G1 X46.7651 Y-24.3207 Z0.1870
G1 X46.7651 Y-24.3360 Z0.1851
G1 X46.7651 Y-24.3665 Z0.1813
G1 X46.7651 Y-24.3718 Z0.1809
G1 X46.7651 Y-24.3771 Z0.1811
G1 X46.7651 Y-24.3823 Z0.1818
G1 X46.7651 Y-24.3875 Z0.1831
G1 X46.7651 Y-24.3924 Z0.1849
G1 X46.7651 Y-24.3972 Z0.1872
G1 X46.7651 Y-24.4017 Z0.1901
G1 X46.7651 Y-24.4058 Z0.1934
G1 X46.7651 Y-24.4096 Z0.1971
G1 X46.7651 Y-24.4130 Z0.2012
G1 X46.7651 Y-24.4159 Z0.2056
G1 X46.7651 Y-24.4183 Z0.2103
G1 X46.7651 Y-24.4202 Z0.2152
G1 X46.7651 Y-24.4216 Z0.2203
G1 X46.7651 Y-24.4225 Z0.2256
G1 X46.7651 Y-24.4227 Z0.2309
G0 Z0.3576
G0 X46.7651 Y-24.4227 
G0 Z0.3576
G0 X46.6001 Y-22.8744 
G1 X46.6001 Y-22.8749 Z0.3477 F25.
G1 X46.6001 Y-22.8764 Z0.3380
G1 X46.6001 Y-22.8787 Z0.3285
G1 X46.6001 Y-22.8820 Z0.3193
G1 X46.6001 Y-22.8862 Z0.3104
G1 X46.6001 Y-22.8913 Z0.3020
G1 X46.6001 Y-22.8971 Z0.2941
G1 X46.6001 Y-22.9037 Z0.2868
G1 X46.6001 Y-22.9110 Z0.2802
G1 X46.6001 Y-22.9189 Z0.2744
G1 X46.6001 Y-22.9273 Z0.2694
G1 X46.6001 Y-22.9362 Z0.2652
G1 X46.6001 Y-22.9454 Z0.2619
G1 X46.6001 Y-22.9549 Z0.2595
G1 X46.6001 Y-22.9646 Z0.2580
G1 X46.6001 Y-22.9744 Z0.2576
G1 X46.6001 Y-23.1657 Z0.2575 F50.
G1 X46.6001 Y-23.1896 Z0.2575
G1 X46.6001 Y-23.2016 Z0.2575
G1 X46.6001 Y-23.2135 Z0.2574
G1 X46.6001 Y-23.2374 Z0.2573
G1 X46.6001 Y-23.2613 Z0.2570
G1 X46.6001 Y-23.2853 Z0.2568
G1 X46.6001 Y-23.2972 Z0.2566
G1 X46.6001 Y-23.3092 Z0.2564
G1 X46.6001 Y-23.3331 Z0.2561
G1 X46.6001 Y-23.3689 Z0.2553
G1 X46.6001 Y-23.4048 Z0.2545
G1 X46.6001 Y-23.4407 Z0.2535
G1 X46.6001 Y-23.4765 Z0.2524
G1 X46.6001 Y-23.5004 Z0.2516
G1 X46.6001 Y-23.5124 Z0.2512
G1 X46.6001 Y-23.5243 Z0.2507
G1 X46.6001 Y-23.5483 Z0.2498
G1 X46.6001 Y-23.5722 Z0.2488
G1 X46.6001 Y-23.6080 Z0.2472
G1 X46.6001 Y-23.6200 Z0.2466
G1 X46.6001 Y-23.6439 Z0.2455
G1 X46.6001 Y-23.6798 Z0.2436
G1 X46.6001 Y-23.7156 Z0.2416
G1 X46.6001 Y-23.7395 Z0.2401
G1 X46.6001 Y-23.7515 Z0.2394
G1 X46.6001 Y-23.7634 Z0.2386
G1 X46.6001 Y-23.7874 Z0.2371
G1 X46.6001 Y-23.8113 Z0.2355
G1 X46.6001 Y-23.8352 Z0.2339
G1 X46.6001 Y-23.8471 Z0.2330
G1 X46.6001 Y-23.8591 Z0.2321
G1 X46.6001 Y-23.8830 Z0.2304
G1 X46.6001 Y-23.9189 Z0.2276
G1 X46.6001 Y-23.9547 Z0.2246
G1 X46.6001 Y-23.9786 Z0.2226
G1 X46.6001 Y-23.9906 Z0.2216
G1 X46.6001 Y-24.0025 Z0.2205
G1 X46.6001 Y-24.0264 Z0.2184
G1 X46.6001 Y-24.0504 Z0.2162
G1 X46.6001 Y-24.0743 Z0.2139
G1 X46.6001 Y-24.0862 Z0.2128
G1 X46.6001 Y-24.0982 Z0.2116
G1 X46.6001 Y-24.1221 Z0.2092
G1 X46.6001 Y-24.1528 Z0.2060
G1 X46.6001 Y-24.1913 Z0.2019
G1 X46.6001 Y-24.2143 Z0.1994
G1 X46.6001 Y-24.2297 Z0.1977
G1 X46.6001 Y-24.2604 Z0.1942
G1 X46.6001 Y-24.2912 Z0.1906
G1 X46.6001 Y-24.3219 Z0.1868
G1 X46.6001 Y-24.3373 Z0.1849
G1 X46.6001 Y-24.3603 Z0.1820
G1 X46.6001 Y-24.3680 Z0.1811
G1 X46.6001 Y-24.3733 Z0.1807
G1 X46.6001 Y-24.3786 Z0.1808
G1 X46.6001 Y-24.3839 Z0.1816
G1 X46.6001 Y-24.3890 Z0.1828
G1 X46.6001 Y-24.3940 Z0.1847
G1 X46.6001 Y-24.3988 Z0.1870
G1 X46.6001 Y-24.4033 Z0.1898
G1 X46.6001 Y-24.4074 Z0.1931
G1 X46.6001 Y-24.4112 Z0.1968
G1 X46.6001 Y-24.4146 Z0.2009
G1 X46.6001 Y-24.4175 Z0.2053
G1 X46.6001 Y-24.4200 Z0.2100
G1 X46.6001 Y-24.4219 Z0.2150
G1 X46.6001 Y-24.4233 Z0.2201
G1 X46.6001 Y-24.4241 Z0.2253
G1 X46.6001 Y-24.4244 Z0.2306
G0 Z0.3576
G0 X46.6001 Y-24.4244 
G0 Z0.3576
G0 X46.4351 Y-22.8744 
G1 X46.4351 Y-22.8749 Z0.3477 F25.
G1 X46.4351 Y-22.8764 Z0.3380
G1 X46.4351 Y-22.8787 Z0.3285
G1 X46.4351 Y-22.8820 Z0.3193
G1 X46.4351 Y-22.8862 Z0.3104
G1 X46.4351 Y-22.8913 Z0.3020
G1 X46.4351 Y-22.8971 Z0.2941
G1 X46.4351 Y-22.9037 Z0.2868
G1 X46.4351 Y-22.9110 Z0.2802
G1 X46.4351 Y-22.9189 Z0.2744
G1 X46.4351 Y-22.9273 Z0.2694
G1 X46.4351 Y-22.9362 Z0.2652
G1 X46.4351 Y-22.9454 Z0.2619
G1 X46.4351 Y-22.9549 Z0.2595
G1 X46.4351 Y-22.9646 Z0.2580
G1 X46.4351 Y-22.9744 Z0.2576
G1 X46.4351 Y-23.1657 Z0.2575 F50.
G1 X46.4351 Y-23.1896 Z0.2575
G1 X46.4351 Y-23.2016 Z0.2575
G1 X46.4351 Y-23.2135 Z0.2574
G1 X46.4351 Y-23.2374 Z0.2573
G1 X46.4351 Y-23.2613 Z0.2570
G1 X46.4351 Y-23.2853 Z0.2568
G1 X46.4351 Y-23.2972 Z0.2566
G1 X46.4351 Y-23.3092 Z0.2564
G1 X46.4351 Y-23.3331 Z0.2561
G1 X46.4351 Y-23.3689 Z0.2553
G1 X46.4351 Y-23.4048 Z0.2545
G1 X46.4351 Y-23.4407 Z0.2535
G1 X46.4351 Y-23.4765 Z0.2524
G1 X46.4351 Y-23.5004 Z0.2516
G1 X46.4351 Y-23.5124 Z0.2512
G1 X46.4351 Y-23.5243 Z0.2507
G1 X46.4351 Y-23.5483 Z0.2498
G1 X46.4351 Y-23.5722 Z0.2488
G1 X46.4351 Y-23.6080 Z0.2472
G1 X46.4351 Y-23.6200 Z0.2466
G1 X46.4351 Y-23.6439 Z0.2455
G1 X46.4351 Y-23.6798 Z0.2436
G1 X46.4351 Y-23.7156 Z0.2416
G1 X46.4351 Y-23.7395 Z0.2401
G1 X46.4351 Y-23.7515 Z0.2394
G1 X46.4351 Y-23.7634 Z0.2386
G1 X46.4351 Y-23.7874 Z0.2371
G1 X46.4351 Y-23.8113 Z0.2355
G1 X46.4351 Y-23.8352 Z0.2339
G1 X46.4351 Y-23.8471 Z0.2330
G1 X46.4351 Y-23.8591 Z0.2321
G1 X46.4351 Y-23.8830 Z0.2304
G1 X46.4351 Y-23.9189 Z0.2276
G1 X46.4351 Y-23.9547 Z0.2246
G1 X46.4351 Y-23.9786 Z0.2226
G1 X46.4351 Y-23.9906 Z0.2216
G1 X46.4351 Y-24.0025 Z0.2205
G1 X46.4351 Y-24.0264 Z0.2184
G1 X46.4351 Y-24.0504 Z0.2162
G1 X46.4351 Y-24.0743 Z0.2139
G1 X46.4351 Y-24.0862 Z0.2128
G1 X46.4351 Y-24.0982 Z0.2116
G1 X46.4351 Y-24.1221 Z0.2092
G1 X46.4351 Y-24.1530 Z0.2060
G1 X46.4351 Y-24.1839 Z0.2027
G1 X46.4351 Y-24.2149 Z0.1993
G1 X46.4351 Y-24.2303 Z0.1976
G1 X46.4351 Y-24.2613 Z0.1941
G1 X46.4351 Y-24.2922 Z0.1904
G1 X46.4351 Y-24.3231 Z0.1867
G1 X46.4351 Y-24.3386 Z0.1848
G1 X46.4351 Y-24.3541 Z0.1828
G1 X46.4351 Y-24.3695 Z0.1809
G1 X46.4351 Y-24.3748 Z0.1805
G1 X46.4351 Y-24.3801 Z0.1806
G1 X46.4351 Y-24.3854 Z0.1814
G1 X46.4351 Y-24.3905 Z0.1827
G1 X46.4351 Y-24.3955 Z0.1845
G1 X46.4351 Y-24.4003 Z0.1868
G1 X46.4351 Y-24.4047 Z0.1897
G1 X46.4351 Y-24.4089 Z0.1929
G1 X46.4351 Y-24.4127 Z0.1967
G1 X46.4351 Y-24.4161 Z0.2007
G1 X46.4351 Y-24.4190 Z0.2052
G1 X46.4351 Y-24.4214 Z0.2099
G1 X46.4351 Y-24.4233 Z0.2148
G1 X46.4351 Y-24.4247 Z0.2199
G1 X46.4351 Y-24.4256 Z0.2252
G1 X46.4351 Y-24.4259 Z0.2305
G0 Z0.3576
G0 X46.4351 Y-24.4259 
G0 Z0.3576
G0 X46.2701 Y-22.8744 
G1 X46.2701 Y-22.8749 Z0.3477 F25.
G1 X46.2701 Y-22.8764 Z0.3380
G1 X46.2701 Y-22.8787 Z0.3285
G1 X46.2701 Y-22.8820 Z0.3193
G1 X46.2701 Y-22.8862 Z0.3104
G1 X46.2701 Y-22.8913 Z0.3020
G1 X46.2701 Y-22.8971 Z0.2941
G1 X46.2701 Y-22.9037 Z0.2868
G1 X46.2701 Y-22.9110 Z0.2802
G1 X46.2701 Y-22.9189 Z0.2744
G1 X46.2701 Y-22.9273 Z0.2694
G1 X46.2701 Y-22.9362 Z0.2652
G1 X46.2701 Y-22.9454 Z0.2619
G1 X46.2701 Y-22.9549 Z0.2595
G1 X46.2701 Y-22.9646 Z0.2580
G1 X46.2701 Y-22.9744 Z0.2576
G1 X46.2701 Y-23.1657 Z0.2575 F50.
G1 X46.2701 Y-23.1896 Z0.2575
G1 X46.2701 Y-23.2016 Z0.2575
G1 X46.2701 Y-23.2135 Z0.2574
G1 X46.2701 Y-23.2374 Z0.2573
G1 X46.2701 Y-23.2613 Z0.2570
G1 X46.2701 Y-23.2853 Z0.2568
G1 X46.2701 Y-23.2972 Z0.2566
G1 X46.2701 Y-23.3092 Z0.2564
G1 X46.2701 Y-23.3331 Z0.2561
G1 X46.2701 Y-23.3689 Z0.2553
G1 X46.2701 Y-23.4048 Z0.2545
G1 X46.2701 Y-23.4407 Z0.2535
G1 X46.2701 Y-23.4765 Z0.2524
G1 X46.2701 Y-23.5004 Z0.2516
G1 X46.2701 Y-23.5124 Z0.2512
G1 X46.2701 Y-23.5243 Z0.2507
G1 X46.2701 Y-23.5483 Z0.2498
G1 X46.2701 Y-23.5722 Z0.2488
G1 X46.2701 Y-23.6080 Z0.2472
G1 X46.2701 Y-23.6200 Z0.2466
G1 X46.2701 Y-23.6439 Z0.2455
G1 X46.2701 Y-23.6798 Z0.2436
G1 X46.2701 Y-23.7156 Z0.2416
G1 X46.2701 Y-23.7395 Z0.2401
G1 X46.2701 Y-23.7515 Z0.2394
G1 X46.2701 Y-23.7634 Z0.2386
G1 X46.2701 Y-23.7874 Z0.2371
G1 X46.2701 Y-23.8113 Z0.2355
G1 X46.2701 Y-23.8352 Z0.2339
G1 X46.2701 Y-23.8471 Z0.2330
G1 X46.2701 Y-23.8591 Z0.2321
G1 X46.2701 Y-23.8830 Z0.2304
G1 X46.2701 Y-23.9189 Z0.2276
G1 X46.2701 Y-23.9547 Z0.2246
G1 X46.2701 Y-23.9786 Z0.2226
G1 X46.2701 Y-23.9906 Z0.2216
G1 X46.2701 Y-24.0025 Z0.2205
G1 X46.2701 Y-24.0264 Z0.2184
G1 X46.2701 Y-24.0504 Z0.2162
G1 X46.2701 Y-24.0743 Z0.2139
G1 X46.2701 Y-24.0862 Z0.2128
G1 X46.2701 Y-24.0982 Z0.2116
G1 X46.2701 Y-24.1221 Z0.2092
G1 X46.2701 Y-24.1532 Z0.2060
G1 X46.2701 Y-24.1843 Z0.2027
G1 X46.2701 Y-24.2155 Z0.1993
G1 X46.2701 Y-24.2310 Z0.1975
G1 X46.2701 Y-24.2466 Z0.1958
G1 X46.2701 Y-24.2621 Z0.1940
G1 X46.2701 Y-24.2933 Z0.1903
G1 X46.2701 Y-24.3244 Z0.1865
G1 X46.2701 Y-24.3555 Z0.1826
G1 X46.2701 Y-24.3711 Z0.1807
G1 X46.2701 Y-24.3764 Z0.1803
G1 X46.2701 Y-24.3817 Z0.1804
G1 X46.2701 Y-24.3869 Z0.1812
G1 X46.2701 Y-24.3921 Z0.1825
G1 X46.2701 Y-24.3970 Z0.1843
G1 X46.2701 Y-24.4018 Z0.1866
G1 X46.2701 Y-24.4063 Z0.1895
G1 X46.2701 Y-24.4104 Z0.1927
G1 X46.2701 Y-24.4142 Z0.1964
G1 X46.2701 Y-24.4176 Z0.2005
G1 X46.2701 Y-24.4205 Z0.2050
G1 X46.2701 Y-24.4230 Z0.2097
G1 X46.2701 Y-24.4249 Z0.2146
G1 X46.2701 Y-24.4263 Z0.2197
G1 X46.2701 Y-24.4271 Z0.2250
G1 X46.2701 Y-24.4274 Z0.2303
G0 Z0.3576
G0 X46.2701 Y-24.4274 
G0 Z0.3576
G0 X46.1051 Y-22.8744 
G1 X46.1051 Y-22.8749 Z0.3477 F25.
G1 X46.1051 Y-22.8764 Z0.3380
G1 X46.1051 Y-22.8787 Z0.3285
G1 X46.1051 Y-22.8820 Z0.3193
G1 X46.1051 Y-22.8862 Z0.3104
G1 X46.1051 Y-22.8913 Z0.3020
G1 X46.1051 Y-22.8971 Z0.2941
G1 X46.1051 Y-22.9037 Z0.2868
G1 X46.1051 Y-22.9110 Z0.2802
G1 X46.1051 Y-22.9189 Z0.2744
G1 X46.1051 Y-22.9273 Z0.2694
G1 X46.1051 Y-22.9362 Z0.2652
G1 X46.1051 Y-22.9454 Z0.2619
G1 X46.1051 Y-22.9549 Z0.2595
G1 X46.1051 Y-22.9646 Z0.2580
G1 X46.1051 Y-22.9744 Z0.2576
G1 X46.1051 Y-23.1657 Z0.2575 F50.
G1 X46.1051 Y-23.1896 Z0.2575
G1 X46.1051 Y-23.2016 Z0.2575
G1 X46.1051 Y-23.2135 Z0.2574
G1 X46.1051 Y-23.2374 Z0.2573
G1 X46.1051 Y-23.2613 Z0.2570
G1 X46.1051 Y-23.2853 Z0.2568
G1 X46.1051 Y-23.2972 Z0.2566
G1 X46.1051 Y-23.3092 Z0.2564
G1 X46.1051 Y-23.3331 Z0.2561
G1 X46.1051 Y-23.3689 Z0.2553
G1 X46.1051 Y-23.4048 Z0.2545
G1 X46.1051 Y-23.4407 Z0.2535
G1 X46.1051 Y-23.4765 Z0.2524
G1 X46.1051 Y-23.5004 Z0.2516
G1 X46.1051 Y-23.5124 Z0.2512
G1 X46.1051 Y-23.5243 Z0.2507
G1 X46.1051 Y-23.5483 Z0.2498
G1 X46.1051 Y-23.5722 Z0.2488
G1 X46.1051 Y-23.6080 Z0.2472
G1 X46.1051 Y-23.6200 Z0.2466
G1 X46.1051 Y-23.6439 Z0.2455
G1 X46.1051 Y-23.6798 Z0.2436
G1 X46.1051 Y-23.7156 Z0.2416
G1 X46.1051 Y-23.7395 Z0.2401
G1 X46.1051 Y-23.7515 Z0.2394
G1 X46.1051 Y-23.7634 Z0.2386
G1 X46.1051 Y-23.7874 Z0.2371
G1 X46.1051 Y-23.8113 Z0.2355
G1 X46.1051 Y-23.8352 Z0.2339
G1 X46.1051 Y-23.8471 Z0.2330
G1 X46.1051 Y-23.8591 Z0.2321
G1 X46.1051 Y-23.8830 Z0.2304
G1 X46.1051 Y-23.9189 Z0.2276
G1 X46.1051 Y-23.9547 Z0.2246
G1 X46.1051 Y-23.9786 Z0.2226
G1 X46.1051 Y-23.9906 Z0.2216
G1 X46.1051 Y-24.0025 Z0.2205
G1 X46.1051 Y-24.0264 Z0.2184
G1 X46.1051 Y-24.0504 Z0.2162
G1 X46.1051 Y-24.0743 Z0.2139
G1 X46.1051 Y-24.0862 Z0.2128
G1 X46.1051 Y-24.0982 Z0.2116
G1 X46.1051 Y-24.1221 Z0.2092
G1 X46.1051 Y-24.1534 Z0.2060
G1 X46.1051 Y-24.1847 Z0.2026
G1 X46.1051 Y-24.2239 Z0.1983
G1 X46.1051 Y-24.2473 Z0.1957
G1 X46.1051 Y-24.2630 Z0.1939
G1 X46.1051 Y-24.2943 Z0.1902
G1 X46.1051 Y-24.3256 Z0.1864
G1 X46.1051 Y-24.3569 Z0.1825
G1 X46.1051 Y-24.3726 Z0.1805
G1 X46.1051 Y-24.3779 Z0.1801
G1 X46.1051 Y-24.3832 Z0.1802
G1 X46.1051 Y-24.3884 Z0.1810
G1 X46.1051 Y-24.3936 Z0.1823
G1 X46.1051 Y-24.3986 Z0.1841
G1 X46.1051 Y-24.4033 Z0.1864
G1 X46.1051 Y-24.4078 Z0.1892
G1 X46.1051 Y-24.4120 Z0.1925
G1 X46.1051 Y-24.4158 Z0.1962
G1 X46.1051 Y-24.4191 Z0.2003
G1 X46.1051 Y-24.4221 Z0.2048
G1 X46.1051 Y-24.4245 Z0.2095
G1 X46.1051 Y-24.4264 Z0.2144
G1 X46.1051 Y-24.4278 Z0.2195
G1 X46.1051 Y-24.4287 Z0.2248
G1 X46.1051 Y-24.4289 Z0.2301
G0 Z0.3576
G0 X46.1051 Y-24.4289 
G0 Z0.3576
G0 X45.9401 Y-22.8744 
G1 X45.9401 Y-22.8749 Z0.3477 F25.
G1 X45.9401 Y-22.8764 Z0.3380
G1 X45.9401 Y-22.8787 Z0.3285
G1 X45.9401 Y-22.8820 Z0.3193
G1 X45.9401 Y-22.8862 Z0.3104
G1 X45.9401 Y-22.8913 Z0.3020
G1 X45.9401 Y-22.8971 Z0.2941
G1 X45.9401 Y-22.9037 Z0.2868
G1 X45.9401 Y-22.9110 Z0.2802
G1 X45.9401 Y-22.9189 Z0.2744
G1 X45.9401 Y-22.9273 Z0.2694
G1 X45.9401 Y-22.9362 Z0.2652
G1 X45.9401 Y-22.9454 Z0.2619
G1 X45.9401 Y-22.9549 Z0.2595
G1 X45.9401 Y-22.9646 Z0.2580
G1 X45.9401 Y-22.9744 Z0.2576
G1 X45.9401 Y-23.1657 Z0.2575 F50.
G1 X45.9401 Y-23.1896 Z0.2575
G1 X45.9401 Y-23.2016 Z0.2575
G1 X45.9401 Y-23.2135 Z0.2574
G1 X45.9401 Y-23.2374 Z0.2573
G1 X45.9401 Y-23.2613 Z0.2570
G1 X45.9401 Y-23.2853 Z0.2568
G1 X45.9401 Y-23.2972 Z0.2566
G1 X45.9401 Y-23.3092 Z0.2564
G1 X45.9401 Y-23.3331 Z0.2561
G1 X45.9401 Y-23.3689 Z0.2553
G1 X45.9401 Y-23.4048 Z0.2545
G1 X45.9401 Y-23.4407 Z0.2535
G1 X45.9401 Y-23.4765 Z0.2524
G1 X45.9401 Y-23.5004 Z0.2516
G1 X45.9401 Y-23.5124 Z0.2512
G1 X45.9401 Y-23.5243 Z0.2507
G1 X45.9401 Y-23.5483 Z0.2498
G1 X45.9401 Y-23.5722 Z0.2488
G1 X45.9401 Y-23.6080 Z0.2472
G1 X45.9401 Y-23.6200 Z0.2466
G1 X45.9401 Y-23.6439 Z0.2455
G1 X45.9401 Y-23.6798 Z0.2436
G1 X45.9401 Y-23.7156 Z0.2416
G1 X45.9401 Y-23.7395 Z0.2401
G1 X45.9401 Y-23.7515 Z0.2394
G1 X45.9401 Y-23.7634 Z0.2386
G1 X45.9401 Y-23.7874 Z0.2371
G1 X45.9401 Y-23.8113 Z0.2355
G1 X45.9401 Y-23.8352 Z0.2339
G1 X45.9401 Y-23.8471 Z0.2330
G1 X45.9401 Y-23.8591 Z0.2321
G1 X45.9401 Y-23.8830 Z0.2304
G1 X45.9401 Y-23.9189 Z0.2276
G1 X45.9401 Y-23.9547 Z0.2246
G1 X45.9401 Y-23.9786 Z0.2226
G1 X45.9401 Y-23.9906 Z0.2216
G1 X45.9401 Y-24.0025 Z0.2205
G1 X45.9401 Y-24.0264 Z0.2184
G1 X45.9401 Y-24.0504 Z0.2162
G1 X45.9401 Y-24.0743 Z0.2139
G1 X45.9401 Y-24.0862 Z0.2128
G1 X45.9401 Y-24.0982 Z0.2116
G1 X45.9401 Y-24.1221 Z0.2092
G1 X45.9401 Y-24.1536 Z0.2060
G1 X45.9401 Y-24.1851 Z0.2026
G1 X45.9401 Y-24.2245 Z0.1983
G1 X45.9401 Y-24.2481 Z0.1956
G1 X45.9401 Y-24.2639 Z0.1938
G1 X45.9401 Y-24.2954 Z0.1901
G1 X45.9401 Y-24.3269 Z0.1862
G1 X45.9401 Y-24.3584 Z0.1823
G1 X45.9401 Y-24.3741 Z0.1803
G1 X45.9401 Y-24.3794 Z0.1799
G1 X45.9401 Y-24.3847 Z0.1800
G1 X45.9401 Y-24.3900 Z0.1808
G1 X45.9401 Y-24.3951 Z0.1821
G1 X45.9401 Y-24.4001 Z0.1839
G1 X45.9401 Y-24.4049 Z0.1862
G1 X45.9401 Y-24.4093 Z0.1890
G1 X45.9401 Y-24.4135 Z0.1923
G1 X45.9401 Y-24.4173 Z0.1960
G1 X45.9401 Y-24.4207 Z0.2001
G1 X45.9401 Y-24.4236 Z0.2046
G1 X45.9401 Y-24.4260 Z0.2093
G1 X45.9401 Y-24.4280 Z0.2142
G1 X45.9401 Y-24.4294 Z0.2193
G1 X45.9401 Y-24.4302 Z0.2246
G1 X45.9401 Y-24.4305 Z0.2299
G0 Z0.3576
G0 X45.9401 Y-24.4305 
G0 Z0.3576
G0 X45.7751 Y-22.8744 
G1 X45.7751 Y-22.8749 Z0.3477 F25.
G1 X45.7751 Y-22.8764 Z0.3380
G1 X45.7751 Y-22.8787 Z0.3285
G1 X45.7751 Y-22.8820 Z0.3193
G1 X45.7751 Y-22.8862 Z0.3104
G1 X45.7751 Y-22.8913 Z0.3020
G1 X45.7751 Y-22.8971 Z0.2941
G1 X45.7751 Y-22.9037 Z0.2868
G1 X45.7751 Y-22.9110 Z0.2802
G1 X45.7751 Y-22.9189 Z0.2744
G1 X45.7751 Y-22.9273 Z0.2694
G1 X45.7751 Y-22.9362 Z0.2652
G1 X45.7751 Y-22.9454 Z0.2619
G1 X45.7751 Y-22.9549 Z0.2595
G1 X45.7751 Y-22.9646 Z0.2580
G1 X45.7751 Y-22.9744 Z0.2576
G1 X45.7751 Y-23.1657 Z0.2575 F50.
G1 X45.7751 Y-23.1896 Z0.2575
G1 X45.7751 Y-23.2016 Z0.2575
G1 X45.7751 Y-23.2135 Z0.2574
G1 X45.7751 Y-23.2374 Z0.2573
G1 X45.7751 Y-23.2613 Z0.2570
G1 X45.7751 Y-23.2853 Z0.2568
G1 X45.7751 Y-23.2972 Z0.2566
G1 X45.7751 Y-23.3092 Z0.2564
G1 X45.7751 Y-23.3331 Z0.2561
G1 X45.7751 Y-23.3689 Z0.2553
G1 X45.7751 Y-23.4048 Z0.2545
G1 X45.7751 Y-23.4407 Z0.2535
G1 X45.7751 Y-23.4765 Z0.2524
G1 X45.7751 Y-23.5004 Z0.2516
G1 X45.7751 Y-23.5124 Z0.2512
G1 X45.7751 Y-23.5243 Z0.2507
G1 X45.7751 Y-23.5483 Z0.2498
G1 X45.7751 Y-23.5722 Z0.2488
G1 X45.7751 Y-23.6080 Z0.2472
G1 X45.7751 Y-23.6200 Z0.2466
G1 X45.7751 Y-23.6439 Z0.2455
G1 X45.7751 Y-23.6798 Z0.2436
G1 X45.7751 Y-23.7156 Z0.2416
G1 X45.7751 Y-23.7395 Z0.2401
G1 X45.7751 Y-23.7515 Z0.2394
G1 X45.7751 Y-23.7634 Z0.2386
G1 X45.7751 Y-23.7874 Z0.2371
G1 X45.7751 Y-23.8113 Z0.2355
G1 X45.7751 Y-23.8352 Z0.2339
G1 X45.7751 Y-23.8471 Z0.2330
G1 X45.7751 Y-23.8591 Z0.2321
G1 X45.7751 Y-23.8830 Z0.2304
G1 X45.7751 Y-23.9189 Z0.2276
G1 X45.7751 Y-23.9547 Z0.2246
G1 X45.7751 Y-23.9786 Z0.2226
G1 X45.7751 Y-23.9906 Z0.2216
G1 X45.7751 Y-24.0025 Z0.2205
G1 X45.7751 Y-24.0264 Z0.2184
G1 X45.7751 Y-24.0504 Z0.2162
G1 X45.7751 Y-24.0743 Z0.2139
G1 X45.7751 Y-24.0862 Z0.2128
G1 X45.7751 Y-24.0982 Z0.2116
G1 X45.7751 Y-24.1221 Z0.2092
G1 X45.7751 Y-24.1538 Z0.2059
G1 X45.7751 Y-24.1855 Z0.2026
G1 X45.7751 Y-24.2251 Z0.1982
G1 X45.7751 Y-24.2489 Z0.1955
G1 X45.7751 Y-24.2647 Z0.1937
G1 X45.7751 Y-24.2806 Z0.1918
G1 X45.7751 Y-24.2964 Z0.1899
G1 X45.7751 Y-24.3281 Z0.1861
G1 X45.7751 Y-24.3598 Z0.1821
G1 X45.7751 Y-24.3756 Z0.1801
G1 X45.7751 Y-24.3809 Z0.1797
G1 X45.7751 Y-24.3862 Z0.1798
G1 X45.7751 Y-24.3915 Z0.1806
G1 X45.7751 Y-24.3966 Z0.1819
G1 X45.7751 Y-24.4016 Z0.1837
G1 X45.7751 Y-24.4064 Z0.1860
G1 X45.7751 Y-24.4109 Z0.1888
G1 X45.7751 Y-24.4150 Z0.1921
G1 X45.7751 Y-24.4188 Z0.1958
G1 X45.7751 Y-24.4222 Z0.1999
G1 X45.7751 Y-24.4251 Z0.2044
G1 X45.7751 Y-24.4276 Z0.2091
G1 X45.7751 Y-24.4295 Z0.2140
G1 X45.7751 Y-24.4309 Z0.2191
G1 X45.7751 Y-24.4317 Z0.2244
G1 X45.7751 Y-24.4320 Z0.2297
G0 Z0.3576
G0 X45.7751 Y-24.4320 
G0 Z0.3576
G0 X45.6101 Y-22.8744 
G1 X45.6101 Y-22.8749 Z0.3477 F25.
G1 X45.6101 Y-22.8764 Z0.3380
G1 X45.6101 Y-22.8787 Z0.3285
G1 X45.6101 Y-22.8820 Z0.3193
G1 X45.6101 Y-22.8862 Z0.3104
G1 X45.6101 Y-22.8913 Z0.3020
G1 X45.6101 Y-22.8971 Z0.2941
G1 X45.6101 Y-22.9037 Z0.2868
G1 X45.6101 Y-22.9110 Z0.2802
G1 X45.6101 Y-22.9189 Z0.2744
G1 X45.6101 Y-22.9273 Z0.2694
G1 X45.6101 Y-22.9362 Z0.2652
G1 X45.6101 Y-22.9454 Z0.2619
G1 X45.6101 Y-22.9549 Z0.2595
G1 X45.6101 Y-22.9646 Z0.2580
G1 X45.6101 Y-22.9744 Z0.2576
G1 X45.6101 Y-23.1657 Z0.2575 F50.
G1 X45.6101 Y-23.1896 Z0.2575
G1 X45.6101 Y-23.2016 Z0.2575
G1 X45.6101 Y-23.2135 Z0.2574
G1 X45.6101 Y-23.2374 Z0.2573
G1 X45.6101 Y-23.2613 Z0.2570
G1 X45.6101 Y-23.2853 Z0.2568
G1 X45.6101 Y-23.2972 Z0.2566
G1 X45.6101 Y-23.3092 Z0.2564
G1 X45.6101 Y-23.3331 Z0.2561
G1 X45.6101 Y-23.3689 Z0.2553
G1 X45.6101 Y-23.4048 Z0.2545
G1 X45.6101 Y-23.4407 Z0.2535
G1 X45.6101 Y-23.4765 Z0.2524
G1 X45.6101 Y-23.5004 Z0.2516
G1 X45.6101 Y-23.5124 Z0.2512
G1 X45.6101 Y-23.5243 Z0.2507
G1 X45.6101 Y-23.5483 Z0.2498
G1 X45.6101 Y-23.5722 Z0.2488
G1 X45.6101 Y-23.6080 Z0.2472
G1 X45.6101 Y-23.6200 Z0.2466
G1 X45.6101 Y-23.6439 Z0.2455
G1 X45.6101 Y-23.6798 Z0.2436
G1 X45.6101 Y-23.7156 Z0.2416
G1 X45.6101 Y-23.7395 Z0.2401
G1 X45.6101 Y-23.7515 Z0.2394
G1 X45.6101 Y-23.7634 Z0.2386
G1 X45.6101 Y-23.7874 Z0.2371
G1 X45.6101 Y-23.8113 Z0.2355
G1 X45.6101 Y-23.8352 Z0.2339
G1 X45.6101 Y-23.8471 Z0.2330
G1 X45.6101 Y-23.8591 Z0.2321
G1 X45.6101 Y-23.8830 Z0.2304
G1 X45.6101 Y-23.9189 Z0.2276
G1 X45.6101 Y-23.9547 Z0.2246
G1 X45.6101 Y-23.9786 Z0.2226
G1 X45.6101 Y-23.9906 Z0.2216
G1 X45.6101 Y-24.0025 Z0.2205
G1 X45.6101 Y-24.0264 Z0.2184
G1 X45.6101 Y-24.0504 Z0.2162
G1 X45.6101 Y-24.0743 Z0.2139
G1 X45.6101 Y-24.0862 Z0.2128
G1 X45.6101 Y-24.0982 Z0.2116
G1 X45.6101 Y-24.1221 Z0.2092
G1 X45.6101 Y-24.1540 Z0.2059
G1 X45.6101 Y-24.1859 Z0.2025
G1 X45.6101 Y-24.2177 Z0.1990
G1 X45.6101 Y-24.2257 Z0.1981
G1 X45.6101 Y-24.2576 Z0.1945
G1 X45.6101 Y-24.2815 Z0.1917
G1 X45.6101 Y-24.2975 Z0.1898
G1 X45.6101 Y-24.3293 Z0.1859
G1 X45.6101 Y-24.3612 Z0.1819
G1 X45.6101 Y-24.3772 Z0.1799
G1 X45.6101 Y-24.3825 Z0.1795
G1 X45.6101 Y-24.3878 Z0.1796
G1 X45.6101 Y-24.3930 Z0.1804
G1 X45.6101 Y-24.3982 Z0.1817
G1 X45.6101 Y-24.4032 Z0.1835
G1 X45.6101 Y-24.4079 Z0.1858
G1 X45.6101 Y-24.4124 Z0.1886
G1 X45.6101 Y-24.4166 Z0.1919
G1 X45.6101 Y-24.4204 Z0.1956
G1 X45.6101 Y-24.4237 Z0.1997
G1 X45.6101 Y-24.4267 Z0.2042
G1 X45.6101 Y-24.4291 Z0.2089
G1 X45.6101 Y-24.4310 Z0.2138
G1 X45.6101 Y-24.4324 Z0.2189
G1 X45.6101 Y-24.4333 Z0.2242
G1 X45.6101 Y-24.4335 Z0.2295
G0 Z0.3576
G0 X45.6101 Y-24.4335 
G0 Z0.3576
G0 X45.4451 Y-22.8744 
G1 X45.4451 Y-22.8749 Z0.3477 F25.
G1 X45.4451 Y-22.8764 Z0.3380
G1 X45.4451 Y-22.8787 Z0.3285
G1 X45.4451 Y-22.8820 Z0.3193
G1 X45.4451 Y-22.8862 Z0.3104
G1 X45.4451 Y-22.8913 Z0.3020
G1 X45.4451 Y-22.8971 Z0.2941
G1 X45.4451 Y-22.9037 Z0.2868
G1 X45.4451 Y-22.9110 Z0.2802
G1 X45.4451 Y-22.9189 Z0.2744
G1 X45.4451 Y-22.9273 Z0.2694
G1 X45.4451 Y-22.9362 Z0.2652
G1 X45.4451 Y-22.9454 Z0.2619
G1 X45.4451 Y-22.9549 Z0.2595
G1 X45.4451 Y-22.9646 Z0.2580
G1 X45.4451 Y-22.9744 Z0.2576
G1 X45.4451 Y-23.1657 Z0.2575 F50.
G1 X45.4451 Y-23.1896 Z0.2575
G1 X45.4451 Y-23.2016 Z0.2575
G1 X45.4451 Y-23.2135 Z0.2574
G1 X45.4451 Y-23.2374 Z0.2573
G1 X45.4451 Y-23.2613 Z0.2570
G1 X45.4451 Y-23.2853 Z0.2568
G1 X45.4451 Y-23.2972 Z0.2566
G1 X45.4451 Y-23.3092 Z0.2564
G1 X45.4451 Y-23.3331 Z0.2561
G1 X45.4451 Y-23.3689 Z0.2553
G1 X45.4451 Y-23.4048 Z0.2545
G1 X45.4451 Y-23.4407 Z0.2535
G1 X45.4451 Y-23.4765 Z0.2524
G1 X45.4451 Y-23.5004 Z0.2516
G1 X45.4451 Y-23.5124 Z0.2512
G1 X45.4451 Y-23.5243 Z0.2507
G1 X45.4451 Y-23.5483 Z0.2498
G1 X45.4451 Y-23.5722 Z0.2488
G1 X45.4451 Y-23.6080 Z0.2472
G1 X45.4451 Y-23.6200 Z0.2466
G1 X45.4451 Y-23.6439 Z0.2455
G1 X45.4451 Y-23.6798 Z0.2436
G1 X45.4451 Y-23.7156 Z0.2416
G1 X45.4451 Y-23.7395 Z0.2401
G1 X45.4451 Y-23.7515 Z0.2394
G1 X45.4451 Y-23.7634 Z0.2386
G1 X45.4451 Y-23.7874 Z0.2371
G1 X45.4451 Y-23.8113 Z0.2355
G1 X45.4451 Y-23.8352 Z0.2339
G1 X45.4451 Y-23.8471 Z0.2330
G1 X45.4451 Y-23.8591 Z0.2321
G1 X45.4451 Y-23.8830 Z0.2304
G1 X45.4451 Y-23.9189 Z0.2276
G1 X45.4451 Y-23.9547 Z0.2246
G1 X45.4451 Y-23.9786 Z0.2226
G1 X45.4451 Y-23.9906 Z0.2216
G1 X45.4451 Y-24.0025 Z0.2205
G1 X45.4451 Y-24.0264 Z0.2184
G1 X45.4451 Y-24.0504 Z0.2162
G1 X45.4451 Y-24.0743 Z0.2139
G1 X45.4451 Y-24.0862 Z0.2128
G1 X45.4451 Y-24.0982 Z0.2116
G1 X45.4451 Y-24.1221 Z0.2092
G1 X45.4451 Y-24.1542 Z0.2059
G1 X45.4451 Y-24.1862 Z0.2025
G1 X45.4451 Y-24.2183 Z0.1990
G1 X45.4451 Y-24.2584 Z0.1944
G1 X45.4451 Y-24.2825 Z0.1916
G1 X45.4451 Y-24.2985 Z0.1897
G1 X45.4451 Y-24.3145 Z0.1877
G1 X45.4451 Y-24.3306 Z0.1858
G1 X45.4451 Y-24.3627 Z0.1817
G1 X45.4451 Y-24.3787 Z0.1797
G1 X45.4451 Y-24.3840 Z0.1793
G1 X45.4451 Y-24.3893 Z0.1795
G1 X45.4451 Y-24.3945 Z0.1802
G1 X45.4451 Y-24.3997 Z0.1815
G1 X45.4451 Y-24.4047 Z0.1833
G1 X45.4451 Y-24.4094 Z0.1856
G1 X45.4451 Y-24.4139 Z0.1884
G1 X45.4451 Y-24.4181 Z0.1917
G1 X45.4451 Y-24.4219 Z0.1954
G1 X45.4451 Y-24.4253 Z0.1995
G1 X45.4451 Y-24.4282 Z0.2040
G1 X45.4451 Y-24.4306 Z0.2087
G1 X45.4451 Y-24.4326 Z0.2136
G1 X45.4451 Y-24.4339 Z0.2187
G1 X45.4451 Y-24.4348 Z0.2240
G1 X45.4451 Y-24.4351 Z0.2293
G0 Z0.3576
G0 X45.4451 Y-24.4351 
G0 Z0.3576
G0 X45.2801 Y-22.8744 
G1 X45.2801 Y-22.8749 Z0.3477 F25.
G1 X45.2801 Y-22.8764 Z0.3380
G1 X45.2801 Y-22.8787 Z0.3285
G1 X45.2801 Y-22.8820 Z0.3193
G1 X45.2801 Y-22.8862 Z0.3104
G1 X45.2801 Y-22.8913 Z0.3020
G1 X45.2801 Y-22.8971 Z0.2941
G1 X45.2801 Y-22.9037 Z0.2868
G1 X45.2801 Y-22.9110 Z0.2802
G1 X45.2801 Y-22.9189 Z0.2744
G1 X45.2801 Y-22.9273 Z0.2694
G1 X45.2801 Y-22.9362 Z0.2652
G1 X45.2801 Y-22.9454 Z0.2619
G1 X45.2801 Y-22.9549 Z0.2595
G1 X45.2801 Y-22.9646 Z0.2580
G1 X45.2801 Y-22.9744 Z0.2576
G1 X45.2801 Y-23.1657 Z0.2575 F50.
G1 X45.2801 Y-23.1896 Z0.2575
G1 X45.2801 Y-23.2016 Z0.2575
G1 X45.2801 Y-23.2135 Z0.2574
G1 X45.2801 Y-23.2374 Z0.2573
G1 X45.2801 Y-23.2613 Z0.2570
G1 X45.2801 Y-23.2853 Z0.2568
G1 X45.2801 Y-23.2972 Z0.2566
G1 X45.2801 Y-23.3092 Z0.2564
G1 X45.2801 Y-23.3331 Z0.2561
G1 X45.2801 Y-23.3689 Z0.2553
G1 X45.2801 Y-23.4048 Z0.2545
G1 X45.2801 Y-23.4407 Z0.2535
G1 X45.2801 Y-23.4765 Z0.2524
G1 X45.2801 Y-23.5004 Z0.2516
G1 X45.2801 Y-23.5124 Z0.2512
G1 X45.2801 Y-23.5243 Z0.2507
G1 X45.2801 Y-23.5483 Z0.2498
G1 X45.2801 Y-23.5722 Z0.2488
G1 X45.2801 Y-23.6080 Z0.2472
G1 X45.2801 Y-23.6200 Z0.2466
G1 X45.2801 Y-23.6439 Z0.2455
G1 X45.2801 Y-23.6798 Z0.2436
G1 X45.2801 Y-23.7156 Z0.2416
G1 X45.2801 Y-23.7395 Z0.2401
G1 X45.2801 Y-23.7515 Z0.2394
G1 X45.2801 Y-23.7634 Z0.2386
G1 X45.2801 Y-23.7874 Z0.2371
G1 X45.2801 Y-23.8113 Z0.2355
G1 X45.2801 Y-23.8352 Z0.2339
G1 X45.2801 Y-23.8471 Z0.2330
G1 X45.2801 Y-23.8591 Z0.2321
G1 X45.2801 Y-23.8830 Z0.2304
G1 X45.2801 Y-23.9189 Z0.2276
G1 X45.2801 Y-23.9547 Z0.2246
G1 X45.2801 Y-23.9786 Z0.2226
G1 X45.2801 Y-23.9906 Z0.2216
G1 X45.2801 Y-24.0025 Z0.2205
G1 X45.2801 Y-24.0264 Z0.2184
G1 X45.2801 Y-24.0504 Z0.2162
G1 X45.2801 Y-24.0743 Z0.2139
G1 X45.2801 Y-24.0862 Z0.2128
G1 X45.2801 Y-24.0982 Z0.2116
G1 X45.2801 Y-24.1221 Z0.2092
G1 X45.2801 Y-24.1543 Z0.2059
G1 X45.2801 Y-24.1866 Z0.2024
G1 X45.2801 Y-24.2189 Z0.1989
G1 X45.2801 Y-24.2511 Z0.1952
G1 X45.2801 Y-24.2592 Z0.1943
G1 X45.2801 Y-24.2915 Z0.1905
G1 X45.2801 Y-24.3157 Z0.1876
G1 X45.2801 Y-24.3318 Z0.1856
G1 X45.2801 Y-24.3479 Z0.1836
G1 X45.2801 Y-24.3641 Z0.1816
G1 X45.2801 Y-24.3802 Z0.1795
G1 X45.2801 Y-24.3855 Z0.1791
G1 X45.2801 Y-24.3908 Z0.1793
G1 X45.2801 Y-24.3961 Z0.1800
G1 X45.2801 Y-24.4012 Z0.1813
G1 X45.2801 Y-24.4062 Z0.1831
G1 X45.2801 Y-24.4110 Z0.1854
G1 X45.2801 Y-24.4155 Z0.1882
G1 X45.2801 Y-24.4196 Z0.1915
G1 X45.2801 Y-24.4234 Z0.1952
G1 X45.2801 Y-24.4268 Z0.1993
G1 X45.2801 Y-24.4297 Z0.2038
G1 X45.2801 Y-24.4322 Z0.2085
G1 X45.2801 Y-24.4341 Z0.2134
G1 X45.2801 Y-24.4355 Z0.2185
G1 X45.2801 Y-24.4363 Z0.2238
G1 X45.2801 Y-24.4366 Z0.2291
G0 Z0.3576
G0 X45.2801 Y-24.4366 
G0 Z0.3576
G0 X45.1151 Y-22.8744 
G1 X45.1151 Y-22.8749 Z0.3477 F25.
G1 X45.1151 Y-22.8764 Z0.3380
G1 X45.1151 Y-22.8787 Z0.3285
G1 X45.1151 Y-22.8820 Z0.3193
G1 X45.1151 Y-22.8862 Z0.3104
G1 X45.1151 Y-22.8913 Z0.3020
G1 X45.1151 Y-22.8971 Z0.2941
G1 X45.1151 Y-22.9037 Z0.2868
G1 X45.1151 Y-22.9110 Z0.2802
G1 X45.1151 Y-22.9189 Z0.2744
G1 X45.1151 Y-22.9273 Z0.2694
G1 X45.1151 Y-22.9362 Z0.2652
G1 X45.1151 Y-22.9454 Z0.2619
G1 X45.1151 Y-22.9549 Z0.2595
G1 X45.1151 Y-22.9646 Z0.2580
G1 X45.1151 Y-22.9744 Z0.2576
G1 X45.1151 Y-23.1657 Z0.2575 F50.
G1 X45.1151 Y-23.1896 Z0.2575
G1 X45.1151 Y-23.2016 Z0.2575
G1 X45.1151 Y-23.2135 Z0.2574
G1 X45.1151 Y-23.2374 Z0.2573
G1 X45.1151 Y-23.2613 Z0.2570
G1 X45.1151 Y-23.2853 Z0.2568
G1 X45.1151 Y-23.2972 Z0.2566
G1 X45.1151 Y-23.3092 Z0.2564
G1 X45.1151 Y-23.3331 Z0.2561
G1 X45.1151 Y-23.3689 Z0.2553
G1 X45.1151 Y-23.4048 Z0.2545
G1 X45.1151 Y-23.4407 Z0.2535
G1 X45.1151 Y-23.4765 Z0.2524
G1 X45.1151 Y-23.5004 Z0.2516
G1 X45.1151 Y-23.5124 Z0.2512
G1 X45.1151 Y-23.5243 Z0.2507
G1 X45.1151 Y-23.5483 Z0.2498
G1 X45.1151 Y-23.5722 Z0.2488
G1 X45.1151 Y-23.6080 Z0.2472
G1 X45.1151 Y-23.6200 Z0.2466
G1 X45.1151 Y-23.6439 Z0.2455
G1 X45.1151 Y-23.6798 Z0.2436
G1 X45.1151 Y-23.7156 Z0.2416
G1 X45.1151 Y-23.7395 Z0.2401
G1 X45.1151 Y-23.7515 Z0.2394
G1 X45.1151 Y-23.7634 Z0.2386
G1 X45.1151 Y-23.7874 Z0.2371
G1 X45.1151 Y-23.8113 Z0.2355
G1 X45.1151 Y-23.8352 Z0.2339
G1 X45.1151 Y-23.8471 Z0.2330
G1 X45.1151 Y-23.8591 Z0.2321
G1 X45.1151 Y-23.8830 Z0.2304
G1 X45.1151 Y-23.9189 Z0.2276
G1 X45.1151 Y-23.9547 Z0.2246
G1 X45.1151 Y-23.9786 Z0.2226
G1 X45.1151 Y-23.9906 Z0.2216
G1 X45.1151 Y-24.0025 Z0.2205
G1 X45.1151 Y-24.0264 Z0.2184
G1 X45.1151 Y-24.0504 Z0.2162
G1 X45.1151 Y-24.0743 Z0.2139
G1 X45.1151 Y-24.0862 Z0.2128
G1 X45.1151 Y-24.0982 Z0.2116
G1 X45.1151 Y-24.1221 Z0.2092
G1 X45.1151 Y-24.1545 Z0.2059
G1 X45.1151 Y-24.1870 Z0.2024
G1 X45.1151 Y-24.2195 Z0.1988
G1 X45.1151 Y-24.2519 Z0.1951
G1 X45.1151 Y-24.2925 Z0.1904
G1 X45.1151 Y-24.3168 Z0.1874
G1 X45.1151 Y-24.3331 Z0.1855
G1 X45.1151 Y-24.3493 Z0.1834
G1 X45.1151 Y-24.3655 Z0.1814
G1 X45.1151 Y-24.3817 Z0.1793
G1 X45.1151 Y-24.3870 Z0.1789
G1 X45.1151 Y-24.3923 Z0.1791
G1 X45.1151 Y-24.3976 Z0.1798
G1 X45.1151 Y-24.4027 Z0.1811
G1 X45.1151 Y-24.4077 Z0.1829
G1 X45.1151 Y-24.4125 Z0.1852
G1 X45.1151 Y-24.4170 Z0.1881
G1 X45.1151 Y-24.4211 Z0.1913
G1 X45.1151 Y-24.4249 Z0.1951
G1 X45.1151 Y-24.4283 Z0.1991
G1 X45.1151 Y-24.4312 Z0.2036
G1 X45.1151 Y-24.4337 Z0.2083
G1 X45.1151 Y-24.4356 Z0.2132
G1 X45.1151 Y-24.4370 Z0.2183
G1 X45.1151 Y-24.4378 Z0.2236
G1 X45.1151 Y-24.4381 Z0.2289
G0 Z0.3576
G0 X45.1151 Y-24.4381 
G0 Z0.3576
G0 X44.9501 Y-22.8744 
G1 X44.9501 Y-22.8749 Z0.3477 F25.
G1 X44.9501 Y-22.8764 Z0.3380
G1 X44.9501 Y-22.8787 Z0.3285
G1 X44.9501 Y-22.8820 Z0.3193
G1 X44.9501 Y-22.8862 Z0.3104
G1 X44.9501 Y-22.8913 Z0.3020
G1 X44.9501 Y-22.8971 Z0.2941
G1 X44.9501 Y-22.9037 Z0.2868
G1 X44.9501 Y-22.9110 Z0.2802
G1 X44.9501 Y-22.9189 Z0.2744
G1 X44.9501 Y-22.9273 Z0.2694
G1 X44.9501 Y-22.9362 Z0.2652
G1 X44.9501 Y-22.9454 Z0.2619
G1 X44.9501 Y-22.9549 Z0.2595
G1 X44.9501 Y-22.9646 Z0.2580
G1 X44.9501 Y-22.9744 Z0.2576
G1 X44.9501 Y-23.1657 Z0.2575 F50.
G1 X44.9501 Y-23.1896 Z0.2575
G1 X44.9501 Y-23.2016 Z0.2575
G1 X44.9501 Y-23.2135 Z0.2574
G1 X44.9501 Y-23.2374 Z0.2573
G1 X44.9501 Y-23.2613 Z0.2570
G1 X44.9501 Y-23.2853 Z0.2568
G1 X44.9501 Y-23.2972 Z0.2566
G1 X44.9501 Y-23.3092 Z0.2564
G1 X44.9501 Y-23.3331 Z0.2561
G1 X44.9501 Y-23.3689 Z0.2553
G1 X44.9501 Y-23.4048 Z0.2545
G1 X44.9501 Y-23.4407 Z0.2535
G1 X44.9501 Y-23.4765 Z0.2524
G1 X44.9501 Y-23.5004 Z0.2516
G1 X44.9501 Y-23.5124 Z0.2512
G1 X44.9501 Y-23.5243 Z0.2507
G1 X44.9501 Y-23.5483 Z0.2498
G1 X44.9501 Y-23.5722 Z0.2488
G1 X44.9501 Y-23.6080 Z0.2472
G1 X44.9501 Y-23.6200 Z0.2466
G1 X44.9501 Y-23.6439 Z0.2455
G1 X44.9501 Y-23.6798 Z0.2436
G1 X44.9501 Y-23.7156 Z0.2416
G1 X44.9501 Y-23.7395 Z0.2401
G1 X44.9501 Y-23.7515 Z0.2394
G1 X44.9501 Y-23.7634 Z0.2386
G1 X44.9501 Y-23.7874 Z0.2371
G1 X44.9501 Y-23.8113 Z0.2355
G1 X44.9501 Y-23.8352 Z0.2339
G1 X44.9501 Y-23.8471 Z0.2330
G1 X44.9501 Y-23.8591 Z0.2321
G1 X44.9501 Y-23.8830 Z0.2304
G1 X44.9501 Y-23.9189 Z0.2276
G1 X44.9501 Y-23.9547 Z0.2246
G1 X44.9501 Y-23.9786 Z0.2226
G1 X44.9501 Y-23.9906 Z0.2216
G1 X44.9501 Y-24.0025 Z0.2205
G1 X44.9501 Y-24.0264 Z0.2184
G1 X44.9501 Y-24.0504 Z0.2162
G1 X44.9501 Y-24.0743 Z0.2139
G1 X44.9501 Y-24.0862 Z0.2128
G1 X44.9501 Y-24.0982 Z0.2116
G1 X44.9501 Y-24.1221 Z0.2092
G1 X44.9501 Y-24.1547 Z0.2058
G1 X44.9501 Y-24.1874 Z0.2024
G1 X44.9501 Y-24.2200 Z0.1988
G1 X44.9501 Y-24.2527 Z0.1951
G1 X44.9501 Y-24.2853 Z0.1912
G1 X44.9501 Y-24.2935 Z0.1903
G1 X44.9501 Y-24.3261 Z0.1863
G1 X44.9501 Y-24.3506 Z0.1833
G1 X44.9501 Y-24.3669 Z0.1812
G1 X44.9501 Y-24.3833 Z0.1791
G1 X44.9501 Y-24.3886 Z0.1787
G1 X44.9501 Y-24.3939 Z0.1789
G1 X44.9501 Y-24.3991 Z0.1796
G1 X44.9501 Y-24.4043 Z0.1809
G1 X44.9501 Y-24.4092 Z0.1827
G1 X44.9501 Y-24.4140 Z0.1850
G1 X44.9501 Y-24.4185 Z0.1879
G1 X44.9501 Y-24.4227 Z0.1911
G1 X44.9501 Y-24.4265 Z0.1949
G1 X44.9501 Y-24.4298 Z0.1989
G1 X44.9501 Y-24.4328 Z0.2034
G1 X44.9501 Y-24.4352 Z0.2081
G1 X44.9501 Y-24.4371 Z0.2130
G1 X44.9501 Y-24.4385 Z0.2182
G1 X44.9501 Y-24.4394 Z0.2234
G1 X44.9501 Y-24.4396 Z0.2287
G0 Z0.3576
G0 X44.9501 Y-24.4396 
G0 Z0.3576
G0 X44.7851 Y-22.8744 
G1 X44.7851 Y-22.8749 Z0.3477 F25.
G1 X44.7851 Y-22.8764 Z0.3380
G1 X44.7851 Y-22.8787 Z0.3285
G1 X44.7851 Y-22.8820 Z0.3193
G1 X44.7851 Y-22.8862 Z0.3104
G1 X44.7851 Y-22.8913 Z0.3020
G1 X44.7851 Y-22.8971 Z0.2941
G1 X44.7851 Y-22.9037 Z0.2868
G1 X44.7851 Y-22.9110 Z0.2802
G1 X44.7851 Y-22.9189 Z0.2744
G1 X44.7851 Y-22.9273 Z0.2694
G1 X44.7851 Y-22.9362 Z0.2652
G1 X44.7851 Y-22.9454 Z0.2619
G1 X44.7851 Y-22.9549 Z0.2595
G1 X44.7851 Y-22.9646 Z0.2580
G1 X44.7851 Y-22.9744 Z0.2576
G1 X44.7851 Y-23.1657 Z0.2575 F50.
G1 X44.7851 Y-23.1896 Z0.2575
G1 X44.7851 Y-23.2016 Z0.2575
G1 X44.7851 Y-23.2135 Z0.2574
G1 X44.7851 Y-23.2374 Z0.2573
G1 X44.7851 Y-23.2613 Z0.2570
G1 X44.7851 Y-23.2853 Z0.2568
G1 X44.7851 Y-23.2972 Z0.2566
G1 X44.7851 Y-23.3092 Z0.2564
G1 X44.7851 Y-23.3331 Z0.2561
G1 X44.7851 Y-23.3689 Z0.2553
G1 X44.7851 Y-23.4048 Z0.2545
G1 X44.7851 Y-23.4407 Z0.2535
G1 X44.7851 Y-23.4765 Z0.2524
G1 X44.7851 Y-23.5004 Z0.2516
G1 X44.7851 Y-23.5124 Z0.2512
G1 X44.7851 Y-23.5243 Z0.2507
G1 X44.7851 Y-23.5483 Z0.2498
G1 X44.7851 Y-23.5722 Z0.2488
G1 X44.7851 Y-23.6080 Z0.2472
G1 X44.7851 Y-23.6200 Z0.2466
G1 X44.7851 Y-23.6439 Z0.2455
G1 X44.7851 Y-23.6798 Z0.2436
G1 X44.7851 Y-23.7156 Z0.2416
G1 X44.7851 Y-23.7395 Z0.2401
G1 X44.7851 Y-23.7515 Z0.2394
G1 X44.7851 Y-23.7634 Z0.2386
G1 X44.7851 Y-23.7874 Z0.2371
G1 X44.7851 Y-23.8113 Z0.2355
G1 X44.7851 Y-23.8352 Z0.2339
G1 X44.7851 Y-23.8471 Z0.2330
G1 X44.7851 Y-23.8591 Z0.2321
G1 X44.7851 Y-23.8830 Z0.2304
G1 X44.7851 Y-23.9189 Z0.2276
G1 X44.7851 Y-23.9547 Z0.2246
G1 X44.7851 Y-23.9786 Z0.2226
G1 X44.7851 Y-23.9906 Z0.2216
G1 X44.7851 Y-24.0025 Z0.2205
G1 X44.7851 Y-24.0264 Z0.2184
G1 X44.7851 Y-24.0504 Z0.2162
G1 X44.7851 Y-24.0743 Z0.2139
G1 X44.7851 Y-24.0862 Z0.2128
G1 X44.7851 Y-24.0982 Z0.2116
G1 X44.7851 Y-24.1221 Z0.2092
G1 X44.7851 Y-24.1549 Z0.2058
G1 X44.7851 Y-24.1878 Z0.2023
G1 X44.7851 Y-24.2206 Z0.1987
G1 X44.7851 Y-24.2534 Z0.1950
G1 X44.7851 Y-24.2863 Z0.1911
G1 X44.7851 Y-24.3191 Z0.1872
G1 X44.7851 Y-24.3273 Z0.1862
G1 X44.7851 Y-24.3602 Z0.1821
G1 X44.7851 Y-24.3848 Z0.1789
G1 X44.7851 Y-24.3901 Z0.1785
G1 X44.7851 Y-24.3954 Z0.1787
G1 X44.7851 Y-24.4006 Z0.1794
G1 X44.7851 Y-24.4058 Z0.1807
G1 X44.7851 Y-24.4108 Z0.1825
G1 X44.7851 Y-24.4155 Z0.1848
G1 X44.7851 Y-24.4200 Z0.1877
G1 X44.7851 Y-24.4242 Z0.1910
G1 X44.7851 Y-24.4280 Z0.1947
G1 X44.7851 Y-24.4314 Z0.1988
G1 X44.7851 Y-24.4343 Z0.2032
G1 X44.7851 Y-24.4367 Z0.2079
G1 X44.7851 Y-24.4386 Z0.2128
G1 X44.7851 Y-24.4400 Z0.2180
G1 X44.7851 Y-24.4409 Z0.2232
G1 X44.7851 Y-24.4412 Z0.2285
G0 Z0.3576
G0 X44.7851 Y-24.4412 
G0 Z0.3576
G0 X44.6201 Y-22.8744 
G1 X44.6201 Y-22.8749 Z0.3477 F25.
G1 X44.6201 Y-22.8764 Z0.3380
G1 X44.6201 Y-22.8787 Z0.3285
G1 X44.6201 Y-22.8820 Z0.3193
G1 X44.6201 Y-22.8862 Z0.3104
G1 X44.6201 Y-22.8913 Z0.3020
G1 X44.6201 Y-22.8971 Z0.2941
G1 X44.6201 Y-22.9037 Z0.2868
G1 X44.6201 Y-22.9110 Z0.2802
G1 X44.6201 Y-22.9189 Z0.2744
G1 X44.6201 Y-22.9273 Z0.2694
G1 X44.6201 Y-22.9362 Z0.2652
G1 X44.6201 Y-22.9454 Z0.2619
G1 X44.6201 Y-22.9549 Z0.2595
G1 X44.6201 Y-22.9646 Z0.2580
G1 X44.6201 Y-22.9744 Z0.2576
G1 X44.6201 Y-23.1657 Z0.2575 F50.
G1 X44.6201 Y-23.1896 Z0.2575
G1 X44.6201 Y-23.2016 Z0.2575
G1 X44.6201 Y-23.2135 Z0.2574
G1 X44.6201 Y-23.2374 Z0.2573
G1 X44.6201 Y-23.2613 Z0.2570
G1 X44.6201 Y-23.2853 Z0.2568
G1 X44.6201 Y-23.2972 Z0.2566
G1 X44.6201 Y-23.3092 Z0.2564
G1 X44.6201 Y-23.3331 Z0.2561
G1 X44.6201 Y-23.3689 Z0.2553
G1 X44.6201 Y-23.4048 Z0.2545
G1 X44.6201 Y-23.4407 Z0.2535
G1 X44.6201 Y-23.4765 Z0.2524
G1 X44.6201 Y-23.5004 Z0.2516
G1 X44.6201 Y-23.5124 Z0.2512
G1 X44.6201 Y-23.5243 Z0.2507
G1 X44.6201 Y-23.5483 Z0.2498
G1 X44.6201 Y-23.5722 Z0.2488
G1 X44.6201 Y-23.6080 Z0.2472
G1 X44.6201 Y-23.6200 Z0.2466
G1 X44.6201 Y-23.6439 Z0.2455
G1 X44.6201 Y-23.6798 Z0.2436
G1 X44.6201 Y-23.7156 Z0.2416
G1 X44.6201 Y-23.7395 Z0.2401
G1 X44.6201 Y-23.7515 Z0.2394
G1 X44.6201 Y-23.7634 Z0.2386
G1 X44.6201 Y-23.7874 Z0.2371
G1 X44.6201 Y-23.8113 Z0.2355
G1 X44.6201 Y-23.8352 Z0.2339
G1 X44.6201 Y-23.8471 Z0.2330
G1 X44.6201 Y-23.8591 Z0.2321
G1 X44.6201 Y-23.8830 Z0.2304
G1 X44.6201 Y-23.9189 Z0.2276
G1 X44.6201 Y-23.9547 Z0.2246
G1 X44.6201 Y-23.9786 Z0.2226
G1 X44.6201 Y-23.9906 Z0.2216
G1 X44.6201 Y-24.0025 Z0.2205
G1 X44.6201 Y-24.0264 Z0.2184
G1 X44.6201 Y-24.0504 Z0.2162
G1 X44.6201 Y-24.0743 Z0.2139
G1 X44.6201 Y-24.0862 Z0.2128
G1 X44.6201 Y-24.0982 Z0.2116
G1 X44.6201 Y-24.1221 Z0.2092
G1 X44.6201 Y-24.1551 Z0.2058
G1 X44.6201 Y-24.1881 Z0.2023
G1 X44.6201 Y-24.2212 Z0.1986
G1 X44.6201 Y-24.2542 Z0.1949
G1 X44.6201 Y-24.2872 Z0.1910
G1 X44.6201 Y-24.3203 Z0.1870
G1 X44.6201 Y-24.3533 Z0.1829
G1 X44.6201 Y-24.3615 Z0.1819
G1 X44.6201 Y-24.3863 Z0.1787
G1 X44.6201 Y-24.3916 Z0.1783
G1 X44.6201 Y-24.3969 Z0.1785
G1 X44.6201 Y-24.4022 Z0.1792
G1 X44.6201 Y-24.4073 Z0.1805
G1 X44.6201 Y-24.4123 Z0.1823
G1 X44.6201 Y-24.4171 Z0.1846
G1 X44.6201 Y-24.4215 Z0.1875
G1 X44.6201 Y-24.4257 Z0.1908
G1 X44.6201 Y-24.4295 Z0.1945
G1 X44.6201 Y-24.4329 Z0.1986
G1 X44.6201 Y-24.4358 Z0.2030
G1 X44.6201 Y-24.4382 Z0.2077
G1 X44.6201 Y-24.4402 Z0.2126
G1 X44.6201 Y-24.4416 Z0.2178
G1 X44.6201 Y-24.4424 Z0.2230
G1 X44.6201 Y-24.4427 Z0.2283
G0 Z0.3576
G0 X44.6201 Y-24.4427 
G0 Z0.3576
G0 X44.4551 Y-22.8744 
G1 X44.4551 Y-22.8749 Z0.3477 F25.
G1 X44.4551 Y-22.8764 Z0.3380
G1 X44.4551 Y-22.8787 Z0.3285
G1 X44.4551 Y-22.8820 Z0.3193
G1 X44.4551 Y-22.8862 Z0.3104
G1 X44.4551 Y-22.8913 Z0.3020
G1 X44.4551 Y-22.8971 Z0.2941
G1 X44.4551 Y-22.9037 Z0.2868
G1 X44.4551 Y-22.9110 Z0.2802
G1 X44.4551 Y-22.9189 Z0.2744
G1 X44.4551 Y-22.9273 Z0.2694
G1 X44.4551 Y-22.9362 Z0.2652
G1 X44.4551 Y-22.9454 Z0.2619
G1 X44.4551 Y-22.9549 Z0.2595
G1 X44.4551 Y-22.9646 Z0.2580
G1 X44.4551 Y-22.9744 Z0.2576
G1 X44.4551 Y-23.1657 Z0.2575 F50.
G1 X44.4551 Y-23.1896 Z0.2575
G1 X44.4551 Y-23.2016 Z0.2575
G1 X44.4551 Y-23.2135 Z0.2574
G1 X44.4551 Y-23.2374 Z0.2573
G1 X44.4551 Y-23.2613 Z0.2570
G1 X44.4551 Y-23.2853 Z0.2568
G1 X44.4551 Y-23.2972 Z0.2566
G1 X44.4551 Y-23.3092 Z0.2564
G1 X44.4551 Y-23.3331 Z0.2561
G1 X44.4551 Y-23.3689 Z0.2553
G1 X44.4551 Y-23.4048 Z0.2545
G1 X44.4551 Y-23.4407 Z0.2535
G1 X44.4551 Y-23.4765 Z0.2524
G1 X44.4551 Y-23.5004 Z0.2516
G1 X44.4551 Y-23.5124 Z0.2512
G1 X44.4551 Y-23.5243 Z0.2507
G1 X44.4551 Y-23.5483 Z0.2498
G1 X44.4551 Y-23.5722 Z0.2488
G1 X44.4551 Y-23.6080 Z0.2472
G1 X44.4551 Y-23.6200 Z0.2466
G1 X44.4551 Y-23.6439 Z0.2455
G1 X44.4551 Y-23.6798 Z0.2436
G1 X44.4551 Y-23.7156 Z0.2416
G1 X44.4551 Y-23.7395 Z0.2401
G1 X44.4551 Y-23.7515 Z0.2394
G1 X44.4551 Y-23.7634 Z0.2386
G1 X44.4551 Y-23.7874 Z0.2371
G1 X44.4551 Y-23.8113 Z0.2355
G1 X44.4551 Y-23.8352 Z0.2339
G1 X44.4551 Y-23.8471 Z0.2330
G1 X44.4551 Y-23.8591 Z0.2321
G1 X44.4551 Y-23.8830 Z0.2304
G1 X44.4551 Y-23.9189 Z0.2276
G1 X44.4551 Y-23.9547 Z0.2246
G1 X44.4551 Y-23.9786 Z0.2226
G1 X44.4551 Y-23.9906 Z0.2216
G1 X44.4551 Y-24.0025 Z0.2205
G1 X44.4551 Y-24.0264 Z0.2184
G1 X44.4551 Y-24.0504 Z0.2162
G1 X44.4551 Y-24.0743 Z0.2139
G1 X44.4551 Y-24.0862 Z0.2128
G1 X44.4551 Y-24.0982 Z0.2116
G1 X44.4551 Y-24.1221 Z0.2092
G1 X44.4551 Y-24.1553 Z0.2058
G1 X44.4551 Y-24.1885 Z0.2022
G1 X44.4551 Y-24.2217 Z0.1986
G1 X44.4551 Y-24.2550 Z0.1948
G1 X44.4551 Y-24.2882 Z0.1909
G1 X44.4551 Y-24.3214 Z0.1869
G1 X44.4551 Y-24.3546 Z0.1828
G1 X44.4551 Y-24.3878 Z0.1785
G1 X44.4551 Y-24.3931 Z0.1781
G1 X44.4551 Y-24.3984 Z0.1783
G1 X44.4551 Y-24.4037 Z0.1790
G1 X44.4551 Y-24.4088 Z0.1803
G1 X44.4551 Y-24.4138 Z0.1821
G1 X44.4551 Y-24.4186 Z0.1845
G1 X44.4551 Y-24.4231 Z0.1873
G1 X44.4551 Y-24.4272 Z0.1906
G1 X44.4551 Y-24.4310 Z0.1943
G1 X44.4551 Y-24.4344 Z0.1984
G1 X44.4551 Y-24.4373 Z0.2028
G1 X44.4551 Y-24.4397 Z0.2075
G1 X44.4551 Y-24.4417 Z0.2125
G1 X44.4551 Y-24.4431 Z0.2176
G1 X44.4551 Y-24.4439 Z0.2228
G1 X44.4551 Y-24.4442 Z0.2281
G0 Z0.3576
G0 X44.4551 Y-24.4442 
G0 Z0.3576
G0 X44.2901 Y-22.8744 
G1 X44.2901 Y-22.8749 Z0.3477 F25.
G1 X44.2901 Y-22.8764 Z0.3380
G1 X44.2901 Y-22.8787 Z0.3285
G1 X44.2901 Y-22.8820 Z0.3193
G1 X44.2901 Y-22.8862 Z0.3104
G1 X44.2901 Y-22.8913 Z0.3020
G1 X44.2901 Y-22.8971 Z0.2941
G1 X44.2901 Y-22.9037 Z0.2868
G1 X44.2901 Y-22.9110 Z0.2802
G1 X44.2901 Y-22.9189 Z0.2744
G1 X44.2901 Y-22.9273 Z0.2694
G1 X44.2901 Y-22.9362 Z0.2652
G1 X44.2901 Y-22.9454 Z0.2619
G1 X44.2901 Y-22.9549 Z0.2595
G1 X44.2901 Y-22.9646 Z0.2580
G1 X44.2901 Y-22.9744 Z0.2576
G1 X44.2901 Y-23.1657 Z0.2575 F50.
G1 X44.2901 Y-23.1896 Z0.2575
G1 X44.2901 Y-23.2016 Z0.2575
G1 X44.2901 Y-23.2135 Z0.2574
G1 X44.2901 Y-23.2374 Z0.2573
G1 X44.2901 Y-23.2613 Z0.2570
G1 X44.2901 Y-23.2853 Z0.2568
G1 X44.2901 Y-23.2972 Z0.2566
G1 X44.2901 Y-23.3092 Z0.2564
G1 X44.2901 Y-23.3331 Z0.2561
G1 X44.2901 Y-23.3689 Z0.2553
G1 X44.2901 Y-23.4048 Z0.2545
G1 X44.2901 Y-23.4407 Z0.2535
G1 X44.2901 Y-23.4765 Z0.2524
G1 X44.2901 Y-23.5004 Z0.2516
G1 X44.2901 Y-23.5124 Z0.2512
G1 X44.2901 Y-23.5243 Z0.2507
G1 X44.2901 Y-23.5483 Z0.2498
G1 X44.2901 Y-23.5722 Z0.2488
G1 X44.2901 Y-23.6080 Z0.2472
G1 X44.2901 Y-23.6200 Z0.2466
G1 X44.2901 Y-23.6439 Z0.2455
G1 X44.2901 Y-23.6798 Z0.2436
G1 X44.2901 Y-23.7156 Z0.2416
G1 X44.2901 Y-23.7395 Z0.2401
G1 X44.2901 Y-23.7515 Z0.2394
G1 X44.2901 Y-23.7634 Z0.2386
G1 X44.2901 Y-23.7874 Z0.2371
G1 X44.2901 Y-23.8113 Z0.2355
G1 X44.2901 Y-23.8352 Z0.2339
G1 X44.2901 Y-23.8471 Z0.2330
G1 X44.2901 Y-23.8591 Z0.2321
G1 X44.2901 Y-23.8830 Z0.2304
G1 X44.2901 Y-23.9189 Z0.2276
G1 X44.2901 Y-23.9547 Z0.2246
G1 X44.2901 Y-23.9786 Z0.2226
G1 X44.2901 Y-23.9906 Z0.2216
G1 X44.2901 Y-24.0025 Z0.2205
G1 X44.2901 Y-24.0264 Z0.2184
G1 X44.2901 Y-24.0504 Z0.2162
G1 X44.2901 Y-24.0743 Z0.2139
G1 X44.2901 Y-24.0862 Z0.2128
G1 X44.2901 Y-24.0982 Z0.2116
G1 X44.2901 Y-24.1221 Z0.2092
G1 X44.2901 Y-24.1555 Z0.2058
G1 X44.2901 Y-24.1889 Z0.2022
G1 X44.2901 Y-24.2223 Z0.1985
G1 X44.2901 Y-24.2557 Z0.1947
G1 X44.2901 Y-24.2891 Z0.1908
G1 X44.2901 Y-24.3225 Z0.1868
G1 X44.2901 Y-24.3559 Z0.1826
G1 X44.2901 Y-24.3894 Z0.1783
G1 X44.2901 Y-24.3946 Z0.1779
G1 X44.2901 Y-24.3999 Z0.1781
G1 X44.2901 Y-24.4052 Z0.1788
G1 X44.2901 Y-24.4103 Z0.1801
G1 X44.2901 Y-24.4153 Z0.1819
G1 X44.2901 Y-24.4201 Z0.1843
G1 X44.2901 Y-24.4246 Z0.1871
G1 X44.2901 Y-24.4287 Z0.1904
G1 X44.2901 Y-24.4325 Z0.1941
G1 X44.2901 Y-24.4359 Z0.1982
G1 X44.2901 Y-24.4388 Z0.2026
G1 X44.2901 Y-24.4413 Z0.2073
G1 X44.2901 Y-24.4432 Z0.2123
G1 X44.2901 Y-24.4446 Z0.2174
G1 X44.2901 Y-24.4454 Z0.2226
G1 X44.2901 Y-24.4457 Z0.2279
G0 Z0.3576
G0 X44.2901 Y-24.4457 
G0 Z0.3576
G0 X44.1251 Y-22.8744 
G1 X44.1251 Y-22.8749 Z0.3477 F25.
G1 X44.1251 Y-22.8764 Z0.3380
G1 X44.1251 Y-22.8787 Z0.3285
G1 X44.1251 Y-22.8820 Z0.3193
G1 X44.1251 Y-22.8862 Z0.3104
G1 X44.1251 Y-22.8913 Z0.3020
G1 X44.1251 Y-22.8971 Z0.2941
G1 X44.1251 Y-22.9037 Z0.2868
G1 X44.1251 Y-22.9110 Z0.2802
G1 X44.1251 Y-22.9189 Z0.2744
G1 X44.1251 Y-22.9273 Z0.2694
G1 X44.1251 Y-22.9362 Z0.2652
G1 X44.1251 Y-22.9454 Z0.2619
G1 X44.1251 Y-22.9549 Z0.2595
G1 X44.1251 Y-22.9646 Z0.2580
G1 X44.1251 Y-22.9744 Z0.2576
G1 X44.1251 Y-23.1657 Z0.2575 F50.
G1 X44.1251 Y-23.1896 Z0.2575
G1 X44.1251 Y-23.2016 Z0.2575
G1 X44.1251 Y-23.2135 Z0.2574
G1 X44.1251 Y-23.2374 Z0.2573
G1 X44.1251 Y-23.2613 Z0.2570
G1 X44.1251 Y-23.2853 Z0.2568
G1 X44.1251 Y-23.2972 Z0.2566
G1 X44.1251 Y-23.3092 Z0.2564
G1 X44.1251 Y-23.3331 Z0.2561
G1 X44.1251 Y-23.3689 Z0.2553
G1 X44.1251 Y-23.4048 Z0.2545
G1 X44.1251 Y-23.4407 Z0.2535
G1 X44.1251 Y-23.4765 Z0.2524
G1 X44.1251 Y-23.5004 Z0.2516
G1 X44.1251 Y-23.5124 Z0.2512
G1 X44.1251 Y-23.5243 Z0.2507
G1 X44.1251 Y-23.5483 Z0.2498
G1 X44.1251 Y-23.5722 Z0.2488
G1 X44.1251 Y-23.6080 Z0.2472
G1 X44.1251 Y-23.6200 Z0.2466
G1 X44.1251 Y-23.6439 Z0.2455
G1 X44.1251 Y-23.6798 Z0.2436
G1 X44.1251 Y-23.7156 Z0.2416
G1 X44.1251 Y-23.7395 Z0.2401
G1 X44.1251 Y-23.7515 Z0.2394
G1 X44.1251 Y-23.7634 Z0.2386
G1 X44.1251 Y-23.7874 Z0.2371
G1 X44.1251 Y-23.8113 Z0.2355
G1 X44.1251 Y-23.8352 Z0.2339
G1 X44.1251 Y-23.8471 Z0.2330
G1 X44.1251 Y-23.8591 Z0.2321
G1 X44.1251 Y-23.8830 Z0.2304
G1 X44.1251 Y-23.9189 Z0.2276
G1 X44.1251 Y-23.9547 Z0.2246
G1 X44.1251 Y-23.9786 Z0.2226
G1 X44.1251 Y-23.9906 Z0.2216
G1 X44.1251 Y-24.0025 Z0.2205
G1 X44.1251 Y-24.0264 Z0.2184
G1 X44.1251 Y-24.0504 Z0.2162
G1 X44.1251 Y-24.0743 Z0.2139
G1 X44.1251 Y-24.0862 Z0.2128
G1 X44.1251 Y-24.0982 Z0.2116
G1 X44.1251 Y-24.1221 Z0.2092
G1 X44.1251 Y-24.1557 Z0.2057
G1 X44.1251 Y-24.1893 Z0.2022
G1 X44.1251 Y-24.2229 Z0.1985
G1 X44.1251 Y-24.2565 Z0.1946
G1 X44.1251 Y-24.2901 Z0.1907
G1 X44.1251 Y-24.3237 Z0.1866
G1 X44.1251 Y-24.3573 Z0.1824
G1 X44.1251 Y-24.3909 Z0.1781
G1 X44.1251 Y-24.3962 Z0.1777
G1 X44.1251 Y-24.4015 Z0.1779
G1 X44.1251 Y-24.4067 Z0.1786
G1 X44.1251 Y-24.4119 Z0.1799
G1 X44.1251 Y-24.4169 Z0.1817
G1 X44.1251 Y-24.4216 Z0.1841
G1 X44.1251 Y-24.4261 Z0.1869
G1 X44.1251 Y-24.4303 Z0.1902
G1 X44.1251 Y-24.4341 Z0.1939
G1 X44.1251 Y-24.4374 Z0.1980
G1 X44.1251 Y-24.4404 Z0.2024
G1 X44.1251 Y-24.4428 Z0.2071
G1 X44.1251 Y-24.4447 Z0.2121
G1 X44.1251 Y-24.4461 Z0.2172
G1 X44.1251 Y-24.4470 Z0.2224
G1 X44.1251 Y-24.4472 Z0.2277
G0 Z0.3576
G0 X44.1251 Y-24.4472 
G0 Z0.3576
G0 X43.9601 Y-22.8744 
G1 X43.9601 Y-22.8749 Z0.3477 F25.
G1 X43.9601 Y-22.8764 Z0.3380
G1 X43.9601 Y-22.8787 Z0.3285
G1 X43.9601 Y-22.8820 Z0.3193
G1 X43.9601 Y-22.8862 Z0.3104
G1 X43.9601 Y-22.8913 Z0.3020
G1 X43.9601 Y-22.8971 Z0.2941
G1 X43.9601 Y-22.9037 Z0.2868
G1 X43.9601 Y-22.9110 Z0.2802
G1 X43.9601 Y-22.9189 Z0.2744
G1 X43.9601 Y-22.9273 Z0.2694
G1 X43.9601 Y-22.9362 Z0.2652
G1 X43.9601 Y-22.9454 Z0.2619
G1 X43.9601 Y-22.9549 Z0.2595
G1 X43.9601 Y-22.9646 Z0.2580
G1 X43.9601 Y-22.9744 Z0.2576
G1 X43.9601 Y-23.1657 Z0.2575 F50.
G1 X43.9601 Y-23.1896 Z0.2575
G1 X43.9601 Y-23.2016 Z0.2575
G1 X43.9601 Y-23.2135 Z0.2574
G1 X43.9601 Y-23.2374 Z0.2573
G1 X43.9601 Y-23.2613 Z0.2570
G1 X43.9601 Y-23.2853 Z0.2568
G1 X43.9601 Y-23.2972 Z0.2566
G1 X43.9601 Y-23.3092 Z0.2564
G1 X43.9601 Y-23.3331 Z0.2561
G1 X43.9601 Y-23.3689 Z0.2553
G1 X43.9601 Y-23.4048 Z0.2545
G1 X43.9601 Y-23.4407 Z0.2535
G1 X43.9601 Y-23.4765 Z0.2524
G1 X43.9601 Y-23.5004 Z0.2516
G1 X43.9601 Y-23.5124 Z0.2512
G1 X43.9601 Y-23.5243 Z0.2507
G1 X43.9601 Y-23.5483 Z0.2498
G1 X43.9601 Y-23.5722 Z0.2488
G1 X43.9601 Y-23.6080 Z0.2472
G1 X43.9601 Y-23.6200 Z0.2466
G1 X43.9601 Y-23.6439 Z0.2455
G1 X43.9601 Y-23.6798 Z0.2436
G1 X43.9601 Y-23.7156 Z0.2416
G1 X43.9601 Y-23.7395 Z0.2401
G1 X43.9601 Y-23.7515 Z0.2394
G1 X43.9601 Y-23.7634 Z0.2386
G1 X43.9601 Y-23.7874 Z0.2371
G1 X43.9601 Y-23.8113 Z0.2355
G1 X43.9601 Y-23.8352 Z0.2339
G1 X43.9601 Y-23.8471 Z0.2330
G1 X43.9601 Y-23.8591 Z0.2321
G1 X43.9601 Y-23.8830 Z0.2304
G1 X43.9601 Y-23.9189 Z0.2276
G1 X43.9601 Y-23.9547 Z0.2246
G1 X43.9601 Y-23.9786 Z0.2226
G1 X43.9601 Y-23.9906 Z0.2216
G1 X43.9601 Y-24.0025 Z0.2205
G1 X43.9601 Y-24.0264 Z0.2184
G1 X43.9601 Y-24.0504 Z0.2162
G1 X43.9601 Y-24.0743 Z0.2139
G1 X43.9601 Y-24.0862 Z0.2128
G1 X43.9601 Y-24.0982 Z0.2116
G1 X43.9601 Y-24.1221 Z0.2092
G1 X43.9601 Y-24.1559 Z0.2057
G1 X43.9601 Y-24.1897 Z0.2021
G1 X43.9601 Y-24.2235 Z0.1984
G1 X43.9601 Y-24.2572 Z0.1945
G1 X43.9601 Y-24.2910 Z0.1906
G1 X43.9601 Y-24.3248 Z0.1865
G1 X43.9601 Y-24.3586 Z0.1823
G1 X43.9601 Y-24.3924 Z0.1779
G1 X43.9601 Y-24.3977 Z0.1775
G1 X43.9601 Y-24.4030 Z0.1777
G1 X43.9601 Y-24.4082 Z0.1784
G1 X43.9601 Y-24.4134 Z0.1797
G1 X43.9601 Y-24.4184 Z0.1815
G1 X43.9601 Y-24.4231 Z0.1839
G1 X43.9601 Y-24.4276 Z0.1867
G1 X43.9601 Y-24.4318 Z0.1900
G1 X43.9601 Y-24.4356 Z0.1937
G1 X43.9601 Y-24.4390 Z0.1978
G1 X43.9601 Y-24.4419 Z0.2022
G1 X43.9601 Y-24.4443 Z0.2069
G1 X43.9601 Y-24.4463 Z0.2119
G1 X43.9601 Y-24.4476 Z0.2170
G1 X43.9601 Y-24.4485 Z0.2222
G1 X43.9601 Y-24.4488 Z0.2275
G0 Z0.3576
G0 X43.9601 Y-24.4488 
G0 Z0.3576
G0 X43.7951 Y-22.8744 
G1 X43.7951 Y-22.8749 Z0.3477 F25.
G1 X43.7951 Y-22.8764 Z0.3380
G1 X43.7951 Y-22.8787 Z0.3285
G1 X43.7951 Y-22.8820 Z0.3193
G1 X43.7951 Y-22.8862 Z0.3104
G1 X43.7951 Y-22.8913 Z0.3020
G1 X43.7951 Y-22.8971 Z0.2941
G1 X43.7951 Y-22.9037 Z0.2868
G1 X43.7951 Y-22.9110 Z0.2802
G1 X43.7951 Y-22.9189 Z0.2744
G1 X43.7951 Y-22.9273 Z0.2694
G1 X43.7951 Y-22.9362 Z0.2652
G1 X43.7951 Y-22.9454 Z0.2619
G1 X43.7951 Y-22.9549 Z0.2595
G1 X43.7951 Y-22.9646 Z0.2580
G1 X43.7951 Y-22.9744 Z0.2576
G1 X43.7951 Y-23.1657 Z0.2575 F50.
G1 X43.7951 Y-23.1896 Z0.2575
G1 X43.7951 Y-23.2016 Z0.2575
G1 X43.7951 Y-23.2135 Z0.2574
G1 X43.7951 Y-23.2374 Z0.2573
G1 X43.7951 Y-23.2613 Z0.2570
G1 X43.7951 Y-23.2853 Z0.2568
G1 X43.7951 Y-23.2972 Z0.2566
G1 X43.7951 Y-23.3092 Z0.2564
G1 X43.7951 Y-23.3331 Z0.2561
G1 X43.7951 Y-23.3689 Z0.2553
G1 X43.7951 Y-23.4048 Z0.2545
G1 X43.7951 Y-23.4407 Z0.2535
G1 X43.7951 Y-23.4765 Z0.2524
G1 X43.7951 Y-23.5004 Z0.2516
G1 X43.7951 Y-23.5124 Z0.2512
G1 X43.7951 Y-23.5243 Z0.2507
G1 X43.7951 Y-23.5483 Z0.2498
G1 X43.7951 Y-23.5722 Z0.2488
G1 X43.7951 Y-23.6080 Z0.2472
G1 X43.7951 Y-23.6200 Z0.2466
G1 X43.7951 Y-23.6439 Z0.2455
G1 X43.7951 Y-23.6798 Z0.2436
G1 X43.7951 Y-23.7156 Z0.2416
G1 X43.7951 Y-23.7395 Z0.2401
G1 X43.7951 Y-23.7515 Z0.2394
G1 X43.7951 Y-23.7634 Z0.2386
G1 X43.7951 Y-23.7874 Z0.2371
G1 X43.7951 Y-23.8113 Z0.2355
G1 X43.7951 Y-23.8352 Z0.2339
G1 X43.7951 Y-23.8471 Z0.2330
G1 X43.7951 Y-23.8591 Z0.2321
G1 X43.7951 Y-23.8830 Z0.2304
G1 X43.7951 Y-23.9189 Z0.2276
G1 X43.7951 Y-23.9547 Z0.2246
G1 X43.7951 Y-23.9786 Z0.2226
G1 X43.7951 Y-23.9906 Z0.2216
G1 X43.7951 Y-24.0025 Z0.2205
G1 X43.7951 Y-24.0264 Z0.2184
G1 X43.7951 Y-24.0504 Z0.2162
G1 X43.7951 Y-24.0743 Z0.2139
G1 X43.7951 Y-24.0862 Z0.2128
G1 X43.7951 Y-24.0982 Z0.2116
G1 X43.7951 Y-24.1221 Z0.2092
G1 X43.7951 Y-24.1561 Z0.2057
G1 X43.7951 Y-24.1900 Z0.2021
G1 X43.7951 Y-24.2240 Z0.1983
G1 X43.7951 Y-24.2580 Z0.1945
G1 X43.7951 Y-24.2920 Z0.1905
G1 X43.7951 Y-24.3260 Z0.1863
G1 X43.7951 Y-24.3599 Z0.1821
G1 X43.7951 Y-24.3939 Z0.1777
G1 X43.7951 Y-24.3992 Z0.1773
G1 X43.7951 Y-24.4045 Z0.1775
G1 X43.7951 Y-24.4098 Z0.1782
G1 X43.7951 Y-24.4149 Z0.1795
G1 X43.7951 Y-24.4199 Z0.1813
G1 X43.7951 Y-24.4247 Z0.1837
G1 X43.7951 Y-24.4292 Z0.1865
G1 X43.7951 Y-24.4333 Z0.1898
G1 X43.7951 Y-24.4371 Z0.1935
G1 X43.7951 Y-24.4405 Z0.1976
G1 X43.7951 Y-24.4434 Z0.2020
G1 X43.7951 Y-24.4459 Z0.2067
G1 X43.7951 Y-24.4478 Z0.2117
G1 X43.7951 Y-24.4492 Z0.2168
G1 X43.7951 Y-24.4500 Z0.2220
G1 X43.7951 Y-24.4503 Z0.2273
G0 Z0.3576
G0 X43.7951 Y-24.4503 
G0 Z0.3576
G0 X43.6301 Y-22.8744 
G1 X43.6301 Y-22.8749 Z0.3477 F25.
G1 X43.6301 Y-22.8764 Z0.3380
G1 X43.6301 Y-22.8787 Z0.3285
G1 X43.6301 Y-22.8820 Z0.3193
G1 X43.6301 Y-22.8862 Z0.3104
G1 X43.6301 Y-22.8913 Z0.3020
G1 X43.6301 Y-22.8971 Z0.2941
G1 X43.6301 Y-22.9037 Z0.2868
G1 X43.6301 Y-22.9110 Z0.2802
G1 X43.6301 Y-22.9189 Z0.2744
G1 X43.6301 Y-22.9273 Z0.2694
G1 X43.6301 Y-22.9362 Z0.2652
G1 X43.6301 Y-22.9454 Z0.2619
G1 X43.6301 Y-22.9549 Z0.2595
G1 X43.6301 Y-22.9646 Z0.2580
G1 X43.6301 Y-22.9744 Z0.2576
G1 X43.6301 Y-23.1657 Z0.2575 F50.
G1 X43.6301 Y-23.1896 Z0.2575
G1 X43.6301 Y-23.2016 Z0.2575
G1 X43.6301 Y-23.2135 Z0.2574
G1 X43.6301 Y-23.2374 Z0.2573
G1 X43.6301 Y-23.2613 Z0.2570
G1 X43.6301 Y-23.2853 Z0.2568
G1 X43.6301 Y-23.2972 Z0.2566
G1 X43.6301 Y-23.3092 Z0.2564
G1 X43.6301 Y-23.3331 Z0.2561
G1 X43.6301 Y-23.3689 Z0.2553
G1 X43.6301 Y-23.4048 Z0.2545
G1 X43.6301 Y-23.4407 Z0.2535
G1 X43.6301 Y-23.4765 Z0.2524
G1 X43.6301 Y-23.5004 Z0.2516
G1 X43.6301 Y-23.5124 Z0.2512
G1 X43.6301 Y-23.5243 Z0.2507
G1 X43.6301 Y-23.5483 Z0.2498
G1 X43.6301 Y-23.5722 Z0.2488
G1 X43.6301 Y-23.6080 Z0.2472
G1 X43.6301 Y-23.6200 Z0.2466
G1 X43.6301 Y-23.6439 Z0.2455
G1 X43.6301 Y-23.6798 Z0.2436
G1 X43.6301 Y-23.7156 Z0.2416
G1 X43.6301 Y-23.7395 Z0.2401
G1 X43.6301 Y-23.7515 Z0.2394
G1 X43.6301 Y-23.7634 Z0.2386
G1 X43.6301 Y-23.7874 Z0.2371
G1 X43.6301 Y-23.8113 Z0.2355
G1 X43.6301 Y-23.8352 Z0.2339
G1 X43.6301 Y-23.8471 Z0.2330
G1 X43.6301 Y-23.8591 Z0.2321
G1 X43.6301 Y-23.8830 Z0.2304
G1 X43.6301 Y-23.9189 Z0.2276
G1 X43.6301 Y-23.9547 Z0.2246
G1 X43.6301 Y-23.9786 Z0.2226
G1 X43.6301 Y-23.9906 Z0.2216
G1 X43.6301 Y-24.0025 Z0.2205
G1 X43.6301 Y-24.0264 Z0.2184
G1 X43.6301 Y-24.0504 Z0.2162
G1 X43.6301 Y-24.0743 Z0.2139
G1 X43.6301 Y-24.0862 Z0.2128
G1 X43.6301 Y-24.0982 Z0.2116
G1 X43.6301 Y-24.1221 Z0.2092
G1 X43.6301 Y-24.1563 Z0.2057
G1 X43.6301 Y-24.1904 Z0.2020
G1 X43.6301 Y-24.2246 Z0.1983
G1 X43.6301 Y-24.2588 Z0.1944
G1 X43.6301 Y-24.2929 Z0.1903
G1 X43.6301 Y-24.3271 Z0.1862
G1 X43.6301 Y-24.3613 Z0.1819
G1 X43.6301 Y-24.3954 Z0.1775
G1 X43.6301 Y-24.4007 Z0.1771
G1 X43.6301 Y-24.4060 Z0.1773
G1 X43.6301 Y-24.4113 Z0.1780
G1 X43.6301 Y-24.4164 Z0.1793
G1 X43.6301 Y-24.4214 Z0.1811
G1 X43.6301 Y-24.4262 Z0.1835
G1 X43.6301 Y-24.4307 Z0.1863
G1 X43.6301 Y-24.4349 Z0.1896
G1 X43.6301 Y-24.4386 Z0.1933
G1 X43.6301 Y-24.4420 Z0.1974
G1 X43.6301 Y-24.4449 Z0.2018
G1 X43.6301 Y-24.4474 Z0.2065
G1 X43.6301 Y-24.4493 Z0.2115
G1 X43.6301 Y-24.4507 Z0.2166
G1 X43.6301 Y-24.4516 Z0.2218
G1 X43.6301 Y-24.4518 Z0.2271
G0 Z0.3576
G0 X43.6301 Y-24.4518 
G0 Z0.3576
G0 X43.4651 Y-22.8744 
G1 X43.4651 Y-22.8749 Z0.3477 F25.
G1 X43.4651 Y-22.8764 Z0.3380
G1 X43.4651 Y-22.8787 Z0.3285
G1 X43.4651 Y-22.8820 Z0.3193
G1 X43.4651 Y-22.8862 Z0.3104
G1 X43.4651 Y-22.8913 Z0.3020
G1 X43.4651 Y-22.8971 Z0.2941
G1 X43.4651 Y-22.9037 Z0.2868
G1 X43.4651 Y-22.9110 Z0.2802
G1 X43.4651 Y-22.9189 Z0.2744
G1 X43.4651 Y-22.9273 Z0.2694
G1 X43.4651 Y-22.9362 Z0.2652
G1 X43.4651 Y-22.9454 Z0.2619
G1 X43.4651 Y-22.9549 Z0.2595
G1 X43.4651 Y-22.9646 Z0.2580
G1 X43.4651 Y-22.9744 Z0.2576
G1 X43.4651 Y-23.1657 Z0.2575 F50.
G1 X43.4651 Y-23.1896 Z0.2575
G1 X43.4651 Y-23.2016 Z0.2575
G1 X43.4651 Y-23.2135 Z0.2574
G1 X43.4651 Y-23.2374 Z0.2573
G1 X43.4651 Y-23.2613 Z0.2570
G1 X43.4651 Y-23.2853 Z0.2568
G1 X43.4651 Y-23.2972 Z0.2566
G1 X43.4651 Y-23.3092 Z0.2564
G1 X43.4651 Y-23.3331 Z0.2561
G1 X43.4651 Y-23.3689 Z0.2553
G1 X43.4651 Y-23.4048 Z0.2545
G1 X43.4651 Y-23.4407 Z0.2535
G1 X43.4651 Y-23.4765 Z0.2524
G1 X43.4651 Y-23.5004 Z0.2516
G1 X43.4651 Y-23.5124 Z0.2512
G1 X43.4651 Y-23.5243 Z0.2507
G1 X43.4651 Y-23.5483 Z0.2498
G1 X43.4651 Y-23.5722 Z0.2488
G1 X43.4651 Y-23.6080 Z0.2472
G1 X43.4651 Y-23.6200 Z0.2466
G1 X43.4651 Y-23.6439 Z0.2455
G1 X43.4651 Y-23.6798 Z0.2436
G1 X43.4651 Y-23.7156 Z0.2416
G1 X43.4651 Y-23.7395 Z0.2401
G1 X43.4651 Y-23.7515 Z0.2394
G1 X43.4651 Y-23.7634 Z0.2386
G1 X43.4651 Y-23.7874 Z0.2371
G1 X43.4651 Y-23.8113 Z0.2355
G1 X43.4651 Y-23.8352 Z0.2339
G1 X43.4651 Y-23.8471 Z0.2330
G1 X43.4651 Y-23.8591 Z0.2321
G1 X43.4651 Y-23.8830 Z0.2304
G1 X43.4651 Y-23.9189 Z0.2276
G1 X43.4651 Y-23.9547 Z0.2246
G1 X43.4651 Y-23.9786 Z0.2226
G1 X43.4651 Y-23.9906 Z0.2216
G1 X43.4651 Y-24.0025 Z0.2205
G1 X43.4651 Y-24.0264 Z0.2184
G1 X43.4651 Y-24.0504 Z0.2162
G1 X43.4651 Y-24.0743 Z0.2139
G1 X43.4651 Y-24.0862 Z0.2128
G1 X43.4651 Y-24.0982 Z0.2116
G1 X43.4651 Y-24.1221 Z0.2092
G1 X43.4651 Y-24.1564 Z0.2057
G1 X43.4651 Y-24.1908 Z0.2020
G1 X43.4651 Y-24.2252 Z0.1982
G1 X43.4651 Y-24.2595 Z0.1943
G1 X43.4651 Y-24.2939 Z0.1902
G1 X43.4651 Y-24.3282 Z0.1861
G1 X43.4651 Y-24.3626 Z0.1818
G1 X43.4651 Y-24.3970 Z0.1773
G1 X43.4651 Y-24.4023 Z0.1769
G1 X43.4651 Y-24.4076 Z0.1771
G1 X43.4651 Y-24.4128 Z0.1778
G1 X43.4651 Y-24.4180 Z0.1791
G1 X43.4651 Y-24.4230 Z0.1809
G1 X43.4651 Y-24.4277 Z0.1832
G1 X43.4651 Y-24.4322 Z0.1861
G1 X43.4651 Y-24.4364 Z0.1894
G1 X43.4651 Y-24.4402 Z0.1931
G1 X43.4651 Y-24.4436 Z0.1972
G1 X43.4651 Y-24.4465 Z0.2016
G1 X43.4651 Y-24.4489 Z0.2063
G1 X43.4651 Y-24.4508 Z0.2113
G1 X43.4651 Y-24.4522 Z0.2164
G1 X43.4651 Y-24.4531 Z0.2216
G1 X43.4651 Y-24.4534 Z0.2269
G0 Z0.3576
G0 X43.4651 Y-24.4534 
G0 Z0.3576
G0 X43.3001 Y-22.8744 
G1 X43.3001 Y-22.8749 Z0.3477 F25.
G1 X43.3001 Y-22.8764 Z0.3380
G1 X43.3001 Y-22.8787 Z0.3285
G1 X43.3001 Y-22.8820 Z0.3193
G1 X43.3001 Y-22.8862 Z0.3104
G1 X43.3001 Y-22.8913 Z0.3020
G1 X43.3001 Y-22.8971 Z0.2941
G1 X43.3001 Y-22.9037 Z0.2868
G1 X43.3001 Y-22.9110 Z0.2802
G1 X43.3001 Y-22.9189 Z0.2744
G1 X43.3001 Y-22.9273 Z0.2694
G1 X43.3001 Y-22.9362 Z0.2652
G1 X43.3001 Y-22.9454 Z0.2619
G1 X43.3001 Y-22.9549 Z0.2595
G1 X43.3001 Y-22.9646 Z0.2580
G1 X43.3001 Y-22.9744 Z0.2576
G1 X43.3001 Y-23.1657 Z0.2575 F50.
G1 X43.3001 Y-23.1896 Z0.2575
G1 X43.3001 Y-23.2016 Z0.2575
G1 X43.3001 Y-23.2135 Z0.2574
G1 X43.3001 Y-23.2374 Z0.2573
G1 X43.3001 Y-23.2613 Z0.2570
G1 X43.3001 Y-23.2853 Z0.2568
G1 X43.3001 Y-23.2972 Z0.2566
G1 X43.3001 Y-23.3092 Z0.2564
G1 X43.3001 Y-23.3331 Z0.2561
G1 X43.3001 Y-23.3689 Z0.2553
G1 X43.3001 Y-23.4048 Z0.2545
G1 X43.3001 Y-23.4407 Z0.2535
G1 X43.3001 Y-23.4765 Z0.2524
G1 X43.3001 Y-23.5004 Z0.2516
G1 X43.3001 Y-23.5124 Z0.2512
G1 X43.3001 Y-23.5243 Z0.2507
G1 X43.3001 Y-23.5483 Z0.2498
G1 X43.3001 Y-23.5722 Z0.2488
G1 X43.3001 Y-23.6080 Z0.2472
G1 X43.3001 Y-23.6200 Z0.2466
G1 X43.3001 Y-23.6439 Z0.2455
G1 X43.3001 Y-23.6798 Z0.2436
G1 X43.3001 Y-23.7156 Z0.2416
G1 X43.3001 Y-23.7395 Z0.2401
G1 X43.3001 Y-23.7515 Z0.2394
G1 X43.3001 Y-23.7634 Z0.2386
G1 X43.3001 Y-23.7874 Z0.2371
G1 X43.3001 Y-23.8113 Z0.2355
G1 X43.3001 Y-23.8352 Z0.2339
G1 X43.3001 Y-23.8471 Z0.2330
G1 X43.3001 Y-23.8591 Z0.2321
G1 X43.3001 Y-23.8830 Z0.2304
G1 X43.3001 Y-23.9189 Z0.2276
G1 X43.3001 Y-23.9547 Z0.2246
G1 X43.3001 Y-23.9786 Z0.2226
G1 X43.3001 Y-23.9906 Z0.2216
G1 X43.3001 Y-24.0025 Z0.2205
G1 X43.3001 Y-24.0264 Z0.2184
G1 X43.3001 Y-24.0504 Z0.2162
G1 X43.3001 Y-24.0743 Z0.2139
G1 X43.3001 Y-24.0862 Z0.2128
G1 X43.3001 Y-24.0982 Z0.2116
G1 X43.3001 Y-24.1221 Z0.2092
G1 X43.3001 Y-24.1566 Z0.2056
G1 X43.3001 Y-24.1912 Z0.2020
G1 X43.3001 Y-24.2257 Z0.1981
G1 X43.3001 Y-24.2603 Z0.1942
G1 X43.3001 Y-24.2948 Z0.1901
G1 X43.3001 Y-24.3294 Z0.1859
G1 X43.3001 Y-24.3639 Z0.1816
G1 X43.3001 Y-24.3985 Z0.1771
G1 X43.3001 Y-24.4038 Z0.1767
G1 X43.3001 Y-24.4091 Z0.1769
G1 X43.3001 Y-24.4143 Z0.1776
G1 X43.3001 Y-24.4195 Z0.1789
G1 X43.3001 Y-24.4245 Z0.1807
G1 X43.3001 Y-24.4293 Z0.1830
G1 X43.3001 Y-24.4337 Z0.1859
G1 X43.3001 Y-24.4379 Z0.1892
G1 X43.3001 Y-24.4417 Z0.1929
G1 X43.3001 Y-24.4451 Z0.1970
G1 X43.3001 Y-24.4480 Z0.2014
G1 X43.3001 Y-24.4505 Z0.2061
G1 X43.3001 Y-24.4524 Z0.2110
G1 X43.3001 Y-24.4538 Z0.2162
G1 X43.3001 Y-24.4546 Z0.2214
G1 X43.3001 Y-24.4549 Z0.2267
G0 Z0.3576
G0 X43.3001 Y-24.4549 
G0 Z0.3576
G0 X43.1351 Y-22.8744 
G1 X43.1351 Y-22.8749 Z0.3477 F25.
G1 X43.1351 Y-22.8764 Z0.3380
G1 X43.1351 Y-22.8787 Z0.3285
G1 X43.1351 Y-22.8820 Z0.3193
G1 X43.1351 Y-22.8862 Z0.3104
G1 X43.1351 Y-22.8913 Z0.3020
G1 X43.1351 Y-22.8971 Z0.2941
G1 X43.1351 Y-22.9037 Z0.2868
G1 X43.1351 Y-22.9110 Z0.2802
G1 X43.1351 Y-22.9189 Z0.2744
G1 X43.1351 Y-22.9273 Z0.2694
G1 X43.1351 Y-22.9362 Z0.2652
G1 X43.1351 Y-22.9454 Z0.2619
G1 X43.1351 Y-22.9549 Z0.2595
G1 X43.1351 Y-22.9646 Z0.2580
G1 X43.1351 Y-22.9744 Z0.2576
G1 X43.1351 Y-23.1657 Z0.2575 F50.
G1 X43.1351 Y-23.1896 Z0.2575
G1 X43.1351 Y-23.2016 Z0.2575
G1 X43.1351 Y-23.2135 Z0.2574
G1 X43.1351 Y-23.2374 Z0.2573
G1 X43.1351 Y-23.2613 Z0.2570
G1 X43.1351 Y-23.2853 Z0.2568
G1 X43.1351 Y-23.2972 Z0.2566
G1 X43.1351 Y-23.3092 Z0.2564
G1 X43.1351 Y-23.3331 Z0.2561
G1 X43.1351 Y-23.3689 Z0.2553
G1 X43.1351 Y-23.4048 Z0.2545
G1 X43.1351 Y-23.4407 Z0.2535
G1 X43.1351 Y-23.4765 Z0.2524
G1 X43.1351 Y-23.5004 Z0.2516
G1 X43.1351 Y-23.5124 Z0.2512
G1 X43.1351 Y-23.5243 Z0.2507
G1 X43.1351 Y-23.5483 Z0.2498
G1 X43.1351 Y-23.5722 Z0.2488
G1 X43.1351 Y-23.6080 Z0.2472
G1 X43.1351 Y-23.6200 Z0.2466
G1 X43.1351 Y-23.6439 Z0.2455
G1 X43.1351 Y-23.6798 Z0.2436
G1 X43.1351 Y-23.7156 Z0.2416
G1 X43.1351 Y-23.7395 Z0.2401
G1 X43.1351 Y-23.7515 Z0.2394
G1 X43.1351 Y-23.7634 Z0.2386
G1 X43.1351 Y-23.7874 Z0.2371
G1 X43.1351 Y-23.8113 Z0.2355
G1 X43.1351 Y-23.8352 Z0.2339
G1 X43.1351 Y-23.8471 Z0.2330
G1 X43.1351 Y-23.8591 Z0.2321
G1 X43.1351 Y-23.8830 Z0.2304
G1 X43.1351 Y-23.9189 Z0.2276
G1 X43.1351 Y-23.9547 Z0.2246
G1 X43.1351 Y-23.9786 Z0.2226
G1 X43.1351 Y-23.9906 Z0.2216
G1 X43.1351 Y-24.0025 Z0.2205
G1 X43.1351 Y-24.0264 Z0.2184
G1 X43.1351 Y-24.0504 Z0.2162
G1 X43.1351 Y-24.0743 Z0.2139
G1 X43.1351 Y-24.0862 Z0.2128
G1 X43.1351 Y-24.0982 Z0.2116
G1 X43.1351 Y-24.1221 Z0.2092
G1 X43.1351 Y-24.1568 Z0.2056
G1 X43.1351 Y-24.1916 Z0.2019
G1 X43.1351 Y-24.2263 Z0.1981
G1 X43.1351 Y-24.2611 Z0.1941
G1 X43.1351 Y-24.2958 Z0.1900
G1 X43.1351 Y-24.3305 Z0.1858
G1 X43.1351 Y-24.3653 Z0.1814
G1 X43.1351 Y-24.4000 Z0.1769
G1 X43.1351 Y-24.4053 Z0.1765
G1 X43.1351 Y-24.4106 Z0.1767
G1 X43.1351 Y-24.4159 Z0.1774
G1 X43.1351 Y-24.4210 Z0.1787
G1 X43.1351 Y-24.4260 Z0.1805
G1 X43.1351 Y-24.4308 Z0.1828
G1 X43.1351 Y-24.4353 Z0.1857
G1 X43.1351 Y-24.4394 Z0.1890
G1 X43.1351 Y-24.4432 Z0.1927
G1 X43.1351 Y-24.4466 Z0.1968
G1 X43.1351 Y-24.4495 Z0.2012
G1 X43.1351 Y-24.4520 Z0.2059
G1 X43.1351 Y-24.4539 Z0.2108
G1 X43.1351 Y-24.4553 Z0.2160
G1 X43.1351 Y-24.4561 Z0.2212
G1 X43.1351 Y-24.4564 Z0.2265
G0 Z0.3576
G0 X43.1351 Y-24.4564 
G0 Z0.3576
G0 X42.9701 Y-22.8744 
G1 X42.9701 Y-22.8749 Z0.3477 F25.
G1 X42.9701 Y-22.8764 Z0.3380
G1 X42.9701 Y-22.8787 Z0.3285
G1 X42.9701 Y-22.8820 Z0.3193
G1 X42.9701 Y-22.8862 Z0.3104
G1 X42.9701 Y-22.8913 Z0.3020
G1 X42.9701 Y-22.8971 Z0.2941
G1 X42.9701 Y-22.9037 Z0.2868
G1 X42.9701 Y-22.9110 Z0.2802
G1 X42.9701 Y-22.9189 Z0.2744
G1 X42.9701 Y-22.9273 Z0.2694
G1 X42.9701 Y-22.9362 Z0.2652
G1 X42.9701 Y-22.9454 Z0.2619
G1 X42.9701 Y-22.9549 Z0.2595
G1 X42.9701 Y-22.9646 Z0.2580
G1 X42.9701 Y-22.9744 Z0.2576
G1 X42.9701 Y-23.1657 Z0.2575 F50.
G1 X42.9701 Y-23.1896 Z0.2575
G1 X42.9701 Y-23.2016 Z0.2575
G1 X42.9701 Y-23.2135 Z0.2574
G1 X42.9701 Y-23.2374 Z0.2573
G1 X42.9701 Y-23.2613 Z0.2570
G1 X42.9701 Y-23.2853 Z0.2568
G1 X42.9701 Y-23.2972 Z0.2566
G1 X42.9701 Y-23.3092 Z0.2564
G1 X42.9701 Y-23.3331 Z0.2561
G1 X42.9701 Y-23.3689 Z0.2553
G1 X42.9701 Y-23.4048 Z0.2545
G1 X42.9701 Y-23.4407 Z0.2535
G1 X42.9701 Y-23.4765 Z0.2524
G1 X42.9701 Y-23.5004 Z0.2516
G1 X42.9701 Y-23.5124 Z0.2512
G1 X42.9701 Y-23.5243 Z0.2507
G1 X42.9701 Y-23.5483 Z0.2498
G1 X42.9701 Y-23.5722 Z0.2488
G1 X42.9701 Y-23.6080 Z0.2472
G1 X42.9701 Y-23.6200 Z0.2466
G1 X42.9701 Y-23.6439 Z0.2455
G1 X42.9701 Y-23.6798 Z0.2436
G1 X42.9701 Y-23.7156 Z0.2416
G1 X42.9701 Y-23.7395 Z0.2401
G1 X42.9701 Y-23.7515 Z0.2394
G1 X42.9701 Y-23.7634 Z0.2386
G1 X42.9701 Y-23.7874 Z0.2371
G1 X42.9701 Y-23.8113 Z0.2355
G1 X42.9701 Y-23.8352 Z0.2339
G1 X42.9701 Y-23.8471 Z0.2330
G1 X42.9701 Y-23.8591 Z0.2321
G1 X42.9701 Y-23.8830 Z0.2304
G1 X42.9701 Y-23.9189 Z0.2276
G1 X42.9701 Y-23.9547 Z0.2246
G1 X42.9701 Y-23.9786 Z0.2226
G1 X42.9701 Y-23.9906 Z0.2216
G1 X42.9701 Y-24.0025 Z0.2205
G1 X42.9701 Y-24.0264 Z0.2184
G1 X42.9701 Y-24.0504 Z0.2162
G1 X42.9701 Y-24.0743 Z0.2139
G1 X42.9701 Y-24.0862 Z0.2128
G1 X42.9701 Y-24.0982 Z0.2116
G1 X42.9701 Y-24.1221 Z0.2092
G1 X42.9701 Y-24.1570 Z0.2056
G1 X42.9701 Y-24.1919 Z0.2019
G1 X42.9701 Y-24.2269 Z0.1980
G1 X42.9701 Y-24.2618 Z0.1940
G1 X42.9701 Y-24.2967 Z0.1899
G1 X42.9701 Y-24.3317 Z0.1856
G1 X42.9701 Y-24.3666 Z0.1812
G1 X42.9701 Y-24.3928 Z0.1779
G1 X42.9701 Y-24.4015 Z0.1767
G1 X42.9701 Y-24.4068 Z0.1763
G1 X42.9701 Y-24.4122 Z0.1765
G1 X42.9701 Y-24.4174 Z0.1772
G1 X42.9701 Y-24.4226 Z0.1784
G1 X42.9701 Y-24.4276 Z0.1803
G1 X42.9701 Y-24.4324 Z0.1826
G1 X42.9701 Y-24.4369 Z0.1854
G1 X42.9701 Y-24.4410 Z0.1887
G1 X42.9701 Y-24.4448 Z0.1924
G1 X42.9701 Y-24.4482 Z0.1965
G1 X42.9701 Y-24.4512 Z0.2009
G1 X42.9701 Y-24.4536 Z0.2057
G1 X42.9701 Y-24.4555 Z0.2106
G1 X42.9701 Y-24.4569 Z0.2157
G1 X42.9701 Y-24.4578 Z0.2210
G1 X42.9701 Y-24.4581 Z0.2263
G0 Z0.3576
G0 X42.9701 Y-24.4581 
G0 Z0.3576
G0 X42.8051 Y-22.8744 
G1 X42.8051 Y-22.8749 Z0.3477 F25.
G1 X42.8051 Y-22.8764 Z0.3380
G1 X42.8051 Y-22.8787 Z0.3285
G1 X42.8051 Y-22.8820 Z0.3193
G1 X42.8051 Y-22.8862 Z0.3104
G1 X42.8051 Y-22.8913 Z0.3020
G1 X42.8051 Y-22.8971 Z0.2941
G1 X42.8051 Y-22.9037 Z0.2868
G1 X42.8051 Y-22.9110 Z0.2802
G1 X42.8051 Y-22.9189 Z0.2744
G1 X42.8051 Y-22.9273 Z0.2694
G1 X42.8051 Y-22.9362 Z0.2652
G1 X42.8051 Y-22.9454 Z0.2619
G1 X42.8051 Y-22.9549 Z0.2595
G1 X42.8051 Y-22.9646 Z0.2580
G1 X42.8051 Y-22.9744 Z0.2576
G1 X42.8051 Y-23.1657 Z0.2575 F50.
G1 X42.8051 Y-23.1896 Z0.2575
G1 X42.8051 Y-23.2016 Z0.2575
G1 X42.8051 Y-23.2135 Z0.2574
G1 X42.8051 Y-23.2374 Z0.2573
G1 X42.8051 Y-23.2613 Z0.2570
G1 X42.8051 Y-23.2853 Z0.2568
G1 X42.8051 Y-23.2972 Z0.2566
G1 X42.8051 Y-23.3092 Z0.2564
G1 X42.8051 Y-23.3331 Z0.2561
G1 X42.8051 Y-23.3689 Z0.2553
G1 X42.8051 Y-23.4048 Z0.2545
G1 X42.8051 Y-23.4407 Z0.2535
G1 X42.8051 Y-23.4765 Z0.2524
G1 X42.8051 Y-23.5004 Z0.2516
G1 X42.8051 Y-23.5124 Z0.2512
G1 X42.8051 Y-23.5243 Z0.2507
G1 X42.8051 Y-23.5483 Z0.2498
G1 X42.8051 Y-23.5722 Z0.2488
G1 X42.8051 Y-23.6080 Z0.2472
G1 X42.8051 Y-23.6200 Z0.2466
G1 X42.8051 Y-23.6439 Z0.2455
G1 X42.8051 Y-23.6798 Z0.2436
G1 X42.8051 Y-23.7156 Z0.2416
G1 X42.8051 Y-23.7395 Z0.2401
G1 X42.8051 Y-23.7515 Z0.2394
G1 X42.8051 Y-23.7634 Z0.2386
G1 X42.8051 Y-23.7874 Z0.2371
G1 X42.8051 Y-23.8113 Z0.2355
G1 X42.8051 Y-23.8352 Z0.2339
G1 X42.8051 Y-23.8471 Z0.2330
G1 X42.8051 Y-23.8591 Z0.2321
G1 X42.8051 Y-23.8830 Z0.2304
G1 X42.8051 Y-23.9189 Z0.2276
G1 X42.8051 Y-23.9547 Z0.2246
G1 X42.8051 Y-23.9786 Z0.2226
G1 X42.8051 Y-23.9906 Z0.2216
G1 X42.8051 Y-24.0025 Z0.2205
G1 X42.8051 Y-24.0264 Z0.2184
G1 X42.8051 Y-24.0504 Z0.2162
G1 X42.8051 Y-24.0743 Z0.2139
G1 X42.8051 Y-24.0862 Z0.2128
G1 X42.8051 Y-24.0982 Z0.2116
G1 X42.8051 Y-24.1221 Z0.2092
G1 X42.8051 Y-24.1572 Z0.2056
G1 X42.8051 Y-24.1923 Z0.2018
G1 X42.8051 Y-24.2275 Z0.1979
G1 X42.8051 Y-24.2626 Z0.1939
G1 X42.8051 Y-24.2977 Z0.1898
G1 X42.8051 Y-24.3328 Z0.1855
G1 X42.8051 Y-24.3592 Z0.1822
G1 X42.8051 Y-24.3943 Z0.1777
G1 X42.8051 Y-24.4031 Z0.1765
G1 X42.8051 Y-24.4084 Z0.1761
G1 X42.8051 Y-24.4137 Z0.1763
G1 X42.8051 Y-24.4189 Z0.1770
G1 X42.8051 Y-24.4241 Z0.1782
G1 X42.8051 Y-24.4291 Z0.1800
G1 X42.8051 Y-24.4339 Z0.1824
G1 X42.8051 Y-24.4384 Z0.1852
G1 X42.8051 Y-24.4426 Z0.1885
G1 X42.8051 Y-24.4464 Z0.1922
G1 X42.8051 Y-24.4498 Z0.1963
G1 X42.8051 Y-24.4527 Z0.2007
G1 X42.8051 Y-24.4552 Z0.2054
G1 X42.8051 Y-24.4571 Z0.2104
G1 X42.8051 Y-24.4585 Z0.2155
G1 X42.8051 Y-24.4593 Z0.2208
G1 X42.8051 Y-24.4596 Z0.2261
G0 Z0.3576
G0 X42.8051 Y-24.4596 
G0 Z0.3576
G0 X42.6401 Y-22.8744 
G1 X42.6401 Y-22.8749 Z0.3477 F25.
G1 X42.6401 Y-22.8764 Z0.3380
G1 X42.6401 Y-22.8787 Z0.3285
G1 X42.6401 Y-22.8820 Z0.3193
G1 X42.6401 Y-22.8862 Z0.3104
G1 X42.6401 Y-22.8913 Z0.3020
G1 X42.6401 Y-22.8971 Z0.2941
G1 X42.6401 Y-22.9037 Z0.2868
G1 X42.6401 Y-22.9110 Z0.2802
G1 X42.6401 Y-22.9189 Z0.2744
G1 X42.6401 Y-22.9273 Z0.2694
G1 X42.6401 Y-22.9362 Z0.2652
G1 X42.6401 Y-22.9454 Z0.2619
G1 X42.6401 Y-22.9549 Z0.2595
G1 X42.6401 Y-22.9646 Z0.2580
G1 X42.6401 Y-22.9744 Z0.2576
G1 X42.6401 Y-23.1657 Z0.2575 F50.
G1 X42.6401 Y-23.1896 Z0.2575
G1 X42.6401 Y-23.2016 Z0.2575
G1 X42.6401 Y-23.2135 Z0.2574
G1 X42.6401 Y-23.2374 Z0.2573
G1 X42.6401 Y-23.2613 Z0.2570
G1 X42.6401 Y-23.2853 Z0.2568
G1 X42.6401 Y-23.2972 Z0.2566
G1 X42.6401 Y-23.3092 Z0.2564
G1 X42.6401 Y-23.3331 Z0.2561
G1 X42.6401 Y-23.3689 Z0.2553
G1 X42.6401 Y-23.4048 Z0.2545
G1 X42.6401 Y-23.4407 Z0.2535
G1 X42.6401 Y-23.4765 Z0.2524
G1 X42.6401 Y-23.5004 Z0.2516
G1 X42.6401 Y-23.5124 Z0.2512
G1 X42.6401 Y-23.5243 Z0.2507
G1 X42.6401 Y-23.5483 Z0.2498
G1 X42.6401 Y-23.5722 Z0.2488
G1 X42.6401 Y-23.6080 Z0.2472
G1 X42.6401 Y-23.6200 Z0.2466
G1 X42.6401 Y-23.6439 Z0.2455
G1 X42.6401 Y-23.6798 Z0.2436
G1 X42.6401 Y-23.7156 Z0.2416
G1 X42.6401 Y-23.7395 Z0.2401
G1 X42.6401 Y-23.7515 Z0.2394
G1 X42.6401 Y-23.7634 Z0.2386
G1 X42.6401 Y-23.7874 Z0.2371
G1 X42.6401 Y-23.8113 Z0.2355
G1 X42.6401 Y-23.8352 Z0.2339
G1 X42.6401 Y-23.8471 Z0.2330
G1 X42.6401 Y-23.8591 Z0.2321
G1 X42.6401 Y-23.8830 Z0.2304
G1 X42.6401 Y-23.9189 Z0.2276
G1 X42.6401 Y-23.9547 Z0.2246
G1 X42.6401 Y-23.9786 Z0.2226
G1 X42.6401 Y-23.9906 Z0.2216
G1 X42.6401 Y-24.0025 Z0.2205
G1 X42.6401 Y-24.0264 Z0.2184
G1 X42.6401 Y-24.0504 Z0.2162
G1 X42.6401 Y-24.0743 Z0.2139
G1 X42.6401 Y-24.0862 Z0.2128
G1 X42.6401 Y-24.0982 Z0.2116
G1 X42.6401 Y-24.1221 Z0.2092
G1 X42.6401 Y-24.1574 Z0.2056
G1 X42.6401 Y-24.1927 Z0.2018
G1 X42.6401 Y-24.2280 Z0.1979
G1 X42.6401 Y-24.2633 Z0.1938
G1 X42.6401 Y-24.2986 Z0.1897
G1 X42.6401 Y-24.3251 Z0.1864
G1 X42.6401 Y-24.3604 Z0.1820
G1 X42.6401 Y-24.3958 Z0.1775
G1 X42.6401 Y-24.4046 Z0.1763
G1 X42.6401 Y-24.4099 Z0.1759
G1 X42.6401 Y-24.4152 Z0.1760
G1 X42.6401 Y-24.4205 Z0.1768
G1 X42.6401 Y-24.4256 Z0.1780
G1 X42.6401 Y-24.4306 Z0.1798
G1 X42.6401 Y-24.4354 Z0.1822
G1 X42.6401 Y-24.4399 Z0.1850
G1 X42.6401 Y-24.4441 Z0.1883
G1 X42.6401 Y-24.4479 Z0.1920
G1 X42.6401 Y-24.4513 Z0.1961
G1 X42.6401 Y-24.4542 Z0.2005
G1 X42.6401 Y-24.4567 Z0.2052
G1 X42.6401 Y-24.4586 Z0.2102
G1 X42.6401 Y-24.4600 Z0.2153
G1 X42.6401 Y-24.4609 Z0.2206
G1 X42.6401 Y-24.4611 Z0.2259
G0 Z0.3576
G0 X42.6401 Y-24.4611 
G0 Z0.3576
G0 X42.4751 Y-22.8744 
G1 X42.4751 Y-22.8749 Z0.3477 F25.
G1 X42.4751 Y-22.8764 Z0.3380
G1 X42.4751 Y-22.8787 Z0.3285
G1 X42.4751 Y-22.8820 Z0.3193
G1 X42.4751 Y-22.8862 Z0.3104
G1 X42.4751 Y-22.8913 Z0.3020
G1 X42.4751 Y-22.8971 Z0.2941
G1 X42.4751 Y-22.9037 Z0.2868
G1 X42.4751 Y-22.9110 Z0.2802
G1 X42.4751 Y-22.9189 Z0.2744
G1 X42.4751 Y-22.9273 Z0.2694
G1 X42.4751 Y-22.9362 Z0.2652
G1 X42.4751 Y-22.9454 Z0.2619
G1 X42.4751 Y-22.9549 Z0.2595
G1 X42.4751 Y-22.9646 Z0.2580
G1 X42.4751 Y-22.9744 Z0.2576
G1 X42.4751 Y-23.1657 Z0.2575 F50.
G1 X42.4751 Y-23.1896 Z0.2575
G1 X42.4751 Y-23.2016 Z0.2575
G1 X42.4751 Y-23.2135 Z0.2574
G1 X42.4751 Y-23.2374 Z0.2573
G1 X42.4751 Y-23.2613 Z0.2570
G1 X42.4751 Y-23.2853 Z0.2568
G1 X42.4751 Y-23.2972 Z0.2566
G1 X42.4751 Y-23.3092 Z0.2564
G1 X42.4751 Y-23.3331 Z0.2561
G1 X42.4751 Y-23.3689 Z0.2553
G1 X42.4751 Y-23.4048 Z0.2545
G1 X42.4751 Y-23.4407 Z0.2535
G1 X42.4751 Y-23.4765 Z0.2524
G1 X42.4751 Y-23.5004 Z0.2516
G1 X42.4751 Y-23.5124 Z0.2512
G1 X42.4751 Y-23.5243 Z0.2507
G1 X42.4751 Y-23.5483 Z0.2498
G1 X42.4751 Y-23.5722 Z0.2488
G1 X42.4751 Y-23.6080 Z0.2472
G1 X42.4751 Y-23.6200 Z0.2466
G1 X42.4751 Y-23.6439 Z0.2455
G1 X42.4751 Y-23.6798 Z0.2436
G1 X42.4751 Y-23.7156 Z0.2416
G1 X42.4751 Y-23.7395 Z0.2401
G1 X42.4751 Y-23.7515 Z0.2394
G1 X42.4751 Y-23.7634 Z0.2386
G1 X42.4751 Y-23.7874 Z0.2371
G1 X42.4751 Y-23.8113 Z0.2355
G1 X42.4751 Y-23.8352 Z0.2339
G1 X42.4751 Y-23.8471 Z0.2330
G1 X42.4751 Y-23.8591 Z0.2321
G1 X42.4751 Y-23.8830 Z0.2304
G1 X42.4751 Y-23.9189 Z0.2276
G1 X42.4751 Y-23.9547 Z0.2246
G1 X42.4751 Y-23.9786 Z0.2226
G1 X42.4751 Y-23.9906 Z0.2216
G1 X42.4751 Y-24.0025 Z0.2205
G1 X42.4751 Y-24.0264 Z0.2184
G1 X42.4751 Y-24.0504 Z0.2162
G1 X42.4751 Y-24.0743 Z0.2139
G1 X42.4751 Y-24.0862 Z0.2128
G1 X42.4751 Y-24.0982 Z0.2116
G1 X42.4751 Y-24.1221 Z0.2092
G1 X42.4751 Y-24.1576 Z0.2055
G1 X42.4751 Y-24.1931 Z0.2017
G1 X42.4751 Y-24.2286 Z0.1978
G1 X42.4751 Y-24.2641 Z0.1937
G1 X42.4751 Y-24.2907 Z0.1906
G1 X42.4751 Y-24.3262 Z0.1863
G1 X42.4751 Y-24.3617 Z0.1819
G1 X42.4751 Y-24.3884 Z0.1784
G1 X42.4751 Y-24.4061 Z0.1761
G1 X42.4751 Y-24.4114 Z0.1757
G1 X42.4751 Y-24.4167 Z0.1759
G1 X42.4751 Y-24.4220 Z0.1766
G1 X42.4751 Y-24.4271 Z0.1779
G1 X42.4751 Y-24.4321 Z0.1797
G1 X42.4751 Y-24.4369 Z0.1820
G1 X42.4751 Y-24.4414 Z0.1848
G1 X42.4751 Y-24.4456 Z0.1881
G1 X42.4751 Y-24.4494 Z0.1918
G1 X42.4751 Y-24.4528 Z0.1959
G1 X42.4751 Y-24.4557 Z0.2003
G1 X42.4751 Y-24.4582 Z0.2051
G1 X42.4751 Y-24.4601 Z0.2100
G1 X42.4751 Y-24.4615 Z0.2151
G1 X42.4751 Y-24.4623 Z0.2204
G1 X42.4751 Y-24.4626 Z0.2257
G0 Z0.3576
G0 X42.4751 Y-24.4626 
G0 Z0.3576
G0 X42.3101 Y-22.8744 
G1 X42.3101 Y-22.8749 Z0.3477 F25.
G1 X42.3101 Y-22.8764 Z0.3380
G1 X42.3101 Y-22.8787 Z0.3285
G1 X42.3101 Y-22.8820 Z0.3193
G1 X42.3101 Y-22.8862 Z0.3104
G1 X42.3101 Y-22.8913 Z0.3020
G1 X42.3101 Y-22.8971 Z0.2941
G1 X42.3101 Y-22.9037 Z0.2868
G1 X42.3101 Y-22.9110 Z0.2802
G1 X42.3101 Y-22.9189 Z0.2744
G1 X42.3101 Y-22.9273 Z0.2694
G1 X42.3101 Y-22.9362 Z0.2652
G1 X42.3101 Y-22.9454 Z0.2619
G1 X42.3101 Y-22.9549 Z0.2595
G1 X42.3101 Y-22.9646 Z0.2580
G1 X42.3101 Y-22.9744 Z0.2576
G1 X42.3101 Y-23.1657 Z0.2575 F50.
G1 X42.3101 Y-23.1896 Z0.2575
G1 X42.3101 Y-23.2016 Z0.2575
G1 X42.3101 Y-23.2135 Z0.2574
G1 X42.3101 Y-23.2374 Z0.2573
G1 X42.3101 Y-23.2613 Z0.2570
G1 X42.3101 Y-23.2853 Z0.2568
G1 X42.3101 Y-23.2972 Z0.2566
G1 X42.3101 Y-23.3092 Z0.2564
G1 X42.3101 Y-23.3331 Z0.2561
G1 X42.3101 Y-23.3689 Z0.2553
G1 X42.3101 Y-23.4048 Z0.2545
G1 X42.3101 Y-23.4407 Z0.2535
G1 X42.3101 Y-23.4765 Z0.2524
G1 X42.3101 Y-23.5004 Z0.2516
G1 X42.3101 Y-23.5124 Z0.2512
G1 X42.3101 Y-23.5243 Z0.2507
G1 X42.3101 Y-23.5483 Z0.2498
G1 X42.3101 Y-23.5722 Z0.2488
G1 X42.3101 Y-23.6080 Z0.2472
G1 X42.3101 Y-23.6200 Z0.2466
G1 X42.3101 Y-23.6439 Z0.2455
G1 X42.3101 Y-23.6798 Z0.2436
G1 X42.3101 Y-23.7156 Z0.2416
G1 X42.3101 Y-23.7395 Z0.2401
G1 X42.3101 Y-23.7515 Z0.2394
G1 X42.3101 Y-23.7634 Z0.2386
G1 X42.3101 Y-23.7874 Z0.2371
G1 X42.3101 Y-23.8113 Z0.2355
G1 X42.3101 Y-23.8352 Z0.2339
G1 X42.3101 Y-23.8471 Z0.2330
G1 X42.3101 Y-23.8591 Z0.2321
G1 X42.3101 Y-23.8830 Z0.2304
G1 X42.3101 Y-23.9189 Z0.2276
G1 X42.3101 Y-23.9547 Z0.2246
G1 X42.3101 Y-23.9786 Z0.2226
G1 X42.3101 Y-23.9906 Z0.2216
G1 X42.3101 Y-24.0025 Z0.2205
G1 X42.3101 Y-24.0264 Z0.2184
G1 X42.3101 Y-24.0504 Z0.2162
G1 X42.3101 Y-24.0743 Z0.2139
G1 X42.3101 Y-24.0862 Z0.2128
G1 X42.3101 Y-24.0982 Z0.2116
G1 X42.3101 Y-24.1221 Z0.2092
G1 X42.3101 Y-24.1578 Z0.2055
G1 X42.3101 Y-24.1935 Z0.2017
G1 X42.3101 Y-24.2292 Z0.1977
G1 X42.3101 Y-24.2649 Z0.1937
G1 X42.3101 Y-24.2916 Z0.1905
G1 X42.3101 Y-24.3273 Z0.1862
G1 X42.3101 Y-24.3541 Z0.1828
G1 X42.3101 Y-24.3719 Z0.1806
G1 X42.3101 Y-24.3898 Z0.1783
G1 X42.3101 Y-24.4076 Z0.1759
G1 X42.3101 Y-24.4129 Z0.1755
G1 X42.3101 Y-24.4182 Z0.1757
G1 X42.3101 Y-24.4235 Z0.1764
G1 X42.3101 Y-24.4287 Z0.1776
G1 X42.3101 Y-24.4337 Z0.1795
G1 X42.3101 Y-24.4384 Z0.1818
G1 X42.3101 Y-24.4429 Z0.1846
G1 X42.3101 Y-24.4471 Z0.1879
G1 X42.3101 Y-24.4509 Z0.1916
G1 X42.3101 Y-24.4543 Z0.1957
G1 X42.3101 Y-24.4572 Z0.2001
G1 X42.3101 Y-24.4597 Z0.2049
G1 X42.3101 Y-24.4616 Z0.2098
G1 X42.3101 Y-24.4630 Z0.2149
G1 X42.3101 Y-24.4639 Z0.2202
G1 X42.3101 Y-24.4641 Z0.2255
G0 Z0.3576
G0 X42.3101 Y-24.4641 
G0 Z0.3576
G0 X42.1451 Y-22.8744 
G1 X42.1451 Y-22.8749 Z0.3477 F25.
G1 X42.1451 Y-22.8764 Z0.3380
G1 X42.1451 Y-22.8787 Z0.3285
G1 X42.1451 Y-22.8820 Z0.3193
G1 X42.1451 Y-22.8862 Z0.3104
G1 X42.1451 Y-22.8913 Z0.3020
G1 X42.1451 Y-22.8971 Z0.2941
G1 X42.1451 Y-22.9037 Z0.2868
G1 X42.1451 Y-22.9110 Z0.2802
G1 X42.1451 Y-22.9189 Z0.2744
G1 X42.1451 Y-22.9273 Z0.2694
G1 X42.1451 Y-22.9362 Z0.2652
G1 X42.1451 Y-22.9454 Z0.2619
G1 X42.1451 Y-22.9549 Z0.2595
G1 X42.1451 Y-22.9646 Z0.2580
G1 X42.1451 Y-22.9744 Z0.2576
G1 X42.1451 Y-23.1657 Z0.2575 F50.
G1 X42.1451 Y-23.1896 Z0.2575
G1 X42.1451 Y-23.2016 Z0.2575
G1 X42.1451 Y-23.2135 Z0.2574
G1 X42.1451 Y-23.2374 Z0.2573
G1 X42.1451 Y-23.2613 Z0.2570
G1 X42.1451 Y-23.2853 Z0.2568
G1 X42.1451 Y-23.2972 Z0.2566
G1 X42.1451 Y-23.3092 Z0.2564
G1 X42.1451 Y-23.3331 Z0.2561
G1 X42.1451 Y-23.3689 Z0.2553
G1 X42.1451 Y-23.4048 Z0.2545
G1 X42.1451 Y-23.4407 Z0.2535
G1 X42.1451 Y-23.4765 Z0.2524
G1 X42.1451 Y-23.5004 Z0.2516
G1 X42.1451 Y-23.5124 Z0.2512
G1 X42.1451 Y-23.5243 Z0.2507
G1 X42.1451 Y-23.5483 Z0.2498
G1 X42.1451 Y-23.5722 Z0.2488
G1 X42.1451 Y-23.6080 Z0.2472
G1 X42.1451 Y-23.6200 Z0.2466
G1 X42.1451 Y-23.6439 Z0.2455
G1 X42.1451 Y-23.6798 Z0.2436
G1 X42.1451 Y-23.7156 Z0.2416
G1 X42.1451 Y-23.7395 Z0.2401
G1 X42.1451 Y-23.7515 Z0.2394
G1 X42.1451 Y-23.7634 Z0.2386
G1 X42.1451 Y-23.7874 Z0.2371
G1 X42.1451 Y-23.8113 Z0.2355
G1 X42.1451 Y-23.8352 Z0.2339
G1 X42.1451 Y-23.8471 Z0.2330
G1 X42.1451 Y-23.8591 Z0.2321
G1 X42.1451 Y-23.8830 Z0.2304
G1 X42.1451 Y-23.9189 Z0.2276
G1 X42.1451 Y-23.9547 Z0.2246
G1 X42.1451 Y-23.9786 Z0.2226
G1 X42.1451 Y-23.9906 Z0.2216
G1 X42.1451 Y-24.0025 Z0.2205
G1 X42.1451 Y-24.0264 Z0.2184
G1 X42.1451 Y-24.0504 Z0.2162
G1 X42.1451 Y-24.0743 Z0.2139
G1 X42.1451 Y-24.0862 Z0.2128
G1 X42.1451 Y-24.0982 Z0.2116
G1 X42.1451 Y-24.1221 Z0.2092
G1 X42.1451 Y-24.1580 Z0.2055
G1 X42.1451 Y-24.1939 Z0.2017
G1 X42.1451 Y-24.2297 Z0.1977
G1 X42.1451 Y-24.2566 Z0.1946
G1 X42.1451 Y-24.2925 Z0.1904
G1 X42.1451 Y-24.3194 Z0.1871
G1 X42.1451 Y-24.3284 Z0.1860
G1 X42.1451 Y-24.3553 Z0.1827
G1 X42.1451 Y-24.3733 Z0.1804
G1 X42.1451 Y-24.3912 Z0.1781
G1 X42.1451 Y-24.4092 Z0.1757
G1 X42.1451 Y-24.4145 Z0.1753
G1 X42.1451 Y-24.4198 Z0.1755
G1 X42.1451 Y-24.4250 Z0.1762
G1 X42.1451 Y-24.4302 Z0.1774
G1 X42.1451 Y-24.4352 Z0.1792
G1 X42.1451 Y-24.4400 Z0.1816
G1 X42.1451 Y-24.4445 Z0.1844
G1 X42.1451 Y-24.4487 Z0.1877
G1 X42.1451 Y-24.4525 Z0.1914
G1 X42.1451 Y-24.4558 Z0.1955
G1 X42.1451 Y-24.4588 Z0.1999
G1 X42.1451 Y-24.4612 Z0.2046
G1 X42.1451 Y-24.4632 Z0.2096
G1 X42.1451 Y-24.4646 Z0.2147
G1 X42.1451 Y-24.4654 Z0.2200
G1 X42.1451 Y-24.4657 Z0.2253
G0 Z0.3576
G0 X42.1451 Y-24.4657 
G0 Z0.3576
G0 X41.9801 Y-22.8744 
G1 X41.9801 Y-22.8749 Z0.3477 F25.
G1 X41.9801 Y-22.8764 Z0.3380
G1 X41.9801 Y-22.8787 Z0.3285
G1 X41.9801 Y-22.8820 Z0.3193
G1 X41.9801 Y-22.8862 Z0.3104
G1 X41.9801 Y-22.8913 Z0.3020
G1 X41.9801 Y-22.8971 Z0.2941
G1 X41.9801 Y-22.9037 Z0.2868
G1 X41.9801 Y-22.9110 Z0.2802
G1 X41.9801 Y-22.9189 Z0.2744
G1 X41.9801 Y-22.9273 Z0.2694
G1 X41.9801 Y-22.9362 Z0.2652
G1 X41.9801 Y-22.9454 Z0.2619
G1 X41.9801 Y-22.9549 Z0.2595
G1 X41.9801 Y-22.9646 Z0.2580
G1 X41.9801 Y-22.9744 Z0.2576
G1 X41.9801 Y-23.1657 Z0.2575 F50.
G1 X41.9801 Y-23.1896 Z0.2575
G1 X41.9801 Y-23.2016 Z0.2575
G1 X41.9801 Y-23.2135 Z0.2574
G1 X41.9801 Y-23.2374 Z0.2573
G1 X41.9801 Y-23.2613 Z0.2570
G1 X41.9801 Y-23.2853 Z0.2568
G1 X41.9801 Y-23.2972 Z0.2566
G1 X41.9801 Y-23.3092 Z0.2564
G1 X41.9801 Y-23.3331 Z0.2561
G1 X41.9801 Y-23.3689 Z0.2553
G1 X41.9801 Y-23.4048 Z0.2545
G1 X41.9801 Y-23.4407 Z0.2535
G1 X41.9801 Y-23.4765 Z0.2524
G1 X41.9801 Y-23.5004 Z0.2516
G1 X41.9801 Y-23.5124 Z0.2512
G1 X41.9801 Y-23.5243 Z0.2507
G1 X41.9801 Y-23.5483 Z0.2498
G1 X41.9801 Y-23.5722 Z0.2488
G1 X41.9801 Y-23.6080 Z0.2472
G1 X41.9801 Y-23.6200 Z0.2466
G1 X41.9801 Y-23.6439 Z0.2455
G1 X41.9801 Y-23.6798 Z0.2436
G1 X41.9801 Y-23.7156 Z0.2416
G1 X41.9801 Y-23.7395 Z0.2401
G1 X41.9801 Y-23.7515 Z0.2394
G1 X41.9801 Y-23.7634 Z0.2386
G1 X41.9801 Y-23.7874 Z0.2371
G1 X41.9801 Y-23.8113 Z0.2355
G1 X41.9801 Y-23.8352 Z0.2339
G1 X41.9801 Y-23.8471 Z0.2330
G1 X41.9801 Y-23.8591 Z0.2321
G1 X41.9801 Y-23.8830 Z0.2304
G1 X41.9801 Y-23.9189 Z0.2276
G1 X41.9801 Y-23.9547 Z0.2246
G1 X41.9801 Y-23.9786 Z0.2226
G1 X41.9801 Y-23.9906 Z0.2216
G1 X41.9801 Y-24.0025 Z0.2205
G1 X41.9801 Y-24.0264 Z0.2184
G1 X41.9801 Y-24.0504 Z0.2162
G1 X41.9801 Y-24.0743 Z0.2139
G1 X41.9801 Y-24.0862 Z0.2128
G1 X41.9801 Y-24.0982 Z0.2116
G1 X41.9801 Y-24.1221 Z0.2092
G1 X41.9801 Y-24.1582 Z0.2055
G1 X41.9801 Y-24.1942 Z0.2016
G1 X41.9801 Y-24.2303 Z0.1976
G1 X41.9801 Y-24.2574 Z0.1945
G1 X41.9801 Y-24.2934 Z0.1903
G1 X41.9801 Y-24.3205 Z0.1870
G1 X41.9801 Y-24.3385 Z0.1848
G1 X41.9801 Y-24.3566 Z0.1825
G1 X41.9801 Y-24.3746 Z0.1802
G1 X41.9801 Y-24.3926 Z0.1779
G1 X41.9801 Y-24.4107 Z0.1755
G1 X41.9801 Y-24.4160 Z0.1751
G1 X41.9801 Y-24.4213 Z0.1752
G1 X41.9801 Y-24.4266 Z0.1760
G1 X41.9801 Y-24.4317 Z0.1772
G1 X41.9801 Y-24.4367 Z0.1790
G1 X41.9801 Y-24.4415 Z0.1814
G1 X41.9801 Y-24.4460 Z0.1842
G1 X41.9801 Y-24.4502 Z0.1875
G1 X41.9801 Y-24.4540 Z0.1912
G1 X41.9801 Y-24.4574 Z0.1953
G1 X41.9801 Y-24.4603 Z0.1997
G1 X41.9801 Y-24.4628 Z0.2044
G1 X41.9801 Y-24.4647 Z0.2094
G1 X41.9801 Y-24.4661 Z0.2145
G1 X41.9801 Y-24.4669 Z0.2198
G1 X41.9801 Y-24.4672 Z0.2251
G0 Z0.3576
G0 X41.9801 Y-24.4672 
G0 Z0.3576
G0 X41.8151 Y-22.8744 
G1 X41.8151 Y-22.8749 Z0.3477 F25.
G1 X41.8151 Y-22.8764 Z0.3380
G1 X41.8151 Y-22.8787 Z0.3285
G1 X41.8151 Y-22.8820 Z0.3193
G1 X41.8151 Y-22.8862 Z0.3104
G1 X41.8151 Y-22.8913 Z0.3020
G1 X41.8151 Y-22.8971 Z0.2941
G1 X41.8151 Y-22.9037 Z0.2868
G1 X41.8151 Y-22.9110 Z0.2802
G1 X41.8151 Y-22.9189 Z0.2744
G1 X41.8151 Y-22.9273 Z0.2694
G1 X41.8151 Y-22.9362 Z0.2652
G1 X41.8151 Y-22.9454 Z0.2619
G1 X41.8151 Y-22.9549 Z0.2595
G1 X41.8151 Y-22.9646 Z0.2580
G1 X41.8151 Y-22.9744 Z0.2576
G1 X41.8151 Y-23.1657 Z0.2575 F50.
G1 X41.8151 Y-23.1896 Z0.2575
G1 X41.8151 Y-23.2016 Z0.2575
G1 X41.8151 Y-23.2135 Z0.2574
G1 X41.8151 Y-23.2374 Z0.2573
G1 X41.8151 Y-23.2613 Z0.2570
G1 X41.8151 Y-23.2853 Z0.2568
G1 X41.8151 Y-23.2972 Z0.2566
G1 X41.8151 Y-23.3092 Z0.2564
G1 X41.8151 Y-23.3331 Z0.2561
G1 X41.8151 Y-23.3689 Z0.2553
G1 X41.8151 Y-23.4048 Z0.2545
G1 X41.8151 Y-23.4407 Z0.2535
G1 X41.8151 Y-23.4765 Z0.2524
G1 X41.8151 Y-23.5004 Z0.2516
G1 X41.8151 Y-23.5124 Z0.2512
G1 X41.8151 Y-23.5243 Z0.2507
G1 X41.8151 Y-23.5483 Z0.2498
G1 X41.8151 Y-23.5722 Z0.2488
G1 X41.8151 Y-23.6080 Z0.2472
G1 X41.8151 Y-23.6200 Z0.2466
G1 X41.8151 Y-23.6439 Z0.2455
G1 X41.8151 Y-23.6798 Z0.2436
G1 X41.8151 Y-23.7156 Z0.2416
G1 X41.8151 Y-23.7395 Z0.2401
G1 X41.8151 Y-23.7515 Z0.2394
G1 X41.8151 Y-23.7634 Z0.2386
G1 X41.8151 Y-23.7874 Z0.2371
G1 X41.8151 Y-23.8113 Z0.2355
G1 X41.8151 Y-23.8352 Z0.2339
G1 X41.8151 Y-23.8471 Z0.2330
G1 X41.8151 Y-23.8591 Z0.2321
G1 X41.8151 Y-23.8830 Z0.2304
G1 X41.8151 Y-23.9189 Z0.2276
G1 X41.8151 Y-23.9547 Z0.2246
G1 X41.8151 Y-23.9786 Z0.2226
G1 X41.8151 Y-23.9906 Z0.2216
G1 X41.8151 Y-24.0025 Z0.2205
G1 X41.8151 Y-24.0264 Z0.2184
G1 X41.8151 Y-24.0504 Z0.2162
G1 X41.8151 Y-24.0743 Z0.2139
G1 X41.8151 Y-24.0862 Z0.2128
G1 X41.8151 Y-24.0982 Z0.2116
G1 X41.8151 Y-24.1221 Z0.2092
G1 X41.8151 Y-24.1583 Z0.2055
G1 X41.8151 Y-24.1946 Z0.2016
G1 X41.8151 Y-24.2309 Z0.1975
G1 X41.8151 Y-24.2581 Z0.1944
G1 X41.8151 Y-24.2853 Z0.1912
G1 X41.8151 Y-24.2943 Z0.1902
G1 X41.8151 Y-24.3215 Z0.1869
G1 X41.8151 Y-24.3397 Z0.1846
G1 X41.8151 Y-24.3578 Z0.1824
G1 X41.8151 Y-24.3941 Z0.1777
G1 X41.8151 Y-24.4122 Z0.1753
G1 X41.8151 Y-24.4175 Z0.1749
G1 X41.8151 Y-24.4228 Z0.1750
G1 X41.8151 Y-24.4281 Z0.1758
G1 X41.8151 Y-24.4333 Z0.1770
G1 X41.8151 Y-24.4383 Z0.1788
G1 X41.8151 Y-24.4430 Z0.1812
G1 X41.8151 Y-24.4475 Z0.1840
G1 X41.8151 Y-24.4517 Z0.1873
G1 X41.8151 Y-24.4555 Z0.1910
G1 X41.8151 Y-24.4589 Z0.1951
G1 X41.8151 Y-24.4618 Z0.1995
G1 X41.8151 Y-24.4643 Z0.2042
G1 X41.8151 Y-24.4662 Z0.2092
G1 X41.8151 Y-24.4676 Z0.2143
G1 X41.8151 Y-24.4685 Z0.2196
G1 X41.8151 Y-24.4688 Z0.2249
G0 Z0.3576
G0 X41.8151 Y-24.4688 
G0 Z0.3576
G0 X41.6501 Y-22.8744 
G1 X41.6501 Y-22.8749 Z0.3477 F25.
G1 X41.6501 Y-22.8764 Z0.3380
G1 X41.6501 Y-22.8787 Z0.3285
G1 X41.6501 Y-22.8820 Z0.3193
G1 X41.6501 Y-22.8862 Z0.3104
G1 X41.6501 Y-22.8913 Z0.3020
G1 X41.6501 Y-22.8971 Z0.2941
G1 X41.6501 Y-22.9037 Z0.2868
G1 X41.6501 Y-22.9110 Z0.2802
G1 X41.6501 Y-22.9189 Z0.2744
G1 X41.6501 Y-22.9273 Z0.2694
G1 X41.6501 Y-22.9362 Z0.2652
G1 X41.6501 Y-22.9454 Z0.2619
G1 X41.6501 Y-22.9549 Z0.2595
G1 X41.6501 Y-22.9646 Z0.2580
G1 X41.6501 Y-22.9744 Z0.2576
G1 X41.6501 Y-23.1657 Z0.2575 F50.
G1 X41.6501 Y-23.1896 Z0.2575
G1 X41.6501 Y-23.2016 Z0.2575
G1 X41.6501 Y-23.2135 Z0.2574
G1 X41.6501 Y-23.2374 Z0.2573
G1 X41.6501 Y-23.2613 Z0.2570
G1 X41.6501 Y-23.2853 Z0.2568
G1 X41.6501 Y-23.2972 Z0.2566
G1 X41.6501 Y-23.3092 Z0.2564
G1 X41.6501 Y-23.3331 Z0.2561
G1 X41.6501 Y-23.3689 Z0.2553
G1 X41.6501 Y-23.4048 Z0.2545
G1 X41.6501 Y-23.4407 Z0.2535
G1 X41.6501 Y-23.4765 Z0.2524
G1 X41.6501 Y-23.5004 Z0.2516
G1 X41.6501 Y-23.5124 Z0.2512
G1 X41.6501 Y-23.5243 Z0.2507
G1 X41.6501 Y-23.5483 Z0.2498
G1 X41.6501 Y-23.5722 Z0.2488
G1 X41.6501 Y-23.6080 Z0.2472
G1 X41.6501 Y-23.6200 Z0.2466
G1 X41.6501 Y-23.6439 Z0.2455
G1 X41.6501 Y-23.6798 Z0.2436
G1 X41.6501 Y-23.7156 Z0.2416
G1 X41.6501 Y-23.7395 Z0.2401
G1 X41.6501 Y-23.7515 Z0.2394
G1 X41.6501 Y-23.7634 Z0.2386
G1 X41.6501 Y-23.7874 Z0.2371
G1 X41.6501 Y-23.8113 Z0.2355
G1 X41.6501 Y-23.8352 Z0.2339
G1 X41.6501 Y-23.8471 Z0.2330
G1 X41.6501 Y-23.8591 Z0.2321
G1 X41.6501 Y-23.8830 Z0.2304
G1 X41.6501 Y-23.9189 Z0.2276
G1 X41.6501 Y-23.9547 Z0.2246
G1 X41.6501 Y-23.9786 Z0.2226
G1 X41.6501 Y-23.9906 Z0.2216
G1 X41.6501 Y-24.0025 Z0.2205
G1 X41.6501 Y-24.0264 Z0.2184
G1 X41.6501 Y-24.0504 Z0.2162
G1 X41.6501 Y-24.0743 Z0.2139
G1 X41.6501 Y-24.0862 Z0.2128
G1 X41.6501 Y-24.0982 Z0.2116
G1 X41.6501 Y-24.1221 Z0.2092
G1 X41.6501 Y-24.1585 Z0.2054
G1 X41.6501 Y-24.1950 Z0.2015
G1 X41.6501 Y-24.2314 Z0.1975
G1 X41.6501 Y-24.2588 Z0.1944
G1 X41.6501 Y-24.2861 Z0.1911
G1 X41.6501 Y-24.3044 Z0.1890
G1 X41.6501 Y-24.3226 Z0.1867
G1 X41.6501 Y-24.3408 Z0.1845
G1 X41.6501 Y-24.3590 Z0.1822
G1 X41.6501 Y-24.3955 Z0.1775
G1 X41.6501 Y-24.4137 Z0.1751
G1 X41.6501 Y-24.4190 Z0.1747
G1 X41.6501 Y-24.4243 Z0.1748
G1 X41.6501 Y-24.4296 Z0.1756
G1 X41.6501 Y-24.4348 Z0.1768
G1 X41.6501 Y-24.4398 Z0.1786
G1 X41.6501 Y-24.4446 Z0.1810
G1 X41.6501 Y-24.4491 Z0.1838
G1 X41.6501 Y-24.4532 Z0.1871
G1 X41.6501 Y-24.4570 Z0.1908
G1 X41.6501 Y-24.4604 Z0.1949
G1 X41.6501 Y-24.4634 Z0.1993
G1 X41.6501 Y-24.4658 Z0.2040
G1 X41.6501 Y-24.4678 Z0.2090
G1 X41.6501 Y-24.4692 Z0.2141
G1 X41.6501 Y-24.4700 Z0.2194
G1 X41.6501 Y-24.4703 Z0.2247
G0 Z0.3576
G0 X41.6501 Y-24.4703 
G0 Z0.3576
G0 X41.4851 Y-22.8744 
G1 X41.4851 Y-22.8749 Z0.3477 F25.
G1 X41.4851 Y-22.8764 Z0.3380
G1 X41.4851 Y-22.8787 Z0.3285
G1 X41.4851 Y-22.8820 Z0.3193
G1 X41.4851 Y-22.8862 Z0.3104
G1 X41.4851 Y-22.8913 Z0.3020
G1 X41.4851 Y-22.8971 Z0.2941
G1 X41.4851 Y-22.9037 Z0.2868
G1 X41.4851 Y-22.9110 Z0.2802
G1 X41.4851 Y-22.9189 Z0.2744
G1 X41.4851 Y-22.9273 Z0.2694
G1 X41.4851 Y-22.9362 Z0.2652
G1 X41.4851 Y-22.9454 Z0.2619
G1 X41.4851 Y-22.9549 Z0.2595
G1 X41.4851 Y-22.9646 Z0.2580
G1 X41.4851 Y-22.9744 Z0.2576
G1 X41.4851 Y-23.1657 Z0.2575 F50.
G1 X41.4851 Y-23.1896 Z0.2575
G1 X41.4851 Y-23.2016 Z0.2575
G1 X41.4851 Y-23.2135 Z0.2574
G1 X41.4851 Y-23.2374 Z0.2573
G1 X41.4851 Y-23.2613 Z0.2570
G1 X41.4851 Y-23.2853 Z0.2568
G1 X41.4851 Y-23.2972 Z0.2566
G1 X41.4851 Y-23.3092 Z0.2564
G1 X41.4851 Y-23.3331 Z0.2561
G1 X41.4851 Y-23.3689 Z0.2553
G1 X41.4851 Y-23.4048 Z0.2545
G1 X41.4851 Y-23.4407 Z0.2535
G1 X41.4851 Y-23.4765 Z0.2524
G1 X41.4851 Y-23.5004 Z0.2516
G1 X41.4851 Y-23.5124 Z0.2512
G1 X41.4851 Y-23.5243 Z0.2507
G1 X41.4851 Y-23.5483 Z0.2498
G1 X41.4851 Y-23.5722 Z0.2488
G1 X41.4851 Y-23.6080 Z0.2472
G1 X41.4851 Y-23.6200 Z0.2466
G1 X41.4851 Y-23.6439 Z0.2455
G1 X41.4851 Y-23.6798 Z0.2436
G1 X41.4851 Y-23.7156 Z0.2416
G1 X41.4851 Y-23.7395 Z0.2401
G1 X41.4851 Y-23.7515 Z0.2394
G1 X41.4851 Y-23.7634 Z0.2386
G1 X41.4851 Y-23.7874 Z0.2371
G1 X41.4851 Y-23.8113 Z0.2355
G1 X41.4851 Y-23.8352 Z0.2339
G1 X41.4851 Y-23.8471 Z0.2330
G1 X41.4851 Y-23.8591 Z0.2321
G1 X41.4851 Y-23.8830 Z0.2304
G1 X41.4851 Y-23.9189 Z0.2276
G1 X41.4851 Y-23.9547 Z0.2246
G1 X41.4851 Y-23.9786 Z0.2226
G1 X41.4851 Y-23.9906 Z0.2216
G1 X41.4851 Y-24.0025 Z0.2205
G1 X41.4851 Y-24.0264 Z0.2184
G1 X41.4851 Y-24.0504 Z0.2162
G1 X41.4851 Y-24.0743 Z0.2139
G1 X41.4851 Y-24.0862 Z0.2128
G1 X41.4851 Y-24.0982 Z0.2116
G1 X41.4851 Y-24.1221 Z0.2092
G1 X41.4851 Y-24.1587 Z0.2054
G1 X41.4851 Y-24.1954 Z0.2015
G1 X41.4851 Y-24.2229 Z0.1985
G1 X41.4851 Y-24.2595 Z0.1943
G1 X41.4851 Y-24.2870 Z0.1910
G1 X41.4851 Y-24.3053 Z0.1888
G1 X41.4851 Y-24.3236 Z0.1866
G1 X41.4851 Y-24.3420 Z0.1843
G1 X41.4851 Y-24.3603 Z0.1821
G1 X41.4851 Y-24.3786 Z0.1797
G1 X41.4851 Y-24.3969 Z0.1773
G1 X41.4851 Y-24.4153 Z0.1749
G1 X41.4851 Y-24.4206 Z0.1745
G1 X41.4851 Y-24.4259 Z0.1746
G1 X41.4851 Y-24.4311 Z0.1754
G1 X41.4851 Y-24.4363 Z0.1766
G1 X41.4851 Y-24.4413 Z0.1784
G1 X41.4851 Y-24.4461 Z0.1808
G1 X41.4851 Y-24.4506 Z0.1836
G1 X41.4851 Y-24.4548 Z0.1869
G1 X41.4851 Y-24.4586 Z0.1906
G1 X41.4851 Y-24.4620 Z0.1947
G1 X41.4851 Y-24.4649 Z0.1991
G1 X41.4851 Y-24.4673 Z0.2038
G1 X41.4851 Y-24.4693 Z0.2088
G1 X41.4851 Y-24.4707 Z0.2139
G1 X41.4851 Y-24.4715 Z0.2192
G1 X41.4851 Y-24.4718 Z0.2245
G0 Z0.3576
G0 X41.4851 Y-24.4718 
G0 Z0.3576
G0 X41.3201 Y-22.8744 
