( MOP:  02-radius-r9PT5-s34-final-start-NOMIRROR-01a )
( FILE: G:\Shared drives\AlloyProjectFiles\Customer CAD files\Alloy-Standard-Builds-CAM\Fingerboards-in\03-radius-r9PT5-s34-final-start-NOMIRROR-01.nc)
G90
(  BEGIN TOOL LIST )
(  TOOL 3 - Downcut PT750 - DESC: 0.7500 DIA, 2 FLUTE,  CARBIDE MAT )
(  ENDOF TOOL LIST )
( 02-radius-r9PT5-s34-final-start-NOMIRROR-01a)
T03
S11000
M3
G0 Z3.0000
G0 X3.0639 Y-17.0000 
G1 X3.0639 Y-17.0000 Z0.6100 F75.
G1 X3.0639 Y-17.0000 Z0.5100 F30.
G1 X3.0651 Y-17.0000 Z0.4855
G1 X3.0687 Y-17.0000 Z0.4612
G1 X3.0746 Y-17.0000 Z0.4374
G1 X3.0829 Y-17.0000 Z0.4143
G1 X3.0934 Y-17.0000 Z0.3922
G1 X3.1060 Y-17.0000 Z0.3711
G1 X3.1206 Y-17.0000 Z0.3514
G1 X3.1371 Y-17.0000 Z0.3332
G1 X3.1553 Y-17.0000 Z0.3167
G1 X3.1750 Y-17.0000 Z0.3021
G1 X3.1960 Y-17.0000 Z0.2895
G1 X3.2182 Y-17.0000 Z0.2790
G1 X3.2413 Y-17.0000 Z0.2708
G1 X3.2651 Y-17.0000 Z0.2648
G1 X3.2893 Y-17.0000 Z0.2612
G1 X3.3139 Y-17.0000 Z0.2600
G1 X32.2957 Y-17.0000 Z0.2600
G1 X32.3202 Y-17.0000 Z0.2612
G1 X32.3445 Y-17.0000 Z0.2648
G1 X32.3683 Y-17.0000 Z0.2708
G1 X32.3914 Y-17.0000 Z0.2790
G1 X32.4135 Y-17.0000 Z0.2895
G1 X32.4346 Y-17.0000 Z0.3021
G1 X32.4543 Y-17.0000 Z0.3167
G1 X32.4725 Y-17.0000 Z0.3332
G1 X32.4890 Y-17.0000 Z0.3514
G1 X32.5036 Y-17.0000 Z0.3711
G1 X32.5162 Y-17.0000 Z0.3922
G1 X32.5267 Y-17.0000 Z0.4143
G1 X32.5349 Y-17.0000 Z0.4374
G1 X32.5409 Y-17.0000 Z0.4612
G1 X32.5445 Y-17.0000 Z0.4855
G1 X32.5457 Y-17.0000 Z0.5100
G1 X32.5457 Y-17.0000 Z0.6100 F75.
G0 Z3.0000
G0 X32.5457 Y-17.0000 
( 02-radius-r9PT5-s34-final-start-NOMIRROR-01b)
S14000
G0 Z3.0000
G0 X32.2957 Y-17.0500 
G1 X32.2957 Y-17.0500 Z0.3850 F110.
G1 X32.2957 Y-17.0506 Z0.3728 F25.
G1 X32.2957 Y-17.0524 Z0.3607
G1 X32.2957 Y-17.0554 Z0.3488
G1 X32.2957 Y-17.0595 Z0.3372
G1 X32.2957 Y-17.0648 Z0.3261
G1 X32.2957 Y-17.0711 Z0.3156
G1 X32.2957 Y-17.0784 Z0.3058
G1 X32.2957 Y-17.0866 Z0.2967
G1 X32.2957 Y-17.0957 Z0.2884
G1 X32.2957 Y-17.1056 Z0.2811
G1 X32.2957 Y-17.1161 Z0.2748
G1 X32.2957 Y-17.1272 Z0.2696
G1 X32.2957 Y-17.1387 Z0.2654
G1 X32.2957 Y-17.1506 Z0.2625
G1 X32.2957 Y-17.1627 Z0.2607
G1 X32.2957 Y-17.1750 Z0.2600
G1 X32.2957 Y-17.3675 Z0.2600 F50.
G1 X32.2957 Y-17.3916 Z0.2600
G1 X32.2957 Y-17.4036 Z0.2600
G1 X32.2957 Y-17.4157 Z0.2599
G1 X32.2957 Y-17.4397 Z0.2598
G1 X32.2957 Y-17.4638 Z0.2595
G1 X32.2957 Y-17.4879 Z0.2592
G1 X32.2957 Y-17.4999 Z0.2591
G1 X32.2957 Y-17.5119 Z0.2589
G1 X32.2957 Y-17.5360 Z0.2585
G1 X32.2957 Y-17.5721 Z0.2578
G1 X32.2957 Y-17.6082 Z0.2569
G1 X32.2957 Y-17.6322 Z0.2563
G1 X32.2957 Y-17.6443 Z0.2560
G1 X32.2957 Y-17.6563 Z0.2556
G1 X32.2957 Y-17.6804 Z0.2548
G1 X32.2957 Y-17.7044 Z0.2540
G1 X32.2957 Y-17.7405 Z0.2526
G1 X32.2957 Y-17.7526 Z0.2522
G1 X32.2957 Y-17.7766 Z0.2512
G1 X32.2957 Y-17.8127 Z0.2495
G1 X32.2957 Y-17.8488 Z0.2478
G1 X32.2957 Y-17.8729 Z0.2465
G1 X32.2957 Y-17.8849 Z0.2458
G1 X32.2957 Y-17.9090 Z0.2445
G1 X32.2957 Y-17.9210 Z0.2438
G1 X32.2957 Y-17.9451 Z0.2424
G1 X32.2957 Y-17.9812 Z0.2401
G1 X32.2957 Y-18.0173 Z0.2377
G1 X32.2957 Y-18.0414 Z0.2360
G1 X32.2957 Y-18.0534 Z0.2351
G1 X32.2957 Y-18.0654 Z0.2342
G1 X32.2957 Y-18.0895 Z0.2324
G1 X32.2957 Y-18.1136 Z0.2306
G1 X32.2957 Y-18.1376 Z0.2286
G1 X32.2957 Y-18.1497 Z0.2277
G1 X32.2957 Y-18.1617 Z0.2267
G1 X32.2957 Y-18.1858 Z0.2246
G1 X32.2957 Y-18.2219 Z0.2214
G1 X32.2957 Y-18.2580 Z0.2181
G1 X32.2957 Y-18.2820 Z0.2158
G1 X32.2957 Y-18.2940 Z0.2146
G1 X32.2957 Y-18.3061 Z0.2134
G1 X32.2957 Y-18.3301 Z0.2110
G1 X32.2957 Y-18.3592 Z0.2080
G1 X32.2957 Y-18.3882 Z0.2049
G1 X32.2957 Y-18.4173 Z0.2017
G1 X32.2957 Y-18.4318 Z0.2001
G1 X32.2957 Y-18.4608 Z0.1968
G1 X32.2957 Y-18.4899 Z0.1933
G1 X32.2957 Y-18.5044 Z0.1916
G1 X32.2957 Y-18.5335 Z0.1880
G1 X32.2957 Y-18.5625 Z0.1844
G1 X32.2957 Y-18.5757 Z0.1835
G1 X32.2957 Y-18.5889 Z0.1839
G1 X32.2957 Y-18.6020 Z0.1858
G1 X32.2957 Y-18.6149 Z0.1890
G1 X32.2957 Y-18.6273 Z0.1936
G1 X32.2957 Y-18.6392 Z0.1994
G1 X32.2957 Y-18.6504 Z0.2065
G1 X32.2957 Y-18.6607 Z0.2147
G1 X32.2957 Y-18.6702 Z0.2240
G1 X32.2957 Y-18.6786 Z0.2342
G1 X32.2957 Y-18.6859 Z0.2453
G1 X32.2957 Y-18.6920 Z0.2570
G1 X32.2957 Y-18.6967 Z0.2694
G1 X32.2957 Y-18.7002 Z0.2822
G1 X32.2957 Y-18.7023 Z0.2952
G1 X32.2957 Y-18.7030 Z0.3085
G0 Z0.3101
G0 X32.2957 Y-18.7030 
G0 Z0.3850
G0 X32.1307 Y-17.0500 
G1 X32.1307 Y-17.0506 Z0.3728 F25.
G1 X32.1307 Y-17.0524 Z0.3607
G1 X32.1307 Y-17.0554 Z0.3488
G1 X32.1307 Y-17.0595 Z0.3372
G1 X32.1307 Y-17.0648 Z0.3261
G1 X32.1307 Y-17.0711 Z0.3156
G1 X32.1307 Y-17.0784 Z0.3058
G1 X32.1307 Y-17.0866 Z0.2967
G1 X32.1307 Y-17.0957 Z0.2884
G1 X32.1307 Y-17.1056 Z0.2811
G1 X32.1307 Y-17.1161 Z0.2748
G1 X32.1307 Y-17.1272 Z0.2696
G1 X32.1307 Y-17.1387 Z0.2654
G1 X32.1307 Y-17.1506 Z0.2625
G1 X32.1307 Y-17.1627 Z0.2607
G1 X32.1307 Y-17.1750 Z0.2600
G1 X32.1307 Y-17.3675 Z0.2600 F50.
G1 X32.1307 Y-17.3916 Z0.2600
G1 X32.1307 Y-17.4036 Z0.2600
G1 X32.1307 Y-17.4157 Z0.2599
G1 X32.1307 Y-17.4397 Z0.2598
G1 X32.1307 Y-17.4638 Z0.2595
G1 X32.1307 Y-17.4879 Z0.2592
G1 X32.1307 Y-17.4999 Z0.2591
G1 X32.1307 Y-17.5119 Z0.2589
G1 X32.1307 Y-17.5360 Z0.2585
G1 X32.1307 Y-17.5721 Z0.2578
G1 X32.1307 Y-17.6082 Z0.2569
G1 X32.1307 Y-17.6322 Z0.2563
G1 X32.1307 Y-17.6443 Z0.2560
G1 X32.1307 Y-17.6563 Z0.2556
G1 X32.1307 Y-17.6804 Z0.2548
G1 X32.1307 Y-17.7044 Z0.2540
G1 X32.1307 Y-17.7405 Z0.2526
G1 X32.1307 Y-17.7526 Z0.2522
G1 X32.1307 Y-17.7766 Z0.2512
G1 X32.1307 Y-17.8127 Z0.2495
G1 X32.1307 Y-17.8488 Z0.2478
G1 X32.1307 Y-17.8729 Z0.2465
G1 X32.1307 Y-17.8849 Z0.2458
G1 X32.1307 Y-17.9090 Z0.2445
G1 X32.1307 Y-17.9210 Z0.2438
G1 X32.1307 Y-17.9451 Z0.2424
G1 X32.1307 Y-17.9812 Z0.2401
G1 X32.1307 Y-18.0173 Z0.2377
G1 X32.1307 Y-18.0414 Z0.2360
G1 X32.1307 Y-18.0534 Z0.2351
G1 X32.1307 Y-18.0654 Z0.2342
G1 X32.1307 Y-18.0895 Z0.2324
G1 X32.1307 Y-18.1136 Z0.2306
G1 X32.1307 Y-18.1376 Z0.2286
G1 X32.1307 Y-18.1497 Z0.2277
G1 X32.1307 Y-18.1617 Z0.2267
G1 X32.1307 Y-18.1858 Z0.2246
G1 X32.1307 Y-18.2219 Z0.2214
G1 X32.1307 Y-18.2580 Z0.2181
G1 X32.1307 Y-18.2820 Z0.2158
G1 X32.1307 Y-18.2940 Z0.2146
G1 X32.1307 Y-18.3061 Z0.2134
G1 X32.1307 Y-18.3301 Z0.2110
G1 X32.1307 Y-18.3593 Z0.2080
G1 X32.1307 Y-18.3885 Z0.2049
G1 X32.1307 Y-18.4177 Z0.2016
G1 X32.1307 Y-18.4323 Z0.2000
G1 X32.1307 Y-18.4615 Z0.1967
G1 X32.1307 Y-18.4907 Z0.1932
G1 X32.1307 Y-18.5053 Z0.1915
G1 X32.1307 Y-18.5345 Z0.1879
G1 X32.1307 Y-18.5636 Z0.1843
G1 X32.1307 Y-18.5769 Z0.1833
G1 X32.1307 Y-18.5901 Z0.1838
G1 X32.1307 Y-18.6032 Z0.1856
G1 X32.1307 Y-18.6160 Z0.1889
G1 X32.1307 Y-18.6285 Z0.1934
G1 X32.1307 Y-18.6403 Z0.1993
G1 X32.1307 Y-18.6515 Z0.2064
G1 X32.1307 Y-18.6619 Z0.2146
G1 X32.1307 Y-18.6713 Z0.2239
G1 X32.1307 Y-18.6798 Z0.2341
G1 X32.1307 Y-18.6870 Z0.2451
G1 X32.1307 Y-18.6931 Z0.2569
G1 X32.1307 Y-18.6979 Z0.2692
G1 X32.1307 Y-18.7014 Z0.2820
G1 X32.1307 Y-18.7035 Z0.2951
G1 X32.1307 Y-18.7042 Z0.3083
G0 Z0.3101
G0 X32.1307 Y-18.7042 
G0 Z0.3850
G0 X31.9657 Y-17.0500 
G1 X31.9657 Y-17.0506 Z0.3728 F25.
G1 X31.9657 Y-17.0524 Z0.3607
G1 X31.9657 Y-17.0554 Z0.3488
G1 X31.9657 Y-17.0595 Z0.3372
G1 X31.9657 Y-17.0648 Z0.3261
G1 X31.9657 Y-17.0711 Z0.3156
G1 X31.9657 Y-17.0784 Z0.3058
G1 X31.9657 Y-17.0866 Z0.2967
G1 X31.9657 Y-17.0957 Z0.2884
G1 X31.9657 Y-17.1056 Z0.2811
G1 X31.9657 Y-17.1161 Z0.2748
G1 X31.9657 Y-17.1272 Z0.2696
G1 X31.9657 Y-17.1387 Z0.2654
G1 X31.9657 Y-17.1506 Z0.2625
G1 X31.9657 Y-17.1627 Z0.2607
G1 X31.9657 Y-17.1750 Z0.2600
G1 X31.9657 Y-17.3675 Z0.2600 F50.
G1 X31.9657 Y-17.3916 Z0.2600
G1 X31.9657 Y-17.4036 Z0.2600
G1 X31.9657 Y-17.4157 Z0.2599
G1 X31.9657 Y-17.4397 Z0.2598
G1 X31.9657 Y-17.4638 Z0.2595
G1 X31.9657 Y-17.4879 Z0.2592
G1 X31.9657 Y-17.4999 Z0.2591
G1 X31.9657 Y-17.5119 Z0.2589
G1 X31.9657 Y-17.5360 Z0.2585
G1 X31.9657 Y-17.5721 Z0.2578
G1 X31.9657 Y-17.6082 Z0.2569
G1 X31.9657 Y-17.6322 Z0.2563
G1 X31.9657 Y-17.6443 Z0.2560
G1 X31.9657 Y-17.6563 Z0.2556
G1 X31.9657 Y-17.6804 Z0.2548
G1 X31.9657 Y-17.7044 Z0.2540
G1 X31.9657 Y-17.7405 Z0.2526
G1 X31.9657 Y-17.7526 Z0.2522
G1 X31.9657 Y-17.7766 Z0.2512
G1 X31.9657 Y-17.8127 Z0.2495
G1 X31.9657 Y-17.8488 Z0.2478
G1 X31.9657 Y-17.8729 Z0.2465
G1 X31.9657 Y-17.8849 Z0.2458
G1 X31.9657 Y-17.9090 Z0.2445
G1 X31.9657 Y-17.9210 Z0.2438
G1 X31.9657 Y-17.9451 Z0.2424
G1 X31.9657 Y-17.9812 Z0.2401
G1 X31.9657 Y-18.0173 Z0.2377
G1 X31.9657 Y-18.0414 Z0.2360
G1 X31.9657 Y-18.0534 Z0.2351
G1 X31.9657 Y-18.0654 Z0.2342
G1 X31.9657 Y-18.0895 Z0.2324
G1 X31.9657 Y-18.1136 Z0.2306
G1 X31.9657 Y-18.1376 Z0.2286
G1 X31.9657 Y-18.1497 Z0.2277
G1 X31.9657 Y-18.1617 Z0.2267
G1 X31.9657 Y-18.1858 Z0.2246
G1 X31.9657 Y-18.2219 Z0.2214
G1 X31.9657 Y-18.2580 Z0.2181
G1 X31.9657 Y-18.2820 Z0.2158
G1 X31.9657 Y-18.2940 Z0.2146
G1 X31.9657 Y-18.3061 Z0.2134
G1 X31.9657 Y-18.3301 Z0.2110
G1 X31.9657 Y-18.3595 Z0.2080
G1 X31.9657 Y-18.3888 Z0.2048
G1 X31.9657 Y-18.4181 Z0.2016
G1 X31.9657 Y-18.4328 Z0.2000
G1 X31.9657 Y-18.4621 Z0.1966
G1 X31.9657 Y-18.4915 Z0.1932
G1 X31.9657 Y-18.5281 Z0.1887
G1 X31.9657 Y-18.5648 Z0.1841
G1 X31.9657 Y-18.5780 Z0.1832
G1 X31.9657 Y-18.5912 Z0.1836
G1 X31.9657 Y-18.6043 Z0.1855
G1 X31.9657 Y-18.6172 Z0.1887
G1 X31.9657 Y-18.6296 Z0.1933
G1 X31.9657 Y-18.6415 Z0.1991
G1 X31.9657 Y-18.6527 Z0.2062
G1 X31.9657 Y-18.6630 Z0.2144
G1 X31.9657 Y-18.6725 Z0.2237
G1 X31.9657 Y-18.6809 Z0.2339
G1 X31.9657 Y-18.6882 Z0.2450
G1 X31.9657 Y-18.6943 Z0.2567
G1 X31.9657 Y-18.6991 Z0.2691
G1 X31.9657 Y-18.7025 Z0.2819
G1 X31.9657 Y-18.7046 Z0.2949
G1 X31.9657 Y-18.7053 Z0.3082
G0 Z0.3101
G0 X31.9657 Y-18.7053 
G0 Z0.3850
G0 X31.8007 Y-17.0500 
G1 X31.8007 Y-17.0506 Z0.3728 F25.
G1 X31.8007 Y-17.0524 Z0.3607
G1 X31.8007 Y-17.0554 Z0.3488
G1 X31.8007 Y-17.0595 Z0.3372
G1 X31.8007 Y-17.0648 Z0.3261
G1 X31.8007 Y-17.0711 Z0.3156
G1 X31.8007 Y-17.0784 Z0.3058
G1 X31.8007 Y-17.0866 Z0.2967
G1 X31.8007 Y-17.0957 Z0.2884
G1 X31.8007 Y-17.1056 Z0.2811
G1 X31.8007 Y-17.1161 Z0.2748
G1 X31.8007 Y-17.1272 Z0.2696
G1 X31.8007 Y-17.1387 Z0.2654
G1 X31.8007 Y-17.1506 Z0.2625
G1 X31.8007 Y-17.1627 Z0.2607
G1 X31.8007 Y-17.1750 Z0.2600
G1 X31.8007 Y-17.3675 Z0.2600 F50.
G1 X31.8007 Y-17.3916 Z0.2600
G1 X31.8007 Y-17.4036 Z0.2600
G1 X31.8007 Y-17.4157 Z0.2599
G1 X31.8007 Y-17.4397 Z0.2598
G1 X31.8007 Y-17.4638 Z0.2595
G1 X31.8007 Y-17.4879 Z0.2592
G1 X31.8007 Y-17.4999 Z0.2591
G1 X31.8007 Y-17.5119 Z0.2589
G1 X31.8007 Y-17.5360 Z0.2585
G1 X31.8007 Y-17.5721 Z0.2578
G1 X31.8007 Y-17.6082 Z0.2569
G1 X31.8007 Y-17.6322 Z0.2563
G1 X31.8007 Y-17.6443 Z0.2560
G1 X31.8007 Y-17.6563 Z0.2556
G1 X31.8007 Y-17.6804 Z0.2548
G1 X31.8007 Y-17.7044 Z0.2540
G1 X31.8007 Y-17.7405 Z0.2526
G1 X31.8007 Y-17.7526 Z0.2522
G1 X31.8007 Y-17.7766 Z0.2512
G1 X31.8007 Y-17.8127 Z0.2495
G1 X31.8007 Y-17.8488 Z0.2478
G1 X31.8007 Y-17.8729 Z0.2465
G1 X31.8007 Y-17.8849 Z0.2458
G1 X31.8007 Y-17.9090 Z0.2445
G1 X31.8007 Y-17.9210 Z0.2438
G1 X31.8007 Y-17.9451 Z0.2424
G1 X31.8007 Y-17.9812 Z0.2401
G1 X31.8007 Y-18.0173 Z0.2377
G1 X31.8007 Y-18.0414 Z0.2360
G1 X31.8007 Y-18.0534 Z0.2351
G1 X31.8007 Y-18.0654 Z0.2342
G1 X31.8007 Y-18.0895 Z0.2324
G1 X31.8007 Y-18.1136 Z0.2306
G1 X31.8007 Y-18.1376 Z0.2286
G1 X31.8007 Y-18.1497 Z0.2277
G1 X31.8007 Y-18.1617 Z0.2267
G1 X31.8007 Y-18.1858 Z0.2246
G1 X31.8007 Y-18.2219 Z0.2214
G1 X31.8007 Y-18.2580 Z0.2181
G1 X31.8007 Y-18.2820 Z0.2158
G1 X31.8007 Y-18.2940 Z0.2146
G1 X31.8007 Y-18.3061 Z0.2134
G1 X31.8007 Y-18.3301 Z0.2110
G1 X31.8007 Y-18.3596 Z0.2079
G1 X31.8007 Y-18.3891 Z0.2048
G1 X31.8007 Y-18.4259 Z0.2007
G1 X31.8007 Y-18.4480 Z0.1982
G1 X31.8007 Y-18.4628 Z0.1965
G1 X31.8007 Y-18.4923 Z0.1931
G1 X31.8007 Y-18.5217 Z0.1895
G1 X31.8007 Y-18.5365 Z0.1877
G1 X31.8007 Y-18.5659 Z0.1840
G1 X31.8007 Y-18.5792 Z0.1830
G1 X31.8007 Y-18.5924 Z0.1835
G1 X31.8007 Y-18.6055 Z0.1853
G1 X31.8007 Y-18.6183 Z0.1885
G1 X31.8007 Y-18.6308 Z0.1931
G1 X31.8007 Y-18.6426 Z0.1990
G1 X31.8007 Y-18.6538 Z0.2060
G1 X31.8007 Y-18.6642 Z0.2143
G1 X31.8007 Y-18.6737 Z0.2235
G1 X31.8007 Y-18.6821 Z0.2338
G1 X31.8007 Y-18.6894 Z0.2448
G1 X31.8007 Y-18.6954 Z0.2566
G1 X31.8007 Y-18.7002 Z0.2689
G1 X31.8007 Y-18.7037 Z0.2817
G1 X31.8007 Y-18.7058 Z0.2948
G1 X31.8007 Y-18.7065 Z0.3080
G0 Z0.3101
G0 X31.8007 Y-18.7065 
G0 Z0.3850
G0 X31.6357 Y-17.0500 
G1 X31.6357 Y-17.0506 Z0.3728 F25.
G1 X31.6357 Y-17.0524 Z0.3607
G1 X31.6357 Y-17.0554 Z0.3488
G1 X31.6357 Y-17.0595 Z0.3372
G1 X31.6357 Y-17.0648 Z0.3261
G1 X31.6357 Y-17.0711 Z0.3156
G1 X31.6357 Y-17.0784 Z0.3058
G1 X31.6357 Y-17.0866 Z0.2967
G1 X31.6357 Y-17.0957 Z0.2884
G1 X31.6357 Y-17.1056 Z0.2811
G1 X31.6357 Y-17.1161 Z0.2748
G1 X31.6357 Y-17.1272 Z0.2696
G1 X31.6357 Y-17.1387 Z0.2654
G1 X31.6357 Y-17.1506 Z0.2625
G1 X31.6357 Y-17.1627 Z0.2607
G1 X31.6357 Y-17.1750 Z0.2600
G1 X31.6357 Y-17.3675 Z0.2600 F50.
G1 X31.6357 Y-17.3916 Z0.2600
G1 X31.6357 Y-17.4036 Z0.2600
G1 X31.6357 Y-17.4157 Z0.2599
G1 X31.6357 Y-17.4397 Z0.2598
G1 X31.6357 Y-17.4638 Z0.2595
G1 X31.6357 Y-17.4879 Z0.2592
G1 X31.6357 Y-17.4999 Z0.2591
G1 X31.6357 Y-17.5119 Z0.2589
G1 X31.6357 Y-17.5360 Z0.2585
G1 X31.6357 Y-17.5721 Z0.2578
G1 X31.6357 Y-17.6082 Z0.2569
G1 X31.6357 Y-17.6322 Z0.2563
G1 X31.6357 Y-17.6443 Z0.2560
G1 X31.6357 Y-17.6563 Z0.2556
G1 X31.6357 Y-17.6804 Z0.2548
G1 X31.6357 Y-17.7044 Z0.2540
G1 X31.6357 Y-17.7405 Z0.2526
G1 X31.6357 Y-17.7526 Z0.2522
G1 X31.6357 Y-17.7766 Z0.2512
G1 X31.6357 Y-17.8127 Z0.2495
G1 X31.6357 Y-17.8488 Z0.2478
G1 X31.6357 Y-17.8729 Z0.2465
G1 X31.6357 Y-17.8849 Z0.2458
G1 X31.6357 Y-17.9090 Z0.2445
G1 X31.6357 Y-17.9210 Z0.2438
G1 X31.6357 Y-17.9451 Z0.2424
G1 X31.6357 Y-17.9812 Z0.2401
G1 X31.6357 Y-18.0173 Z0.2377
G1 X31.6357 Y-18.0414 Z0.2360
G1 X31.6357 Y-18.0534 Z0.2351
G1 X31.6357 Y-18.0654 Z0.2342
G1 X31.6357 Y-18.0895 Z0.2324
G1 X31.6357 Y-18.1136 Z0.2306
G1 X31.6357 Y-18.1376 Z0.2286
G1 X31.6357 Y-18.1497 Z0.2277
G1 X31.6357 Y-18.1617 Z0.2267
G1 X31.6357 Y-18.1858 Z0.2246
G1 X31.6357 Y-18.2219 Z0.2214
G1 X31.6357 Y-18.2580 Z0.2181
G1 X31.6357 Y-18.2820 Z0.2158
G1 X31.6357 Y-18.2940 Z0.2146
G1 X31.6357 Y-18.3061 Z0.2134
G1 X31.6357 Y-18.3301 Z0.2110
G1 X31.6357 Y-18.3598 Z0.2079
G1 X31.6357 Y-18.3894 Z0.2048
G1 X31.6357 Y-18.4264 Z0.2007
G1 X31.6357 Y-18.4486 Z0.1982
G1 X31.6357 Y-18.4634 Z0.1965
G1 X31.6357 Y-18.4931 Z0.1930
G1 X31.6357 Y-18.5227 Z0.1894
G1 X31.6357 Y-18.5375 Z0.1875
G1 X31.6357 Y-18.5671 Z0.1838
G1 X31.6357 Y-18.5803 Z0.1829
G1 X31.6357 Y-18.5935 Z0.1833
G1 X31.6357 Y-18.6067 Z0.1852
G1 X31.6357 Y-18.6195 Z0.1884
G1 X31.6357 Y-18.6319 Z0.1930
G1 X31.6357 Y-18.6438 Z0.1988
G1 X31.6357 Y-18.6550 Z0.2059
G1 X31.6357 Y-18.6654 Z0.2141
G1 X31.6357 Y-18.6748 Z0.2234
G1 X31.6357 Y-18.6832 Z0.2336
G1 X31.6357 Y-18.6905 Z0.2447
G1 X31.6357 Y-18.6966 Z0.2564
G1 X31.6357 Y-18.7014 Z0.2688
G1 X31.6357 Y-18.7049 Z0.2816
G1 X31.6357 Y-18.7070 Z0.2946
G1 X31.6357 Y-18.7077 Z0.3078
G0 Z0.3101
G0 X31.6357 Y-18.7077 
G0 Z0.3850
G0 X31.4707 Y-17.0500 
G1 X31.4707 Y-17.0506 Z0.3728 F25.
G1 X31.4707 Y-17.0524 Z0.3607
G1 X31.4707 Y-17.0554 Z0.3488
G1 X31.4707 Y-17.0595 Z0.3372
G1 X31.4707 Y-17.0648 Z0.3261
G1 X31.4707 Y-17.0711 Z0.3156
G1 X31.4707 Y-17.0784 Z0.3058
G1 X31.4707 Y-17.0866 Z0.2967
G1 X31.4707 Y-17.0957 Z0.2884
G1 X31.4707 Y-17.1056 Z0.2811
G1 X31.4707 Y-17.1161 Z0.2748
G1 X31.4707 Y-17.1272 Z0.2696
G1 X31.4707 Y-17.1387 Z0.2654
G1 X31.4707 Y-17.1506 Z0.2625
G1 X31.4707 Y-17.1627 Z0.2607
G1 X31.4707 Y-17.1750 Z0.2600
G1 X31.4707 Y-17.3675 Z0.2600 F50.
G1 X31.4707 Y-17.3916 Z0.2600
G1 X31.4707 Y-17.4036 Z0.2600
G1 X31.4707 Y-17.4157 Z0.2599
G1 X31.4707 Y-17.4397 Z0.2598
G1 X31.4707 Y-17.4638 Z0.2595
G1 X31.4707 Y-17.4879 Z0.2592
G1 X31.4707 Y-17.4999 Z0.2591
G1 X31.4707 Y-17.5119 Z0.2589
G1 X31.4707 Y-17.5360 Z0.2585
G1 X31.4707 Y-17.5721 Z0.2578
G1 X31.4707 Y-17.6082 Z0.2569
G1 X31.4707 Y-17.6322 Z0.2563
G1 X31.4707 Y-17.6443 Z0.2560
G1 X31.4707 Y-17.6563 Z0.2556
G1 X31.4707 Y-17.6804 Z0.2548
G1 X31.4707 Y-17.7044 Z0.2540
G1 X31.4707 Y-17.7405 Z0.2526
G1 X31.4707 Y-17.7526 Z0.2522
G1 X31.4707 Y-17.7766 Z0.2512
G1 X31.4707 Y-17.8127 Z0.2495
G1 X31.4707 Y-17.8488 Z0.2478
G1 X31.4707 Y-17.8729 Z0.2465
G1 X31.4707 Y-17.8849 Z0.2458
G1 X31.4707 Y-17.9090 Z0.2445
G1 X31.4707 Y-17.9210 Z0.2438
G1 X31.4707 Y-17.9451 Z0.2424
G1 X31.4707 Y-17.9812 Z0.2401
G1 X31.4707 Y-18.0173 Z0.2377
G1 X31.4707 Y-18.0414 Z0.2360
G1 X31.4707 Y-18.0534 Z0.2351
G1 X31.4707 Y-18.0654 Z0.2342
G1 X31.4707 Y-18.0895 Z0.2324
G1 X31.4707 Y-18.1136 Z0.2306
G1 X31.4707 Y-18.1376 Z0.2286
G1 X31.4707 Y-18.1497 Z0.2277
G1 X31.4707 Y-18.1617 Z0.2267
G1 X31.4707 Y-18.1858 Z0.2246
G1 X31.4707 Y-18.2219 Z0.2214
G1 X31.4707 Y-18.2580 Z0.2181
G1 X31.4707 Y-18.2820 Z0.2158
G1 X31.4707 Y-18.2940 Z0.2146
G1 X31.4707 Y-18.3061 Z0.2134
G1 X31.4707 Y-18.3301 Z0.2110
G1 X31.4707 Y-18.3599 Z0.2079
G1 X31.4707 Y-18.3897 Z0.2047
G1 X31.4707 Y-18.4194 Z0.2015
G1 X31.4707 Y-18.4492 Z0.1981
G1 X31.4707 Y-18.4641 Z0.1964
G1 X31.4707 Y-18.4938 Z0.1929
G1 X31.4707 Y-18.5236 Z0.1893
G1 X31.4707 Y-18.5385 Z0.1874
G1 X31.4707 Y-18.5682 Z0.1837
G1 X31.4707 Y-18.5815 Z0.1827
G1 X31.4707 Y-18.5947 Z0.1832
G1 X31.4707 Y-18.6078 Z0.1850
G1 X31.4707 Y-18.6207 Z0.1882
G1 X31.4707 Y-18.6331 Z0.1928
G1 X31.4707 Y-18.6450 Z0.1987
G1 X31.4707 Y-18.6562 Z0.2057
G1 X31.4707 Y-18.6665 Z0.2140
G1 X31.4707 Y-18.6760 Z0.2232
G1 X31.4707 Y-18.6844 Z0.2335
G1 X31.4707 Y-18.6917 Z0.2445
G1 X31.4707 Y-18.6978 Z0.2563
G1 X31.4707 Y-18.7026 Z0.2686
G1 X31.4707 Y-18.7060 Z0.2814
G1 X31.4707 Y-18.7081 Z0.2945
G1 X31.4707 Y-18.7088 Z0.3077
G0 Z0.3101
G0 X31.4707 Y-18.7088 
G0 Z0.3850
G0 X31.3057 Y-17.0500 
G1 X31.3057 Y-17.0506 Z0.3728 F25.
G1 X31.3057 Y-17.0524 Z0.3607
G1 X31.3057 Y-17.0554 Z0.3488
G1 X31.3057 Y-17.0595 Z0.3372
G1 X31.3057 Y-17.0648 Z0.3261
G1 X31.3057 Y-17.0711 Z0.3156
G1 X31.3057 Y-17.0784 Z0.3058
G1 X31.3057 Y-17.0866 Z0.2967
G1 X31.3057 Y-17.0957 Z0.2884
G1 X31.3057 Y-17.1056 Z0.2811
G1 X31.3057 Y-17.1161 Z0.2748
G1 X31.3057 Y-17.1272 Z0.2696
G1 X31.3057 Y-17.1387 Z0.2654
G1 X31.3057 Y-17.1506 Z0.2625
G1 X31.3057 Y-17.1627 Z0.2607
G1 X31.3057 Y-17.1750 Z0.2600
G1 X31.3057 Y-17.3675 Z0.2600 F50.
G1 X31.3057 Y-17.3916 Z0.2600
G1 X31.3057 Y-17.4036 Z0.2600
G1 X31.3057 Y-17.4157 Z0.2599
G1 X31.3057 Y-17.4397 Z0.2598
G1 X31.3057 Y-17.4638 Z0.2595
G1 X31.3057 Y-17.4879 Z0.2592
G1 X31.3057 Y-17.4999 Z0.2591
G1 X31.3057 Y-17.5119 Z0.2589
G1 X31.3057 Y-17.5360 Z0.2585
G1 X31.3057 Y-17.5721 Z0.2578
G1 X31.3057 Y-17.6082 Z0.2569
G1 X31.3057 Y-17.6322 Z0.2563
G1 X31.3057 Y-17.6443 Z0.2560
G1 X31.3057 Y-17.6563 Z0.2556
G1 X31.3057 Y-17.6804 Z0.2548
G1 X31.3057 Y-17.7044 Z0.2540
G1 X31.3057 Y-17.7405 Z0.2526
G1 X31.3057 Y-17.7526 Z0.2522
G1 X31.3057 Y-17.7766 Z0.2512
G1 X31.3057 Y-17.8127 Z0.2495
G1 X31.3057 Y-17.8488 Z0.2478
G1 X31.3057 Y-17.8729 Z0.2465
G1 X31.3057 Y-17.8849 Z0.2458
G1 X31.3057 Y-17.9090 Z0.2445
G1 X31.3057 Y-17.9210 Z0.2438
G1 X31.3057 Y-17.9451 Z0.2424
G1 X31.3057 Y-17.9812 Z0.2401
G1 X31.3057 Y-18.0173 Z0.2377
G1 X31.3057 Y-18.0414 Z0.2360
G1 X31.3057 Y-18.0534 Z0.2351
G1 X31.3057 Y-18.0654 Z0.2342
G1 X31.3057 Y-18.0895 Z0.2324
G1 X31.3057 Y-18.1136 Z0.2306
G1 X31.3057 Y-18.1376 Z0.2286
G1 X31.3057 Y-18.1497 Z0.2277
G1 X31.3057 Y-18.1617 Z0.2267
G1 X31.3057 Y-18.1858 Z0.2246
G1 X31.3057 Y-18.2219 Z0.2214
G1 X31.3057 Y-18.2580 Z0.2181
G1 X31.3057 Y-18.2820 Z0.2158
G1 X31.3057 Y-18.2940 Z0.2146
G1 X31.3057 Y-18.3061 Z0.2134
G1 X31.3057 Y-18.3301 Z0.2110
G1 X31.3057 Y-18.3601 Z0.2079
G1 X31.3057 Y-18.3900 Z0.2047
G1 X31.3057 Y-18.4199 Z0.2014
G1 X31.3057 Y-18.4498 Z0.1980
G1 X31.3057 Y-18.4647 Z0.1963
G1 X31.3057 Y-18.4946 Z0.1928
G1 X31.3057 Y-18.5245 Z0.1892
G1 X31.3057 Y-18.5395 Z0.1873
G1 X31.3057 Y-18.5619 Z0.1845
G1 X31.3057 Y-18.5694 Z0.1835
G1 X31.3057 Y-18.5826 Z0.1825
G1 X31.3057 Y-18.5959 Z0.1830
G1 X31.3057 Y-18.6090 Z0.1848
G1 X31.3057 Y-18.6219 Z0.1880
G1 X31.3057 Y-18.6344 Z0.1925
G1 X31.3057 Y-18.6463 Z0.1984
G1 X31.3057 Y-18.6575 Z0.2054
G1 X31.3057 Y-18.6679 Z0.2137
G1 X31.3057 Y-18.6774 Z0.2229
G1 X31.3057 Y-18.6858 Z0.2332
G1 X31.3057 Y-18.6931 Z0.2442
G1 X31.3057 Y-18.6992 Z0.2560
G1 X31.3057 Y-18.7041 Z0.2684
G1 X31.3057 Y-18.7075 Z0.2812
G1 X31.3057 Y-18.7096 Z0.2943
G1 X31.3057 Y-18.7103 Z0.3075
G0 Z0.3101
G0 X31.3057 Y-18.7103 
G0 Z0.3850
G0 X31.1407 Y-17.0500 
G1 X31.1407 Y-17.0506 Z0.3728 F25.
G1 X31.1407 Y-17.0524 Z0.3607
G1 X31.1407 Y-17.0554 Z0.3488
G1 X31.1407 Y-17.0595 Z0.3372
G1 X31.1407 Y-17.0648 Z0.3261
G1 X31.1407 Y-17.0711 Z0.3156
G1 X31.1407 Y-17.0784 Z0.3058
G1 X31.1407 Y-17.0866 Z0.2967
G1 X31.1407 Y-17.0957 Z0.2884
G1 X31.1407 Y-17.1056 Z0.2811
G1 X31.1407 Y-17.1161 Z0.2748
G1 X31.1407 Y-17.1272 Z0.2696
G1 X31.1407 Y-17.1387 Z0.2654
G1 X31.1407 Y-17.1506 Z0.2625
G1 X31.1407 Y-17.1627 Z0.2607
G1 X31.1407 Y-17.1750 Z0.2600
G1 X31.1407 Y-17.3675 Z0.2600 F50.
G1 X31.1407 Y-17.3916 Z0.2600
G1 X31.1407 Y-17.4036 Z0.2600
G1 X31.1407 Y-17.4157 Z0.2599
G1 X31.1407 Y-17.4397 Z0.2598
G1 X31.1407 Y-17.4638 Z0.2595
G1 X31.1407 Y-17.4879 Z0.2592
G1 X31.1407 Y-17.4999 Z0.2591
G1 X31.1407 Y-17.5119 Z0.2589
G1 X31.1407 Y-17.5360 Z0.2585
G1 X31.1407 Y-17.5721 Z0.2578
G1 X31.1407 Y-17.6082 Z0.2569
G1 X31.1407 Y-17.6322 Z0.2563
G1 X31.1407 Y-17.6443 Z0.2560
G1 X31.1407 Y-17.6563 Z0.2556
G1 X31.1407 Y-17.6804 Z0.2548
G1 X31.1407 Y-17.7044 Z0.2540
G1 X31.1407 Y-17.7405 Z0.2526
G1 X31.1407 Y-17.7526 Z0.2522
G1 X31.1407 Y-17.7766 Z0.2512
G1 X31.1407 Y-17.8127 Z0.2495
G1 X31.1407 Y-17.8488 Z0.2478
G1 X31.1407 Y-17.8729 Z0.2465
G1 X31.1407 Y-17.8849 Z0.2458
G1 X31.1407 Y-17.9090 Z0.2445
G1 X31.1407 Y-17.9210 Z0.2438
G1 X31.1407 Y-17.9451 Z0.2424
G1 X31.1407 Y-17.9812 Z0.2401
G1 X31.1407 Y-18.0173 Z0.2377
G1 X31.1407 Y-18.0414 Z0.2360
G1 X31.1407 Y-18.0534 Z0.2351
G1 X31.1407 Y-18.0654 Z0.2342
G1 X31.1407 Y-18.0895 Z0.2324
G1 X31.1407 Y-18.1136 Z0.2306
G1 X31.1407 Y-18.1376 Z0.2286
G1 X31.1407 Y-18.1497 Z0.2277
G1 X31.1407 Y-18.1617 Z0.2267
G1 X31.1407 Y-18.1858 Z0.2246
G1 X31.1407 Y-18.2219 Z0.2214
G1 X31.1407 Y-18.2580 Z0.2181
G1 X31.1407 Y-18.2820 Z0.2158
G1 X31.1407 Y-18.2940 Z0.2146
G1 X31.1407 Y-18.3061 Z0.2134
G1 X31.1407 Y-18.3301 Z0.2110
G1 X31.1407 Y-18.3602 Z0.2079
G1 X31.1407 Y-18.3902 Z0.2047
G1 X31.1407 Y-18.4203 Z0.2014
G1 X31.1407 Y-18.4503 Z0.1980
G1 X31.1407 Y-18.4654 Z0.1962
G1 X31.1407 Y-18.4954 Z0.1927
G1 X31.1407 Y-18.5255 Z0.1890
G1 X31.1407 Y-18.5555 Z0.1853
G1 X31.1407 Y-18.5705 Z0.1834
G1 X31.1407 Y-18.5838 Z0.1824
G1 X31.1407 Y-18.5970 Z0.1828
G1 X31.1407 Y-18.6101 Z0.1847
G1 X31.1407 Y-18.6230 Z0.1879
G1 X31.1407 Y-18.6354 Z0.1924
G1 X31.1407 Y-18.6473 Z0.1983
G1 X31.1407 Y-18.6585 Z0.2054
G1 X31.1407 Y-18.6689 Z0.2136
G1 X31.1407 Y-18.6784 Z0.2229
G1 X31.1407 Y-18.6868 Z0.2331
G1 X31.1407 Y-18.6941 Z0.2442
G1 X31.1407 Y-18.7002 Z0.2559
G1 X31.1407 Y-18.7050 Z0.2683
G1 X31.1407 Y-18.7085 Z0.2811
G1 X31.1407 Y-18.7106 Z0.2941
G1 X31.1407 Y-18.7113 Z0.3074
G0 Z0.3101
G0 X31.1407 Y-18.7113 
G0 Z0.3850
G0 X30.9757 Y-17.0500 
G1 X30.9757 Y-17.0506 Z0.3728 F25.
G1 X30.9757 Y-17.0524 Z0.3607
G1 X30.9757 Y-17.0554 Z0.3488
G1 X30.9757 Y-17.0595 Z0.3372
G1 X30.9757 Y-17.0648 Z0.3261
G1 X30.9757 Y-17.0711 Z0.3156
G1 X30.9757 Y-17.0784 Z0.3058
G1 X30.9757 Y-17.0866 Z0.2967
G1 X30.9757 Y-17.0957 Z0.2884
G1 X30.9757 Y-17.1056 Z0.2811
G1 X30.9757 Y-17.1161 Z0.2748
G1 X30.9757 Y-17.1272 Z0.2696
G1 X30.9757 Y-17.1387 Z0.2654
G1 X30.9757 Y-17.1506 Z0.2625
G1 X30.9757 Y-17.1627 Z0.2607
G1 X30.9757 Y-17.1750 Z0.2600
G1 X30.9757 Y-17.3675 Z0.2600 F50.
G1 X30.9757 Y-17.3916 Z0.2600
G1 X30.9757 Y-17.4036 Z0.2600
G1 X30.9757 Y-17.4157 Z0.2599
G1 X30.9757 Y-17.4397 Z0.2598
G1 X30.9757 Y-17.4638 Z0.2595
G1 X30.9757 Y-17.4879 Z0.2592
G1 X30.9757 Y-17.4999 Z0.2591
G1 X30.9757 Y-17.5119 Z0.2589
G1 X30.9757 Y-17.5360 Z0.2585
G1 X30.9757 Y-17.5721 Z0.2578
G1 X30.9757 Y-17.6082 Z0.2569
G1 X30.9757 Y-17.6322 Z0.2563
G1 X30.9757 Y-17.6443 Z0.2560
G1 X30.9757 Y-17.6563 Z0.2556
G1 X30.9757 Y-17.6804 Z0.2548
G1 X30.9757 Y-17.7044 Z0.2540
G1 X30.9757 Y-17.7405 Z0.2526
G1 X30.9757 Y-17.7526 Z0.2522
G1 X30.9757 Y-17.7766 Z0.2512
G1 X30.9757 Y-17.8127 Z0.2495
G1 X30.9757 Y-17.8488 Z0.2478
G1 X30.9757 Y-17.8729 Z0.2465
G1 X30.9757 Y-17.8849 Z0.2458
G1 X30.9757 Y-17.9090 Z0.2445
G1 X30.9757 Y-17.9210 Z0.2438
G1 X30.9757 Y-17.9451 Z0.2424
G1 X30.9757 Y-17.9812 Z0.2401
G1 X30.9757 Y-18.0173 Z0.2377
G1 X30.9757 Y-18.0414 Z0.2360
G1 X30.9757 Y-18.0534 Z0.2351
G1 X30.9757 Y-18.0654 Z0.2342
G1 X30.9757 Y-18.0895 Z0.2324
G1 X30.9757 Y-18.1136 Z0.2306
G1 X30.9757 Y-18.1376 Z0.2286
G1 X30.9757 Y-18.1497 Z0.2277
G1 X30.9757 Y-18.1617 Z0.2267
G1 X30.9757 Y-18.1858 Z0.2246
G1 X30.9757 Y-18.2219 Z0.2214
G1 X30.9757 Y-18.2580 Z0.2181
G1 X30.9757 Y-18.2820 Z0.2158
G1 X30.9757 Y-18.2940 Z0.2146
G1 X30.9757 Y-18.3061 Z0.2134
G1 X30.9757 Y-18.3301 Z0.2110
G1 X30.9757 Y-18.3603 Z0.2079
G1 X30.9757 Y-18.3905 Z0.2046
G1 X30.9757 Y-18.4207 Z0.2013
G1 X30.9757 Y-18.4509 Z0.1979
G1 X30.9757 Y-18.4660 Z0.1961
G1 X30.9757 Y-18.4962 Z0.1926
G1 X30.9757 Y-18.5264 Z0.1889
G1 X30.9757 Y-18.5566 Z0.1852
G1 X30.9757 Y-18.5717 Z0.1832
G1 X30.9757 Y-18.5849 Z0.1823
G1 X30.9757 Y-18.5982 Z0.1827
G1 X30.9757 Y-18.6113 Z0.1845
G1 X30.9757 Y-18.6242 Z0.1877
G1 X30.9757 Y-18.6366 Z0.1923
G1 X30.9757 Y-18.6485 Z0.1981
G1 X30.9757 Y-18.6597 Z0.2052
G1 X30.9757 Y-18.6701 Z0.2134
G1 X30.9757 Y-18.6796 Z0.2227
G1 X30.9757 Y-18.6880 Z0.2329
G1 X30.9757 Y-18.6953 Z0.2440
G1 X30.9757 Y-18.7014 Z0.2558
G1 X30.9757 Y-18.7062 Z0.2681
G1 X30.9757 Y-18.7097 Z0.2809
G1 X30.9757 Y-18.7118 Z0.2940
G1 X30.9757 Y-18.7125 Z0.3072
G0 Z0.3101
G0 X30.9757 Y-18.7125 
G0 Z0.3850
G0 X30.8107 Y-17.0500 
G1 X30.8107 Y-17.0506 Z0.3728 F25.
G1 X30.8107 Y-17.0524 Z0.3607
G1 X30.8107 Y-17.0554 Z0.3488
G1 X30.8107 Y-17.0595 Z0.3372
G1 X30.8107 Y-17.0648 Z0.3261
G1 X30.8107 Y-17.0711 Z0.3156
G1 X30.8107 Y-17.0784 Z0.3058
G1 X30.8107 Y-17.0866 Z0.2967
G1 X30.8107 Y-17.0957 Z0.2884
G1 X30.8107 Y-17.1056 Z0.2811
G1 X30.8107 Y-17.1161 Z0.2748
G1 X30.8107 Y-17.1272 Z0.2696
G1 X30.8107 Y-17.1387 Z0.2654
G1 X30.8107 Y-17.1506 Z0.2625
G1 X30.8107 Y-17.1627 Z0.2607
G1 X30.8107 Y-17.1750 Z0.2600
G1 X30.8107 Y-17.3675 Z0.2600 F50.
G1 X30.8107 Y-17.3916 Z0.2600
G1 X30.8107 Y-17.4036 Z0.2600
G1 X30.8107 Y-17.4157 Z0.2599
G1 X30.8107 Y-17.4397 Z0.2598
G1 X30.8107 Y-17.4638 Z0.2595
G1 X30.8107 Y-17.4879 Z0.2592
G1 X30.8107 Y-17.4999 Z0.2591
G1 X30.8107 Y-17.5119 Z0.2589
G1 X30.8107 Y-17.5360 Z0.2585
G1 X30.8107 Y-17.5721 Z0.2578
G1 X30.8107 Y-17.6082 Z0.2569
G1 X30.8107 Y-17.6322 Z0.2563
G1 X30.8107 Y-17.6443 Z0.2560
G1 X30.8107 Y-17.6563 Z0.2556
G1 X30.8107 Y-17.6804 Z0.2548
G1 X30.8107 Y-17.7044 Z0.2540
G1 X30.8107 Y-17.7405 Z0.2526
G1 X30.8107 Y-17.7526 Z0.2522
G1 X30.8107 Y-17.7766 Z0.2512
G1 X30.8107 Y-17.8127 Z0.2495
G1 X30.8107 Y-17.8488 Z0.2478
G1 X30.8107 Y-17.8729 Z0.2465
G1 X30.8107 Y-17.8849 Z0.2458
G1 X30.8107 Y-17.9090 Z0.2445
G1 X30.8107 Y-17.9210 Z0.2438
G1 X30.8107 Y-17.9451 Z0.2424
G1 X30.8107 Y-17.9812 Z0.2401
G1 X30.8107 Y-18.0173 Z0.2377
G1 X30.8107 Y-18.0414 Z0.2360
G1 X30.8107 Y-18.0534 Z0.2351
G1 X30.8107 Y-18.0654 Z0.2342
G1 X30.8107 Y-18.0895 Z0.2324
G1 X30.8107 Y-18.1136 Z0.2306
G1 X30.8107 Y-18.1376 Z0.2286
G1 X30.8107 Y-18.1497 Z0.2277
G1 X30.8107 Y-18.1617 Z0.2267
G1 X30.8107 Y-18.1858 Z0.2246
G1 X30.8107 Y-18.2219 Z0.2214
G1 X30.8107 Y-18.2580 Z0.2181
G1 X30.8107 Y-18.2820 Z0.2158
G1 X30.8107 Y-18.2940 Z0.2146
G1 X30.8107 Y-18.3061 Z0.2134
G1 X30.8107 Y-18.3301 Z0.2110
G1 X30.8107 Y-18.3605 Z0.2079
G1 X30.8107 Y-18.3908 Z0.2046
G1 X30.8107 Y-18.4212 Z0.2013
G1 X30.8107 Y-18.4515 Z0.1978
G1 X30.8107 Y-18.4667 Z0.1961
G1 X30.8107 Y-18.4818 Z0.1943
G1 X30.8107 Y-18.4970 Z0.1925
G1 X30.8107 Y-18.5273 Z0.1888
G1 X30.8107 Y-18.5577 Z0.1850
G1 X30.8107 Y-18.5728 Z0.1831
G1 X30.8107 Y-18.5861 Z0.1821
G1 X30.8107 Y-18.5993 Z0.1825
G1 X30.8107 Y-18.6124 Z0.1844
G1 X30.8107 Y-18.6253 Z0.1876
G1 X30.8107 Y-18.6378 Z0.1921
G1 X30.8107 Y-18.6497 Z0.1980
G1 X30.8107 Y-18.6609 Z0.2050
G1 X30.8107 Y-18.6713 Z0.2133
G1 X30.8107 Y-18.6807 Z0.2225
G1 X30.8107 Y-18.6892 Z0.2328
G1 X30.8107 Y-18.6965 Z0.2438
G1 X30.8107 Y-18.7026 Z0.2556
G1 X30.8107 Y-18.7074 Z0.2680
G1 X30.8107 Y-18.7109 Z0.2808
G1 X30.8107 Y-18.7130 Z0.2938
G1 X30.8107 Y-18.7137 Z0.3071
G0 Z0.3101
G0 X30.8107 Y-18.7137 
G0 Z0.3850
G0 X30.6457 Y-17.0500 
G1 X30.6457 Y-17.0506 Z0.3728 F25.
G1 X30.6457 Y-17.0524 Z0.3607
G1 X30.6457 Y-17.0554 Z0.3488
G1 X30.6457 Y-17.0595 Z0.3372
G1 X30.6457 Y-17.0648 Z0.3261
G1 X30.6457 Y-17.0711 Z0.3156
G1 X30.6457 Y-17.0784 Z0.3058
G1 X30.6457 Y-17.0866 Z0.2967
G1 X30.6457 Y-17.0957 Z0.2884
G1 X30.6457 Y-17.1056 Z0.2811
G1 X30.6457 Y-17.1161 Z0.2748
G1 X30.6457 Y-17.1272 Z0.2696
G1 X30.6457 Y-17.1387 Z0.2654
G1 X30.6457 Y-17.1506 Z0.2625
G1 X30.6457 Y-17.1627 Z0.2607
G1 X30.6457 Y-17.1750 Z0.2600
G1 X30.6457 Y-17.3675 Z0.2600 F50.
G1 X30.6457 Y-17.3916 Z0.2600
G1 X30.6457 Y-17.4036 Z0.2600
G1 X30.6457 Y-17.4157 Z0.2599
G1 X30.6457 Y-17.4397 Z0.2598
G1 X30.6457 Y-17.4638 Z0.2595
G1 X30.6457 Y-17.4879 Z0.2592
G1 X30.6457 Y-17.4999 Z0.2591
G1 X30.6457 Y-17.5119 Z0.2589
G1 X30.6457 Y-17.5360 Z0.2585
G1 X30.6457 Y-17.5721 Z0.2578
G1 X30.6457 Y-17.6082 Z0.2569
G1 X30.6457 Y-17.6322 Z0.2563
G1 X30.6457 Y-17.6443 Z0.2560
G1 X30.6457 Y-17.6563 Z0.2556
G1 X30.6457 Y-17.6804 Z0.2548
G1 X30.6457 Y-17.7044 Z0.2540
G1 X30.6457 Y-17.7405 Z0.2526
G1 X30.6457 Y-17.7526 Z0.2522
G1 X30.6457 Y-17.7766 Z0.2512
G1 X30.6457 Y-17.8127 Z0.2495
G1 X30.6457 Y-17.8488 Z0.2478
G1 X30.6457 Y-17.8729 Z0.2465
G1 X30.6457 Y-17.8849 Z0.2458
G1 X30.6457 Y-17.9090 Z0.2445
G1 X30.6457 Y-17.9210 Z0.2438
G1 X30.6457 Y-17.9451 Z0.2424
G1 X30.6457 Y-17.9812 Z0.2401
G1 X30.6457 Y-18.0173 Z0.2377
G1 X30.6457 Y-18.0414 Z0.2360
G1 X30.6457 Y-18.0534 Z0.2351
G1 X30.6457 Y-18.0654 Z0.2342
G1 X30.6457 Y-18.0895 Z0.2324
G1 X30.6457 Y-18.1136 Z0.2306
G1 X30.6457 Y-18.1376 Z0.2286
G1 X30.6457 Y-18.1497 Z0.2277
G1 X30.6457 Y-18.1617 Z0.2267
G1 X30.6457 Y-18.1858 Z0.2246
G1 X30.6457 Y-18.2219 Z0.2214
G1 X30.6457 Y-18.2580 Z0.2181
G1 X30.6457 Y-18.2820 Z0.2158
G1 X30.6457 Y-18.2940 Z0.2146
G1 X30.6457 Y-18.3061 Z0.2134
G1 X30.6457 Y-18.3301 Z0.2110
G1 X30.6457 Y-18.3606 Z0.2078
G1 X30.6457 Y-18.3911 Z0.2046
G1 X30.6457 Y-18.4216 Z0.2012
G1 X30.6457 Y-18.4597 Z0.1969
G1 X30.6457 Y-18.4826 Z0.1942
G1 X30.6457 Y-18.4978 Z0.1924
G1 X30.6457 Y-18.5283 Z0.1887
G1 X30.6457 Y-18.5588 Z0.1849
G1 X30.6457 Y-18.5740 Z0.1829
G1 X30.6457 Y-18.5872 Z0.1820
G1 X30.6457 Y-18.6005 Z0.1824
G1 X30.6457 Y-18.6136 Z0.1842
G1 X30.6457 Y-18.6265 Z0.1874
G1 X30.6457 Y-18.6389 Z0.1920
G1 X30.6457 Y-18.6508 Z0.1978
G1 X30.6457 Y-18.6620 Z0.2049
G1 X30.6457 Y-18.6724 Z0.2131
G1 X30.6457 Y-18.6819 Z0.2224
G1 X30.6457 Y-18.6904 Z0.2326
G1 X30.6457 Y-18.6977 Z0.2437
G1 X30.6457 Y-18.7038 Z0.2554
G1 X30.6457 Y-18.7086 Z0.2678
G1 X30.6457 Y-18.7121 Z0.2806
G1 X30.6457 Y-18.7142 Z0.2937
G1 X30.6457 Y-18.7149 Z0.3069
G0 Z0.3101
G0 X30.6457 Y-18.7149 
G0 Z0.3850
G0 X30.4807 Y-17.0500 
G1 X30.4807 Y-17.0506 Z0.3728 F25.
G1 X30.4807 Y-17.0524 Z0.3607
G1 X30.4807 Y-17.0554 Z0.3488
G1 X30.4807 Y-17.0595 Z0.3372
G1 X30.4807 Y-17.0648 Z0.3261
G1 X30.4807 Y-17.0711 Z0.3156
G1 X30.4807 Y-17.0784 Z0.3058
G1 X30.4807 Y-17.0866 Z0.2967
G1 X30.4807 Y-17.0957 Z0.2884
G1 X30.4807 Y-17.1056 Z0.2811
G1 X30.4807 Y-17.1161 Z0.2748
G1 X30.4807 Y-17.1272 Z0.2696
G1 X30.4807 Y-17.1387 Z0.2654
G1 X30.4807 Y-17.1506 Z0.2625
G1 X30.4807 Y-17.1627 Z0.2607
G1 X30.4807 Y-17.1750 Z0.2600
G1 X30.4807 Y-17.3675 Z0.2600 F50.
G1 X30.4807 Y-17.3916 Z0.2600
G1 X30.4807 Y-17.4036 Z0.2600
G1 X30.4807 Y-17.4157 Z0.2599
G1 X30.4807 Y-17.4397 Z0.2598
G1 X30.4807 Y-17.4638 Z0.2595
G1 X30.4807 Y-17.4879 Z0.2592
G1 X30.4807 Y-17.4999 Z0.2591
G1 X30.4807 Y-17.5119 Z0.2589
G1 X30.4807 Y-17.5360 Z0.2585
G1 X30.4807 Y-17.5721 Z0.2578
G1 X30.4807 Y-17.6082 Z0.2569
G1 X30.4807 Y-17.6322 Z0.2563
G1 X30.4807 Y-17.6443 Z0.2560
G1 X30.4807 Y-17.6563 Z0.2556
G1 X30.4807 Y-17.6804 Z0.2548
G1 X30.4807 Y-17.7044 Z0.2540
G1 X30.4807 Y-17.7405 Z0.2526
G1 X30.4807 Y-17.7526 Z0.2522
G1 X30.4807 Y-17.7766 Z0.2512
G1 X30.4807 Y-17.8127 Z0.2495
G1 X30.4807 Y-17.8488 Z0.2478
G1 X30.4807 Y-17.8729 Z0.2465
G1 X30.4807 Y-17.8849 Z0.2458
G1 X30.4807 Y-17.9090 Z0.2445
G1 X30.4807 Y-17.9210 Z0.2438
G1 X30.4807 Y-17.9451 Z0.2424
G1 X30.4807 Y-17.9812 Z0.2401
G1 X30.4807 Y-18.0173 Z0.2377
G1 X30.4807 Y-18.0414 Z0.2360
G1 X30.4807 Y-18.0534 Z0.2351
G1 X30.4807 Y-18.0654 Z0.2342
G1 X30.4807 Y-18.0895 Z0.2324
G1 X30.4807 Y-18.1136 Z0.2306
G1 X30.4807 Y-18.1376 Z0.2286
G1 X30.4807 Y-18.1497 Z0.2277
G1 X30.4807 Y-18.1617 Z0.2267
G1 X30.4807 Y-18.1858 Z0.2246
G1 X30.4807 Y-18.2219 Z0.2214
G1 X30.4807 Y-18.2580 Z0.2181
G1 X30.4807 Y-18.2820 Z0.2158
G1 X30.4807 Y-18.2940 Z0.2146
G1 X30.4807 Y-18.3061 Z0.2134
G1 X30.4807 Y-18.3301 Z0.2110
G1 X30.4807 Y-18.3608 Z0.2078
G1 X30.4807 Y-18.3914 Z0.2046
G1 X30.4807 Y-18.4220 Z0.2012
G1 X30.4807 Y-18.4603 Z0.1968
G1 X30.4807 Y-18.4833 Z0.1941
G1 X30.4807 Y-18.4986 Z0.1923
G1 X30.4807 Y-18.5292 Z0.1886
G1 X30.4807 Y-18.5598 Z0.1848
G1 X30.4807 Y-18.5751 Z0.1828
G1 X30.4807 Y-18.5884 Z0.1818
G1 X30.4807 Y-18.6016 Z0.1822
G1 X30.4807 Y-18.6148 Z0.1840
G1 X30.4807 Y-18.6276 Z0.1873
G1 X30.4807 Y-18.6401 Z0.1918
G1 X30.4807 Y-18.6520 Z0.1976
G1 X30.4807 Y-18.6632 Z0.2047
G1 X30.4807 Y-18.6736 Z0.2129
G1 X30.4807 Y-18.6831 Z0.2222
G1 X30.4807 Y-18.6915 Z0.2324
G1 X30.4807 Y-18.6988 Z0.2435
G1 X30.4807 Y-18.7049 Z0.2553
G1 X30.4807 Y-18.7098 Z0.2676
G1 X30.4807 Y-18.7132 Z0.2804
G1 X30.4807 Y-18.7153 Z0.2935
G1 X30.4807 Y-18.7160 Z0.3068
G0 Z0.3101
G0 X30.4807 Y-18.7160 
G0 Z0.3850
G0 X30.3157 Y-17.0500 
G1 X30.3157 Y-17.0506 Z0.3728 F25.
G1 X30.3157 Y-17.0524 Z0.3607
G1 X30.3157 Y-17.0554 Z0.3488
G1 X30.3157 Y-17.0595 Z0.3372
G1 X30.3157 Y-17.0648 Z0.3261
G1 X30.3157 Y-17.0711 Z0.3156
G1 X30.3157 Y-17.0784 Z0.3058
G1 X30.3157 Y-17.0866 Z0.2967
G1 X30.3157 Y-17.0957 Z0.2884
G1 X30.3157 Y-17.1056 Z0.2811
G1 X30.3157 Y-17.1161 Z0.2748
G1 X30.3157 Y-17.1272 Z0.2696
G1 X30.3157 Y-17.1387 Z0.2654
G1 X30.3157 Y-17.1506 Z0.2625
G1 X30.3157 Y-17.1627 Z0.2607
G1 X30.3157 Y-17.1750 Z0.2600
G1 X30.3157 Y-17.3675 Z0.2600 F50.
G1 X30.3157 Y-17.3916 Z0.2600
G1 X30.3157 Y-17.4036 Z0.2600
G1 X30.3157 Y-17.4157 Z0.2599
G1 X30.3157 Y-17.4397 Z0.2598
G1 X30.3157 Y-17.4638 Z0.2595
G1 X30.3157 Y-17.4879 Z0.2592
G1 X30.3157 Y-17.4999 Z0.2591
G1 X30.3157 Y-17.5119 Z0.2589
G1 X30.3157 Y-17.5360 Z0.2585
G1 X30.3157 Y-17.5721 Z0.2578
G1 X30.3157 Y-17.6082 Z0.2569
G1 X30.3157 Y-17.6322 Z0.2563
G1 X30.3157 Y-17.6443 Z0.2560
G1 X30.3157 Y-17.6563 Z0.2556
G1 X30.3157 Y-17.6804 Z0.2548
G1 X30.3157 Y-17.7044 Z0.2540
G1 X30.3157 Y-17.7405 Z0.2526
G1 X30.3157 Y-17.7526 Z0.2522
G1 X30.3157 Y-17.7766 Z0.2512
G1 X30.3157 Y-17.8127 Z0.2495
G1 X30.3157 Y-17.8488 Z0.2478
G1 X30.3157 Y-17.8729 Z0.2465
G1 X30.3157 Y-17.8849 Z0.2458
G1 X30.3157 Y-17.9090 Z0.2445
G1 X30.3157 Y-17.9210 Z0.2438
G1 X30.3157 Y-17.9451 Z0.2424
G1 X30.3157 Y-17.9812 Z0.2401
G1 X30.3157 Y-18.0173 Z0.2377
G1 X30.3157 Y-18.0414 Z0.2360
G1 X30.3157 Y-18.0534 Z0.2351
G1 X30.3157 Y-18.0654 Z0.2342
G1 X30.3157 Y-18.0895 Z0.2324
G1 X30.3157 Y-18.1136 Z0.2306
G1 X30.3157 Y-18.1376 Z0.2286
G1 X30.3157 Y-18.1497 Z0.2277
G1 X30.3157 Y-18.1617 Z0.2267
G1 X30.3157 Y-18.1858 Z0.2246
G1 X30.3157 Y-18.2219 Z0.2214
G1 X30.3157 Y-18.2580 Z0.2181
G1 X30.3157 Y-18.2820 Z0.2158
G1 X30.3157 Y-18.2940 Z0.2146
G1 X30.3157 Y-18.3061 Z0.2134
G1 X30.3157 Y-18.3301 Z0.2110
G1 X30.3157 Y-18.3609 Z0.2078
G1 X30.3157 Y-18.3917 Z0.2045
G1 X30.3157 Y-18.4225 Z0.2011
G1 X30.3157 Y-18.4532 Z0.1976
G1 X30.3157 Y-18.4840 Z0.1940
G1 X30.3157 Y-18.4994 Z0.1922
G1 X30.3157 Y-18.5301 Z0.1885
G1 X30.3157 Y-18.5609 Z0.1846
G1 X30.3157 Y-18.5763 Z0.1826
G1 X30.3157 Y-18.5895 Z0.1817
G1 X30.3157 Y-18.6028 Z0.1821
G1 X30.3157 Y-18.6159 Z0.1839
G1 X30.3157 Y-18.6288 Z0.1871
G1 X30.3157 Y-18.6412 Z0.1916
G1 X30.3157 Y-18.6532 Z0.1975
G1 X30.3157 Y-18.6644 Z0.2046
G1 X30.3157 Y-18.6748 Z0.2128
G1 X30.3157 Y-18.6843 Z0.2221
G1 X30.3157 Y-18.6927 Z0.2323
G1 X30.3157 Y-18.7000 Z0.2433
G1 X30.3157 Y-18.7061 Z0.2551
G1 X30.3157 Y-18.7109 Z0.2675
G1 X30.3157 Y-18.7144 Z0.2803
G1 X30.3157 Y-18.7165 Z0.2934
G1 X30.3157 Y-18.7172 Z0.3066
G0 Z0.3101
G0 X30.3157 Y-18.7172 
G0 Z0.3850
G0 X30.1507 Y-17.0500 
G1 X30.1507 Y-17.0506 Z0.3728 F25.
G1 X30.1507 Y-17.0524 Z0.3607
G1 X30.1507 Y-17.0554 Z0.3488
G1 X30.1507 Y-17.0595 Z0.3372
G1 X30.1507 Y-17.0648 Z0.3261
G1 X30.1507 Y-17.0711 Z0.3156
G1 X30.1507 Y-17.0784 Z0.3058
G1 X30.1507 Y-17.0866 Z0.2967
G1 X30.1507 Y-17.0957 Z0.2884
G1 X30.1507 Y-17.1056 Z0.2811
G1 X30.1507 Y-17.1161 Z0.2748
G1 X30.1507 Y-17.1272 Z0.2696
G1 X30.1507 Y-17.1387 Z0.2654
G1 X30.1507 Y-17.1506 Z0.2625
G1 X30.1507 Y-17.1627 Z0.2607
G1 X30.1507 Y-17.1750 Z0.2600
G1 X30.1507 Y-17.3675 Z0.2600 F50.
G1 X30.1507 Y-17.3916 Z0.2600
G1 X30.1507 Y-17.4036 Z0.2600
G1 X30.1507 Y-17.4157 Z0.2599
G1 X30.1507 Y-17.4397 Z0.2598
G1 X30.1507 Y-17.4638 Z0.2595
G1 X30.1507 Y-17.4879 Z0.2592
G1 X30.1507 Y-17.4999 Z0.2591
G1 X30.1507 Y-17.5119 Z0.2589
G1 X30.1507 Y-17.5360 Z0.2585
G1 X30.1507 Y-17.5721 Z0.2578
G1 X30.1507 Y-17.6082 Z0.2569
G1 X30.1507 Y-17.6322 Z0.2563
G1 X30.1507 Y-17.6443 Z0.2560
G1 X30.1507 Y-17.6563 Z0.2556
G1 X30.1507 Y-17.6804 Z0.2548
G1 X30.1507 Y-17.7044 Z0.2540
G1 X30.1507 Y-17.7405 Z0.2526
G1 X30.1507 Y-17.7526 Z0.2522
G1 X30.1507 Y-17.7766 Z0.2512
G1 X30.1507 Y-17.8127 Z0.2495
G1 X30.1507 Y-17.8488 Z0.2478
G1 X30.1507 Y-17.8729 Z0.2465
G1 X30.1507 Y-17.8849 Z0.2458
G1 X30.1507 Y-17.9090 Z0.2445
G1 X30.1507 Y-17.9210 Z0.2438
G1 X30.1507 Y-17.9451 Z0.2424
G1 X30.1507 Y-17.9812 Z0.2401
G1 X30.1507 Y-18.0173 Z0.2377
G1 X30.1507 Y-18.0414 Z0.2360
G1 X30.1507 Y-18.0534 Z0.2351
G1 X30.1507 Y-18.0654 Z0.2342
G1 X30.1507 Y-18.0895 Z0.2324
G1 X30.1507 Y-18.1136 Z0.2306
G1 X30.1507 Y-18.1376 Z0.2286
G1 X30.1507 Y-18.1497 Z0.2277
G1 X30.1507 Y-18.1617 Z0.2267
G1 X30.1507 Y-18.1858 Z0.2246
G1 X30.1507 Y-18.2219 Z0.2214
G1 X30.1507 Y-18.2580 Z0.2181
G1 X30.1507 Y-18.2820 Z0.2158
G1 X30.1507 Y-18.2940 Z0.2146
G1 X30.1507 Y-18.3061 Z0.2134
G1 X30.1507 Y-18.3301 Z0.2110
G1 X30.1507 Y-18.3611 Z0.2078
G1 X30.1507 Y-18.3920 Z0.2045
G1 X30.1507 Y-18.4229 Z0.2011
G1 X30.1507 Y-18.4538 Z0.1976
G1 X30.1507 Y-18.4847 Z0.1939
G1 X30.1507 Y-18.5002 Z0.1921
G1 X30.1507 Y-18.5156 Z0.1902
G1 X30.1507 Y-18.5311 Z0.1883
G1 X30.1507 Y-18.5620 Z0.1845
G1 X30.1507 Y-18.5774 Z0.1825
G1 X30.1507 Y-18.5907 Z0.1815
G1 X30.1507 Y-18.6039 Z0.1819
G1 X30.1507 Y-18.6171 Z0.1837
G1 X30.1507 Y-18.6299 Z0.1869
G1 X30.1507 Y-18.6424 Z0.1915
G1 X30.1507 Y-18.6543 Z0.1973
G1 X30.1507 Y-18.6655 Z0.2044
G1 X30.1507 Y-18.6760 Z0.2126
G1 X30.1507 Y-18.6854 Z0.2219
G1 X30.1507 Y-18.6939 Z0.2321
G1 X30.1507 Y-18.7012 Z0.2432
G1 X30.1507 Y-18.7073 Z0.2550
G1 X30.1507 Y-18.7121 Z0.2673
G1 X30.1507 Y-18.7156 Z0.2801
G1 X30.1507 Y-18.7177 Z0.2932
G1 X30.1507 Y-18.7184 Z0.3065
G0 Z0.3101
G0 X30.1507 Y-18.7184 
G0 Z0.3850
G0 X29.9857 Y-17.0500 
G1 X29.9857 Y-17.0506 Z0.3728 F25.
G1 X29.9857 Y-17.0524 Z0.3607
G1 X29.9857 Y-17.0554 Z0.3488
G1 X29.9857 Y-17.0595 Z0.3372
G1 X29.9857 Y-17.0648 Z0.3261
G1 X29.9857 Y-17.0711 Z0.3156
G1 X29.9857 Y-17.0784 Z0.3058
G1 X29.9857 Y-17.0866 Z0.2967
G1 X29.9857 Y-17.0957 Z0.2884
G1 X29.9857 Y-17.1056 Z0.2811
G1 X29.9857 Y-17.1161 Z0.2748
G1 X29.9857 Y-17.1272 Z0.2696
G1 X29.9857 Y-17.1387 Z0.2654
G1 X29.9857 Y-17.1506 Z0.2625
G1 X29.9857 Y-17.1627 Z0.2607
G1 X29.9857 Y-17.1750 Z0.2600
G1 X29.9857 Y-17.3675 Z0.2600 F50.
G1 X29.9857 Y-17.3916 Z0.2600
G1 X29.9857 Y-17.4036 Z0.2600
G1 X29.9857 Y-17.4157 Z0.2599
G1 X29.9857 Y-17.4397 Z0.2598
G1 X29.9857 Y-17.4638 Z0.2595
G1 X29.9857 Y-17.4879 Z0.2592
G1 X29.9857 Y-17.4999 Z0.2591
G1 X29.9857 Y-17.5119 Z0.2589
G1 X29.9857 Y-17.5360 Z0.2585
G1 X29.9857 Y-17.5721 Z0.2578
G1 X29.9857 Y-17.6082 Z0.2569
G1 X29.9857 Y-17.6322 Z0.2563
G1 X29.9857 Y-17.6443 Z0.2560
G1 X29.9857 Y-17.6563 Z0.2556
G1 X29.9857 Y-17.6804 Z0.2548
G1 X29.9857 Y-17.7044 Z0.2540
G1 X29.9857 Y-17.7405 Z0.2526
G1 X29.9857 Y-17.7526 Z0.2522
G1 X29.9857 Y-17.7766 Z0.2512
G1 X29.9857 Y-17.8127 Z0.2495
G1 X29.9857 Y-17.8488 Z0.2478
G1 X29.9857 Y-17.8729 Z0.2465
G1 X29.9857 Y-17.8849 Z0.2458
G1 X29.9857 Y-17.9090 Z0.2445
G1 X29.9857 Y-17.9210 Z0.2438
G1 X29.9857 Y-17.9451 Z0.2424
G1 X29.9857 Y-17.9812 Z0.2401
G1 X29.9857 Y-18.0173 Z0.2377
G1 X29.9857 Y-18.0414 Z0.2360
G1 X29.9857 Y-18.0534 Z0.2351
G1 X29.9857 Y-18.0654 Z0.2342
G1 X29.9857 Y-18.0895 Z0.2324
G1 X29.9857 Y-18.1136 Z0.2306
G1 X29.9857 Y-18.1376 Z0.2286
G1 X29.9857 Y-18.1497 Z0.2277
G1 X29.9857 Y-18.1617 Z0.2267
G1 X29.9857 Y-18.1858 Z0.2246
G1 X29.9857 Y-18.2219 Z0.2214
G1 X29.9857 Y-18.2580 Z0.2181
G1 X29.9857 Y-18.2820 Z0.2158
G1 X29.9857 Y-18.2940 Z0.2146
G1 X29.9857 Y-18.3061 Z0.2134
G1 X29.9857 Y-18.3301 Z0.2110
G1 X29.9857 Y-18.3612 Z0.2078
G1 X29.9857 Y-18.3923 Z0.2045
G1 X29.9857 Y-18.4233 Z0.2010
G1 X29.9857 Y-18.4544 Z0.1975
G1 X29.9857 Y-18.4932 Z0.1930
G1 X29.9857 Y-18.5165 Z0.1901
G1 X29.9857 Y-18.5320 Z0.1882
G1 X29.9857 Y-18.5631 Z0.1843
G1 X29.9857 Y-18.5786 Z0.1823
G1 X29.9857 Y-18.5918 Z0.1814
G1 X29.9857 Y-18.6051 Z0.1818
G1 X29.9857 Y-18.6182 Z0.1836
G1 X29.9857 Y-18.6311 Z0.1868
G1 X29.9857 Y-18.6436 Z0.1913
G1 X29.9857 Y-18.6555 Z0.1972
G1 X29.9857 Y-18.6667 Z0.2042
G1 X29.9857 Y-18.6771 Z0.2125
G1 X29.9857 Y-18.6866 Z0.2217
G1 X29.9857 Y-18.6950 Z0.2320
G1 X29.9857 Y-18.7023 Z0.2430
G1 X29.9857 Y-18.7084 Z0.2548
G1 X29.9857 Y-18.7133 Z0.2672
G1 X29.9857 Y-18.7167 Z0.2800
G1 X29.9857 Y-18.7188 Z0.2931
G1 X29.9857 Y-18.7195 Z0.3063
G0 Z0.3101
G0 X29.9857 Y-18.7195 
G0 Z0.3850
G0 X29.8207 Y-17.0500 
G1 X29.8207 Y-17.0506 Z0.3728 F25.
G1 X29.8207 Y-17.0524 Z0.3607
G1 X29.8207 Y-17.0554 Z0.3488
G1 X29.8207 Y-17.0595 Z0.3372
G1 X29.8207 Y-17.0648 Z0.3261
G1 X29.8207 Y-17.0711 Z0.3156
G1 X29.8207 Y-17.0784 Z0.3058
G1 X29.8207 Y-17.0866 Z0.2967
G1 X29.8207 Y-17.0957 Z0.2884
G1 X29.8207 Y-17.1056 Z0.2811
G1 X29.8207 Y-17.1161 Z0.2748
G1 X29.8207 Y-17.1272 Z0.2696
G1 X29.8207 Y-17.1387 Z0.2654
G1 X29.8207 Y-17.1506 Z0.2625
G1 X29.8207 Y-17.1627 Z0.2607
G1 X29.8207 Y-17.1750 Z0.2600
G1 X29.8207 Y-17.3675 Z0.2600 F50.
G1 X29.8207 Y-17.3916 Z0.2600
G1 X29.8207 Y-17.4036 Z0.2600
G1 X29.8207 Y-17.4157 Z0.2599
G1 X29.8207 Y-17.4397 Z0.2598
G1 X29.8207 Y-17.4638 Z0.2595
G1 X29.8207 Y-17.4879 Z0.2592
G1 X29.8207 Y-17.4999 Z0.2591
G1 X29.8207 Y-17.5119 Z0.2589
G1 X29.8207 Y-17.5360 Z0.2585
G1 X29.8207 Y-17.5721 Z0.2578
G1 X29.8207 Y-17.6082 Z0.2569
G1 X29.8207 Y-17.6322 Z0.2563
G1 X29.8207 Y-17.6443 Z0.2560
G1 X29.8207 Y-17.6563 Z0.2556
G1 X29.8207 Y-17.6804 Z0.2548
G1 X29.8207 Y-17.7044 Z0.2540
G1 X29.8207 Y-17.7405 Z0.2526
G1 X29.8207 Y-17.7526 Z0.2522
G1 X29.8207 Y-17.7766 Z0.2512
G1 X29.8207 Y-17.8127 Z0.2495
G1 X29.8207 Y-17.8488 Z0.2478
G1 X29.8207 Y-17.8729 Z0.2465
G1 X29.8207 Y-17.8849 Z0.2458
G1 X29.8207 Y-17.9090 Z0.2445
G1 X29.8207 Y-17.9210 Z0.2438
G1 X29.8207 Y-17.9451 Z0.2424
G1 X29.8207 Y-17.9812 Z0.2401
G1 X29.8207 Y-18.0173 Z0.2377
G1 X29.8207 Y-18.0414 Z0.2360
G1 X29.8207 Y-18.0534 Z0.2351
G1 X29.8207 Y-18.0654 Z0.2342
G1 X29.8207 Y-18.0895 Z0.2324
G1 X29.8207 Y-18.1136 Z0.2306
G1 X29.8207 Y-18.1376 Z0.2286
G1 X29.8207 Y-18.1497 Z0.2277
G1 X29.8207 Y-18.1617 Z0.2267
G1 X29.8207 Y-18.1858 Z0.2246
G1 X29.8207 Y-18.2219 Z0.2214
G1 X29.8207 Y-18.2580 Z0.2181
G1 X29.8207 Y-18.2820 Z0.2158
G1 X29.8207 Y-18.2940 Z0.2146
G1 X29.8207 Y-18.3061 Z0.2134
G1 X29.8207 Y-18.3301 Z0.2110
G1 X29.8207 Y-18.3613 Z0.2078
G1 X29.8207 Y-18.3925 Z0.2044
G1 X29.8207 Y-18.4237 Z0.2010
G1 X29.8207 Y-18.4549 Z0.1974
G1 X29.8207 Y-18.4939 Z0.1929
G1 X29.8207 Y-18.5173 Z0.1900
G1 X29.8207 Y-18.5329 Z0.1881
G1 X29.8207 Y-18.5641 Z0.1842
G1 X29.8207 Y-18.5797 Z0.1822
G1 X29.8207 Y-18.5930 Z0.1812
G1 X29.8207 Y-18.6062 Z0.1816
G1 X29.8207 Y-18.6194 Z0.1834
G1 X29.8207 Y-18.6322 Z0.1866
G1 X29.8207 Y-18.6447 Z0.1912
G1 X29.8207 Y-18.6566 Z0.1970
G1 X29.8207 Y-18.6678 Z0.2041
G1 X29.8207 Y-18.6783 Z0.2123
G1 X29.8207 Y-18.6877 Z0.2216
G1 X29.8207 Y-18.6962 Z0.2318
G1 X29.8207 Y-18.7035 Z0.2429
G1 X29.8207 Y-18.7096 Z0.2547
G1 X29.8207 Y-18.7144 Z0.2670
G1 X29.8207 Y-18.7179 Z0.2798
G1 X29.8207 Y-18.7200 Z0.2929
G1 X29.8207 Y-18.7207 Z0.3062
G0 Z0.3101
G0 X29.8207 Y-18.7207 
G0 Z0.3850
G0 X29.6557 Y-17.0500 
G1 X29.6557 Y-17.0506 Z0.3728 F25.
G1 X29.6557 Y-17.0524 Z0.3607
G1 X29.6557 Y-17.0554 Z0.3488
G1 X29.6557 Y-17.0595 Z0.3372
G1 X29.6557 Y-17.0648 Z0.3261
G1 X29.6557 Y-17.0711 Z0.3156
G1 X29.6557 Y-17.0784 Z0.3058
G1 X29.6557 Y-17.0866 Z0.2967
G1 X29.6557 Y-17.0957 Z0.2884
G1 X29.6557 Y-17.1056 Z0.2811
G1 X29.6557 Y-17.1161 Z0.2748
G1 X29.6557 Y-17.1272 Z0.2696
G1 X29.6557 Y-17.1387 Z0.2654
G1 X29.6557 Y-17.1506 Z0.2625
G1 X29.6557 Y-17.1627 Z0.2607
G1 X29.6557 Y-17.1750 Z0.2600
G1 X29.6557 Y-17.3675 Z0.2600 F50.
G1 X29.6557 Y-17.3916 Z0.2600
G1 X29.6557 Y-17.4036 Z0.2600
G1 X29.6557 Y-17.4157 Z0.2599
G1 X29.6557 Y-17.4397 Z0.2598
G1 X29.6557 Y-17.4638 Z0.2595
G1 X29.6557 Y-17.4879 Z0.2592
G1 X29.6557 Y-17.4999 Z0.2591
G1 X29.6557 Y-17.5119 Z0.2589
G1 X29.6557 Y-17.5360 Z0.2585
G1 X29.6557 Y-17.5721 Z0.2578
G1 X29.6557 Y-17.6082 Z0.2569
G1 X29.6557 Y-17.6322 Z0.2563
G1 X29.6557 Y-17.6443 Z0.2560
G1 X29.6557 Y-17.6563 Z0.2556
G1 X29.6557 Y-17.6804 Z0.2548
G1 X29.6557 Y-17.7044 Z0.2540
G1 X29.6557 Y-17.7405 Z0.2526
G1 X29.6557 Y-17.7526 Z0.2522
G1 X29.6557 Y-17.7766 Z0.2512
G1 X29.6557 Y-17.8127 Z0.2495
G1 X29.6557 Y-17.8488 Z0.2478
G1 X29.6557 Y-17.8729 Z0.2465
G1 X29.6557 Y-17.8849 Z0.2458
G1 X29.6557 Y-17.9090 Z0.2445
G1 X29.6557 Y-17.9210 Z0.2438
G1 X29.6557 Y-17.9451 Z0.2424
G1 X29.6557 Y-17.9812 Z0.2401
G1 X29.6557 Y-18.0173 Z0.2377
G1 X29.6557 Y-18.0414 Z0.2360
G1 X29.6557 Y-18.0534 Z0.2351
G1 X29.6557 Y-18.0654 Z0.2342
G1 X29.6557 Y-18.0895 Z0.2324
G1 X29.6557 Y-18.1136 Z0.2306
G1 X29.6557 Y-18.1376 Z0.2286
G1 X29.6557 Y-18.1497 Z0.2277
G1 X29.6557 Y-18.1617 Z0.2267
G1 X29.6557 Y-18.1858 Z0.2246
G1 X29.6557 Y-18.2219 Z0.2214
G1 X29.6557 Y-18.2580 Z0.2181
G1 X29.6557 Y-18.2820 Z0.2158
G1 X29.6557 Y-18.2940 Z0.2146
G1 X29.6557 Y-18.3061 Z0.2134
G1 X29.6557 Y-18.3301 Z0.2110
G1 X29.6557 Y-18.3615 Z0.2077
G1 X29.6557 Y-18.3928 Z0.2044
G1 X29.6557 Y-18.4242 Z0.2009
G1 X29.6557 Y-18.4555 Z0.1974
G1 X29.6557 Y-18.4869 Z0.1937
G1 X29.6557 Y-18.4947 Z0.1928
G1 X29.6557 Y-18.5182 Z0.1899
G1 X29.6557 Y-18.5339 Z0.1880
G1 X29.6557 Y-18.5496 Z0.1860
G1 X29.6557 Y-18.5652 Z0.1841
G1 X29.6557 Y-18.5809 Z0.1820
G1 X29.6557 Y-18.5941 Z0.1811
G1 X29.6557 Y-18.6074 Z0.1815
G1 X29.6557 Y-18.6205 Z0.1833
G1 X29.6557 Y-18.6334 Z0.1865
G1 X29.6557 Y-18.6459 Z0.1910
G1 X29.6557 Y-18.6578 Z0.1969
G1 X29.6557 Y-18.6690 Z0.2040
G1 X29.6557 Y-18.6794 Z0.2122
G1 X29.6557 Y-18.6889 Z0.2214
G1 X29.6557 Y-18.6973 Z0.2317
G1 X29.6557 Y-18.7046 Z0.2427
G1 X29.6557 Y-18.7107 Z0.2545
G1 X29.6557 Y-18.7156 Z0.2669
G1 X29.6557 Y-18.7190 Z0.2797
G1 X29.6557 Y-18.7211 Z0.2928
G1 X29.6557 Y-18.7218 Z0.3060
G0 Z0.3101
G0 X29.6557 Y-18.7218 
G0 Z0.3850
G0 X29.4907 Y-17.0500 
G1 X29.4907 Y-17.0506 Z0.3728 F25.
G1 X29.4907 Y-17.0524 Z0.3607
G1 X29.4907 Y-17.0554 Z0.3488
G1 X29.4907 Y-17.0595 Z0.3372
G1 X29.4907 Y-17.0648 Z0.3261
G1 X29.4907 Y-17.0711 Z0.3156
G1 X29.4907 Y-17.0784 Z0.3058
G1 X29.4907 Y-17.0866 Z0.2967
G1 X29.4907 Y-17.0957 Z0.2884
G1 X29.4907 Y-17.1056 Z0.2811
G1 X29.4907 Y-17.1161 Z0.2748
G1 X29.4907 Y-17.1272 Z0.2696
G1 X29.4907 Y-17.1387 Z0.2654
G1 X29.4907 Y-17.1506 Z0.2625
G1 X29.4907 Y-17.1627 Z0.2607
G1 X29.4907 Y-17.1750 Z0.2600
G1 X29.4907 Y-17.3675 Z0.2600 F50.
G1 X29.4907 Y-17.3916 Z0.2600
G1 X29.4907 Y-17.4036 Z0.2600
G1 X29.4907 Y-17.4157 Z0.2599
G1 X29.4907 Y-17.4397 Z0.2598
G1 X29.4907 Y-17.4638 Z0.2595
G1 X29.4907 Y-17.4879 Z0.2592
G1 X29.4907 Y-17.4999 Z0.2591
G1 X29.4907 Y-17.5119 Z0.2589
G1 X29.4907 Y-17.5360 Z0.2585
G1 X29.4907 Y-17.5721 Z0.2578
G1 X29.4907 Y-17.6082 Z0.2569
G1 X29.4907 Y-17.6322 Z0.2563
G1 X29.4907 Y-17.6443 Z0.2560
G1 X29.4907 Y-17.6563 Z0.2556
G1 X29.4907 Y-17.6804 Z0.2548
G1 X29.4907 Y-17.7044 Z0.2540
G1 X29.4907 Y-17.7405 Z0.2526
G1 X29.4907 Y-17.7526 Z0.2522
G1 X29.4907 Y-17.7766 Z0.2512
G1 X29.4907 Y-17.8127 Z0.2495
G1 X29.4907 Y-17.8488 Z0.2478
G1 X29.4907 Y-17.8729 Z0.2465
G1 X29.4907 Y-17.8849 Z0.2458
G1 X29.4907 Y-17.9090 Z0.2445
G1 X29.4907 Y-17.9210 Z0.2438
G1 X29.4907 Y-17.9451 Z0.2424
G1 X29.4907 Y-17.9812 Z0.2401
G1 X29.4907 Y-18.0173 Z0.2377
G1 X29.4907 Y-18.0414 Z0.2360
G1 X29.4907 Y-18.0534 Z0.2351
G1 X29.4907 Y-18.0654 Z0.2342
G1 X29.4907 Y-18.0895 Z0.2324
G1 X29.4907 Y-18.1136 Z0.2306
G1 X29.4907 Y-18.1376 Z0.2286
G1 X29.4907 Y-18.1497 Z0.2277
G1 X29.4907 Y-18.1617 Z0.2267
G1 X29.4907 Y-18.1858 Z0.2246
G1 X29.4907 Y-18.2219 Z0.2214
G1 X29.4907 Y-18.2580 Z0.2181
G1 X29.4907 Y-18.2820 Z0.2158
G1 X29.4907 Y-18.2940 Z0.2146
G1 X29.4907 Y-18.3061 Z0.2134
G1 X29.4907 Y-18.3301 Z0.2110
G1 X29.4907 Y-18.3616 Z0.2077
G1 X29.4907 Y-18.3931 Z0.2044
G1 X29.4907 Y-18.4246 Z0.2009
G1 X29.4907 Y-18.4561 Z0.1973
G1 X29.4907 Y-18.4876 Z0.1936
G1 X29.4907 Y-18.5269 Z0.1889
G1 X29.4907 Y-18.5506 Z0.1859
G1 X29.4907 Y-18.5663 Z0.1839
G1 X29.4907 Y-18.5820 Z0.1819
G1 X29.4907 Y-18.5953 Z0.1809
G1 X29.4907 Y-18.6085 Z0.1813
G1 X29.4907 Y-18.6217 Z0.1831
G1 X29.4907 Y-18.6345 Z0.1863
G1 X29.4907 Y-18.6470 Z0.1909
G1 X29.4907 Y-18.6589 Z0.1967
G1 X29.4907 Y-18.6701 Z0.2038
G1 X29.4907 Y-18.6806 Z0.2120
G1 X29.4907 Y-18.6900 Z0.2213
G1 X29.4907 Y-18.6985 Z0.2315
G1 X29.4907 Y-18.7058 Z0.2426
G1 X29.4907 Y-18.7119 Z0.2544
G1 X29.4907 Y-18.7167 Z0.2667
G1 X29.4907 Y-18.7202 Z0.2795
G1 X29.4907 Y-18.7223 Z0.2926
G1 X29.4907 Y-18.7230 Z0.3059
G0 Z0.3101
G0 X29.4907 Y-18.7230 
G0 Z0.3850
G0 X29.3257 Y-17.0500 
G1 X29.3257 Y-17.0506 Z0.3728 F25.
G1 X29.3257 Y-17.0524 Z0.3607
G1 X29.3257 Y-17.0554 Z0.3488
G1 X29.3257 Y-17.0595 Z0.3372
G1 X29.3257 Y-17.0648 Z0.3261
G1 X29.3257 Y-17.0711 Z0.3156
G1 X29.3257 Y-17.0784 Z0.3058
G1 X29.3257 Y-17.0866 Z0.2967
G1 X29.3257 Y-17.0957 Z0.2884
G1 X29.3257 Y-17.1056 Z0.2811
G1 X29.3257 Y-17.1161 Z0.2748
G1 X29.3257 Y-17.1272 Z0.2696
G1 X29.3257 Y-17.1387 Z0.2654
G1 X29.3257 Y-17.1506 Z0.2625
G1 X29.3257 Y-17.1627 Z0.2607
G1 X29.3257 Y-17.1750 Z0.2600
G1 X29.3257 Y-17.3675 Z0.2600 F50.
G1 X29.3257 Y-17.3916 Z0.2600
G1 X29.3257 Y-17.4036 Z0.2600
G1 X29.3257 Y-17.4157 Z0.2599
G1 X29.3257 Y-17.4397 Z0.2598
G1 X29.3257 Y-17.4638 Z0.2595
G1 X29.3257 Y-17.4879 Z0.2592
G1 X29.3257 Y-17.4999 Z0.2591
G1 X29.3257 Y-17.5119 Z0.2589
G1 X29.3257 Y-17.5360 Z0.2585
G1 X29.3257 Y-17.5721 Z0.2578
G1 X29.3257 Y-17.6082 Z0.2569
G1 X29.3257 Y-17.6322 Z0.2563
G1 X29.3257 Y-17.6443 Z0.2560
G1 X29.3257 Y-17.6563 Z0.2556
G1 X29.3257 Y-17.6804 Z0.2548
G1 X29.3257 Y-17.7044 Z0.2540
G1 X29.3257 Y-17.7405 Z0.2526
G1 X29.3257 Y-17.7526 Z0.2522
G1 X29.3257 Y-17.7766 Z0.2512
G1 X29.3257 Y-17.8127 Z0.2495
G1 X29.3257 Y-17.8488 Z0.2478
G1 X29.3257 Y-17.8729 Z0.2465
G1 X29.3257 Y-17.8849 Z0.2458
G1 X29.3257 Y-17.9090 Z0.2445
G1 X29.3257 Y-17.9210 Z0.2438
G1 X29.3257 Y-17.9451 Z0.2424
G1 X29.3257 Y-17.9812 Z0.2401
G1 X29.3257 Y-18.0173 Z0.2377
G1 X29.3257 Y-18.0414 Z0.2360
G1 X29.3257 Y-18.0534 Z0.2351
G1 X29.3257 Y-18.0654 Z0.2342
G1 X29.3257 Y-18.0895 Z0.2324
G1 X29.3257 Y-18.1136 Z0.2306
G1 X29.3257 Y-18.1376 Z0.2286
G1 X29.3257 Y-18.1497 Z0.2277
G1 X29.3257 Y-18.1617 Z0.2267
G1 X29.3257 Y-18.1858 Z0.2246
G1 X29.3257 Y-18.2219 Z0.2214
G1 X29.3257 Y-18.2580 Z0.2181
G1 X29.3257 Y-18.2820 Z0.2158
G1 X29.3257 Y-18.2940 Z0.2146
G1 X29.3257 Y-18.3061 Z0.2134
G1 X29.3257 Y-18.3301 Z0.2110
G1 X29.3257 Y-18.3618 Z0.2077
G1 X29.3257 Y-18.3934 Z0.2043
G1 X29.3257 Y-18.4250 Z0.2008
G1 X29.3257 Y-18.4567 Z0.1972
G1 X29.3257 Y-18.4883 Z0.1935
G1 X29.3257 Y-18.5278 Z0.1887
G1 X29.3257 Y-18.5516 Z0.1858
G1 X29.3257 Y-18.5674 Z0.1838
G1 X29.3257 Y-18.5832 Z0.1818
G1 X29.3257 Y-18.5964 Z0.1808
G1 X29.3257 Y-18.6097 Z0.1812
G1 X29.3257 Y-18.6228 Z0.1830
G1 X29.3257 Y-18.6357 Z0.1862
G1 X29.3257 Y-18.6482 Z0.1907
G1 X29.3257 Y-18.6601 Z0.1966
G1 X29.3257 Y-18.6713 Z0.2037
G1 X29.3257 Y-18.6817 Z0.2119
G1 X29.3257 Y-18.6912 Z0.2212
G1 X29.3257 Y-18.6996 Z0.2314
G1 X29.3257 Y-18.7069 Z0.2424
G1 X29.3257 Y-18.7130 Z0.2542
G1 X29.3257 Y-18.7179 Z0.2666
G1 X29.3257 Y-18.7213 Z0.2794
G1 X29.3257 Y-18.7234 Z0.2925
G1 X29.3257 Y-18.7241 Z0.3057
G0 Z0.3101
G0 X29.3257 Y-18.7241 
G0 Z0.3850
G0 X29.1607 Y-17.0500 
G1 X29.1607 Y-17.0506 Z0.3728 F25.
G1 X29.1607 Y-17.0524 Z0.3607
G1 X29.1607 Y-17.0554 Z0.3488
G1 X29.1607 Y-17.0595 Z0.3372
G1 X29.1607 Y-17.0648 Z0.3261
G1 X29.1607 Y-17.0711 Z0.3156
G1 X29.1607 Y-17.0784 Z0.3058
G1 X29.1607 Y-17.0866 Z0.2967
G1 X29.1607 Y-17.0957 Z0.2884
G1 X29.1607 Y-17.1056 Z0.2811
G1 X29.1607 Y-17.1161 Z0.2748
G1 X29.1607 Y-17.1272 Z0.2696
G1 X29.1607 Y-17.1387 Z0.2654
G1 X29.1607 Y-17.1506 Z0.2625
G1 X29.1607 Y-17.1627 Z0.2607
G1 X29.1607 Y-17.1750 Z0.2600
G1 X29.1607 Y-17.3675 Z0.2600 F50.
G1 X29.1607 Y-17.3916 Z0.2600
G1 X29.1607 Y-17.4036 Z0.2600
G1 X29.1607 Y-17.4157 Z0.2599
G1 X29.1607 Y-17.4397 Z0.2598
G1 X29.1607 Y-17.4638 Z0.2595
G1 X29.1607 Y-17.4879 Z0.2592
G1 X29.1607 Y-17.4999 Z0.2591
G1 X29.1607 Y-17.5119 Z0.2589
G1 X29.1607 Y-17.5360 Z0.2585
G1 X29.1607 Y-17.5721 Z0.2578
G1 X29.1607 Y-17.6082 Z0.2569
G1 X29.1607 Y-17.6322 Z0.2563
G1 X29.1607 Y-17.6443 Z0.2560
G1 X29.1607 Y-17.6563 Z0.2556
G1 X29.1607 Y-17.6804 Z0.2548
G1 X29.1607 Y-17.7044 Z0.2540
G1 X29.1607 Y-17.7405 Z0.2526
G1 X29.1607 Y-17.7526 Z0.2522
G1 X29.1607 Y-17.7766 Z0.2512
G1 X29.1607 Y-17.8127 Z0.2495
G1 X29.1607 Y-17.8488 Z0.2478
G1 X29.1607 Y-17.8729 Z0.2465
G1 X29.1607 Y-17.8849 Z0.2458
G1 X29.1607 Y-17.9090 Z0.2445
G1 X29.1607 Y-17.9210 Z0.2438
G1 X29.1607 Y-17.9451 Z0.2424
G1 X29.1607 Y-17.9812 Z0.2401
G1 X29.1607 Y-18.0173 Z0.2377
G1 X29.1607 Y-18.0414 Z0.2360
G1 X29.1607 Y-18.0534 Z0.2351
G1 X29.1607 Y-18.0654 Z0.2342
G1 X29.1607 Y-18.0895 Z0.2324
G1 X29.1607 Y-18.1136 Z0.2306
G1 X29.1607 Y-18.1376 Z0.2286
G1 X29.1607 Y-18.1497 Z0.2277
G1 X29.1607 Y-18.1617 Z0.2267
G1 X29.1607 Y-18.1858 Z0.2246
G1 X29.1607 Y-18.2219 Z0.2214
G1 X29.1607 Y-18.2580 Z0.2181
G1 X29.1607 Y-18.2820 Z0.2158
G1 X29.1607 Y-18.2940 Z0.2146
G1 X29.1607 Y-18.3061 Z0.2134
G1 X29.1607 Y-18.3301 Z0.2110
G1 X29.1607 Y-18.3619 Z0.2077
G1 X29.1607 Y-18.3937 Z0.2043
G1 X29.1607 Y-18.4255 Z0.2008
G1 X29.1607 Y-18.4572 Z0.1972
G1 X29.1607 Y-18.4890 Z0.1934
G1 X29.1607 Y-18.5208 Z0.1896
G1 X29.1607 Y-18.5287 Z0.1886
G1 X29.1607 Y-18.5526 Z0.1857
G1 X29.1607 Y-18.5685 Z0.1836
G1 X29.1607 Y-18.5843 Z0.1816
G1 X29.1607 Y-18.5976 Z0.1806
G1 X29.1607 Y-18.6108 Z0.1810
G1 X29.1607 Y-18.6240 Z0.1828
G1 X29.1607 Y-18.6368 Z0.1860
G1 X29.1607 Y-18.6493 Z0.1906
G1 X29.1607 Y-18.6612 Z0.1964
G1 X29.1607 Y-18.6724 Z0.2035
G1 X29.1607 Y-18.6829 Z0.2117
G1 X29.1607 Y-18.6923 Z0.2210
G1 X29.1607 Y-18.7008 Z0.2312
G1 X29.1607 Y-18.7081 Z0.2423
G1 X29.1607 Y-18.7142 Z0.2541
G1 X29.1607 Y-18.7190 Z0.2664
G1 X29.1607 Y-18.7225 Z0.2792
G1 X29.1607 Y-18.7246 Z0.2923
G1 X29.1607 Y-18.7253 Z0.3056
G0 Z0.3101
G0 X29.1607 Y-18.7253 
G0 Z0.3850
G0 X28.9957 Y-17.0500 
G1 X28.9957 Y-17.0506 Z0.3728 F25.
G1 X28.9957 Y-17.0524 Z0.3607
G1 X28.9957 Y-17.0554 Z0.3488
G1 X28.9957 Y-17.0595 Z0.3372
G1 X28.9957 Y-17.0648 Z0.3261
G1 X28.9957 Y-17.0711 Z0.3156
G1 X28.9957 Y-17.0784 Z0.3058
G1 X28.9957 Y-17.0866 Z0.2967
G1 X28.9957 Y-17.0957 Z0.2884
G1 X28.9957 Y-17.1056 Z0.2811
G1 X28.9957 Y-17.1161 Z0.2748
G1 X28.9957 Y-17.1272 Z0.2696
G1 X28.9957 Y-17.1387 Z0.2654
G1 X28.9957 Y-17.1506 Z0.2625
G1 X28.9957 Y-17.1627 Z0.2607
G1 X28.9957 Y-17.1750 Z0.2600
G1 X28.9957 Y-17.3675 Z0.2600 F50.
G1 X28.9957 Y-17.3916 Z0.2600
G1 X28.9957 Y-17.4036 Z0.2600
G1 X28.9957 Y-17.4157 Z0.2599
G1 X28.9957 Y-17.4397 Z0.2598
G1 X28.9957 Y-17.4638 Z0.2595
G1 X28.9957 Y-17.4879 Z0.2592
G1 X28.9957 Y-17.4999 Z0.2591
G1 X28.9957 Y-17.5119 Z0.2589
G1 X28.9957 Y-17.5360 Z0.2585
G1 X28.9957 Y-17.5721 Z0.2578
G1 X28.9957 Y-17.6082 Z0.2569
G1 X28.9957 Y-17.6322 Z0.2563
G1 X28.9957 Y-17.6443 Z0.2560
G1 X28.9957 Y-17.6563 Z0.2556
G1 X28.9957 Y-17.6804 Z0.2548
G1 X28.9957 Y-17.7044 Z0.2540
G1 X28.9957 Y-17.7405 Z0.2526
G1 X28.9957 Y-17.7526 Z0.2522
G1 X28.9957 Y-17.7766 Z0.2512
G1 X28.9957 Y-17.8127 Z0.2495
G1 X28.9957 Y-17.8488 Z0.2478
G1 X28.9957 Y-17.8729 Z0.2465
G1 X28.9957 Y-17.8849 Z0.2458
G1 X28.9957 Y-17.9090 Z0.2445
G1 X28.9957 Y-17.9210 Z0.2438
G1 X28.9957 Y-17.9451 Z0.2424
G1 X28.9957 Y-17.9812 Z0.2401
G1 X28.9957 Y-18.0173 Z0.2377
G1 X28.9957 Y-18.0414 Z0.2360
G1 X28.9957 Y-18.0534 Z0.2351
G1 X28.9957 Y-18.0654 Z0.2342
G1 X28.9957 Y-18.0895 Z0.2324
G1 X28.9957 Y-18.1136 Z0.2306
G1 X28.9957 Y-18.1376 Z0.2286
G1 X28.9957 Y-18.1497 Z0.2277
G1 X28.9957 Y-18.1617 Z0.2267
G1 X28.9957 Y-18.1858 Z0.2246
G1 X28.9957 Y-18.2219 Z0.2214
G1 X28.9957 Y-18.2580 Z0.2181
G1 X28.9957 Y-18.2820 Z0.2158
G1 X28.9957 Y-18.2940 Z0.2146
G1 X28.9957 Y-18.3061 Z0.2134
G1 X28.9957 Y-18.3301 Z0.2110
G1 X28.9957 Y-18.3621 Z0.2077
G1 X28.9957 Y-18.3940 Z0.2043
G1 X28.9957 Y-18.4259 Z0.2007
G1 X28.9957 Y-18.4578 Z0.1971
G1 X28.9957 Y-18.4897 Z0.1934
G1 X28.9957 Y-18.5217 Z0.1895
G1 X28.9957 Y-18.5616 Z0.1845
G1 X28.9957 Y-18.5855 Z0.1815
G1 X28.9957 Y-18.5987 Z0.1805
G1 X28.9957 Y-18.6120 Z0.1809
G1 X28.9957 Y-18.6251 Z0.1827
G1 X28.9957 Y-18.6380 Z0.1859
G1 X28.9957 Y-18.6505 Z0.1904
G1 X28.9957 Y-18.6624 Z0.1963
G1 X28.9957 Y-18.6736 Z0.2034
G1 X28.9957 Y-18.6840 Z0.2116
G1 X28.9957 Y-18.6935 Z0.2209
G1 X28.9957 Y-18.7019 Z0.2311
G1 X28.9957 Y-18.7092 Z0.2422
G1 X28.9957 Y-18.7153 Z0.2539
G1 X28.9957 Y-18.7202 Z0.2663
G1 X28.9957 Y-18.7236 Z0.2791
G1 X28.9957 Y-18.7257 Z0.2922
G1 X28.9957 Y-18.7264 Z0.3054
G0 Z0.3101
G0 X28.9957 Y-18.7264 
G0 Z0.3850
G0 X28.8307 Y-17.0500 
G1 X28.8307 Y-17.0506 Z0.3728 F25.
G1 X28.8307 Y-17.0524 Z0.3607
G1 X28.8307 Y-17.0554 Z0.3488
G1 X28.8307 Y-17.0595 Z0.3372
G1 X28.8307 Y-17.0648 Z0.3261
G1 X28.8307 Y-17.0711 Z0.3156
G1 X28.8307 Y-17.0784 Z0.3058
G1 X28.8307 Y-17.0866 Z0.2967
G1 X28.8307 Y-17.0957 Z0.2884
G1 X28.8307 Y-17.1056 Z0.2811
G1 X28.8307 Y-17.1161 Z0.2748
G1 X28.8307 Y-17.1272 Z0.2696
G1 X28.8307 Y-17.1387 Z0.2654
G1 X28.8307 Y-17.1506 Z0.2625
G1 X28.8307 Y-17.1627 Z0.2607
G1 X28.8307 Y-17.1750 Z0.2600
G1 X28.8307 Y-17.3675 Z0.2600 F50.
G1 X28.8307 Y-17.3916 Z0.2600
G1 X28.8307 Y-17.4036 Z0.2600
G1 X28.8307 Y-17.4157 Z0.2599
G1 X28.8307 Y-17.4397 Z0.2598
G1 X28.8307 Y-17.4638 Z0.2595
G1 X28.8307 Y-17.4879 Z0.2592
G1 X28.8307 Y-17.4999 Z0.2591
G1 X28.8307 Y-17.5119 Z0.2589
G1 X28.8307 Y-17.5360 Z0.2585
G1 X28.8307 Y-17.5721 Z0.2578
G1 X28.8307 Y-17.6082 Z0.2569
G1 X28.8307 Y-17.6322 Z0.2563
G1 X28.8307 Y-17.6443 Z0.2560
G1 X28.8307 Y-17.6563 Z0.2556
G1 X28.8307 Y-17.6804 Z0.2548
G1 X28.8307 Y-17.7044 Z0.2540
G1 X28.8307 Y-17.7405 Z0.2526
G1 X28.8307 Y-17.7526 Z0.2522
G1 X28.8307 Y-17.7766 Z0.2512
G1 X28.8307 Y-17.8127 Z0.2495
G1 X28.8307 Y-17.8488 Z0.2478
G1 X28.8307 Y-17.8729 Z0.2465
G1 X28.8307 Y-17.8849 Z0.2458
G1 X28.8307 Y-17.9090 Z0.2445
G1 X28.8307 Y-17.9210 Z0.2438
G1 X28.8307 Y-17.9451 Z0.2424
G1 X28.8307 Y-17.9812 Z0.2401
G1 X28.8307 Y-18.0173 Z0.2377
G1 X28.8307 Y-18.0414 Z0.2360
G1 X28.8307 Y-18.0534 Z0.2351
G1 X28.8307 Y-18.0654 Z0.2342
G1 X28.8307 Y-18.0895 Z0.2324
G1 X28.8307 Y-18.1136 Z0.2306
G1 X28.8307 Y-18.1376 Z0.2286
G1 X28.8307 Y-18.1497 Z0.2277
G1 X28.8307 Y-18.1617 Z0.2267
G1 X28.8307 Y-18.1858 Z0.2246
G1 X28.8307 Y-18.2219 Z0.2214
G1 X28.8307 Y-18.2580 Z0.2181
G1 X28.8307 Y-18.2820 Z0.2158
G1 X28.8307 Y-18.2940 Z0.2146
G1 X28.8307 Y-18.3061 Z0.2134
G1 X28.8307 Y-18.3301 Z0.2110
G1 X28.8307 Y-18.3622 Z0.2077
G1 X28.8307 Y-18.3943 Z0.2042
G1 X28.8307 Y-18.4263 Z0.2007
G1 X28.8307 Y-18.4584 Z0.1970
G1 X28.8307 Y-18.4905 Z0.1933
G1 X28.8307 Y-18.5225 Z0.1894
G1 X28.8307 Y-18.5546 Z0.1854
G1 X28.8307 Y-18.5626 Z0.1844
G1 X28.8307 Y-18.5866 Z0.1813
G1 X28.8307 Y-18.5999 Z0.1803
G1 X28.8307 Y-18.6131 Z0.1807
G1 X28.8307 Y-18.6263 Z0.1826
G1 X28.8307 Y-18.6391 Z0.1858
G1 X28.8307 Y-18.6516 Z0.1903
G1 X28.8307 Y-18.6635 Z0.1961
G1 X28.8307 Y-18.6747 Z0.2032
G1 X28.8307 Y-18.6852 Z0.2114
G1 X28.8307 Y-18.6946 Z0.2207
G1 X28.8307 Y-18.7031 Z0.2309
G1 X28.8307 Y-18.7104 Z0.2420
G1 X28.8307 Y-18.7165 Z0.2538
G1 X28.8307 Y-18.7213 Z0.2661
G1 X28.8307 Y-18.7248 Z0.2789
G1 X28.8307 Y-18.7269 Z0.2920
G1 X28.8307 Y-18.7276 Z0.3053
G0 Z0.3101
G0 X28.8307 Y-18.7276 
G0 Z0.3850
G0 X28.6657 Y-17.0500 
G1 X28.6657 Y-17.0506 Z0.3728 F25.
G1 X28.6657 Y-17.0524 Z0.3607
G1 X28.6657 Y-17.0554 Z0.3488
G1 X28.6657 Y-17.0595 Z0.3372
G1 X28.6657 Y-17.0648 Z0.3261
G1 X28.6657 Y-17.0711 Z0.3156
G1 X28.6657 Y-17.0784 Z0.3058
G1 X28.6657 Y-17.0866 Z0.2967
G1 X28.6657 Y-17.0957 Z0.2884
G1 X28.6657 Y-17.1056 Z0.2811
G1 X28.6657 Y-17.1161 Z0.2748
G1 X28.6657 Y-17.1272 Z0.2696
G1 X28.6657 Y-17.1387 Z0.2654
G1 X28.6657 Y-17.1506 Z0.2625
G1 X28.6657 Y-17.1627 Z0.2607
G1 X28.6657 Y-17.1750 Z0.2600
G1 X28.6657 Y-17.3675 Z0.2600 F50.
G1 X28.6657 Y-17.3916 Z0.2600
G1 X28.6657 Y-17.4036 Z0.2600
G1 X28.6657 Y-17.4157 Z0.2599
G1 X28.6657 Y-17.4397 Z0.2598
G1 X28.6657 Y-17.4638 Z0.2595
G1 X28.6657 Y-17.4879 Z0.2592
G1 X28.6657 Y-17.4999 Z0.2591
G1 X28.6657 Y-17.5119 Z0.2589
G1 X28.6657 Y-17.5360 Z0.2585
G1 X28.6657 Y-17.5721 Z0.2578
G1 X28.6657 Y-17.6082 Z0.2569
G1 X28.6657 Y-17.6322 Z0.2563
G1 X28.6657 Y-17.6443 Z0.2560
G1 X28.6657 Y-17.6563 Z0.2556
G1 X28.6657 Y-17.6804 Z0.2548
G1 X28.6657 Y-17.7044 Z0.2540
G1 X28.6657 Y-17.7405 Z0.2526
G1 X28.6657 Y-17.7526 Z0.2522
G1 X28.6657 Y-17.7766 Z0.2512
G1 X28.6657 Y-17.8127 Z0.2495
G1 X28.6657 Y-17.8488 Z0.2478
G1 X28.6657 Y-17.8729 Z0.2465
G1 X28.6657 Y-17.8849 Z0.2458
G1 X28.6657 Y-17.9090 Z0.2445
G1 X28.6657 Y-17.9210 Z0.2438
G1 X28.6657 Y-17.9451 Z0.2424
G1 X28.6657 Y-17.9812 Z0.2401
G1 X28.6657 Y-18.0173 Z0.2377
G1 X28.6657 Y-18.0414 Z0.2360
G1 X28.6657 Y-18.0534 Z0.2351
G1 X28.6657 Y-18.0654 Z0.2342
G1 X28.6657 Y-18.0895 Z0.2324
G1 X28.6657 Y-18.1136 Z0.2306
G1 X28.6657 Y-18.1376 Z0.2286
G1 X28.6657 Y-18.1497 Z0.2277
G1 X28.6657 Y-18.1617 Z0.2267
G1 X28.6657 Y-18.1858 Z0.2246
G1 X28.6657 Y-18.2219 Z0.2214
G1 X28.6657 Y-18.2580 Z0.2181
G1 X28.6657 Y-18.2820 Z0.2158
G1 X28.6657 Y-18.2940 Z0.2146
G1 X28.6657 Y-18.3061 Z0.2134
G1 X28.6657 Y-18.3301 Z0.2110
G1 X28.6657 Y-18.3624 Z0.2077
G1 X28.6657 Y-18.3946 Z0.2042
G1 X28.6657 Y-18.4268 Z0.2006
G1 X28.6657 Y-18.4590 Z0.1970
G1 X28.6657 Y-18.4912 Z0.1932
G1 X28.6657 Y-18.5234 Z0.1893
G1 X28.6657 Y-18.5556 Z0.1853
G1 X28.6657 Y-18.5878 Z0.1812
G1 X28.6657 Y-18.6010 Z0.1802
G1 X28.6657 Y-18.6143 Z0.1806
G1 X28.6657 Y-18.6274 Z0.1824
G1 X28.6657 Y-18.6403 Z0.1856
G1 X28.6657 Y-18.6527 Z0.1902
G1 X28.6657 Y-18.6646 Z0.1960
G1 X28.6657 Y-18.6758 Z0.2031
G1 X28.6657 Y-18.6862 Z0.2113
G1 X28.6657 Y-18.6957 Z0.2206
G1 X28.6657 Y-18.7042 Z0.2308
G1 X28.6657 Y-18.7115 Z0.2419
G1 X28.6657 Y-18.7176 Z0.2537
G1 X28.6657 Y-18.7224 Z0.2660
G1 X28.6657 Y-18.7259 Z0.2788
G1 X28.6657 Y-18.7280 Z0.2919
G1 X28.6657 Y-18.7287 Z0.3052
G0 Z0.3101
G0 X28.6657 Y-18.7287 
G0 Z0.3850
G0 X28.5007 Y-17.0500 
G1 X28.5007 Y-17.0506 Z0.3728 F25.
G1 X28.5007 Y-17.0524 Z0.3607
G1 X28.5007 Y-17.0554 Z0.3488
G1 X28.5007 Y-17.0595 Z0.3372
G1 X28.5007 Y-17.0648 Z0.3261
G1 X28.5007 Y-17.0711 Z0.3156
G1 X28.5007 Y-17.0784 Z0.3058
G1 X28.5007 Y-17.0866 Z0.2967
G1 X28.5007 Y-17.0957 Z0.2884
G1 X28.5007 Y-17.1056 Z0.2811
G1 X28.5007 Y-17.1161 Z0.2748
G1 X28.5007 Y-17.1272 Z0.2696
G1 X28.5007 Y-17.1387 Z0.2654
G1 X28.5007 Y-17.1506 Z0.2625
G1 X28.5007 Y-17.1627 Z0.2607
G1 X28.5007 Y-17.1750 Z0.2600
G1 X28.5007 Y-17.3675 Z0.2600 F50.
G1 X28.5007 Y-17.3916 Z0.2600
G1 X28.5007 Y-17.4036 Z0.2600
G1 X28.5007 Y-17.4157 Z0.2599
G1 X28.5007 Y-17.4397 Z0.2598
G1 X28.5007 Y-17.4638 Z0.2595
G1 X28.5007 Y-17.4879 Z0.2592
G1 X28.5007 Y-17.4999 Z0.2591
G1 X28.5007 Y-17.5119 Z0.2589
G1 X28.5007 Y-17.5360 Z0.2585
G1 X28.5007 Y-17.5721 Z0.2578
G1 X28.5007 Y-17.6082 Z0.2569
G1 X28.5007 Y-17.6322 Z0.2563
G1 X28.5007 Y-17.6443 Z0.2560
G1 X28.5007 Y-17.6563 Z0.2556
G1 X28.5007 Y-17.6804 Z0.2548
G1 X28.5007 Y-17.7044 Z0.2540
G1 X28.5007 Y-17.7405 Z0.2526
G1 X28.5007 Y-17.7526 Z0.2522
G1 X28.5007 Y-17.7766 Z0.2512
G1 X28.5007 Y-17.8127 Z0.2495
G1 X28.5007 Y-17.8488 Z0.2478
G1 X28.5007 Y-17.8729 Z0.2465
G1 X28.5007 Y-17.8849 Z0.2458
G1 X28.5007 Y-17.9090 Z0.2445
G1 X28.5007 Y-17.9210 Z0.2438
G1 X28.5007 Y-17.9451 Z0.2424
G1 X28.5007 Y-17.9812 Z0.2401
G1 X28.5007 Y-18.0173 Z0.2377
G1 X28.5007 Y-18.0414 Z0.2360
G1 X28.5007 Y-18.0534 Z0.2351
G1 X28.5007 Y-18.0654 Z0.2342
G1 X28.5007 Y-18.0895 Z0.2324
G1 X28.5007 Y-18.1136 Z0.2306
G1 X28.5007 Y-18.1376 Z0.2286
G1 X28.5007 Y-18.1497 Z0.2277
G1 X28.5007 Y-18.1617 Z0.2267
G1 X28.5007 Y-18.1858 Z0.2246
G1 X28.5007 Y-18.2219 Z0.2214
G1 X28.5007 Y-18.2580 Z0.2181
G1 X28.5007 Y-18.2820 Z0.2158
G1 X28.5007 Y-18.2940 Z0.2146
G1 X28.5007 Y-18.3061 Z0.2134
G1 X28.5007 Y-18.3301 Z0.2110
G1 X28.5007 Y-18.3625 Z0.2076
G1 X28.5007 Y-18.3948 Z0.2042
G1 X28.5007 Y-18.4272 Z0.2006
G1 X28.5007 Y-18.4595 Z0.1969
G1 X28.5007 Y-18.4919 Z0.1931
G1 X28.5007 Y-18.5242 Z0.1892
G1 X28.5007 Y-18.5566 Z0.1852
G1 X28.5007 Y-18.5889 Z0.1810
G1 X28.5007 Y-18.6022 Z0.1800
G1 X28.5007 Y-18.6154 Z0.1805
G1 X28.5007 Y-18.6286 Z0.1823
G1 X28.5007 Y-18.6414 Z0.1855
G1 X28.5007 Y-18.6539 Z0.1900
G1 X28.5007 Y-18.6658 Z0.1959
G1 X28.5007 Y-18.6770 Z0.2029
G1 X28.5007 Y-18.6874 Z0.2112
G1 X28.5007 Y-18.6969 Z0.2204
G1 X28.5007 Y-18.7053 Z0.2307
G1 X28.5007 Y-18.7126 Z0.2417
G1 X28.5007 Y-18.7187 Z0.2535
G1 X28.5007 Y-18.7235 Z0.2659
G1 X28.5007 Y-18.7270 Z0.2787
G1 X28.5007 Y-18.7291 Z0.2918
G1 X28.5007 Y-18.7298 Z0.3050
G0 Z0.3101
G0 X28.5007 Y-18.7298 
G0 Z0.3850
G0 X28.3357 Y-17.0500 
G1 X28.3357 Y-17.0506 Z0.3728 F25.
G1 X28.3357 Y-17.0524 Z0.3607
G1 X28.3357 Y-17.0554 Z0.3488
G1 X28.3357 Y-17.0595 Z0.3372
G1 X28.3357 Y-17.0648 Z0.3261
G1 X28.3357 Y-17.0711 Z0.3156
G1 X28.3357 Y-17.0784 Z0.3058
G1 X28.3357 Y-17.0866 Z0.2967
G1 X28.3357 Y-17.0957 Z0.2884
G1 X28.3357 Y-17.1056 Z0.2811
G1 X28.3357 Y-17.1161 Z0.2748
G1 X28.3357 Y-17.1272 Z0.2696
G1 X28.3357 Y-17.1387 Z0.2654
G1 X28.3357 Y-17.1506 Z0.2625
G1 X28.3357 Y-17.1627 Z0.2607
G1 X28.3357 Y-17.1750 Z0.2600
G1 X28.3357 Y-17.3675 Z0.2600 F50.
G1 X28.3357 Y-17.3916 Z0.2600
G1 X28.3357 Y-17.4036 Z0.2600
G1 X28.3357 Y-17.4157 Z0.2599
G1 X28.3357 Y-17.4397 Z0.2598
G1 X28.3357 Y-17.4638 Z0.2595
G1 X28.3357 Y-17.4879 Z0.2592
G1 X28.3357 Y-17.4999 Z0.2591
G1 X28.3357 Y-17.5119 Z0.2589
G1 X28.3357 Y-17.5360 Z0.2585
G1 X28.3357 Y-17.5721 Z0.2578
G1 X28.3357 Y-17.6082 Z0.2569
G1 X28.3357 Y-17.6322 Z0.2563
G1 X28.3357 Y-17.6443 Z0.2560
G1 X28.3357 Y-17.6563 Z0.2556
G1 X28.3357 Y-17.6804 Z0.2548
G1 X28.3357 Y-17.7044 Z0.2540
G1 X28.3357 Y-17.7405 Z0.2526
G1 X28.3357 Y-17.7526 Z0.2522
G1 X28.3357 Y-17.7766 Z0.2512
G1 X28.3357 Y-17.8127 Z0.2495
G1 X28.3357 Y-17.8488 Z0.2478
G1 X28.3357 Y-17.8729 Z0.2465
G1 X28.3357 Y-17.8849 Z0.2458
G1 X28.3357 Y-17.9090 Z0.2445
G1 X28.3357 Y-17.9210 Z0.2438
G1 X28.3357 Y-17.9451 Z0.2424
G1 X28.3357 Y-17.9812 Z0.2401
G1 X28.3357 Y-18.0173 Z0.2377
G1 X28.3357 Y-18.0414 Z0.2360
G1 X28.3357 Y-18.0534 Z0.2351
G1 X28.3357 Y-18.0654 Z0.2342
G1 X28.3357 Y-18.0895 Z0.2324
G1 X28.3357 Y-18.1136 Z0.2306
G1 X28.3357 Y-18.1376 Z0.2286
G1 X28.3357 Y-18.1497 Z0.2277
G1 X28.3357 Y-18.1617 Z0.2267
G1 X28.3357 Y-18.1858 Z0.2246
G1 X28.3357 Y-18.2219 Z0.2214
G1 X28.3357 Y-18.2580 Z0.2181
G1 X28.3357 Y-18.2820 Z0.2158
G1 X28.3357 Y-18.2940 Z0.2146
G1 X28.3357 Y-18.3061 Z0.2134
G1 X28.3357 Y-18.3301 Z0.2110
G1 X28.3357 Y-18.3626 Z0.2076
G1 X28.3357 Y-18.3951 Z0.2041
G1 X28.3357 Y-18.4276 Z0.2005
G1 X28.3357 Y-18.4601 Z0.1968
G1 X28.3357 Y-18.4926 Z0.1930
G1 X28.3357 Y-18.5251 Z0.1891
G1 X28.3357 Y-18.5576 Z0.1850
G1 X28.3357 Y-18.5901 Z0.1809
G1 X28.3357 Y-18.6033 Z0.1799
G1 X28.3357 Y-18.6166 Z0.1803
G1 X28.3357 Y-18.6297 Z0.1821
G1 X28.3357 Y-18.6426 Z0.1853
G1 X28.3357 Y-18.6550 Z0.1899
G1 X28.3357 Y-18.6669 Z0.1957
G1 X28.3357 Y-18.6782 Z0.2028
G1 X28.3357 Y-18.6886 Z0.2110
G1 X28.3357 Y-18.6980 Z0.2203
G1 X28.3357 Y-18.7065 Z0.2305
G1 X28.3357 Y-18.7138 Z0.2416
G1 X28.3357 Y-18.7199 Z0.2534
G1 X28.3357 Y-18.7247 Z0.2657
G1 X28.3357 Y-18.7282 Z0.2785
G1 X28.3357 Y-18.7303 Z0.2916
G1 X28.3357 Y-18.7310 Z0.3049
G0 Z0.3101
G0 X28.3357 Y-18.7310 
G0 Z0.3850
G0 X28.1707 Y-17.0500 
G1 X28.1707 Y-17.0506 Z0.3728 F25.
G1 X28.1707 Y-17.0524 Z0.3607
G1 X28.1707 Y-17.0554 Z0.3488
G1 X28.1707 Y-17.0595 Z0.3372
G1 X28.1707 Y-17.0648 Z0.3261
G1 X28.1707 Y-17.0711 Z0.3156
G1 X28.1707 Y-17.0784 Z0.3058
G1 X28.1707 Y-17.0866 Z0.2967
G1 X28.1707 Y-17.0957 Z0.2884
G1 X28.1707 Y-17.1056 Z0.2811
G1 X28.1707 Y-17.1161 Z0.2748
G1 X28.1707 Y-17.1272 Z0.2696
G1 X28.1707 Y-17.1387 Z0.2654
G1 X28.1707 Y-17.1506 Z0.2625
G1 X28.1707 Y-17.1627 Z0.2607
G1 X28.1707 Y-17.1750 Z0.2600
G1 X28.1707 Y-17.3675 Z0.2600 F50.
G1 X28.1707 Y-17.3916 Z0.2600
G1 X28.1707 Y-17.4036 Z0.2600
G1 X28.1707 Y-17.4157 Z0.2599
G1 X28.1707 Y-17.4397 Z0.2598
G1 X28.1707 Y-17.4638 Z0.2595
G1 X28.1707 Y-17.4879 Z0.2592
G1 X28.1707 Y-17.4999 Z0.2591
G1 X28.1707 Y-17.5119 Z0.2589
G1 X28.1707 Y-17.5360 Z0.2585
G1 X28.1707 Y-17.5721 Z0.2578
G1 X28.1707 Y-17.6082 Z0.2569
G1 X28.1707 Y-17.6322 Z0.2563
G1 X28.1707 Y-17.6443 Z0.2560
G1 X28.1707 Y-17.6563 Z0.2556
G1 X28.1707 Y-17.6804 Z0.2548
G1 X28.1707 Y-17.7044 Z0.2540
G1 X28.1707 Y-17.7405 Z0.2526
G1 X28.1707 Y-17.7526 Z0.2522
G1 X28.1707 Y-17.7766 Z0.2512
G1 X28.1707 Y-17.8127 Z0.2495
G1 X28.1707 Y-17.8488 Z0.2478
G1 X28.1707 Y-17.8729 Z0.2465
G1 X28.1707 Y-17.8849 Z0.2458
G1 X28.1707 Y-17.9090 Z0.2445
G1 X28.1707 Y-17.9210 Z0.2438
G1 X28.1707 Y-17.9451 Z0.2424
G1 X28.1707 Y-17.9812 Z0.2401
G1 X28.1707 Y-18.0173 Z0.2377
G1 X28.1707 Y-18.0414 Z0.2360
G1 X28.1707 Y-18.0534 Z0.2351
G1 X28.1707 Y-18.0654 Z0.2342
G1 X28.1707 Y-18.0895 Z0.2324
G1 X28.1707 Y-18.1136 Z0.2306
G1 X28.1707 Y-18.1376 Z0.2286
G1 X28.1707 Y-18.1497 Z0.2277
G1 X28.1707 Y-18.1617 Z0.2267
G1 X28.1707 Y-18.1858 Z0.2246
G1 X28.1707 Y-18.2219 Z0.2214
G1 X28.1707 Y-18.2580 Z0.2181
G1 X28.1707 Y-18.2820 Z0.2158
G1 X28.1707 Y-18.2940 Z0.2146
G1 X28.1707 Y-18.3061 Z0.2134
G1 X28.1707 Y-18.3301 Z0.2110
G1 X28.1707 Y-18.3628 Z0.2076
G1 X28.1707 Y-18.3954 Z0.2041
G1 X28.1707 Y-18.4281 Z0.2005
G1 X28.1707 Y-18.4607 Z0.1968
G1 X28.1707 Y-18.4933 Z0.1929
G1 X28.1707 Y-18.5260 Z0.1890
G1 X28.1707 Y-18.5586 Z0.1849
G1 X28.1707 Y-18.5912 Z0.1807
G1 X28.1707 Y-18.6045 Z0.1797
G1 X28.1707 Y-18.6177 Z0.1802
G1 X28.1707 Y-18.6309 Z0.1820
G1 X28.1707 Y-18.6437 Z0.1852
G1 X28.1707 Y-18.6562 Z0.1897
G1 X28.1707 Y-18.6681 Z0.1956
G1 X28.1707 Y-18.6793 Z0.2026
G1 X28.1707 Y-18.6897 Z0.2109
G1 X28.1707 Y-18.6992 Z0.2201
G1 X28.1707 Y-18.7076 Z0.2304
G1 X28.1707 Y-18.7150 Z0.2414
G1 X28.1707 Y-18.7211 Z0.2532
G1 X28.1707 Y-18.7259 Z0.2656
G1 X28.1707 Y-18.7293 Z0.2784
G1 X28.1707 Y-18.7314 Z0.2915
G1 X28.1707 Y-18.7321 Z0.3047
G0 Z0.3101
G0 X28.1707 Y-18.7321 
G0 Z0.3850
G0 X28.0057 Y-17.0500 
G1 X28.0057 Y-17.0506 Z0.3728 F25.
G1 X28.0057 Y-17.0524 Z0.3607
G1 X28.0057 Y-17.0554 Z0.3488
G1 X28.0057 Y-17.0595 Z0.3372
G1 X28.0057 Y-17.0648 Z0.3261
G1 X28.0057 Y-17.0711 Z0.3156
G1 X28.0057 Y-17.0784 Z0.3058
G1 X28.0057 Y-17.0866 Z0.2967
G1 X28.0057 Y-17.0957 Z0.2884
G1 X28.0057 Y-17.1056 Z0.2811
G1 X28.0057 Y-17.1161 Z0.2748
G1 X28.0057 Y-17.1272 Z0.2696
G1 X28.0057 Y-17.1387 Z0.2654
G1 X28.0057 Y-17.1506 Z0.2625
G1 X28.0057 Y-17.1627 Z0.2607
G1 X28.0057 Y-17.1750 Z0.2600
G1 X28.0057 Y-17.3675 Z0.2600 F50.
G1 X28.0057 Y-17.3916 Z0.2600
G1 X28.0057 Y-17.4036 Z0.2600
G1 X28.0057 Y-17.4157 Z0.2599
G1 X28.0057 Y-17.4397 Z0.2598
G1 X28.0057 Y-17.4638 Z0.2595
G1 X28.0057 Y-17.4879 Z0.2592
G1 X28.0057 Y-17.4999 Z0.2591
G1 X28.0057 Y-17.5119 Z0.2589
G1 X28.0057 Y-17.5360 Z0.2585
G1 X28.0057 Y-17.5721 Z0.2578
G1 X28.0057 Y-17.6082 Z0.2569
G1 X28.0057 Y-17.6322 Z0.2563
G1 X28.0057 Y-17.6443 Z0.2560
G1 X28.0057 Y-17.6563 Z0.2556
G1 X28.0057 Y-17.6804 Z0.2548
G1 X28.0057 Y-17.7044 Z0.2540
G1 X28.0057 Y-17.7405 Z0.2526
G1 X28.0057 Y-17.7526 Z0.2522
G1 X28.0057 Y-17.7766 Z0.2512
G1 X28.0057 Y-17.8127 Z0.2495
G1 X28.0057 Y-17.8488 Z0.2478
G1 X28.0057 Y-17.8729 Z0.2465
G1 X28.0057 Y-17.8849 Z0.2458
G1 X28.0057 Y-17.9090 Z0.2445
G1 X28.0057 Y-17.9210 Z0.2438
G1 X28.0057 Y-17.9451 Z0.2424
G1 X28.0057 Y-17.9812 Z0.2401
G1 X28.0057 Y-18.0173 Z0.2377
G1 X28.0057 Y-18.0414 Z0.2360
G1 X28.0057 Y-18.0534 Z0.2351
G1 X28.0057 Y-18.0654 Z0.2342
G1 X28.0057 Y-18.0895 Z0.2324
G1 X28.0057 Y-18.1136 Z0.2306
G1 X28.0057 Y-18.1376 Z0.2286
G1 X28.0057 Y-18.1497 Z0.2277
G1 X28.0057 Y-18.1617 Z0.2267
G1 X28.0057 Y-18.1858 Z0.2246
G1 X28.0057 Y-18.2219 Z0.2214
G1 X28.0057 Y-18.2580 Z0.2181
G1 X28.0057 Y-18.2820 Z0.2158
G1 X28.0057 Y-18.2940 Z0.2146
G1 X28.0057 Y-18.3061 Z0.2134
G1 X28.0057 Y-18.3301 Z0.2110
G1 X28.0057 Y-18.3629 Z0.2076
G1 X28.0057 Y-18.3957 Z0.2041
G1 X28.0057 Y-18.4285 Z0.2005
G1 X28.0057 Y-18.4613 Z0.1967
G1 X28.0057 Y-18.4941 Z0.1928
G1 X28.0057 Y-18.5268 Z0.1889
G1 X28.0057 Y-18.5596 Z0.1848
G1 X28.0057 Y-18.5924 Z0.1806
G1 X28.0057 Y-18.6056 Z0.1796
G1 X28.0057 Y-18.6189 Z0.1800
G1 X28.0057 Y-18.6320 Z0.1818
G1 X28.0057 Y-18.6449 Z0.1850
G1 X28.0057 Y-18.6573 Z0.1896
G1 X28.0057 Y-18.6693 Z0.1954
G1 X28.0057 Y-18.6805 Z0.2025
G1 X28.0057 Y-18.6909 Z0.2107
G1 X28.0057 Y-18.7004 Z0.2200
G1 X28.0057 Y-18.7088 Z0.2302
G1 X28.0057 Y-18.7161 Z0.2413
G1 X28.0057 Y-18.7222 Z0.2531
G1 X28.0057 Y-18.7270 Z0.2654
G1 X28.0057 Y-18.7305 Z0.2782
G1 X28.0057 Y-18.7326 Z0.2913
G1 X28.0057 Y-18.7333 Z0.3046
G0 Z0.3101
G0 X28.0057 Y-18.7333 
G0 Z0.3850
G0 X27.8407 Y-17.0500 
G1 X27.8407 Y-17.0506 Z0.3728 F25.
G1 X27.8407 Y-17.0524 Z0.3607
G1 X27.8407 Y-17.0554 Z0.3488
G1 X27.8407 Y-17.0595 Z0.3372
G1 X27.8407 Y-17.0648 Z0.3261
G1 X27.8407 Y-17.0711 Z0.3156
G1 X27.8407 Y-17.0784 Z0.3058
G1 X27.8407 Y-17.0866 Z0.2967
G1 X27.8407 Y-17.0957 Z0.2884
G1 X27.8407 Y-17.1056 Z0.2811
G1 X27.8407 Y-17.1161 Z0.2748
G1 X27.8407 Y-17.1272 Z0.2696
G1 X27.8407 Y-17.1387 Z0.2654
G1 X27.8407 Y-17.1506 Z0.2625
G1 X27.8407 Y-17.1627 Z0.2607
G1 X27.8407 Y-17.1750 Z0.2600
G1 X27.8407 Y-17.3675 Z0.2600 F50.
G1 X27.8407 Y-17.3916 Z0.2600
G1 X27.8407 Y-17.4036 Z0.2600
G1 X27.8407 Y-17.4157 Z0.2599
G1 X27.8407 Y-17.4397 Z0.2598
G1 X27.8407 Y-17.4638 Z0.2595
G1 X27.8407 Y-17.4879 Z0.2592
G1 X27.8407 Y-17.4999 Z0.2591
G1 X27.8407 Y-17.5119 Z0.2589
G1 X27.8407 Y-17.5360 Z0.2585
G1 X27.8407 Y-17.5721 Z0.2578
G1 X27.8407 Y-17.6082 Z0.2569
G1 X27.8407 Y-17.6322 Z0.2563
G1 X27.8407 Y-17.6443 Z0.2560
G1 X27.8407 Y-17.6563 Z0.2556
G1 X27.8407 Y-17.6804 Z0.2548
G1 X27.8407 Y-17.7044 Z0.2540
G1 X27.8407 Y-17.7405 Z0.2526
G1 X27.8407 Y-17.7526 Z0.2522
G1 X27.8407 Y-17.7766 Z0.2512
G1 X27.8407 Y-17.8127 Z0.2495
G1 X27.8407 Y-17.8488 Z0.2478
G1 X27.8407 Y-17.8729 Z0.2465
G1 X27.8407 Y-17.8849 Z0.2458
G1 X27.8407 Y-17.9090 Z0.2445
G1 X27.8407 Y-17.9210 Z0.2438
G1 X27.8407 Y-17.9451 Z0.2424
G1 X27.8407 Y-17.9812 Z0.2401
G1 X27.8407 Y-18.0173 Z0.2377
G1 X27.8407 Y-18.0414 Z0.2360
G1 X27.8407 Y-18.0534 Z0.2351
G1 X27.8407 Y-18.0654 Z0.2342
G1 X27.8407 Y-18.0895 Z0.2324
G1 X27.8407 Y-18.1136 Z0.2306
G1 X27.8407 Y-18.1376 Z0.2286
G1 X27.8407 Y-18.1497 Z0.2277
G1 X27.8407 Y-18.1617 Z0.2267
G1 X27.8407 Y-18.1858 Z0.2246
G1 X27.8407 Y-18.2219 Z0.2214
G1 X27.8407 Y-18.2580 Z0.2181
G1 X27.8407 Y-18.2820 Z0.2158
G1 X27.8407 Y-18.2940 Z0.2146
G1 X27.8407 Y-18.3061 Z0.2134
G1 X27.8407 Y-18.3301 Z0.2110
G1 X27.8407 Y-18.3631 Z0.2076
G1 X27.8407 Y-18.3960 Z0.2040
G1 X27.8407 Y-18.4289 Z0.2004
G1 X27.8407 Y-18.4618 Z0.1966
G1 X27.8407 Y-18.4948 Z0.1928
G1 X27.8407 Y-18.5277 Z0.1888
G1 X27.8407 Y-18.5606 Z0.1847
G1 X27.8407 Y-18.5935 Z0.1804
G1 X27.8407 Y-18.6068 Z0.1794
G1 X27.8407 Y-18.6200 Z0.1798
G1 X27.8407 Y-18.6332 Z0.1817
G1 X27.8407 Y-18.6460 Z0.1849
G1 X27.8407 Y-18.6585 Z0.1894
G1 X27.8407 Y-18.6704 Z0.1953
G1 X27.8407 Y-18.6816 Z0.2023
G1 X27.8407 Y-18.6920 Z0.2106
G1 X27.8407 Y-18.7015 Z0.2198
G1 X27.8407 Y-18.7100 Z0.2301
G1 X27.8407 Y-18.7173 Z0.2411
G1 X27.8407 Y-18.7234 Z0.2529
G1 X27.8407 Y-18.7282 Z0.2653
G1 X27.8407 Y-18.7317 Z0.2781
G1 X27.8407 Y-18.7338 Z0.2912
G1 X27.8407 Y-18.7345 Z0.3044
G0 Z0.3101
G0 X27.8407 Y-18.7345 
G0 Z0.3850
G0 X27.6757 Y-17.0500 
G1 X27.6757 Y-17.0506 Z0.3728 F25.
G1 X27.6757 Y-17.0524 Z0.3607
G1 X27.6757 Y-17.0554 Z0.3488
G1 X27.6757 Y-17.0595 Z0.3372
G1 X27.6757 Y-17.0648 Z0.3261
G1 X27.6757 Y-17.0711 Z0.3156
G1 X27.6757 Y-17.0784 Z0.3058
G1 X27.6757 Y-17.0866 Z0.2967
G1 X27.6757 Y-17.0957 Z0.2884
G1 X27.6757 Y-17.1056 Z0.2811
G1 X27.6757 Y-17.1161 Z0.2748
G1 X27.6757 Y-17.1272 Z0.2696
G1 X27.6757 Y-17.1387 Z0.2654
G1 X27.6757 Y-17.1506 Z0.2625
G1 X27.6757 Y-17.1627 Z0.2607
G1 X27.6757 Y-17.1750 Z0.2600
G1 X27.6757 Y-17.3675 Z0.2600 F50.
G1 X27.6757 Y-17.3916 Z0.2600
G1 X27.6757 Y-17.4036 Z0.2600
G1 X27.6757 Y-17.4157 Z0.2599
G1 X27.6757 Y-17.4397 Z0.2598
G1 X27.6757 Y-17.4638 Z0.2595
G1 X27.6757 Y-17.4879 Z0.2592
G1 X27.6757 Y-17.4999 Z0.2591
G1 X27.6757 Y-17.5119 Z0.2589
G1 X27.6757 Y-17.5360 Z0.2585
G1 X27.6757 Y-17.5721 Z0.2578
G1 X27.6757 Y-17.6082 Z0.2569
G1 X27.6757 Y-17.6322 Z0.2563
G1 X27.6757 Y-17.6443 Z0.2560
G1 X27.6757 Y-17.6563 Z0.2556
G1 X27.6757 Y-17.6804 Z0.2548
G1 X27.6757 Y-17.7044 Z0.2540
G1 X27.6757 Y-17.7405 Z0.2526
G1 X27.6757 Y-17.7526 Z0.2522
G1 X27.6757 Y-17.7766 Z0.2512
G1 X27.6757 Y-17.8127 Z0.2495
G1 X27.6757 Y-17.8488 Z0.2478
G1 X27.6757 Y-17.8729 Z0.2465
G1 X27.6757 Y-17.8849 Z0.2458
G1 X27.6757 Y-17.9090 Z0.2445
G1 X27.6757 Y-17.9210 Z0.2438
G1 X27.6757 Y-17.9451 Z0.2424
G1 X27.6757 Y-17.9812 Z0.2401
G1 X27.6757 Y-18.0173 Z0.2377
G1 X27.6757 Y-18.0414 Z0.2360
G1 X27.6757 Y-18.0534 Z0.2351
G1 X27.6757 Y-18.0654 Z0.2342
G1 X27.6757 Y-18.0895 Z0.2324
G1 X27.6757 Y-18.1136 Z0.2306
G1 X27.6757 Y-18.1376 Z0.2286
G1 X27.6757 Y-18.1497 Z0.2277
G1 X27.6757 Y-18.1617 Z0.2267
G1 X27.6757 Y-18.1858 Z0.2246
G1 X27.6757 Y-18.2219 Z0.2214
G1 X27.6757 Y-18.2580 Z0.2181
G1 X27.6757 Y-18.2820 Z0.2158
G1 X27.6757 Y-18.2940 Z0.2146
G1 X27.6757 Y-18.3061 Z0.2134
G1 X27.6757 Y-18.3301 Z0.2110
G1 X27.6757 Y-18.3632 Z0.2076
G1 X27.6757 Y-18.3963 Z0.2040
G1 X27.6757 Y-18.4294 Z0.2004
G1 X27.6757 Y-18.4624 Z0.1966
G1 X27.6757 Y-18.4955 Z0.1927
G1 X27.6757 Y-18.5286 Z0.1887
G1 X27.6757 Y-18.5616 Z0.1845
G1 X27.6757 Y-18.5947 Z0.1803
G1 X27.6757 Y-18.6079 Z0.1793
G1 X27.6757 Y-18.6212 Z0.1797
G1 X27.6757 Y-18.6343 Z0.1815
G1 X27.6757 Y-18.6472 Z0.1847
G1 X27.6757 Y-18.6597 Z0.1893
G1 X27.6757 Y-18.6716 Z0.1951
G1 X27.6757 Y-18.6828 Z0.2022
G1 X27.6757 Y-18.6932 Z0.2104
G1 X27.6757 Y-18.7027 Z0.2197
G1 X27.6757 Y-18.7111 Z0.2299
G1 X27.6757 Y-18.7184 Z0.2410
G1 X27.6757 Y-18.7245 Z0.2528
G1 X27.6757 Y-18.7294 Z0.2651
G1 X27.6757 Y-18.7328 Z0.2779
G1 X27.6757 Y-18.7349 Z0.2910
G1 X27.6757 Y-18.7356 Z0.3043
G0 Z0.3101
G0 X27.6757 Y-18.7356 
G0 Z0.3850
G0 X27.5107 Y-17.0500 
G1 X27.5107 Y-17.0506 Z0.3728 F25.
G1 X27.5107 Y-17.0524 Z0.3607
G1 X27.5107 Y-17.0554 Z0.3488
G1 X27.5107 Y-17.0595 Z0.3372
G1 X27.5107 Y-17.0648 Z0.3261
G1 X27.5107 Y-17.0711 Z0.3156
G1 X27.5107 Y-17.0784 Z0.3058
G1 X27.5107 Y-17.0866 Z0.2967
G1 X27.5107 Y-17.0957 Z0.2884
G1 X27.5107 Y-17.1056 Z0.2811
G1 X27.5107 Y-17.1161 Z0.2748
G1 X27.5107 Y-17.1272 Z0.2696
G1 X27.5107 Y-17.1387 Z0.2654
G1 X27.5107 Y-17.1506 Z0.2625
G1 X27.5107 Y-17.1627 Z0.2607
G1 X27.5107 Y-17.1750 Z0.2600
G1 X27.5107 Y-17.3675 Z0.2600 F50.
G1 X27.5107 Y-17.3916 Z0.2600
G1 X27.5107 Y-17.4036 Z0.2600
G1 X27.5107 Y-17.4157 Z0.2599
G1 X27.5107 Y-17.4397 Z0.2598
G1 X27.5107 Y-17.4638 Z0.2595
G1 X27.5107 Y-17.4879 Z0.2592
G1 X27.5107 Y-17.4999 Z0.2591
G1 X27.5107 Y-17.5119 Z0.2589
G1 X27.5107 Y-17.5360 Z0.2585
G1 X27.5107 Y-17.5721 Z0.2578
G1 X27.5107 Y-17.6082 Z0.2569
G1 X27.5107 Y-17.6322 Z0.2563
G1 X27.5107 Y-17.6443 Z0.2560
G1 X27.5107 Y-17.6563 Z0.2556
G1 X27.5107 Y-17.6804 Z0.2548
G1 X27.5107 Y-17.7044 Z0.2540
G1 X27.5107 Y-17.7405 Z0.2526
G1 X27.5107 Y-17.7526 Z0.2522
G1 X27.5107 Y-17.7766 Z0.2512
G1 X27.5107 Y-17.8127 Z0.2495
G1 X27.5107 Y-17.8488 Z0.2478
G1 X27.5107 Y-17.8729 Z0.2465
G1 X27.5107 Y-17.8849 Z0.2458
G1 X27.5107 Y-17.9090 Z0.2445
G1 X27.5107 Y-17.9210 Z0.2438
G1 X27.5107 Y-17.9451 Z0.2424
G1 X27.5107 Y-17.9812 Z0.2401
G1 X27.5107 Y-18.0173 Z0.2377
G1 X27.5107 Y-18.0414 Z0.2360
G1 X27.5107 Y-18.0534 Z0.2351
G1 X27.5107 Y-18.0654 Z0.2342
G1 X27.5107 Y-18.0895 Z0.2324
G1 X27.5107 Y-18.1136 Z0.2306
G1 X27.5107 Y-18.1376 Z0.2286
G1 X27.5107 Y-18.1497 Z0.2277
G1 X27.5107 Y-18.1617 Z0.2267
G1 X27.5107 Y-18.1858 Z0.2246
G1 X27.5107 Y-18.2219 Z0.2214
G1 X27.5107 Y-18.2580 Z0.2181
G1 X27.5107 Y-18.2820 Z0.2158
G1 X27.5107 Y-18.2940 Z0.2146
G1 X27.5107 Y-18.3061 Z0.2134
G1 X27.5107 Y-18.3301 Z0.2110
G1 X27.5107 Y-18.3634 Z0.2075
G1 X27.5107 Y-18.3966 Z0.2040
G1 X27.5107 Y-18.4298 Z0.2003
G1 X27.5107 Y-18.4630 Z0.1965
G1 X27.5107 Y-18.4962 Z0.1926
G1 X27.5107 Y-18.5294 Z0.1886
G1 X27.5107 Y-18.5626 Z0.1844
G1 X27.5107 Y-18.5958 Z0.1801
G1 X27.5107 Y-18.6091 Z0.1791
G1 X27.5107 Y-18.6223 Z0.1795
G1 X27.5107 Y-18.6355 Z0.1814
G1 X27.5107 Y-18.6483 Z0.1846
G1 X27.5107 Y-18.6608 Z0.1891
G1 X27.5107 Y-18.6727 Z0.1950
G1 X27.5107 Y-18.6839 Z0.2020
G1 X27.5107 Y-18.6944 Z0.2102
G1 X27.5107 Y-18.7038 Z0.2195
G1 X27.5107 Y-18.7123 Z0.2298
G1 X27.5107 Y-18.7196 Z0.2408
G1 X27.5107 Y-18.7257 Z0.2526
G1 X27.5107 Y-18.7305 Z0.2650
G1 X27.5107 Y-18.7340 Z0.2778
G1 X27.5107 Y-18.7361 Z0.2909
G1 X27.5107 Y-18.7368 Z0.3041
G0 Z0.3101
G0 X27.5107 Y-18.7368 
G0 Z0.3850
G0 X27.3457 Y-17.0500 
G1 X27.3457 Y-17.0506 Z0.3728 F25.
G1 X27.3457 Y-17.0524 Z0.3607
G1 X27.3457 Y-17.0554 Z0.3488
G1 X27.3457 Y-17.0595 Z0.3372
G1 X27.3457 Y-17.0648 Z0.3261
G1 X27.3457 Y-17.0711 Z0.3156
G1 X27.3457 Y-17.0784 Z0.3058
G1 X27.3457 Y-17.0866 Z0.2967
G1 X27.3457 Y-17.0957 Z0.2884
G1 X27.3457 Y-17.1056 Z0.2811
G1 X27.3457 Y-17.1161 Z0.2748
G1 X27.3457 Y-17.1272 Z0.2696
G1 X27.3457 Y-17.1387 Z0.2654
G1 X27.3457 Y-17.1506 Z0.2625
G1 X27.3457 Y-17.1627 Z0.2607
G1 X27.3457 Y-17.1750 Z0.2600
G1 X27.3457 Y-17.3675 Z0.2600 F50.
G1 X27.3457 Y-17.3916 Z0.2600
G1 X27.3457 Y-17.4036 Z0.2600
G1 X27.3457 Y-17.4157 Z0.2599
G1 X27.3457 Y-17.4397 Z0.2598
G1 X27.3457 Y-17.4638 Z0.2595
G1 X27.3457 Y-17.4879 Z0.2592
G1 X27.3457 Y-17.4999 Z0.2591
G1 X27.3457 Y-17.5119 Z0.2589
G1 X27.3457 Y-17.5360 Z0.2585
G1 X27.3457 Y-17.5721 Z0.2578
G1 X27.3457 Y-17.6082 Z0.2569
G1 X27.3457 Y-17.6322 Z0.2563
G1 X27.3457 Y-17.6443 Z0.2560
G1 X27.3457 Y-17.6563 Z0.2556
G1 X27.3457 Y-17.6804 Z0.2548
G1 X27.3457 Y-17.7044 Z0.2540
G1 X27.3457 Y-17.7405 Z0.2526
G1 X27.3457 Y-17.7526 Z0.2522
G1 X27.3457 Y-17.7766 Z0.2512
G1 X27.3457 Y-17.8127 Z0.2495
G1 X27.3457 Y-17.8488 Z0.2478
G1 X27.3457 Y-17.8729 Z0.2465
G1 X27.3457 Y-17.8849 Z0.2458
G1 X27.3457 Y-17.9090 Z0.2445
G1 X27.3457 Y-17.9210 Z0.2438
G1 X27.3457 Y-17.9451 Z0.2424
G1 X27.3457 Y-17.9812 Z0.2401
G1 X27.3457 Y-18.0173 Z0.2377
G1 X27.3457 Y-18.0414 Z0.2360
G1 X27.3457 Y-18.0534 Z0.2351
G1 X27.3457 Y-18.0654 Z0.2342
G1 X27.3457 Y-18.0895 Z0.2324
G1 X27.3457 Y-18.1136 Z0.2306
G1 X27.3457 Y-18.1376 Z0.2286
G1 X27.3457 Y-18.1497 Z0.2277
G1 X27.3457 Y-18.1617 Z0.2267
G1 X27.3457 Y-18.1858 Z0.2246
G1 X27.3457 Y-18.2219 Z0.2214
G1 X27.3457 Y-18.2580 Z0.2181
G1 X27.3457 Y-18.2820 Z0.2158
G1 X27.3457 Y-18.2940 Z0.2146
G1 X27.3457 Y-18.3061 Z0.2134
G1 X27.3457 Y-18.3301 Z0.2110
G1 X27.3457 Y-18.3635 Z0.2075
G1 X27.3457 Y-18.3969 Z0.2040
G1 X27.3457 Y-18.4302 Z0.2003
G1 X27.3457 Y-18.4636 Z0.1964
G1 X27.3457 Y-18.4969 Z0.1925
G1 X27.3457 Y-18.5303 Z0.1884
G1 X27.3457 Y-18.5636 Z0.1843
G1 X27.3457 Y-18.5970 Z0.1800
G1 X27.3457 Y-18.6102 Z0.1790
G1 X27.3457 Y-18.6235 Z0.1794
G1 X27.3457 Y-18.6366 Z0.1812
G1 X27.3457 Y-18.6495 Z0.1844
G1 X27.3457 Y-18.6620 Z0.1890
G1 X27.3457 Y-18.6739 Z0.1948
G1 X27.3457 Y-18.6851 Z0.2019
G1 X27.3457 Y-18.6955 Z0.2101
G1 X27.3457 Y-18.7050 Z0.2194
G1 X27.3457 Y-18.7134 Z0.2296
G1 X27.3457 Y-18.7208 Z0.2407
G1 X27.3457 Y-18.7269 Z0.2524
G1 X27.3457 Y-18.7317 Z0.2648
G1 X27.3457 Y-18.7352 Z0.2776
G1 X27.3457 Y-18.7373 Z0.2907
G1 X27.3457 Y-18.7380 Z0.3040
G0 Z0.3101
G0 X27.3457 Y-18.7380 
G0 Z0.3850
G0 X27.1807 Y-17.0500 
G1 X27.1807 Y-17.0506 Z0.3728 F25.
G1 X27.1807 Y-17.0524 Z0.3607
G1 X27.1807 Y-17.0554 Z0.3488
G1 X27.1807 Y-17.0595 Z0.3372
G1 X27.1807 Y-17.0648 Z0.3261
G1 X27.1807 Y-17.0711 Z0.3156
G1 X27.1807 Y-17.0784 Z0.3058
G1 X27.1807 Y-17.0866 Z0.2967
G1 X27.1807 Y-17.0957 Z0.2884
G1 X27.1807 Y-17.1056 Z0.2811
G1 X27.1807 Y-17.1161 Z0.2748
G1 X27.1807 Y-17.1272 Z0.2696
G1 X27.1807 Y-17.1387 Z0.2654
G1 X27.1807 Y-17.1506 Z0.2625
G1 X27.1807 Y-17.1627 Z0.2607
G1 X27.1807 Y-17.1750 Z0.2600
G1 X27.1807 Y-17.3675 Z0.2600 F50.
G1 X27.1807 Y-17.3916 Z0.2600
G1 X27.1807 Y-17.4036 Z0.2600
G1 X27.1807 Y-17.4157 Z0.2599
G1 X27.1807 Y-17.4397 Z0.2598
G1 X27.1807 Y-17.4638 Z0.2595
G1 X27.1807 Y-17.4879 Z0.2592
G1 X27.1807 Y-17.4999 Z0.2591
G1 X27.1807 Y-17.5119 Z0.2589
G1 X27.1807 Y-17.5360 Z0.2585
G1 X27.1807 Y-17.5721 Z0.2578
G1 X27.1807 Y-17.6082 Z0.2569
G1 X27.1807 Y-17.6322 Z0.2563
G1 X27.1807 Y-17.6443 Z0.2560
G1 X27.1807 Y-17.6563 Z0.2556
G1 X27.1807 Y-17.6804 Z0.2548
G1 X27.1807 Y-17.7044 Z0.2540
G1 X27.1807 Y-17.7405 Z0.2526
G1 X27.1807 Y-17.7526 Z0.2522
G1 X27.1807 Y-17.7766 Z0.2512
G1 X27.1807 Y-17.8127 Z0.2495
G1 X27.1807 Y-17.8488 Z0.2478
G1 X27.1807 Y-17.8729 Z0.2465
G1 X27.1807 Y-17.8849 Z0.2458
G1 X27.1807 Y-17.9090 Z0.2445
G1 X27.1807 Y-17.9210 Z0.2438
G1 X27.1807 Y-17.9451 Z0.2424
G1 X27.1807 Y-17.9812 Z0.2401
G1 X27.1807 Y-18.0173 Z0.2377
G1 X27.1807 Y-18.0414 Z0.2360
G1 X27.1807 Y-18.0534 Z0.2351
G1 X27.1807 Y-18.0654 Z0.2342
G1 X27.1807 Y-18.0895 Z0.2324
G1 X27.1807 Y-18.1136 Z0.2306
G1 X27.1807 Y-18.1376 Z0.2286
G1 X27.1807 Y-18.1497 Z0.2277
G1 X27.1807 Y-18.1617 Z0.2267
G1 X27.1807 Y-18.1858 Z0.2246
G1 X27.1807 Y-18.2219 Z0.2214
G1 X27.1807 Y-18.2580 Z0.2181
G1 X27.1807 Y-18.2820 Z0.2158
G1 X27.1807 Y-18.2940 Z0.2146
G1 X27.1807 Y-18.3061 Z0.2134
G1 X27.1807 Y-18.3301 Z0.2110
G1 X27.1807 Y-18.3636 Z0.2075
G1 X27.1807 Y-18.3971 Z0.2039
G1 X27.1807 Y-18.4306 Z0.2002
G1 X27.1807 Y-18.4641 Z0.1964
G1 X27.1807 Y-18.4976 Z0.1924
G1 X27.1807 Y-18.5311 Z0.1883
G1 X27.1807 Y-18.5646 Z0.1841
G1 X27.1807 Y-18.5981 Z0.1798
G1 X27.1807 Y-18.6114 Z0.1788
G1 X27.1807 Y-18.6246 Z0.1792
G1 X27.1807 Y-18.6378 Z0.1811
G1 X27.1807 Y-18.6507 Z0.1843
G1 X27.1807 Y-18.6631 Z0.1888
G1 X27.1807 Y-18.6750 Z0.1946
G1 X27.1807 Y-18.6863 Z0.2017
G1 X27.1807 Y-18.6967 Z0.2099
G1 X27.1807 Y-18.7062 Z0.2192
G1 X27.1807 Y-18.7146 Z0.2294
G1 X27.1807 Y-18.7219 Z0.2405
G1 X27.1807 Y-18.7280 Z0.2523
G1 X27.1807 Y-18.7328 Z0.2646
G1 X27.1807 Y-18.7363 Z0.2774
G1 X27.1807 Y-18.7384 Z0.2905
G1 X27.1807 Y-18.7391 Z0.3038
G0 Z0.3101
G0 X27.1807 Y-18.7391 
G0 Z0.3850
G0 X27.0157 Y-17.0500 
G1 X27.0157 Y-17.0506 Z0.3728 F25.
G1 X27.0157 Y-17.0524 Z0.3607
G1 X27.0157 Y-17.0554 Z0.3488
G1 X27.0157 Y-17.0595 Z0.3372
G1 X27.0157 Y-17.0648 Z0.3261
G1 X27.0157 Y-17.0711 Z0.3156
G1 X27.0157 Y-17.0784 Z0.3058
G1 X27.0157 Y-17.0866 Z0.2967
G1 X27.0157 Y-17.0957 Z0.2884
G1 X27.0157 Y-17.1056 Z0.2811
G1 X27.0157 Y-17.1161 Z0.2748
G1 X27.0157 Y-17.1272 Z0.2696
G1 X27.0157 Y-17.1387 Z0.2654
G1 X27.0157 Y-17.1506 Z0.2625
G1 X27.0157 Y-17.1627 Z0.2607
G1 X27.0157 Y-17.1750 Z0.2600
G1 X27.0157 Y-17.3675 Z0.2600 F50.
G1 X27.0157 Y-17.3916 Z0.2600
G1 X27.0157 Y-17.4036 Z0.2600
G1 X27.0157 Y-17.4157 Z0.2599
G1 X27.0157 Y-17.4397 Z0.2598
G1 X27.0157 Y-17.4638 Z0.2595
G1 X27.0157 Y-17.4879 Z0.2592
G1 X27.0157 Y-17.4999 Z0.2591
G1 X27.0157 Y-17.5119 Z0.2589
G1 X27.0157 Y-17.5360 Z0.2585
G1 X27.0157 Y-17.5721 Z0.2578
G1 X27.0157 Y-17.6082 Z0.2569
G1 X27.0157 Y-17.6322 Z0.2563
G1 X27.0157 Y-17.6443 Z0.2560
G1 X27.0157 Y-17.6563 Z0.2556
G1 X27.0157 Y-17.6804 Z0.2548
G1 X27.0157 Y-17.7044 Z0.2540
G1 X27.0157 Y-17.7405 Z0.2526
G1 X27.0157 Y-17.7526 Z0.2522
G1 X27.0157 Y-17.7766 Z0.2512
G1 X27.0157 Y-17.8127 Z0.2495
G1 X27.0157 Y-17.8488 Z0.2478
G1 X27.0157 Y-17.8729 Z0.2465
G1 X27.0157 Y-17.8849 Z0.2458
G1 X27.0157 Y-17.9090 Z0.2445
G1 X27.0157 Y-17.9210 Z0.2438
G1 X27.0157 Y-17.9451 Z0.2424
G1 X27.0157 Y-17.9812 Z0.2401
G1 X27.0157 Y-18.0173 Z0.2377
G1 X27.0157 Y-18.0414 Z0.2360
G1 X27.0157 Y-18.0534 Z0.2351
G1 X27.0157 Y-18.0654 Z0.2342
G1 X27.0157 Y-18.0895 Z0.2324
G1 X27.0157 Y-18.1136 Z0.2306
G1 X27.0157 Y-18.1376 Z0.2286
G1 X27.0157 Y-18.1497 Z0.2277
G1 X27.0157 Y-18.1617 Z0.2267
G1 X27.0157 Y-18.1858 Z0.2246
G1 X27.0157 Y-18.2219 Z0.2214
G1 X27.0157 Y-18.2580 Z0.2181
G1 X27.0157 Y-18.2820 Z0.2158
G1 X27.0157 Y-18.2940 Z0.2146
G1 X27.0157 Y-18.3061 Z0.2134
G1 X27.0157 Y-18.3301 Z0.2110
G1 X27.0157 Y-18.3638 Z0.2075
G1 X27.0157 Y-18.3974 Z0.2039
G1 X27.0157 Y-18.4311 Z0.2002
G1 X27.0157 Y-18.4647 Z0.1963
G1 X27.0157 Y-18.4984 Z0.1923
G1 X27.0157 Y-18.5320 Z0.1882
G1 X27.0157 Y-18.5657 Z0.1840
G1 X27.0157 Y-18.5993 Z0.1797
G1 X27.0157 Y-18.6125 Z0.1787
G1 X27.0157 Y-18.6258 Z0.1791
G1 X27.0157 Y-18.6389 Z0.1809
G1 X27.0157 Y-18.6518 Z0.1841
G1 X27.0157 Y-18.6643 Z0.1886
G1 X27.0157 Y-18.6762 Z0.1945
G1 X27.0157 Y-18.6874 Z0.2015
G1 X27.0157 Y-18.6978 Z0.2098
G1 X27.0157 Y-18.7073 Z0.2190
G1 X27.0157 Y-18.7158 Z0.2293
G1 X27.0157 Y-18.7231 Z0.2403
G1 X27.0157 Y-18.7292 Z0.2521
G1 X27.0157 Y-18.7340 Z0.2645
G1 X27.0157 Y-18.7375 Z0.2773
G1 X27.0157 Y-18.7396 Z0.2904
G1 X27.0157 Y-18.7403 Z0.3036
G0 Z0.3101
G0 X27.0157 Y-18.7403 
G0 Z0.3850
G0 X26.8507 Y-17.0500 
G1 X26.8507 Y-17.0506 Z0.3728 F25.
G1 X26.8507 Y-17.0524 Z0.3607
G1 X26.8507 Y-17.0554 Z0.3488
G1 X26.8507 Y-17.0595 Z0.3372
G1 X26.8507 Y-17.0648 Z0.3261
G1 X26.8507 Y-17.0711 Z0.3156
G1 X26.8507 Y-17.0784 Z0.3058
G1 X26.8507 Y-17.0866 Z0.2967
G1 X26.8507 Y-17.0957 Z0.2884
G1 X26.8507 Y-17.1056 Z0.2811
G1 X26.8507 Y-17.1161 Z0.2748
G1 X26.8507 Y-17.1272 Z0.2696
G1 X26.8507 Y-17.1387 Z0.2654
G1 X26.8507 Y-17.1506 Z0.2625
G1 X26.8507 Y-17.1627 Z0.2607
G1 X26.8507 Y-17.1750 Z0.2600
G1 X26.8507 Y-17.3675 Z0.2600 F50.
G1 X26.8507 Y-17.3916 Z0.2600
G1 X26.8507 Y-17.4036 Z0.2600
G1 X26.8507 Y-17.4157 Z0.2599
G1 X26.8507 Y-17.4397 Z0.2598
G1 X26.8507 Y-17.4638 Z0.2595
G1 X26.8507 Y-17.4879 Z0.2592
G1 X26.8507 Y-17.4999 Z0.2591
G1 X26.8507 Y-17.5119 Z0.2589
G1 X26.8507 Y-17.5360 Z0.2585
G1 X26.8507 Y-17.5721 Z0.2578
G1 X26.8507 Y-17.6082 Z0.2569
G1 X26.8507 Y-17.6322 Z0.2563
G1 X26.8507 Y-17.6443 Z0.2560
G1 X26.8507 Y-17.6563 Z0.2556
G1 X26.8507 Y-17.6804 Z0.2548
G1 X26.8507 Y-17.7044 Z0.2540
G1 X26.8507 Y-17.7405 Z0.2526
G1 X26.8507 Y-17.7526 Z0.2522
G1 X26.8507 Y-17.7766 Z0.2512
G1 X26.8507 Y-17.8127 Z0.2495
G1 X26.8507 Y-17.8488 Z0.2478
G1 X26.8507 Y-17.8729 Z0.2465
G1 X26.8507 Y-17.8849 Z0.2458
G1 X26.8507 Y-17.9090 Z0.2445
G1 X26.8507 Y-17.9210 Z0.2438
G1 X26.8507 Y-17.9451 Z0.2424
G1 X26.8507 Y-17.9812 Z0.2401
G1 X26.8507 Y-18.0173 Z0.2377
G1 X26.8507 Y-18.0414 Z0.2360
G1 X26.8507 Y-18.0534 Z0.2351
G1 X26.8507 Y-18.0654 Z0.2342
G1 X26.8507 Y-18.0895 Z0.2324
G1 X26.8507 Y-18.1136 Z0.2306
G1 X26.8507 Y-18.1376 Z0.2286
G1 X26.8507 Y-18.1497 Z0.2277
G1 X26.8507 Y-18.1617 Z0.2267
G1 X26.8507 Y-18.1858 Z0.2246
G1 X26.8507 Y-18.2219 Z0.2214
G1 X26.8507 Y-18.2580 Z0.2181
G1 X26.8507 Y-18.2820 Z0.2158
G1 X26.8507 Y-18.2940 Z0.2146
G1 X26.8507 Y-18.3061 Z0.2134
G1 X26.8507 Y-18.3301 Z0.2110
G1 X26.8507 Y-18.3639 Z0.2075
G1 X26.8507 Y-18.3977 Z0.2039
G1 X26.8507 Y-18.4315 Z0.2001
G1 X26.8507 Y-18.4653 Z0.1962
G1 X26.8507 Y-18.4991 Z0.1922
G1 X26.8507 Y-18.5329 Z0.1881
G1 X26.8507 Y-18.5667 Z0.1839
G1 X26.8507 Y-18.6004 Z0.1795
G1 X26.8507 Y-18.6137 Z0.1785
G1 X26.8507 Y-18.6269 Z0.1789
G1 X26.8507 Y-18.6401 Z0.1807
G1 X26.8507 Y-18.6530 Z0.1839
G1 X26.8507 Y-18.6654 Z0.1885
G1 X26.8507 Y-18.6773 Z0.1943
G1 X26.8507 Y-18.6886 Z0.2014
G1 X26.8507 Y-18.6990 Z0.2096
G1 X26.8507 Y-18.7085 Z0.2189
G1 X26.8507 Y-18.7169 Z0.2291
G1 X26.8507 Y-18.7242 Z0.2402
G1 X26.8507 Y-18.7303 Z0.2520
G1 X26.8507 Y-18.7352 Z0.2643
G1 X26.8507 Y-18.7386 Z0.2771
G1 X26.8507 Y-18.7408 Z0.2902
G1 X26.8507 Y-18.7415 Z0.3035
G0 Z0.3101
G0 X26.8507 Y-18.7415 
G0 Z0.3850
G0 X26.6857 Y-17.0500 
G1 X26.6857 Y-17.0506 Z0.3728 F25.
G1 X26.6857 Y-17.0524 Z0.3607
G1 X26.6857 Y-17.0554 Z0.3488
G1 X26.6857 Y-17.0595 Z0.3372
G1 X26.6857 Y-17.0648 Z0.3261
G1 X26.6857 Y-17.0711 Z0.3156
G1 X26.6857 Y-17.0784 Z0.3058
G1 X26.6857 Y-17.0866 Z0.2967
G1 X26.6857 Y-17.0957 Z0.2884
G1 X26.6857 Y-17.1056 Z0.2811
G1 X26.6857 Y-17.1161 Z0.2748
G1 X26.6857 Y-17.1272 Z0.2696
G1 X26.6857 Y-17.1387 Z0.2654
G1 X26.6857 Y-17.1506 Z0.2625
G1 X26.6857 Y-17.1627 Z0.2607
G1 X26.6857 Y-17.1750 Z0.2600
G1 X26.6857 Y-17.3675 Z0.2600 F50.
G1 X26.6857 Y-17.3916 Z0.2600
G1 X26.6857 Y-17.4036 Z0.2600
G1 X26.6857 Y-17.4157 Z0.2599
G1 X26.6857 Y-17.4397 Z0.2598
G1 X26.6857 Y-17.4638 Z0.2595
G1 X26.6857 Y-17.4879 Z0.2592
G1 X26.6857 Y-17.4999 Z0.2591
G1 X26.6857 Y-17.5119 Z0.2589
G1 X26.6857 Y-17.5360 Z0.2585
G1 X26.6857 Y-17.5721 Z0.2578
G1 X26.6857 Y-17.6082 Z0.2569
G1 X26.6857 Y-17.6322 Z0.2563
G1 X26.6857 Y-17.6443 Z0.2560
G1 X26.6857 Y-17.6563 Z0.2556
G1 X26.6857 Y-17.6804 Z0.2548
G1 X26.6857 Y-17.7044 Z0.2540
G1 X26.6857 Y-17.7405 Z0.2526
G1 X26.6857 Y-17.7526 Z0.2522
G1 X26.6857 Y-17.7766 Z0.2512
G1 X26.6857 Y-17.8127 Z0.2495
G1 X26.6857 Y-17.8488 Z0.2478
G1 X26.6857 Y-17.8729 Z0.2465
G1 X26.6857 Y-17.8849 Z0.2458
G1 X26.6857 Y-17.9090 Z0.2445
G1 X26.6857 Y-17.9210 Z0.2438
G1 X26.6857 Y-17.9451 Z0.2424
G1 X26.6857 Y-17.9812 Z0.2401
G1 X26.6857 Y-18.0173 Z0.2377
G1 X26.6857 Y-18.0414 Z0.2360
G1 X26.6857 Y-18.0534 Z0.2351
G1 X26.6857 Y-18.0654 Z0.2342
G1 X26.6857 Y-18.0895 Z0.2324
G1 X26.6857 Y-18.1136 Z0.2306
G1 X26.6857 Y-18.1376 Z0.2286
G1 X26.6857 Y-18.1497 Z0.2277
G1 X26.6857 Y-18.1617 Z0.2267
G1 X26.6857 Y-18.1858 Z0.2246
G1 X26.6857 Y-18.2219 Z0.2214
G1 X26.6857 Y-18.2580 Z0.2181
G1 X26.6857 Y-18.2820 Z0.2158
G1 X26.6857 Y-18.2940 Z0.2146
G1 X26.6857 Y-18.3061 Z0.2134
G1 X26.6857 Y-18.3301 Z0.2110
G1 X26.6857 Y-18.3641 Z0.2075
G1 X26.6857 Y-18.3980 Z0.2038
G1 X26.6857 Y-18.4319 Z0.2001
G1 X26.6857 Y-18.4659 Z0.1962
G1 X26.6857 Y-18.4998 Z0.1922
G1 X26.6857 Y-18.5337 Z0.1880
G1 X26.6857 Y-18.5677 Z0.1838
G1 X26.6857 Y-18.6016 Z0.1794
G1 X26.6857 Y-18.6148 Z0.1784
G1 X26.6857 Y-18.6281 Z0.1788
G1 X26.6857 Y-18.6412 Z0.1806
G1 X26.6857 Y-18.6541 Z0.1838
G1 X26.6857 Y-18.6666 Z0.1883
G1 X26.6857 Y-18.6785 Z0.1942
G1 X26.6857 Y-18.6897 Z0.2012
G1 X26.6857 Y-18.7001 Z0.2095
G1 X26.6857 Y-18.7096 Z0.2187
G1 X26.6857 Y-18.7181 Z0.2290
G1 X26.6857 Y-18.7254 Z0.2400
G1 X26.6857 Y-18.7315 Z0.2518
G1 X26.6857 Y-18.7363 Z0.2642
G1 X26.6857 Y-18.7398 Z0.2770
G1 X26.6857 Y-18.7419 Z0.2901
G1 X26.6857 Y-18.7426 Z0.3033
G0 Z0.3101
G0 X26.6857 Y-18.7426 
G0 Z0.3850
G0 X26.5207 Y-17.0500 
G1 X26.5207 Y-17.0506 Z0.3728 F25.
G1 X26.5207 Y-17.0524 Z0.3607
G1 X26.5207 Y-17.0554 Z0.3488
G1 X26.5207 Y-17.0595 Z0.3372
G1 X26.5207 Y-17.0648 Z0.3261
G1 X26.5207 Y-17.0711 Z0.3156
G1 X26.5207 Y-17.0784 Z0.3058
G1 X26.5207 Y-17.0866 Z0.2967
G1 X26.5207 Y-17.0957 Z0.2884
G1 X26.5207 Y-17.1056 Z0.2811
G1 X26.5207 Y-17.1161 Z0.2748
G1 X26.5207 Y-17.1272 Z0.2696
G1 X26.5207 Y-17.1387 Z0.2654
G1 X26.5207 Y-17.1506 Z0.2625
G1 X26.5207 Y-17.1627 Z0.2607
G1 X26.5207 Y-17.1750 Z0.2600
G1 X26.5207 Y-17.3675 Z0.2600 F50.
G1 X26.5207 Y-17.3916 Z0.2600
G1 X26.5207 Y-17.4036 Z0.2600
G1 X26.5207 Y-17.4157 Z0.2599
G1 X26.5207 Y-17.4397 Z0.2598
G1 X26.5207 Y-17.4638 Z0.2595
G1 X26.5207 Y-17.4879 Z0.2592
G1 X26.5207 Y-17.4999 Z0.2591
G1 X26.5207 Y-17.5119 Z0.2589
G1 X26.5207 Y-17.5360 Z0.2585
G1 X26.5207 Y-17.5721 Z0.2578
G1 X26.5207 Y-17.6082 Z0.2569
G1 X26.5207 Y-17.6322 Z0.2563
G1 X26.5207 Y-17.6443 Z0.2560
G1 X26.5207 Y-17.6563 Z0.2556
G1 X26.5207 Y-17.6804 Z0.2548
G1 X26.5207 Y-17.7044 Z0.2540
G1 X26.5207 Y-17.7405 Z0.2526
G1 X26.5207 Y-17.7526 Z0.2522
G1 X26.5207 Y-17.7766 Z0.2512
G1 X26.5207 Y-17.8127 Z0.2495
G1 X26.5207 Y-17.8488 Z0.2478
G1 X26.5207 Y-17.8729 Z0.2465
G1 X26.5207 Y-17.8849 Z0.2458
G1 X26.5207 Y-17.9090 Z0.2445
G1 X26.5207 Y-17.9210 Z0.2438
G1 X26.5207 Y-17.9451 Z0.2424
G1 X26.5207 Y-17.9812 Z0.2401
G1 X26.5207 Y-18.0173 Z0.2377
G1 X26.5207 Y-18.0414 Z0.2360
G1 X26.5207 Y-18.0534 Z0.2351
G1 X26.5207 Y-18.0654 Z0.2342
G1 X26.5207 Y-18.0895 Z0.2324
G1 X26.5207 Y-18.1136 Z0.2306
G1 X26.5207 Y-18.1376 Z0.2286
G1 X26.5207 Y-18.1497 Z0.2277
G1 X26.5207 Y-18.1617 Z0.2267
G1 X26.5207 Y-18.1858 Z0.2246
G1 X26.5207 Y-18.2219 Z0.2214
G1 X26.5207 Y-18.2580 Z0.2181
G1 X26.5207 Y-18.2820 Z0.2158
G1 X26.5207 Y-18.2940 Z0.2146
G1 X26.5207 Y-18.3061 Z0.2134
G1 X26.5207 Y-18.3301 Z0.2110
G1 X26.5207 Y-18.3642 Z0.2075
G1 X26.5207 Y-18.3983 Z0.2038
G1 X26.5207 Y-18.4324 Z0.2000
G1 X26.5207 Y-18.4664 Z0.1961
G1 X26.5207 Y-18.5005 Z0.1921
G1 X26.5207 Y-18.5346 Z0.1879
G1 X26.5207 Y-18.5602 Z0.1847
G1 X26.5207 Y-18.5942 Z0.1803
G1 X26.5207 Y-18.6027 Z0.1792
G1 X26.5207 Y-18.6160 Z0.1782
G1 X26.5207 Y-18.6293 Z0.1786
G1 X26.5207 Y-18.6424 Z0.1804
G1 X26.5207 Y-18.6553 Z0.1835
G1 X26.5207 Y-18.6678 Z0.1881
G1 X26.5207 Y-18.6798 Z0.1939
G1 X26.5207 Y-18.6910 Z0.2009
G1 X26.5207 Y-18.7015 Z0.2092
G1 X26.5207 Y-18.7110 Z0.2184
G1 X26.5207 Y-18.7195 Z0.2287
G1 X26.5207 Y-18.7268 Z0.2398
G1 X26.5207 Y-18.7329 Z0.2516
G1 X26.5207 Y-18.7378 Z0.2639
G1 X26.5207 Y-18.7412 Z0.2768
G1 X26.5207 Y-18.7434 Z0.2899
G1 X26.5207 Y-18.7441 Z0.3031
G0 Z0.3101
G0 X26.5207 Y-18.7441 
G0 Z0.3850
G0 X26.3557 Y-17.0500 
G1 X26.3557 Y-17.0506 Z0.3728 F25.
G1 X26.3557 Y-17.0524 Z0.3607
G1 X26.3557 Y-17.0554 Z0.3488
G1 X26.3557 Y-17.0595 Z0.3372
G1 X26.3557 Y-17.0648 Z0.3261
G1 X26.3557 Y-17.0711 Z0.3156
G1 X26.3557 Y-17.0784 Z0.3058
G1 X26.3557 Y-17.0866 Z0.2967
G1 X26.3557 Y-17.0957 Z0.2884
G1 X26.3557 Y-17.1056 Z0.2811
G1 X26.3557 Y-17.1161 Z0.2748
G1 X26.3557 Y-17.1272 Z0.2696
G1 X26.3557 Y-17.1387 Z0.2654
G1 X26.3557 Y-17.1506 Z0.2625
G1 X26.3557 Y-17.1627 Z0.2607
G1 X26.3557 Y-17.1750 Z0.2600
G1 X26.3557 Y-17.3675 Z0.2600 F50.
G1 X26.3557 Y-17.3916 Z0.2600
G1 X26.3557 Y-17.4036 Z0.2600
G1 X26.3557 Y-17.4157 Z0.2599
G1 X26.3557 Y-17.4397 Z0.2598
G1 X26.3557 Y-17.4638 Z0.2595
G1 X26.3557 Y-17.4879 Z0.2592
G1 X26.3557 Y-17.4999 Z0.2591
