( MOP:  02-radius-r7PT25-AnyScale-final-start-NOMIRROR-01b )
( FILE: G:\Shared drives\AlloyProjectFiles\Customer CAD files\Alloy-Standard-Builds-CAM\Fingerboards-in\03-radius-r7PT25-AnyScale-final-start-NOMIRROR-01.nc)
G90
(  BEGIN TOOL LIST )
(  TOOL 12 - BowlBit - DESC: 1.2500 DIA, 2 FLUTE,  CARBIDE MAT )
(  ENDOF TOOL LIST )
( 02-radius-r7PT25-AnyScale-final-start-NOMIRROR-01b)
( Spetools BPT2F-D1-1_4-d1_2 W08006 )
T12
S14000
M3
G0 Z3.0000
G0 X47.2601 Y-21.0744 
G1 X47.2601 Y-21.0744 Z0.3851 F110.
G1 X47.2601 Y-21.0750 Z0.3728 F50.
G1 X47.2601 Y-21.0768 Z0.3607
G1 X47.2601 Y-21.0798 Z0.3488
G1 X47.2601 Y-21.0839 Z0.3372
G1 X47.2601 Y-21.0892 Z0.3261
G1 X47.2601 Y-21.0955 Z0.3156
G1 X47.2601 Y-21.1028 Z0.3058
G1 X47.2601 Y-21.1110 Z0.2967
G1 X47.2601 Y-21.1201 Z0.2884
G1 X47.2601 Y-21.1300 Z0.2811
G1 X47.2601 Y-21.1405 Z0.2748
G1 X47.2601 Y-21.1516 Z0.2696
G1 X47.2601 Y-21.1631 Z0.2654
G1 X47.2601 Y-21.1750 Z0.2625
G1 X47.2601 Y-21.1872 Z0.2607
G1 X47.2601 Y-21.1994 Z0.2601
G1 X47.2601 Y-23.1691 Z0.2601 F75.
G1 X47.2601 Y-23.1886 Z0.2600
G1 X47.2601 Y-23.2081 Z0.2600
G1 X47.2601 Y-23.2276 Z0.2598
G1 X47.2601 Y-23.2373 Z0.2598
G1 X47.2601 Y-23.2666 Z0.2595
G1 X47.2601 Y-23.2959 Z0.2590
G1 X47.2601 Y-23.3251 Z0.2585
G1 X47.2601 Y-23.3446 Z0.2581
G1 X47.2601 Y-23.3641 Z0.2576
G1 X47.2601 Y-23.3836 Z0.2571
G1 X47.2601 Y-23.3934 Z0.2568
G1 X47.2601 Y-23.4226 Z0.2559
G1 X47.2601 Y-23.4519 Z0.2549
G1 X47.2601 Y-23.4811 Z0.2537
G1 X47.2601 Y-23.5006 Z0.2529
G1 X47.2601 Y-23.5201 Z0.2520
G1 X47.2601 Y-23.5396 Z0.2511
G1 X47.2601 Y-23.5591 Z0.2501
G1 X47.2601 Y-23.5786 Z0.2491
G1 X47.2601 Y-23.6079 Z0.2474
G1 X47.2601 Y-23.6371 Z0.2457
G1 X47.2601 Y-23.6664 Z0.2438
G1 X47.2601 Y-23.6761 Z0.2432
G1 X47.2601 Y-23.6956 Z0.2418
G1 X47.2601 Y-23.7151 Z0.2404
G1 X47.2601 Y-23.7346 Z0.2390
G1 X47.2601 Y-23.7541 Z0.2375
G1 X47.2601 Y-23.7639 Z0.2367
G1 X47.2601 Y-23.7931 Z0.2344
G1 X47.2601 Y-23.8224 Z0.2319
G1 X47.2601 Y-23.8516 Z0.2293
G1 X47.2601 Y-23.8711 Z0.2275
G1 X47.2601 Y-23.8906 Z0.2256
G1 X47.2601 Y-23.9102 Z0.2237
G1 X47.2601 Y-23.9199 Z0.2228
G1 X47.2601 Y-23.9492 Z0.2198
G1 X47.2601 Y-23.9784 Z0.2167
G1 X47.2601 Y-24.0077 Z0.2135
G1 X47.2601 Y-24.0369 Z0.2101
G1 X47.2601 Y-24.0467 Z0.2090
G1 X47.2601 Y-24.0662 Z0.2067
G1 X47.2601 Y-24.0857 Z0.2043
G1 X47.2601 Y-24.1052 Z0.2019
G1 X47.2601 Y-24.1247 Z0.1994
G1 X47.2601 Y-24.1344 Z0.1982
G1 X47.2601 Y-24.1637 Z0.1943
G1 X47.2601 Y-24.1929 Z0.1904
G1 X47.2601 Y-24.2222 Z0.1863
G1 X47.2601 Y-24.2514 Z0.1821
G1 X47.2601 Y-24.2612 Z0.1807
G1 X47.2601 Y-24.2807 Z0.1778
G1 X47.2601 Y-24.3002 Z0.1749
G1 X47.2601 Y-24.3197 Z0.1719
G1 X47.2601 Y-24.3408 Z0.1686
G1 X47.2601 Y-24.3619 Z0.1652
G1 X47.2601 Y-24.3754 Z0.1638
G1 X47.2601 Y-24.3889 Z0.1639
G1 X47.2601 Y-24.4023 Z0.1654
G1 X47.2601 Y-24.4155 Z0.1683
G1 X47.2601 Y-24.4282 Z0.1727
G1 X47.2601 Y-24.4405 Z0.1784
G1 X47.2601 Y-24.4520 Z0.1854
G1 X47.2601 Y-24.4627 Z0.1936
G1 X47.2601 Y-24.4725 Z0.2029
G1 X47.2601 Y-24.4813 Z0.2132
G1 X47.2601 Y-24.4888 Z0.2244
G1 X47.2601 Y-24.4951 Z0.2363
G1 X47.2601 Y-24.5001 Z0.2488
G1 X47.2601 Y-24.5037 Z0.2618
G1 X47.2601 Y-24.5059 Z0.2752
G1 X47.2601 Y-24.5066 Z0.2887
G0 Z0.3101
G0 X47.2601 Y-24.5066 
G0 Z0.3851
G0 X47.1351 Y-21.0744 
G1 X47.1351 Y-21.0750 Z0.3728 F50.
G1 X47.1351 Y-21.0768 Z0.3607
G1 X47.1351 Y-21.0798 Z0.3488
G1 X47.1351 Y-21.0839 Z0.3372
G1 X47.1351 Y-21.0892 Z0.3261
G1 X47.1351 Y-21.0955 Z0.3156
G1 X47.1351 Y-21.1028 Z0.3058
G1 X47.1351 Y-21.1110 Z0.2967
G1 X47.1351 Y-21.1201 Z0.2884
G1 X47.1351 Y-21.1300 Z0.2811
G1 X47.1351 Y-21.1405 Z0.2748
G1 X47.1351 Y-21.1516 Z0.2696
G1 X47.1351 Y-21.1631 Z0.2654
G1 X47.1351 Y-21.1750 Z0.2625
G1 X47.1351 Y-21.1872 Z0.2607
G1 X47.1351 Y-21.1994 Z0.2601
G1 X47.1351 Y-23.1691 Z0.2601 F75.
G1 X47.1351 Y-23.1886 Z0.2600
G1 X47.1351 Y-23.2081 Z0.2600
G1 X47.1351 Y-23.2276 Z0.2598
G1 X47.1351 Y-23.2373 Z0.2598
G1 X47.1351 Y-23.2666 Z0.2595
G1 X47.1351 Y-23.2959 Z0.2590
G1 X47.1351 Y-23.3251 Z0.2585
G1 X47.1351 Y-23.3446 Z0.2581
G1 X47.1351 Y-23.3641 Z0.2576
G1 X47.1351 Y-23.3836 Z0.2571
G1 X47.1351 Y-23.3934 Z0.2568
G1 X47.1351 Y-23.4226 Z0.2559
G1 X47.1351 Y-23.4519 Z0.2549
G1 X47.1351 Y-23.4811 Z0.2537
G1 X47.1351 Y-23.5006 Z0.2529
G1 X47.1351 Y-23.5201 Z0.2520
G1 X47.1351 Y-23.5396 Z0.2511
G1 X47.1351 Y-23.5591 Z0.2501
G1 X47.1351 Y-23.5786 Z0.2491
G1 X47.1351 Y-23.6079 Z0.2474
G1 X47.1351 Y-23.6371 Z0.2457
G1 X47.1351 Y-23.6664 Z0.2438
G1 X47.1351 Y-23.6761 Z0.2432
G1 X47.1351 Y-23.6956 Z0.2418
G1 X47.1351 Y-23.7151 Z0.2404
G1 X47.1351 Y-23.7346 Z0.2390
G1 X47.1351 Y-23.7541 Z0.2375
G1 X47.1351 Y-23.7639 Z0.2367
G1 X47.1351 Y-23.7931 Z0.2344
G1 X47.1351 Y-23.8224 Z0.2319
G1 X47.1351 Y-23.8516 Z0.2293
G1 X47.1351 Y-23.8711 Z0.2275
G1 X47.1351 Y-23.8906 Z0.2256
G1 X47.1351 Y-23.9102 Z0.2237
G1 X47.1351 Y-23.9199 Z0.2228
G1 X47.1351 Y-23.9492 Z0.2198
G1 X47.1351 Y-23.9784 Z0.2167
G1 X47.1351 Y-24.0077 Z0.2135
G1 X47.1351 Y-24.0369 Z0.2101
G1 X47.1351 Y-24.0467 Z0.2090
G1 X47.1351 Y-24.0662 Z0.2067
G1 X47.1351 Y-24.0857 Z0.2043
G1 X47.1351 Y-24.1052 Z0.2019
G1 X47.1351 Y-24.1247 Z0.1994
G1 X47.1351 Y-24.1344 Z0.1982
G1 X47.1351 Y-24.1637 Z0.1943
G1 X47.1351 Y-24.1929 Z0.1904
G1 X47.1351 Y-24.2222 Z0.1863
G1 X47.1351 Y-24.2514 Z0.1821
G1 X47.1351 Y-24.2612 Z0.1807
G1 X47.1351 Y-24.2807 Z0.1778
G1 X47.1351 Y-24.3002 Z0.1749
G1 X47.1351 Y-24.3197 Z0.1719
G1 X47.1351 Y-24.3415 Z0.1685
G1 X47.1351 Y-24.3633 Z0.1650
G1 X47.1351 Y-24.3768 Z0.1636
G1 X47.1351 Y-24.3903 Z0.1636
G1 X47.1351 Y-24.4037 Z0.1651
G1 X47.1351 Y-24.4169 Z0.1681
G1 X47.1351 Y-24.4297 Z0.1724
G1 X47.1351 Y-24.4419 Z0.1781
G1 X47.1351 Y-24.4534 Z0.1851
G1 X47.1351 Y-24.4642 Z0.1933
G1 X47.1351 Y-24.4740 Z0.2026
G1 X47.1351 Y-24.4827 Z0.2129
G1 X47.1351 Y-24.4902 Z0.2241
G1 X47.1351 Y-24.4966 Z0.2361
G1 X47.1351 Y-24.5015 Z0.2486
G1 X47.1351 Y-24.5051 Z0.2616
G1 X47.1351 Y-24.5073 Z0.2749
G1 X47.1351 Y-24.5081 Z0.2884
G0 Z0.3101
G0 X47.1351 Y-24.5081 
G0 Z0.3851
G0 X47.0101 Y-21.0744 
G1 X47.0101 Y-21.0750 Z0.3728 F50.
G1 X47.0101 Y-21.0768 Z0.3607
G1 X47.0101 Y-21.0798 Z0.3488
G1 X47.0101 Y-21.0839 Z0.3372
G1 X47.0101 Y-21.0892 Z0.3261
G1 X47.0101 Y-21.0955 Z0.3156
G1 X47.0101 Y-21.1028 Z0.3058
G1 X47.0101 Y-21.1110 Z0.2967
G1 X47.0101 Y-21.1201 Z0.2884
G1 X47.0101 Y-21.1300 Z0.2811
G1 X47.0101 Y-21.1405 Z0.2748
G1 X47.0101 Y-21.1516 Z0.2696
G1 X47.0101 Y-21.1631 Z0.2654
G1 X47.0101 Y-21.1750 Z0.2625
G1 X47.0101 Y-21.1872 Z0.2607
G1 X47.0101 Y-21.1994 Z0.2601
G1 X47.0101 Y-23.1691 Z0.2601 F75.
G1 X47.0101 Y-23.1886 Z0.2600
G1 X47.0101 Y-23.2081 Z0.2600
G1 X47.0101 Y-23.2276 Z0.2598
G1 X47.0101 Y-23.2373 Z0.2598
G1 X47.0101 Y-23.2666 Z0.2595
G1 X47.0101 Y-23.2959 Z0.2590
G1 X47.0101 Y-23.3251 Z0.2585
G1 X47.0101 Y-23.3446 Z0.2581
G1 X47.0101 Y-23.3641 Z0.2576
G1 X47.0101 Y-23.3836 Z0.2571
G1 X47.0101 Y-23.3934 Z0.2568
G1 X47.0101 Y-23.4226 Z0.2559
G1 X47.0101 Y-23.4519 Z0.2549
G1 X47.0101 Y-23.4811 Z0.2537
G1 X47.0101 Y-23.5006 Z0.2529
G1 X47.0101 Y-23.5201 Z0.2520
G1 X47.0101 Y-23.5396 Z0.2511
G1 X47.0101 Y-23.5591 Z0.2501
G1 X47.0101 Y-23.5786 Z0.2491
G1 X47.0101 Y-23.6079 Z0.2474
G1 X47.0101 Y-23.6371 Z0.2457
G1 X47.0101 Y-23.6664 Z0.2438
G1 X47.0101 Y-23.6761 Z0.2432
G1 X47.0101 Y-23.6956 Z0.2418
G1 X47.0101 Y-23.7151 Z0.2404
G1 X47.0101 Y-23.7346 Z0.2390
G1 X47.0101 Y-23.7541 Z0.2375
G1 X47.0101 Y-23.7639 Z0.2367
G1 X47.0101 Y-23.7931 Z0.2344
G1 X47.0101 Y-23.8224 Z0.2319
G1 X47.0101 Y-23.8516 Z0.2293
G1 X47.0101 Y-23.8711 Z0.2275
G1 X47.0101 Y-23.8906 Z0.2256
G1 X47.0101 Y-23.9102 Z0.2237
G1 X47.0101 Y-23.9199 Z0.2228
G1 X47.0101 Y-23.9492 Z0.2198
G1 X47.0101 Y-23.9784 Z0.2167
G1 X47.0101 Y-24.0077 Z0.2135
G1 X47.0101 Y-24.0369 Z0.2101
G1 X47.0101 Y-24.0467 Z0.2090
G1 X47.0101 Y-24.0662 Z0.2067
G1 X47.0101 Y-24.0857 Z0.2043
G1 X47.0101 Y-24.1052 Z0.2019
G1 X47.0101 Y-24.1247 Z0.1994
G1 X47.0101 Y-24.1344 Z0.1982
G1 X47.0101 Y-24.1637 Z0.1943
G1 X47.0101 Y-24.1929 Z0.1904
G1 X47.0101 Y-24.2222 Z0.1863
G1 X47.0101 Y-24.2514 Z0.1821
G1 X47.0101 Y-24.2612 Z0.1807
G1 X47.0101 Y-24.2807 Z0.1778
G1 X47.0101 Y-24.3002 Z0.1749
G1 X47.0101 Y-24.3197 Z0.1719
G1 X47.0101 Y-24.3422 Z0.1684
G1 X47.0101 Y-24.3648 Z0.1648
G1 X47.0101 Y-24.3782 Z0.1634
G1 X47.0101 Y-24.3917 Z0.1634
G1 X47.0101 Y-24.4051 Z0.1649
G1 X47.0101 Y-24.4183 Z0.1679
G1 X47.0101 Y-24.4311 Z0.1722
G1 X47.0101 Y-24.4433 Z0.1779
G1 X47.0101 Y-24.4549 Z0.1849
G1 X47.0101 Y-24.4656 Z0.1931
G1 X47.0101 Y-24.4754 Z0.2024
G1 X47.0101 Y-24.4841 Z0.2127
G1 X47.0101 Y-24.4917 Z0.2239
G1 X47.0101 Y-24.4980 Z0.2358
G1 X47.0101 Y-24.5030 Z0.2484
G1 X47.0101 Y-24.5066 Z0.2614
G1 X47.0101 Y-24.5088 Z0.2747
G1 X47.0101 Y-24.5095 Z0.2882
G0 Z0.3101
G0 X47.0101 Y-24.5095 
G0 Z0.3851
G0 X46.8851 Y-21.0744 
G1 X46.8851 Y-21.0750 Z0.3728 F50.
G1 X46.8851 Y-21.0768 Z0.3607
G1 X46.8851 Y-21.0798 Z0.3488
G1 X46.8851 Y-21.0839 Z0.3372
G1 X46.8851 Y-21.0892 Z0.3261
G1 X46.8851 Y-21.0955 Z0.3156
G1 X46.8851 Y-21.1028 Z0.3058
G1 X46.8851 Y-21.1110 Z0.2967
G1 X46.8851 Y-21.1201 Z0.2884
G1 X46.8851 Y-21.1300 Z0.2811
G1 X46.8851 Y-21.1405 Z0.2748
G1 X46.8851 Y-21.1516 Z0.2696
G1 X46.8851 Y-21.1631 Z0.2654
G1 X46.8851 Y-21.1750 Z0.2625
G1 X46.8851 Y-21.1872 Z0.2607
G1 X46.8851 Y-21.1994 Z0.2601
G1 X46.8851 Y-23.1691 Z0.2601 F75.
G1 X46.8851 Y-23.1886 Z0.2600
G1 X46.8851 Y-23.2081 Z0.2600
G1 X46.8851 Y-23.2276 Z0.2598
G1 X46.8851 Y-23.2373 Z0.2598
G1 X46.8851 Y-23.2666 Z0.2595
G1 X46.8851 Y-23.2959 Z0.2590
G1 X46.8851 Y-23.3251 Z0.2585
G1 X46.8851 Y-23.3446 Z0.2581
G1 X46.8851 Y-23.3641 Z0.2576
G1 X46.8851 Y-23.3836 Z0.2571
G1 X46.8851 Y-23.3934 Z0.2568
G1 X46.8851 Y-23.4226 Z0.2559
G1 X46.8851 Y-23.4519 Z0.2549
G1 X46.8851 Y-23.4811 Z0.2537
G1 X46.8851 Y-23.5006 Z0.2529
G1 X46.8851 Y-23.5201 Z0.2520
G1 X46.8851 Y-23.5396 Z0.2511
G1 X46.8851 Y-23.5591 Z0.2501
G1 X46.8851 Y-23.5786 Z0.2491
G1 X46.8851 Y-23.6079 Z0.2474
G1 X46.8851 Y-23.6371 Z0.2457
G1 X46.8851 Y-23.6664 Z0.2438
G1 X46.8851 Y-23.6761 Z0.2432
G1 X46.8851 Y-23.6956 Z0.2418
G1 X46.8851 Y-23.7151 Z0.2404
G1 X46.8851 Y-23.7346 Z0.2390
G1 X46.8851 Y-23.7541 Z0.2375
G1 X46.8851 Y-23.7639 Z0.2367
G1 X46.8851 Y-23.7931 Z0.2344
G1 X46.8851 Y-23.8224 Z0.2319
G1 X46.8851 Y-23.8516 Z0.2293
G1 X46.8851 Y-23.8711 Z0.2275
G1 X46.8851 Y-23.8906 Z0.2256
G1 X46.8851 Y-23.9102 Z0.2237
G1 X46.8851 Y-23.9199 Z0.2228
G1 X46.8851 Y-23.9492 Z0.2198
G1 X46.8851 Y-23.9784 Z0.2167
G1 X46.8851 Y-24.0077 Z0.2135
G1 X46.8851 Y-24.0369 Z0.2101
G1 X46.8851 Y-24.0467 Z0.2090
G1 X46.8851 Y-24.0662 Z0.2067
G1 X46.8851 Y-24.0857 Z0.2043
G1 X46.8851 Y-24.1052 Z0.2019
G1 X46.8851 Y-24.1247 Z0.1994
G1 X46.8851 Y-24.1344 Z0.1982
G1 X46.8851 Y-24.1637 Z0.1943
G1 X46.8851 Y-24.1929 Z0.1904
G1 X46.8851 Y-24.2222 Z0.1863
G1 X46.8851 Y-24.2514 Z0.1821
G1 X46.8851 Y-24.2612 Z0.1807
G1 X46.8851 Y-24.2807 Z0.1778
G1 X46.8851 Y-24.3002 Z0.1749
G1 X46.8851 Y-24.3197 Z0.1719
G1 X46.8851 Y-24.3429 Z0.1683
G1 X46.8851 Y-24.3662 Z0.1645
G1 X46.8851 Y-24.3796 Z0.1631
G1 X46.8851 Y-24.3931 Z0.1632
G1 X46.8851 Y-24.4065 Z0.1647
G1 X46.8851 Y-24.4197 Z0.1676
G1 X46.8851 Y-24.4325 Z0.1720
G1 X46.8851 Y-24.4447 Z0.1777
G1 X46.8851 Y-24.4563 Z0.1847
G1 X46.8851 Y-24.4670 Z0.1929
G1 X46.8851 Y-24.4768 Z0.2022
G1 X46.8851 Y-24.4855 Z0.2125
G1 X46.8851 Y-24.4931 Z0.2237
G1 X46.8851 Y-24.4994 Z0.2356
G1 X46.8851 Y-24.5044 Z0.2481
G1 X46.8851 Y-24.5080 Z0.2612
G1 X46.8851 Y-24.5102 Z0.2745
G1 X46.8851 Y-24.5109 Z0.2880
G0 Z0.3101
G0 X46.8851 Y-24.5109 
G0 Z0.3851
G0 X46.7601 Y-21.0744 
G1 X46.7601 Y-21.0750 Z0.3728 F50.
G1 X46.7601 Y-21.0768 Z0.3607
G1 X46.7601 Y-21.0798 Z0.3488
G1 X46.7601 Y-21.0839 Z0.3372
G1 X46.7601 Y-21.0892 Z0.3261
G1 X46.7601 Y-21.0955 Z0.3156
G1 X46.7601 Y-21.1028 Z0.3058
G1 X46.7601 Y-21.1110 Z0.2967
G1 X46.7601 Y-21.1201 Z0.2884
G1 X46.7601 Y-21.1300 Z0.2811
G1 X46.7601 Y-21.1405 Z0.2748
G1 X46.7601 Y-21.1516 Z0.2696
G1 X46.7601 Y-21.1631 Z0.2654
G1 X46.7601 Y-21.1750 Z0.2625
G1 X46.7601 Y-21.1872 Z0.2607
G1 X46.7601 Y-21.1994 Z0.2601
G1 X46.7601 Y-23.1691 Z0.2601 F75.
G1 X46.7601 Y-23.1886 Z0.2600
G1 X46.7601 Y-23.2081 Z0.2600
G1 X46.7601 Y-23.2276 Z0.2598
G1 X46.7601 Y-23.2373 Z0.2598
G1 X46.7601 Y-23.2666 Z0.2595
G1 X46.7601 Y-23.2959 Z0.2590
G1 X46.7601 Y-23.3251 Z0.2585
G1 X46.7601 Y-23.3446 Z0.2581
G1 X46.7601 Y-23.3641 Z0.2576
G1 X46.7601 Y-23.3836 Z0.2571
G1 X46.7601 Y-23.3934 Z0.2568
G1 X46.7601 Y-23.4226 Z0.2559
G1 X46.7601 Y-23.4519 Z0.2549
G1 X46.7601 Y-23.4811 Z0.2537
G1 X46.7601 Y-23.5006 Z0.2529
G1 X46.7601 Y-23.5201 Z0.2520
G1 X46.7601 Y-23.5396 Z0.2511
G1 X46.7601 Y-23.5591 Z0.2501
G1 X46.7601 Y-23.5786 Z0.2491
G1 X46.7601 Y-23.6079 Z0.2474
G1 X46.7601 Y-23.6371 Z0.2457
G1 X46.7601 Y-23.6664 Z0.2438
G1 X46.7601 Y-23.6761 Z0.2432
G1 X46.7601 Y-23.6956 Z0.2418
G1 X46.7601 Y-23.7151 Z0.2404
G1 X46.7601 Y-23.7346 Z0.2390
G1 X46.7601 Y-23.7541 Z0.2375
G1 X46.7601 Y-23.7639 Z0.2367
G1 X46.7601 Y-23.7931 Z0.2344
G1 X46.7601 Y-23.8224 Z0.2319
G1 X46.7601 Y-23.8516 Z0.2293
G1 X46.7601 Y-23.8711 Z0.2275
G1 X46.7601 Y-23.8906 Z0.2256
G1 X46.7601 Y-23.9102 Z0.2237
G1 X46.7601 Y-23.9199 Z0.2228
G1 X46.7601 Y-23.9492 Z0.2198
G1 X46.7601 Y-23.9784 Z0.2167
G1 X46.7601 Y-24.0077 Z0.2135
G1 X46.7601 Y-24.0369 Z0.2101
G1 X46.7601 Y-24.0467 Z0.2090
G1 X46.7601 Y-24.0662 Z0.2067
G1 X46.7601 Y-24.0857 Z0.2043
G1 X46.7601 Y-24.1052 Z0.2019
G1 X46.7601 Y-24.1247 Z0.1994
G1 X46.7601 Y-24.1344 Z0.1982
G1 X46.7601 Y-24.1637 Z0.1943
G1 X46.7601 Y-24.1929 Z0.1904
G1 X46.7601 Y-24.2222 Z0.1863
G1 X46.7601 Y-24.2514 Z0.1821
G1 X46.7601 Y-24.2612 Z0.1807
G1 X46.7601 Y-24.2807 Z0.1778
G1 X46.7601 Y-24.3002 Z0.1749
G1 X46.7601 Y-24.3197 Z0.1719
G1 X46.7601 Y-24.3436 Z0.1681
G1 X46.7601 Y-24.3676 Z0.1643
G1 X46.7601 Y-24.3810 Z0.1629
G1 X46.7601 Y-24.3945 Z0.1629
G1 X46.7601 Y-24.4080 Z0.1644
G1 X46.7601 Y-24.4211 Z0.1674
G1 X46.7601 Y-24.4339 Z0.1717
G1 X46.7601 Y-24.4462 Z0.1774
G1 X46.7601 Y-24.4577 Z0.1844
G1 X46.7601 Y-24.4685 Z0.1926
G1 X46.7601 Y-24.4782 Z0.2019
G1 X46.7601 Y-24.4870 Z0.2122
G1 X46.7601 Y-24.4945 Z0.2234
G1 X46.7601 Y-24.5008 Z0.2354
G1 X46.7601 Y-24.5058 Z0.2479
G1 X46.7601 Y-24.5094 Z0.2609
G1 X46.7601 Y-24.5116 Z0.2742
G1 X46.7601 Y-24.5123 Z0.2877
G0 Z0.3101
G0 X46.7601 Y-24.5123 
G0 Z0.3851
G0 X46.6351 Y-21.0744 
G1 X46.6351 Y-21.0750 Z0.3728 F50.
G1 X46.6351 Y-21.0768 Z0.3607
G1 X46.6351 Y-21.0798 Z0.3488
G1 X46.6351 Y-21.0839 Z0.3372
G1 X46.6351 Y-21.0892 Z0.3261
G1 X46.6351 Y-21.0955 Z0.3156
G1 X46.6351 Y-21.1028 Z0.3058
G1 X46.6351 Y-21.1110 Z0.2967
G1 X46.6351 Y-21.1201 Z0.2884
G1 X46.6351 Y-21.1300 Z0.2811
G1 X46.6351 Y-21.1405 Z0.2748
G1 X46.6351 Y-21.1516 Z0.2696
G1 X46.6351 Y-21.1631 Z0.2654
G1 X46.6351 Y-21.1750 Z0.2625
G1 X46.6351 Y-21.1872 Z0.2607
G1 X46.6351 Y-21.1994 Z0.2601
G1 X46.6351 Y-23.1691 Z0.2601 F75.
G1 X46.6351 Y-23.1886 Z0.2600
G1 X46.6351 Y-23.2081 Z0.2600
G1 X46.6351 Y-23.2276 Z0.2598
G1 X46.6351 Y-23.2373 Z0.2598
G1 X46.6351 Y-23.2666 Z0.2595
G1 X46.6351 Y-23.2959 Z0.2590
G1 X46.6351 Y-23.3251 Z0.2585
G1 X46.6351 Y-23.3446 Z0.2581
G1 X46.6351 Y-23.3641 Z0.2576
G1 X46.6351 Y-23.3836 Z0.2571
G1 X46.6351 Y-23.3934 Z0.2568
G1 X46.6351 Y-23.4226 Z0.2559
G1 X46.6351 Y-23.4519 Z0.2549
G1 X46.6351 Y-23.4811 Z0.2537
G1 X46.6351 Y-23.5006 Z0.2529
G1 X46.6351 Y-23.5201 Z0.2520
G1 X46.6351 Y-23.5396 Z0.2511
G1 X46.6351 Y-23.5591 Z0.2501
G1 X46.6351 Y-23.5786 Z0.2491
G1 X46.6351 Y-23.6079 Z0.2474
G1 X46.6351 Y-23.6371 Z0.2457
G1 X46.6351 Y-23.6664 Z0.2438
G1 X46.6351 Y-23.6761 Z0.2432
G1 X46.6351 Y-23.6956 Z0.2418
G1 X46.6351 Y-23.7151 Z0.2404
G1 X46.6351 Y-23.7346 Z0.2390
G1 X46.6351 Y-23.7541 Z0.2375
G1 X46.6351 Y-23.7639 Z0.2367
G1 X46.6351 Y-23.7931 Z0.2344
G1 X46.6351 Y-23.8224 Z0.2319
G1 X46.6351 Y-23.8516 Z0.2293
G1 X46.6351 Y-23.8711 Z0.2275
G1 X46.6351 Y-23.8906 Z0.2256
G1 X46.6351 Y-23.9102 Z0.2237
G1 X46.6351 Y-23.9199 Z0.2228
G1 X46.6351 Y-23.9492 Z0.2198
G1 X46.6351 Y-23.9784 Z0.2167
G1 X46.6351 Y-24.0077 Z0.2135
G1 X46.6351 Y-24.0369 Z0.2101
G1 X46.6351 Y-24.0467 Z0.2090
G1 X46.6351 Y-24.0662 Z0.2067
G1 X46.6351 Y-24.0857 Z0.2043
G1 X46.6351 Y-24.1052 Z0.2019
G1 X46.6351 Y-24.1247 Z0.1994
G1 X46.6351 Y-24.1344 Z0.1982
G1 X46.6351 Y-24.1637 Z0.1943
G1 X46.6351 Y-24.1929 Z0.1904
G1 X46.6351 Y-24.2222 Z0.1863
G1 X46.6351 Y-24.2514 Z0.1821
G1 X46.6351 Y-24.2612 Z0.1807
G1 X46.6351 Y-24.2807 Z0.1778
G1 X46.6351 Y-24.3002 Z0.1749
G1 X46.6351 Y-24.3197 Z0.1719
G1 X46.6351 Y-24.3443 Z0.1680
G1 X46.6351 Y-24.3690 Z0.1641
G1 X46.6351 Y-24.3824 Z0.1627
G1 X46.6351 Y-24.3959 Z0.1627
G1 X46.6351 Y-24.4094 Z0.1642
G1 X46.6351 Y-24.4226 Z0.1672
G1 X46.6351 Y-24.4353 Z0.1715
G1 X46.6351 Y-24.4476 Z0.1772
G1 X46.6351 Y-24.4591 Z0.1842
G1 X46.6351 Y-24.4699 Z0.1924
G1 X46.6351 Y-24.4797 Z0.2017
G1 X46.6351 Y-24.4884 Z0.2120
G1 X46.6351 Y-24.4960 Z0.2232
G1 X46.6351 Y-24.5023 Z0.2351
G1 X46.6351 Y-24.5073 Z0.2477
G1 X46.6351 Y-24.5109 Z0.2607
G1 X46.6351 Y-24.5131 Z0.2740
G1 X46.6351 Y-24.5138 Z0.2875
G0 Z0.3101
G0 X46.6351 Y-24.5138 
G0 Z0.3851
G0 X46.5101 Y-21.0744 
G1 X46.5101 Y-21.0750 Z0.3728 F50.
G1 X46.5101 Y-21.0768 Z0.3607
G1 X46.5101 Y-21.0798 Z0.3488
G1 X46.5101 Y-21.0839 Z0.3372
G1 X46.5101 Y-21.0892 Z0.3261
G1 X46.5101 Y-21.0955 Z0.3156
G1 X46.5101 Y-21.1028 Z0.3058
G1 X46.5101 Y-21.1110 Z0.2967
G1 X46.5101 Y-21.1201 Z0.2884
G1 X46.5101 Y-21.1300 Z0.2811
G1 X46.5101 Y-21.1405 Z0.2748
G1 X46.5101 Y-21.1516 Z0.2696
G1 X46.5101 Y-21.1631 Z0.2654
G1 X46.5101 Y-21.1750 Z0.2625
G1 X46.5101 Y-21.1872 Z0.2607
G1 X46.5101 Y-21.1994 Z0.2601
G1 X46.5101 Y-23.1691 Z0.2601 F75.
G1 X46.5101 Y-23.1886 Z0.2600
G1 X46.5101 Y-23.2081 Z0.2600
G1 X46.5101 Y-23.2276 Z0.2598
G1 X46.5101 Y-23.2373 Z0.2598
G1 X46.5101 Y-23.2666 Z0.2595
G1 X46.5101 Y-23.2959 Z0.2590
G1 X46.5101 Y-23.3251 Z0.2585
G1 X46.5101 Y-23.3446 Z0.2581
G1 X46.5101 Y-23.3641 Z0.2576
G1 X46.5101 Y-23.3836 Z0.2571
G1 X46.5101 Y-23.3934 Z0.2568
G1 X46.5101 Y-23.4226 Z0.2559
G1 X46.5101 Y-23.4519 Z0.2549
G1 X46.5101 Y-23.4811 Z0.2537
G1 X46.5101 Y-23.5006 Z0.2529
G1 X46.5101 Y-23.5201 Z0.2520
G1 X46.5101 Y-23.5396 Z0.2511
G1 X46.5101 Y-23.5591 Z0.2501
G1 X46.5101 Y-23.5786 Z0.2491
G1 X46.5101 Y-23.6079 Z0.2474
G1 X46.5101 Y-23.6371 Z0.2457
G1 X46.5101 Y-23.6664 Z0.2438
G1 X46.5101 Y-23.6761 Z0.2432
G1 X46.5101 Y-23.6956 Z0.2418
G1 X46.5101 Y-23.7151 Z0.2404
G1 X46.5101 Y-23.7346 Z0.2390
G1 X46.5101 Y-23.7541 Z0.2375
G1 X46.5101 Y-23.7639 Z0.2367
G1 X46.5101 Y-23.7931 Z0.2344
G1 X46.5101 Y-23.8224 Z0.2319
G1 X46.5101 Y-23.8516 Z0.2293
G1 X46.5101 Y-23.8711 Z0.2275
G1 X46.5101 Y-23.8906 Z0.2256
G1 X46.5101 Y-23.9102 Z0.2237
G1 X46.5101 Y-23.9199 Z0.2228
G1 X46.5101 Y-23.9492 Z0.2198
G1 X46.5101 Y-23.9784 Z0.2167
G1 X46.5101 Y-24.0077 Z0.2135
G1 X46.5101 Y-24.0369 Z0.2101
G1 X46.5101 Y-24.0467 Z0.2090
G1 X46.5101 Y-24.0662 Z0.2067
G1 X46.5101 Y-24.0857 Z0.2043
G1 X46.5101 Y-24.1052 Z0.2019
G1 X46.5101 Y-24.1247 Z0.1994
G1 X46.5101 Y-24.1344 Z0.1982
G1 X46.5101 Y-24.1637 Z0.1943
G1 X46.5101 Y-24.1929 Z0.1904
G1 X46.5101 Y-24.2222 Z0.1863
G1 X46.5101 Y-24.2514 Z0.1821
G1 X46.5101 Y-24.2612 Z0.1807
G1 X46.5101 Y-24.2807 Z0.1778
G1 X46.5101 Y-24.3002 Z0.1749
G1 X46.5101 Y-24.3197 Z0.1719
G1 X46.5101 Y-24.3451 Z0.1679
G1 X46.5101 Y-24.3704 Z0.1639
G1 X46.5101 Y-24.3839 Z0.1624
G1 X46.5101 Y-24.3974 Z0.1625
G1 X46.5101 Y-24.4108 Z0.1640
G1 X46.5101 Y-24.4240 Z0.1669
G1 X46.5101 Y-24.4368 Z0.1713
G1 X46.5101 Y-24.4490 Z0.1770
G1 X46.5101 Y-24.4606 Z0.1840
G1 X46.5101 Y-24.4713 Z0.1921
G1 X46.5101 Y-24.4811 Z0.2015
G1 X46.5101 Y-24.4898 Z0.2118
G1 X46.5101 Y-24.4974 Z0.2230
G1 X46.5101 Y-24.5037 Z0.2349
G1 X46.5101 Y-24.5087 Z0.2474
G1 X46.5101 Y-24.5123 Z0.2605
G1 X46.5101 Y-24.5145 Z0.2738
G1 X46.5101 Y-24.5152 Z0.2873
G0 Z0.3101
G0 X46.5101 Y-24.5152 
G0 Z0.3851
G0 X46.3851 Y-21.0744 
G1 X46.3851 Y-21.0750 Z0.3728 F50.
G1 X46.3851 Y-21.0768 Z0.3607
G1 X46.3851 Y-21.0798 Z0.3488
G1 X46.3851 Y-21.0839 Z0.3372
G1 X46.3851 Y-21.0892 Z0.3261
G1 X46.3851 Y-21.0955 Z0.3156
G1 X46.3851 Y-21.1028 Z0.3058
G1 X46.3851 Y-21.1110 Z0.2967
G1 X46.3851 Y-21.1201 Z0.2884
G1 X46.3851 Y-21.1300 Z0.2811
G1 X46.3851 Y-21.1405 Z0.2748
G1 X46.3851 Y-21.1516 Z0.2696
G1 X46.3851 Y-21.1631 Z0.2654
G1 X46.3851 Y-21.1750 Z0.2625
G1 X46.3851 Y-21.1872 Z0.2607
G1 X46.3851 Y-21.1994 Z0.2601
G1 X46.3851 Y-23.1691 Z0.2601 F75.
G1 X46.3851 Y-23.1886 Z0.2600
G1 X46.3851 Y-23.2081 Z0.2600
G1 X46.3851 Y-23.2276 Z0.2598
G1 X46.3851 Y-23.2373 Z0.2598
G1 X46.3851 Y-23.2666 Z0.2595
G1 X46.3851 Y-23.2959 Z0.2590
G1 X46.3851 Y-23.3251 Z0.2585
G1 X46.3851 Y-23.3446 Z0.2581
G1 X46.3851 Y-23.3641 Z0.2576
G1 X46.3851 Y-23.3836 Z0.2571
G1 X46.3851 Y-23.3934 Z0.2568
G1 X46.3851 Y-23.4226 Z0.2559
G1 X46.3851 Y-23.4519 Z0.2549
G1 X46.3851 Y-23.4811 Z0.2537
G1 X46.3851 Y-23.5006 Z0.2529
G1 X46.3851 Y-23.5201 Z0.2520
G1 X46.3851 Y-23.5396 Z0.2511
G1 X46.3851 Y-23.5591 Z0.2501
G1 X46.3851 Y-23.5786 Z0.2491
G1 X46.3851 Y-23.6079 Z0.2474
G1 X46.3851 Y-23.6371 Z0.2457
G1 X46.3851 Y-23.6664 Z0.2438
G1 X46.3851 Y-23.6761 Z0.2432
G1 X46.3851 Y-23.6956 Z0.2418
G1 X46.3851 Y-23.7151 Z0.2404
G1 X46.3851 Y-23.7346 Z0.2390
G1 X46.3851 Y-23.7541 Z0.2375
G1 X46.3851 Y-23.7639 Z0.2367
G1 X46.3851 Y-23.7931 Z0.2344
G1 X46.3851 Y-23.8224 Z0.2319
G1 X46.3851 Y-23.8516 Z0.2293
G1 X46.3851 Y-23.8711 Z0.2275
G1 X46.3851 Y-23.8906 Z0.2256
G1 X46.3851 Y-23.9102 Z0.2237
G1 X46.3851 Y-23.9199 Z0.2228
G1 X46.3851 Y-23.9492 Z0.2198
G1 X46.3851 Y-23.9784 Z0.2167
G1 X46.3851 Y-24.0077 Z0.2135
G1 X46.3851 Y-24.0369 Z0.2101
G1 X46.3851 Y-24.0467 Z0.2090
G1 X46.3851 Y-24.0662 Z0.2067
G1 X46.3851 Y-24.0857 Z0.2043
G1 X46.3851 Y-24.1052 Z0.2019
G1 X46.3851 Y-24.1247 Z0.1994
G1 X46.3851 Y-24.1344 Z0.1982
G1 X46.3851 Y-24.1637 Z0.1943
G1 X46.3851 Y-24.1929 Z0.1904
G1 X46.3851 Y-24.2222 Z0.1863
G1 X46.3851 Y-24.2514 Z0.1821
G1 X46.3851 Y-24.2612 Z0.1807
G1 X46.3851 Y-24.2807 Z0.1778
G1 X46.3851 Y-24.3002 Z0.1749
G1 X46.3851 Y-24.3197 Z0.1719
G1 X46.3851 Y-24.3458 Z0.1678
G1 X46.3851 Y-24.3718 Z0.1636
G1 X46.3851 Y-24.3853 Z0.1622
G1 X46.3851 Y-24.3988 Z0.1623
G1 X46.3851 Y-24.4122 Z0.1638
G1 X46.3851 Y-24.4254 Z0.1667
G1 X46.3851 Y-24.4382 Z0.1710
G1 X46.3851 Y-24.4504 Z0.1767
G1 X46.3851 Y-24.4620 Z0.1837
G1 X46.3851 Y-24.4727 Z0.1919
G1 X46.3851 Y-24.4825 Z0.2012
G1 X46.3851 Y-24.4912 Z0.2115
G1 X46.3851 Y-24.4988 Z0.2227
G1 X46.3851 Y-24.5051 Z0.2347
G1 X46.3851 Y-24.5101 Z0.2472
G1 X46.3851 Y-24.5137 Z0.2602
G1 X46.3851 Y-24.5159 Z0.2736
G1 X46.3851 Y-24.5166 Z0.2870
G0 Z0.3101
G0 X46.3851 Y-24.5166 
G0 Z0.3851
G0 X46.2601 Y-21.0744 
G1 X46.2601 Y-21.0750 Z0.3728 F50.
G1 X46.2601 Y-21.0768 Z0.3607
G1 X46.2601 Y-21.0798 Z0.3488
G1 X46.2601 Y-21.0839 Z0.3372
G1 X46.2601 Y-21.0892 Z0.3261
G1 X46.2601 Y-21.0955 Z0.3156
G1 X46.2601 Y-21.1028 Z0.3058
G1 X46.2601 Y-21.1110 Z0.2967
G1 X46.2601 Y-21.1201 Z0.2884
G1 X46.2601 Y-21.1300 Z0.2811
G1 X46.2601 Y-21.1405 Z0.2748
G1 X46.2601 Y-21.1516 Z0.2696
G1 X46.2601 Y-21.1631 Z0.2654
G1 X46.2601 Y-21.1750 Z0.2625
G1 X46.2601 Y-21.1872 Z0.2607
G1 X46.2601 Y-21.1994 Z0.2601
G1 X46.2601 Y-23.1691 Z0.2601 F75.
G1 X46.2601 Y-23.1886 Z0.2600
G1 X46.2601 Y-23.2081 Z0.2600
G1 X46.2601 Y-23.2276 Z0.2598
G1 X46.2601 Y-23.2373 Z0.2598
G1 X46.2601 Y-23.2666 Z0.2595
G1 X46.2601 Y-23.2959 Z0.2590
G1 X46.2601 Y-23.3251 Z0.2585
G1 X46.2601 Y-23.3446 Z0.2581
G1 X46.2601 Y-23.3641 Z0.2576
G1 X46.2601 Y-23.3836 Z0.2571
G1 X46.2601 Y-23.3934 Z0.2568
G1 X46.2601 Y-23.4226 Z0.2559
G1 X46.2601 Y-23.4519 Z0.2549
G1 X46.2601 Y-23.4811 Z0.2537
G1 X46.2601 Y-23.5006 Z0.2529
G1 X46.2601 Y-23.5201 Z0.2520
G1 X46.2601 Y-23.5396 Z0.2511
G1 X46.2601 Y-23.5591 Z0.2501
G1 X46.2601 Y-23.5786 Z0.2491
G1 X46.2601 Y-23.6079 Z0.2474
G1 X46.2601 Y-23.6371 Z0.2457
G1 X46.2601 Y-23.6664 Z0.2438
G1 X46.2601 Y-23.6761 Z0.2432
G1 X46.2601 Y-23.6956 Z0.2418
G1 X46.2601 Y-23.7151 Z0.2404
G1 X46.2601 Y-23.7346 Z0.2390
G1 X46.2601 Y-23.7541 Z0.2375
G1 X46.2601 Y-23.7639 Z0.2367
G1 X46.2601 Y-23.7931 Z0.2344
G1 X46.2601 Y-23.8224 Z0.2319
G1 X46.2601 Y-23.8516 Z0.2293
G1 X46.2601 Y-23.8711 Z0.2275
G1 X46.2601 Y-23.8906 Z0.2256
G1 X46.2601 Y-23.9102 Z0.2237
G1 X46.2601 Y-23.9199 Z0.2228
G1 X46.2601 Y-23.9492 Z0.2198
G1 X46.2601 Y-23.9784 Z0.2167
G1 X46.2601 Y-24.0077 Z0.2135
G1 X46.2601 Y-24.0369 Z0.2101
G1 X46.2601 Y-24.0467 Z0.2090
G1 X46.2601 Y-24.0662 Z0.2067
G1 X46.2601 Y-24.0857 Z0.2043
G1 X46.2601 Y-24.1052 Z0.2019
G1 X46.2601 Y-24.1247 Z0.1994
G1 X46.2601 Y-24.1344 Z0.1982
G1 X46.2601 Y-24.1637 Z0.1943
G1 X46.2601 Y-24.1929 Z0.1904
G1 X46.2601 Y-24.2222 Z0.1863
G1 X46.2601 Y-24.2514 Z0.1821
G1 X46.2601 Y-24.2612 Z0.1807
G1 X46.2601 Y-24.2807 Z0.1778
G1 X46.2601 Y-24.3002 Z0.1749
G1 X46.2601 Y-24.3197 Z0.1719
G1 X46.2601 Y-24.3465 Z0.1677
G1 X46.2601 Y-24.3733 Z0.1634
G1 X46.2601 Y-24.3867 Z0.1620
G1 X46.2601 Y-24.4002 Z0.1620
G1 X46.2601 Y-24.4136 Z0.1635
G1 X46.2601 Y-24.4268 Z0.1665
G1 X46.2601 Y-24.4396 Z0.1708
G1 X46.2601 Y-24.4518 Z0.1765
G1 X46.2601 Y-24.4634 Z0.1835
G1 X46.2601 Y-24.4741 Z0.1917
G1 X46.2601 Y-24.4839 Z0.2010
G1 X46.2601 Y-24.4927 Z0.2113
G1 X46.2601 Y-24.5002 Z0.2225
G1 X46.2601 Y-24.5065 Z0.2344
G1 X46.2601 Y-24.5115 Z0.2470
G1 X46.2601 Y-24.5151 Z0.2600
G1 X46.2601 Y-24.5173 Z0.2733
G1 X46.2601 Y-24.5180 Z0.2868
G0 Z0.3101
G0 X46.2601 Y-24.5180 
G0 Z0.3851
G0 X46.1351 Y-21.0744 
G1 X46.1351 Y-21.0750 Z0.3728 F50.
G1 X46.1351 Y-21.0768 Z0.3607
G1 X46.1351 Y-21.0798 Z0.3488
G1 X46.1351 Y-21.0839 Z0.3372
G1 X46.1351 Y-21.0892 Z0.3261
G1 X46.1351 Y-21.0955 Z0.3156
G1 X46.1351 Y-21.1028 Z0.3058
G1 X46.1351 Y-21.1110 Z0.2967
G1 X46.1351 Y-21.1201 Z0.2884
G1 X46.1351 Y-21.1300 Z0.2811
G1 X46.1351 Y-21.1405 Z0.2748
G1 X46.1351 Y-21.1516 Z0.2696
G1 X46.1351 Y-21.1631 Z0.2654
G1 X46.1351 Y-21.1750 Z0.2625
G1 X46.1351 Y-21.1872 Z0.2607
G1 X46.1351 Y-21.1994 Z0.2601
G1 X46.1351 Y-23.1691 Z0.2601 F75.
G1 X46.1351 Y-23.1886 Z0.2600
G1 X46.1351 Y-23.2081 Z0.2600
G1 X46.1351 Y-23.2276 Z0.2598
G1 X46.1351 Y-23.2373 Z0.2598
G1 X46.1351 Y-23.2666 Z0.2595
G1 X46.1351 Y-23.2959 Z0.2590
G1 X46.1351 Y-23.3251 Z0.2585
G1 X46.1351 Y-23.3446 Z0.2581
G1 X46.1351 Y-23.3641 Z0.2576
G1 X46.1351 Y-23.3836 Z0.2571
G1 X46.1351 Y-23.3934 Z0.2568
G1 X46.1351 Y-23.4226 Z0.2559
G1 X46.1351 Y-23.4519 Z0.2549
G1 X46.1351 Y-23.4811 Z0.2537
G1 X46.1351 Y-23.5006 Z0.2529
G1 X46.1351 Y-23.5201 Z0.2520
G1 X46.1351 Y-23.5396 Z0.2511
G1 X46.1351 Y-23.5591 Z0.2501
G1 X46.1351 Y-23.5786 Z0.2491
G1 X46.1351 Y-23.6079 Z0.2474
G1 X46.1351 Y-23.6371 Z0.2457
G1 X46.1351 Y-23.6664 Z0.2438
G1 X46.1351 Y-23.6761 Z0.2432
G1 X46.1351 Y-23.6956 Z0.2418
G1 X46.1351 Y-23.7151 Z0.2404
G1 X46.1351 Y-23.7346 Z0.2390
G1 X46.1351 Y-23.7541 Z0.2375
G1 X46.1351 Y-23.7639 Z0.2367
G1 X46.1351 Y-23.7931 Z0.2344
G1 X46.1351 Y-23.8224 Z0.2319
G1 X46.1351 Y-23.8516 Z0.2293
G1 X46.1351 Y-23.8711 Z0.2275
G1 X46.1351 Y-23.8906 Z0.2256
G1 X46.1351 Y-23.9102 Z0.2237
G1 X46.1351 Y-23.9199 Z0.2228
G1 X46.1351 Y-23.9492 Z0.2198
G1 X46.1351 Y-23.9784 Z0.2167
G1 X46.1351 Y-24.0077 Z0.2135
G1 X46.1351 Y-24.0369 Z0.2101
G1 X46.1351 Y-24.0467 Z0.2090
G1 X46.1351 Y-24.0662 Z0.2067
G1 X46.1351 Y-24.0857 Z0.2043
G1 X46.1351 Y-24.1052 Z0.2019
G1 X46.1351 Y-24.1247 Z0.1994
G1 X46.1351 Y-24.1344 Z0.1982
G1 X46.1351 Y-24.1637 Z0.1943
G1 X46.1351 Y-24.1929 Z0.1904
G1 X46.1351 Y-24.2222 Z0.1863
G1 X46.1351 Y-24.2514 Z0.1821
G1 X46.1351 Y-24.2612 Z0.1807
G1 X46.1351 Y-24.2807 Z0.1778
G1 X46.1351 Y-24.3002 Z0.1749
G1 X46.1351 Y-24.3197 Z0.1719
G1 X46.1351 Y-24.3472 Z0.1676
G1 X46.1351 Y-24.3747 Z0.1632
G1 X46.1351 Y-24.3881 Z0.1618
G1 X46.1351 Y-24.4016 Z0.1618
G1 X46.1351 Y-24.4150 Z0.1633
G1 X46.1351 Y-24.4282 Z0.1662
G1 X46.1351 Y-24.4410 Z0.1706
G1 X46.1351 Y-24.4533 Z0.1763
G1 X46.1351 Y-24.4648 Z0.1833
G1 X46.1351 Y-24.4756 Z0.1915
G1 X46.1351 Y-24.4853 Z0.2008
G1 X46.1351 Y-24.4941 Z0.2111
G1 X46.1351 Y-24.5016 Z0.2223
G1 X46.1351 Y-24.5080 Z0.2342
G1 X46.1351 Y-24.5129 Z0.2468
G1 X46.1351 Y-24.5166 Z0.2598
G1 X46.1351 Y-24.5187 Z0.2731
G1 X46.1351 Y-24.5195 Z0.2866
G0 Z0.3101
G0 X46.1351 Y-24.5195 
G0 Z0.3851
G0 X46.0101 Y-21.0744 
G1 X46.0101 Y-21.0750 Z0.3728 F50.
G1 X46.0101 Y-21.0768 Z0.3607
G1 X46.0101 Y-21.0798 Z0.3488
G1 X46.0101 Y-21.0839 Z0.3372
G1 X46.0101 Y-21.0892 Z0.3261
G1 X46.0101 Y-21.0955 Z0.3156
G1 X46.0101 Y-21.1028 Z0.3058
G1 X46.0101 Y-21.1110 Z0.2967
G1 X46.0101 Y-21.1201 Z0.2884
G1 X46.0101 Y-21.1300 Z0.2811
G1 X46.0101 Y-21.1405 Z0.2748
G1 X46.0101 Y-21.1516 Z0.2696
G1 X46.0101 Y-21.1631 Z0.2654
G1 X46.0101 Y-21.1750 Z0.2625
G1 X46.0101 Y-21.1872 Z0.2607
G1 X46.0101 Y-21.1994 Z0.2601
G1 X46.0101 Y-23.1691 Z0.2601 F75.
G1 X46.0101 Y-23.1886 Z0.2600
G1 X46.0101 Y-23.2081 Z0.2600
G1 X46.0101 Y-23.2276 Z0.2598
G1 X46.0101 Y-23.2373 Z0.2598
G1 X46.0101 Y-23.2666 Z0.2595
G1 X46.0101 Y-23.2959 Z0.2590
G1 X46.0101 Y-23.3251 Z0.2585
G1 X46.0101 Y-23.3446 Z0.2581
G1 X46.0101 Y-23.3641 Z0.2576
G1 X46.0101 Y-23.3836 Z0.2571
G1 X46.0101 Y-23.3934 Z0.2568
G1 X46.0101 Y-23.4226 Z0.2559
G1 X46.0101 Y-23.4519 Z0.2549
G1 X46.0101 Y-23.4811 Z0.2537
G1 X46.0101 Y-23.5006 Z0.2529
G1 X46.0101 Y-23.5201 Z0.2520
G1 X46.0101 Y-23.5396 Z0.2511
G1 X46.0101 Y-23.5591 Z0.2501
G1 X46.0101 Y-23.5786 Z0.2491
G1 X46.0101 Y-23.6079 Z0.2474
G1 X46.0101 Y-23.6371 Z0.2457
G1 X46.0101 Y-23.6664 Z0.2438
G1 X46.0101 Y-23.6761 Z0.2432
G1 X46.0101 Y-23.6956 Z0.2418
G1 X46.0101 Y-23.7151 Z0.2404
G1 X46.0101 Y-23.7346 Z0.2390
G1 X46.0101 Y-23.7541 Z0.2375
G1 X46.0101 Y-23.7639 Z0.2367
G1 X46.0101 Y-23.7931 Z0.2344
G1 X46.0101 Y-23.8224 Z0.2319
G1 X46.0101 Y-23.8516 Z0.2293
G1 X46.0101 Y-23.8711 Z0.2275
G1 X46.0101 Y-23.8906 Z0.2256
G1 X46.0101 Y-23.9102 Z0.2237
G1 X46.0101 Y-23.9199 Z0.2228
G1 X46.0101 Y-23.9492 Z0.2198
G1 X46.0101 Y-23.9784 Z0.2167
G1 X46.0101 Y-24.0077 Z0.2135
G1 X46.0101 Y-24.0369 Z0.2101
G1 X46.0101 Y-24.0467 Z0.2090
G1 X46.0101 Y-24.0662 Z0.2067
G1 X46.0101 Y-24.0857 Z0.2043
G1 X46.0101 Y-24.1052 Z0.2019
G1 X46.0101 Y-24.1247 Z0.1994
G1 X46.0101 Y-24.1344 Z0.1982
G1 X46.0101 Y-24.1637 Z0.1943
G1 X46.0101 Y-24.1929 Z0.1904
G1 X46.0101 Y-24.2222 Z0.1863
G1 X46.0101 Y-24.2514 Z0.1821
G1 X46.0101 Y-24.2612 Z0.1807
G1 X46.0101 Y-24.2807 Z0.1778
G1 X46.0101 Y-24.3002 Z0.1749
G1 X46.0101 Y-24.3197 Z0.1719
G1 X46.0101 Y-24.3479 Z0.1675
G1 X46.0101 Y-24.3761 Z0.1629
G1 X46.0101 Y-24.3895 Z0.1615
G1 X46.0101 Y-24.4030 Z0.1616
G1 X46.0101 Y-24.4164 Z0.1631
G1 X46.0101 Y-24.4296 Z0.1660
G1 X46.0101 Y-24.4424 Z0.1704
G1 X46.0101 Y-24.4547 Z0.1761
G1 X46.0101 Y-24.4662 Z0.1830
G1 X46.0101 Y-24.4770 Z0.1912
G1 X46.0101 Y-24.4868 Z0.2005
G1 X46.0101 Y-24.4955 Z0.2108
G1 X46.0101 Y-24.5031 Z0.2220
G1 X46.0101 Y-24.5094 Z0.2340
G1 X46.0101 Y-24.5144 Z0.2465
G1 X46.0101 Y-24.5180 Z0.2595
G1 X46.0101 Y-24.5202 Z0.2729
G1 X46.0101 Y-24.5209 Z0.2864
G0 Z0.3101
G0 X46.0101 Y-24.5209 
G0 Z0.3851
G0 X45.8851 Y-21.0744 
G1 X45.8851 Y-21.0750 Z0.3728 F50.
G1 X45.8851 Y-21.0768 Z0.3607
G1 X45.8851 Y-21.0798 Z0.3488
G1 X45.8851 Y-21.0839 Z0.3372
G1 X45.8851 Y-21.0892 Z0.3261
G1 X45.8851 Y-21.0955 Z0.3156
G1 X45.8851 Y-21.1028 Z0.3058
G1 X45.8851 Y-21.1110 Z0.2967
G1 X45.8851 Y-21.1201 Z0.2884
G1 X45.8851 Y-21.1300 Z0.2811
G1 X45.8851 Y-21.1405 Z0.2748
G1 X45.8851 Y-21.1516 Z0.2696
G1 X45.8851 Y-21.1631 Z0.2654
G1 X45.8851 Y-21.1750 Z0.2625
G1 X45.8851 Y-21.1872 Z0.2607
G1 X45.8851 Y-21.1994 Z0.2601
G1 X45.8851 Y-23.1691 Z0.2601 F75.
G1 X45.8851 Y-23.1886 Z0.2600
G1 X45.8851 Y-23.2081 Z0.2600
G1 X45.8851 Y-23.2276 Z0.2598
G1 X45.8851 Y-23.2373 Z0.2598
G1 X45.8851 Y-23.2666 Z0.2595
G1 X45.8851 Y-23.2959 Z0.2590
G1 X45.8851 Y-23.3251 Z0.2585
G1 X45.8851 Y-23.3446 Z0.2581
G1 X45.8851 Y-23.3641 Z0.2576
G1 X45.8851 Y-23.3836 Z0.2571
G1 X45.8851 Y-23.3934 Z0.2568
G1 X45.8851 Y-23.4226 Z0.2559
G1 X45.8851 Y-23.4519 Z0.2549
G1 X45.8851 Y-23.4811 Z0.2537
G1 X45.8851 Y-23.5006 Z0.2529
G1 X45.8851 Y-23.5201 Z0.2520
G1 X45.8851 Y-23.5396 Z0.2511
G1 X45.8851 Y-23.5591 Z0.2501
G1 X45.8851 Y-23.5786 Z0.2491
G1 X45.8851 Y-23.6079 Z0.2474
G1 X45.8851 Y-23.6371 Z0.2457
G1 X45.8851 Y-23.6664 Z0.2438
G1 X45.8851 Y-23.6761 Z0.2432
G1 X45.8851 Y-23.6956 Z0.2418
G1 X45.8851 Y-23.7151 Z0.2404
G1 X45.8851 Y-23.7346 Z0.2390
G1 X45.8851 Y-23.7541 Z0.2375
G1 X45.8851 Y-23.7639 Z0.2367
G1 X45.8851 Y-23.7931 Z0.2344
G1 X45.8851 Y-23.8224 Z0.2319
G1 X45.8851 Y-23.8516 Z0.2293
G1 X45.8851 Y-23.8711 Z0.2275
G1 X45.8851 Y-23.8906 Z0.2256
G1 X45.8851 Y-23.9102 Z0.2237
G1 X45.8851 Y-23.9199 Z0.2228
G1 X45.8851 Y-23.9492 Z0.2198
G1 X45.8851 Y-23.9784 Z0.2167
G1 X45.8851 Y-24.0077 Z0.2135
G1 X45.8851 Y-24.0369 Z0.2101
G1 X45.8851 Y-24.0467 Z0.2090
G1 X45.8851 Y-24.0662 Z0.2067
G1 X45.8851 Y-24.0857 Z0.2043
G1 X45.8851 Y-24.1052 Z0.2019
G1 X45.8851 Y-24.1247 Z0.1994
G1 X45.8851 Y-24.1344 Z0.1982
G1 X45.8851 Y-24.1637 Z0.1943
G1 X45.8851 Y-24.1929 Z0.1904
G1 X45.8851 Y-24.2222 Z0.1863
G1 X45.8851 Y-24.2514 Z0.1821
G1 X45.8851 Y-24.2612 Z0.1807
G1 X45.8851 Y-24.2807 Z0.1778
G1 X45.8851 Y-24.3002 Z0.1749
G1 X45.8851 Y-24.3197 Z0.1719
G1 X45.8851 Y-24.3486 Z0.1674
G1 X45.8851 Y-24.3775 Z0.1627
G1 X45.8851 Y-24.3909 Z0.1613
G1 X45.8851 Y-24.4044 Z0.1613
G1 X45.8851 Y-24.4179 Z0.1628
G1 X45.8851 Y-24.4311 Z0.1658
G1 X45.8851 Y-24.4438 Z0.1701
G1 X45.8851 Y-24.4561 Z0.1758
G1 X45.8851 Y-24.4677 Z0.1828
G1 X45.8851 Y-24.4784 Z0.1910
G1 X45.8851 Y-24.4882 Z0.2003
G1 X45.8851 Y-24.4969 Z0.2106
G1 X45.8851 Y-24.5045 Z0.2218
G1 X45.8851 Y-24.5108 Z0.2337
G1 X45.8851 Y-24.5158 Z0.2463
G1 X45.8851 Y-24.5194 Z0.2593
G1 X45.8851 Y-24.5216 Z0.2726
G1 X45.8851 Y-24.5223 Z0.2861
G0 Z0.3101
G0 X45.8851 Y-24.5223 
G0 Z0.3851
G0 X45.7601 Y-21.0744 
G1 X45.7601 Y-21.0750 Z0.3728 F50.
G1 X45.7601 Y-21.0768 Z0.3607
G1 X45.7601 Y-21.0798 Z0.3488
G1 X45.7601 Y-21.0839 Z0.3372
G1 X45.7601 Y-21.0892 Z0.3261
G1 X45.7601 Y-21.0955 Z0.3156
G1 X45.7601 Y-21.1028 Z0.3058
G1 X45.7601 Y-21.1110 Z0.2967
G1 X45.7601 Y-21.1201 Z0.2884
G1 X45.7601 Y-21.1300 Z0.2811
G1 X45.7601 Y-21.1405 Z0.2748
G1 X45.7601 Y-21.1516 Z0.2696
G1 X45.7601 Y-21.1631 Z0.2654
G1 X45.7601 Y-21.1750 Z0.2625
G1 X45.7601 Y-21.1872 Z0.2607
G1 X45.7601 Y-21.1994 Z0.2601
G1 X45.7601 Y-23.1691 Z0.2601 F75.
G1 X45.7601 Y-23.1886 Z0.2600
G1 X45.7601 Y-23.2081 Z0.2600
G1 X45.7601 Y-23.2276 Z0.2598
G1 X45.7601 Y-23.2373 Z0.2598
G1 X45.7601 Y-23.2666 Z0.2595
G1 X45.7601 Y-23.2959 Z0.2590
G1 X45.7601 Y-23.3251 Z0.2585
G1 X45.7601 Y-23.3446 Z0.2581
G1 X45.7601 Y-23.3641 Z0.2576
G1 X45.7601 Y-23.3836 Z0.2571
G1 X45.7601 Y-23.3934 Z0.2568
G1 X45.7601 Y-23.4226 Z0.2559
G1 X45.7601 Y-23.4519 Z0.2549
G1 X45.7601 Y-23.4811 Z0.2537
G1 X45.7601 Y-23.5006 Z0.2529
G1 X45.7601 Y-23.5201 Z0.2520
G1 X45.7601 Y-23.5396 Z0.2511
G1 X45.7601 Y-23.5591 Z0.2501
G1 X45.7601 Y-23.5786 Z0.2491
G1 X45.7601 Y-23.6079 Z0.2474
G1 X45.7601 Y-23.6371 Z0.2457
G1 X45.7601 Y-23.6664 Z0.2438
G1 X45.7601 Y-23.6761 Z0.2432
G1 X45.7601 Y-23.6956 Z0.2418
G1 X45.7601 Y-23.7151 Z0.2404
G1 X45.7601 Y-23.7346 Z0.2390
G1 X45.7601 Y-23.7541 Z0.2375
G1 X45.7601 Y-23.7639 Z0.2367
G1 X45.7601 Y-23.7931 Z0.2344
G1 X45.7601 Y-23.8224 Z0.2319
G1 X45.7601 Y-23.8516 Z0.2293
G1 X45.7601 Y-23.8711 Z0.2275
G1 X45.7601 Y-23.8906 Z0.2256
G1 X45.7601 Y-23.9102 Z0.2237
G1 X45.7601 Y-23.9199 Z0.2228
G1 X45.7601 Y-23.9492 Z0.2198
G1 X45.7601 Y-23.9784 Z0.2167
G1 X45.7601 Y-24.0077 Z0.2135
G1 X45.7601 Y-24.0369 Z0.2101
G1 X45.7601 Y-24.0467 Z0.2090
G1 X45.7601 Y-24.0662 Z0.2067
G1 X45.7601 Y-24.0857 Z0.2043
G1 X45.7601 Y-24.1052 Z0.2019
G1 X45.7601 Y-24.1247 Z0.1994
G1 X45.7601 Y-24.1344 Z0.1982
G1 X45.7601 Y-24.1637 Z0.1943
G1 X45.7601 Y-24.1929 Z0.1904
G1 X45.7601 Y-24.2222 Z0.1863
G1 X45.7601 Y-24.2514 Z0.1821
G1 X45.7601 Y-24.2612 Z0.1807
G1 X45.7601 Y-24.2807 Z0.1778
G1 X45.7601 Y-24.3002 Z0.1749
G1 X45.7601 Y-24.3197 Z0.1719
G1 X45.7601 Y-24.3493 Z0.1672
G1 X45.7601 Y-24.3789 Z0.1625
G1 X45.7601 Y-24.3923 Z0.1611
G1 X45.7601 Y-24.4059 Z0.1611
G1 X45.7601 Y-24.4193 Z0.1626
G1 X45.7601 Y-24.4325 Z0.1655
G1 X45.7601 Y-24.4453 Z0.1699
G1 X45.7601 Y-24.4575 Z0.1756
G1 X45.7601 Y-24.4691 Z0.1826
G1 X45.7601 Y-24.4798 Z0.1907
G1 X45.7601 Y-24.4896 Z0.2001
G1 X45.7601 Y-24.4984 Z0.2104
G1 X45.7601 Y-24.5059 Z0.2216
G1 X45.7601 Y-24.5122 Z0.2335
G1 X45.7601 Y-24.5172 Z0.2460
G1 X45.7601 Y-24.5208 Z0.2591
G1 X45.7601 Y-24.5230 Z0.2724
G1 X45.7601 Y-24.5238 Z0.2859
G0 Z0.3101
G0 X45.7601 Y-24.5238 
G0 Z0.3851
G0 X45.6351 Y-21.0744 
G1 X45.6351 Y-21.0750 Z0.3728 F50.
G1 X45.6351 Y-21.0768 Z0.3607
G1 X45.6351 Y-21.0798 Z0.3488
G1 X45.6351 Y-21.0839 Z0.3372
G1 X45.6351 Y-21.0892 Z0.3261
G1 X45.6351 Y-21.0955 Z0.3156
G1 X45.6351 Y-21.1028 Z0.3058
G1 X45.6351 Y-21.1110 Z0.2967
G1 X45.6351 Y-21.1201 Z0.2884
G1 X45.6351 Y-21.1300 Z0.2811
G1 X45.6351 Y-21.1405 Z0.2748
G1 X45.6351 Y-21.1516 Z0.2696
G1 X45.6351 Y-21.1631 Z0.2654
G1 X45.6351 Y-21.1750 Z0.2625
G1 X45.6351 Y-21.1872 Z0.2607
G1 X45.6351 Y-21.1994 Z0.2601
G1 X45.6351 Y-23.1691 Z0.2601 F75.
G1 X45.6351 Y-23.1886 Z0.2600
G1 X45.6351 Y-23.2081 Z0.2600
G1 X45.6351 Y-23.2276 Z0.2598
G1 X45.6351 Y-23.2373 Z0.2598
G1 X45.6351 Y-23.2666 Z0.2595
G1 X45.6351 Y-23.2959 Z0.2590
G1 X45.6351 Y-23.3251 Z0.2585
G1 X45.6351 Y-23.3446 Z0.2581
G1 X45.6351 Y-23.3641 Z0.2576
G1 X45.6351 Y-23.3836 Z0.2571
G1 X45.6351 Y-23.3934 Z0.2568
G1 X45.6351 Y-23.4226 Z0.2559
G1 X45.6351 Y-23.4519 Z0.2549
G1 X45.6351 Y-23.4811 Z0.2537
G1 X45.6351 Y-23.5006 Z0.2529
G1 X45.6351 Y-23.5201 Z0.2520
G1 X45.6351 Y-23.5396 Z0.2511
G1 X45.6351 Y-23.5591 Z0.2501
G1 X45.6351 Y-23.5786 Z0.2491
G1 X45.6351 Y-23.6079 Z0.2474
G1 X45.6351 Y-23.6371 Z0.2457
G1 X45.6351 Y-23.6664 Z0.2438
G1 X45.6351 Y-23.6761 Z0.2432
G1 X45.6351 Y-23.6956 Z0.2418
G1 X45.6351 Y-23.7151 Z0.2404
G1 X45.6351 Y-23.7346 Z0.2390
G1 X45.6351 Y-23.7541 Z0.2375
G1 X45.6351 Y-23.7639 Z0.2367
G1 X45.6351 Y-23.7931 Z0.2344
G1 X45.6351 Y-23.8224 Z0.2319
G1 X45.6351 Y-23.8516 Z0.2293
G1 X45.6351 Y-23.8711 Z0.2275
G1 X45.6351 Y-23.8906 Z0.2256
G1 X45.6351 Y-23.9102 Z0.2237
G1 X45.6351 Y-23.9199 Z0.2228
G1 X45.6351 Y-23.9492 Z0.2198
G1 X45.6351 Y-23.9784 Z0.2167
G1 X45.6351 Y-24.0077 Z0.2135
G1 X45.6351 Y-24.0369 Z0.2101
G1 X45.6351 Y-24.0467 Z0.2090
G1 X45.6351 Y-24.0662 Z0.2067
G1 X45.6351 Y-24.0857 Z0.2043
G1 X45.6351 Y-24.1052 Z0.2019
G1 X45.6351 Y-24.1247 Z0.1994
G1 X45.6351 Y-24.1344 Z0.1982
G1 X45.6351 Y-24.1637 Z0.1943
G1 X45.6351 Y-24.1929 Z0.1904
G1 X45.6351 Y-24.2222 Z0.1863
G1 X45.6351 Y-24.2514 Z0.1821
G1 X45.6351 Y-24.2612 Z0.1807
G1 X45.6351 Y-24.2807 Z0.1778
G1 X45.6351 Y-24.3002 Z0.1749
G1 X45.6351 Y-24.3197 Z0.1719
G1 X45.6351 Y-24.3500 Z0.1671
G1 X45.6351 Y-24.3803 Z0.1622
G1 X45.6351 Y-24.3938 Z0.1608
G1 X45.6351 Y-24.4073 Z0.1609
G1 X45.6351 Y-24.4207 Z0.1624
G1 X45.6351 Y-24.4339 Z0.1653
G1 X45.6351 Y-24.4467 Z0.1696
G1 X45.6351 Y-24.4589 Z0.1753
G1 X45.6351 Y-24.4705 Z0.1823
G1 X45.6351 Y-24.4813 Z0.1905
G1 X45.6351 Y-24.4911 Z0.1998
G1 X45.6351 Y-24.4998 Z0.2101
G1 X45.6351 Y-24.5074 Z0.2213
G1 X45.6351 Y-24.5137 Z0.2333
G1 X45.6351 Y-24.5187 Z0.2458
G1 X45.6351 Y-24.5223 Z0.2588
G1 X45.6351 Y-24.5245 Z0.2722
G1 X45.6351 Y-24.5252 Z0.2857
G0 Z0.3101
G0 X45.6351 Y-24.5252 
G0 Z0.3851
G0 X45.5101 Y-21.0744 
G1 X45.5101 Y-21.0750 Z0.3728 F50.
G1 X45.5101 Y-21.0768 Z0.3607
G1 X45.5101 Y-21.0798 Z0.3488
G1 X45.5101 Y-21.0839 Z0.3372
G1 X45.5101 Y-21.0892 Z0.3261
G1 X45.5101 Y-21.0955 Z0.3156
G1 X45.5101 Y-21.1028 Z0.3058
G1 X45.5101 Y-21.1110 Z0.2967
G1 X45.5101 Y-21.1201 Z0.2884
G1 X45.5101 Y-21.1300 Z0.2811
G1 X45.5101 Y-21.1405 Z0.2748
G1 X45.5101 Y-21.1516 Z0.2696
G1 X45.5101 Y-21.1631 Z0.2654
G1 X45.5101 Y-21.1750 Z0.2625
G1 X45.5101 Y-21.1872 Z0.2607
G1 X45.5101 Y-21.1994 Z0.2601
G1 X45.5101 Y-23.1691 Z0.2601 F75.
G1 X45.5101 Y-23.1886 Z0.2600
G1 X45.5101 Y-23.2081 Z0.2600
G1 X45.5101 Y-23.2276 Z0.2598
G1 X45.5101 Y-23.2373 Z0.2598
G1 X45.5101 Y-23.2666 Z0.2595
G1 X45.5101 Y-23.2959 Z0.2590
G1 X45.5101 Y-23.3251 Z0.2585
G1 X45.5101 Y-23.3446 Z0.2581
G1 X45.5101 Y-23.3641 Z0.2576
G1 X45.5101 Y-23.3836 Z0.2571
G1 X45.5101 Y-23.3934 Z0.2568
G1 X45.5101 Y-23.4226 Z0.2559
G1 X45.5101 Y-23.4519 Z0.2549
G1 X45.5101 Y-23.4811 Z0.2537
G1 X45.5101 Y-23.5006 Z0.2529
G1 X45.5101 Y-23.5201 Z0.2520
G1 X45.5101 Y-23.5396 Z0.2511
G1 X45.5101 Y-23.5591 Z0.2501
G1 X45.5101 Y-23.5786 Z0.2491
G1 X45.5101 Y-23.6079 Z0.2474
G1 X45.5101 Y-23.6371 Z0.2457
G1 X45.5101 Y-23.6664 Z0.2438
G1 X45.5101 Y-23.6761 Z0.2432
G1 X45.5101 Y-23.6956 Z0.2418
G1 X45.5101 Y-23.7151 Z0.2404
G1 X45.5101 Y-23.7346 Z0.2390
G1 X45.5101 Y-23.7541 Z0.2375
G1 X45.5101 Y-23.7639 Z0.2367
G1 X45.5101 Y-23.7931 Z0.2344
G1 X45.5101 Y-23.8224 Z0.2319
G1 X45.5101 Y-23.8516 Z0.2293
G1 X45.5101 Y-23.8711 Z0.2275
G1 X45.5101 Y-23.8906 Z0.2256
G1 X45.5101 Y-23.9102 Z0.2237
G1 X45.5101 Y-23.9199 Z0.2228
G1 X45.5101 Y-23.9492 Z0.2198
G1 X45.5101 Y-23.9784 Z0.2167
G1 X45.5101 Y-24.0077 Z0.2135
G1 X45.5101 Y-24.0369 Z0.2101
G1 X45.5101 Y-24.0467 Z0.2090
G1 X45.5101 Y-24.0662 Z0.2067
G1 X45.5101 Y-24.0857 Z0.2043
G1 X45.5101 Y-24.1052 Z0.2019
G1 X45.5101 Y-24.1247 Z0.1994
G1 X45.5101 Y-24.1344 Z0.1982
G1 X45.5101 Y-24.1637 Z0.1943
G1 X45.5101 Y-24.1929 Z0.1904
G1 X45.5101 Y-24.2222 Z0.1863
G1 X45.5101 Y-24.2514 Z0.1821
G1 X45.5101 Y-24.2612 Z0.1807
G1 X45.5101 Y-24.2807 Z0.1778
G1 X45.5101 Y-24.3002 Z0.1749
G1 X45.5101 Y-24.3197 Z0.1719
G1 X45.5101 Y-24.3507 Z0.1670
G1 X45.5101 Y-24.3817 Z0.1620
G1 X45.5101 Y-24.3952 Z0.1606
G1 X45.5101 Y-24.4087 Z0.1606
G1 X45.5101 Y-24.4221 Z0.1621
G1 X45.5101 Y-24.4353 Z0.1650
G1 X45.5101 Y-24.4481 Z0.1694
G1 X45.5101 Y-24.4604 Z0.1751
G1 X45.5101 Y-24.4719 Z0.1821
G1 X45.5101 Y-24.4827 Z0.1903
G1 X45.5101 Y-24.4925 Z0.1996
G1 X45.5101 Y-24.5012 Z0.2099
G1 X45.5101 Y-24.5088 Z0.2211
G1 X45.5101 Y-24.5151 Z0.2330
G1 X45.5101 Y-24.5201 Z0.2456
G1 X45.5101 Y-24.5237 Z0.2586
G1 X45.5101 Y-24.5259 Z0.2719
G1 X45.5101 Y-24.5266 Z0.2854
G0 Z0.3101
G0 X45.5101 Y-24.5266 
G0 Z0.3851
G0 X45.3851 Y-21.0744 
G1 X45.3851 Y-21.0750 Z0.3728 F50.
G1 X45.3851 Y-21.0768 Z0.3607
G1 X45.3851 Y-21.0798 Z0.3488
G1 X45.3851 Y-21.0839 Z0.3372
G1 X45.3851 Y-21.0892 Z0.3261
G1 X45.3851 Y-21.0955 Z0.3156
G1 X45.3851 Y-21.1028 Z0.3058
G1 X45.3851 Y-21.1110 Z0.2967
G1 X45.3851 Y-21.1201 Z0.2884
G1 X45.3851 Y-21.1300 Z0.2811
G1 X45.3851 Y-21.1405 Z0.2748
G1 X45.3851 Y-21.1516 Z0.2696
G1 X45.3851 Y-21.1631 Z0.2654
G1 X45.3851 Y-21.1750 Z0.2625
G1 X45.3851 Y-21.1872 Z0.2607
G1 X45.3851 Y-21.1994 Z0.2601
G1 X45.3851 Y-23.1691 Z0.2601 F75.
G1 X45.3851 Y-23.1886 Z0.2600
G1 X45.3851 Y-23.2081 Z0.2600
G1 X45.3851 Y-23.2276 Z0.2598
G1 X45.3851 Y-23.2373 Z0.2598
G1 X45.3851 Y-23.2666 Z0.2595
G1 X45.3851 Y-23.2959 Z0.2590
G1 X45.3851 Y-23.3251 Z0.2585
G1 X45.3851 Y-23.3446 Z0.2581
G1 X45.3851 Y-23.3641 Z0.2576
G1 X45.3851 Y-23.3836 Z0.2571
G1 X45.3851 Y-23.3934 Z0.2568
G1 X45.3851 Y-23.4226 Z0.2559
G1 X45.3851 Y-23.4519 Z0.2549
G1 X45.3851 Y-23.4811 Z0.2537
G1 X45.3851 Y-23.5006 Z0.2529
G1 X45.3851 Y-23.5201 Z0.2520
G1 X45.3851 Y-23.5396 Z0.2511
G1 X45.3851 Y-23.5591 Z0.2501
G1 X45.3851 Y-23.5786 Z0.2491
G1 X45.3851 Y-23.6079 Z0.2474
G1 X45.3851 Y-23.6371 Z0.2457
G1 X45.3851 Y-23.6664 Z0.2438
G1 X45.3851 Y-23.6761 Z0.2432
G1 X45.3851 Y-23.6956 Z0.2418
G1 X45.3851 Y-23.7151 Z0.2404
G1 X45.3851 Y-23.7346 Z0.2390
G1 X45.3851 Y-23.7541 Z0.2375
G1 X45.3851 Y-23.7639 Z0.2367
G1 X45.3851 Y-23.7931 Z0.2344
G1 X45.3851 Y-23.8224 Z0.2319
G1 X45.3851 Y-23.8516 Z0.2293
G1 X45.3851 Y-23.8711 Z0.2275
G1 X45.3851 Y-23.8906 Z0.2256
G1 X45.3851 Y-23.9102 Z0.2237
G1 X45.3851 Y-23.9199 Z0.2228
G1 X45.3851 Y-23.9492 Z0.2198
G1 X45.3851 Y-23.9784 Z0.2167
G1 X45.3851 Y-24.0077 Z0.2135
G1 X45.3851 Y-24.0369 Z0.2101
G1 X45.3851 Y-24.0467 Z0.2090
G1 X45.3851 Y-24.0662 Z0.2067
G1 X45.3851 Y-24.0857 Z0.2043
G1 X45.3851 Y-24.1052 Z0.2019
G1 X45.3851 Y-24.1247 Z0.1994
G1 X45.3851 Y-24.1344 Z0.1982
G1 X45.3851 Y-24.1637 Z0.1943
G1 X45.3851 Y-24.1929 Z0.1904
G1 X45.3851 Y-24.2222 Z0.1863
G1 X45.3851 Y-24.2514 Z0.1821
G1 X45.3851 Y-24.2612 Z0.1807
G1 X45.3851 Y-24.2807 Z0.1778
G1 X45.3851 Y-24.3002 Z0.1749
G1 X45.3851 Y-24.3197 Z0.1719
G1 X45.3851 Y-24.3435 Z0.1682
G1 X45.3851 Y-24.3514 Z0.1669
G1 X45.3851 Y-24.3752 Z0.1631
G1 X45.3851 Y-24.3832 Z0.1618
G1 X45.3851 Y-24.3966 Z0.1603
G1 X45.3851 Y-24.4102 Z0.1603
G1 X45.3851 Y-24.4236 Z0.1618
G1 X45.3851 Y-24.4368 Z0.1647
G1 X45.3851 Y-24.4497 Z0.1690
G1 X45.3851 Y-24.4619 Z0.1747
G1 X45.3851 Y-24.4735 Z0.1817
G1 X45.3851 Y-24.4843 Z0.1898
G1 X45.3851 Y-24.4942 Z0.1992
G1 X45.3851 Y-24.5029 Z0.2095
G1 X45.3851 Y-24.5105 Z0.2207
G1 X45.3851 Y-24.5169 Z0.2326
G1 X45.3851 Y-24.5219 Z0.2452
G1 X45.3851 Y-24.5255 Z0.2583
G1 X45.3851 Y-24.5277 Z0.2716
G1 X45.3851 Y-24.5284 Z0.2851
G0 Z0.3101
G0 X45.3851 Y-24.5284 
G0 Z0.3851
G0 X45.2601 Y-21.0744 
G1 X45.2601 Y-21.0750 Z0.3728 F50.
G1 X45.2601 Y-21.0768 Z0.3607
G1 X45.2601 Y-21.0798 Z0.3488
G1 X45.2601 Y-21.0839 Z0.3372
G1 X45.2601 Y-21.0892 Z0.3261
G1 X45.2601 Y-21.0955 Z0.3156
G1 X45.2601 Y-21.1028 Z0.3058
G1 X45.2601 Y-21.1110 Z0.2967
G1 X45.2601 Y-21.1201 Z0.2884
G1 X45.2601 Y-21.1300 Z0.2811
G1 X45.2601 Y-21.1405 Z0.2748
G1 X45.2601 Y-21.1516 Z0.2696
G1 X45.2601 Y-21.1631 Z0.2654
G1 X45.2601 Y-21.1750 Z0.2625
G1 X45.2601 Y-21.1872 Z0.2607
G1 X45.2601 Y-21.1994 Z0.2601
G1 X45.2601 Y-23.1691 Z0.2601 F75.
G1 X45.2601 Y-23.1886 Z0.2600
G1 X45.2601 Y-23.2081 Z0.2600
G1 X45.2601 Y-23.2276 Z0.2598
G1 X45.2601 Y-23.2373 Z0.2598
G1 X45.2601 Y-23.2666 Z0.2595
G1 X45.2601 Y-23.2959 Z0.2590
G1 X45.2601 Y-23.3251 Z0.2585
G1 X45.2601 Y-23.3446 Z0.2581
G1 X45.2601 Y-23.3641 Z0.2576
G1 X45.2601 Y-23.3836 Z0.2571
G1 X45.2601 Y-23.3934 Z0.2568
G1 X45.2601 Y-23.4226 Z0.2559
G1 X45.2601 Y-23.4519 Z0.2549
G1 X45.2601 Y-23.4811 Z0.2537
G1 X45.2601 Y-23.5006 Z0.2529
G1 X45.2601 Y-23.5201 Z0.2520
G1 X45.2601 Y-23.5396 Z0.2511
G1 X45.2601 Y-23.5591 Z0.2501
G1 X45.2601 Y-23.5786 Z0.2491
G1 X45.2601 Y-23.6079 Z0.2474
G1 X45.2601 Y-23.6371 Z0.2457
G1 X45.2601 Y-23.6664 Z0.2438
G1 X45.2601 Y-23.6761 Z0.2432
G1 X45.2601 Y-23.6956 Z0.2418
G1 X45.2601 Y-23.7151 Z0.2404
G1 X45.2601 Y-23.7346 Z0.2390
G1 X45.2601 Y-23.7541 Z0.2375
G1 X45.2601 Y-23.7639 Z0.2367
G1 X45.2601 Y-23.7931 Z0.2344
G1 X45.2601 Y-23.8224 Z0.2319
G1 X45.2601 Y-23.8516 Z0.2293
G1 X45.2601 Y-23.8711 Z0.2275
G1 X45.2601 Y-23.8906 Z0.2256
G1 X45.2601 Y-23.9102 Z0.2237
G1 X45.2601 Y-23.9199 Z0.2228
G1 X45.2601 Y-23.9492 Z0.2198
G1 X45.2601 Y-23.9784 Z0.2167
G1 X45.2601 Y-24.0077 Z0.2135
G1 X45.2601 Y-24.0369 Z0.2101
G1 X45.2601 Y-24.0467 Z0.2090
G1 X45.2601 Y-24.0662 Z0.2067
G1 X45.2601 Y-24.0857 Z0.2043
G1 X45.2601 Y-24.1052 Z0.2019
G1 X45.2601 Y-24.1247 Z0.1994
G1 X45.2601 Y-24.1344 Z0.1982
G1 X45.2601 Y-24.1637 Z0.1943
G1 X45.2601 Y-24.1929 Z0.1904
G1 X45.2601 Y-24.2222 Z0.1863
G1 X45.2601 Y-24.2514 Z0.1821
G1 X45.2601 Y-24.2612 Z0.1807
G1 X45.2601 Y-24.2807 Z0.1778
G1 X45.2601 Y-24.3002 Z0.1749
G1 X45.2601 Y-24.3197 Z0.1719
G1 X45.2601 Y-24.3440 Z0.1681
G1 X45.2601 Y-24.3765 Z0.1629
G1 X45.2601 Y-24.3846 Z0.1615
G1 X45.2601 Y-24.3980 Z0.1601
G1 X45.2601 Y-24.4116 Z0.1601
G1 X45.2601 Y-24.4250 Z0.1615
G1 X45.2601 Y-24.4383 Z0.1644
G1 X45.2601 Y-24.4511 Z0.1687
G1 X45.2601 Y-24.4634 Z0.1744
G1 X45.2601 Y-24.4750 Z0.1814
G1 X45.2601 Y-24.4858 Z0.1896
G1 X45.2601 Y-24.4956 Z0.1989
G1 X45.2601 Y-24.5044 Z0.2092
G1 X45.2601 Y-24.5120 Z0.2204
G1 X45.2601 Y-24.5183 Z0.2324
G1 X45.2601 Y-24.5233 Z0.2450
G1 X45.2601 Y-24.5269 Z0.2580
G1 X45.2601 Y-24.5291 Z0.2714
G1 X45.2601 Y-24.5299 Z0.2849
G0 Z0.3101
G0 X45.2601 Y-24.5299 
G0 Z0.3851
G0 X45.1351 Y-21.0744 
G1 X45.1351 Y-21.0750 Z0.3728 F50.
G1 X45.1351 Y-21.0768 Z0.3607
G1 X45.1351 Y-21.0798 Z0.3488
G1 X45.1351 Y-21.0839 Z0.3372
G1 X45.1351 Y-21.0892 Z0.3261
G1 X45.1351 Y-21.0955 Z0.3156
G1 X45.1351 Y-21.1028 Z0.3058
G1 X45.1351 Y-21.1110 Z0.2967
G1 X45.1351 Y-21.1201 Z0.2884
G1 X45.1351 Y-21.1300 Z0.2811
G1 X45.1351 Y-21.1405 Z0.2748
G1 X45.1351 Y-21.1516 Z0.2696
G1 X45.1351 Y-21.1631 Z0.2654
G1 X45.1351 Y-21.1750 Z0.2625
G1 X45.1351 Y-21.1872 Z0.2607
G1 X45.1351 Y-21.1994 Z0.2601
G1 X45.1351 Y-23.1691 Z0.2601 F75.
G1 X45.1351 Y-23.1886 Z0.2600
G1 X45.1351 Y-23.2081 Z0.2600
G1 X45.1351 Y-23.2276 Z0.2598
G1 X45.1351 Y-23.2373 Z0.2598
G1 X45.1351 Y-23.2666 Z0.2595
G1 X45.1351 Y-23.2959 Z0.2590
G1 X45.1351 Y-23.3251 Z0.2585
G1 X45.1351 Y-23.3446 Z0.2581
G1 X45.1351 Y-23.3641 Z0.2576
G1 X45.1351 Y-23.3836 Z0.2571
G1 X45.1351 Y-23.3934 Z0.2568
G1 X45.1351 Y-23.4226 Z0.2559
G1 X45.1351 Y-23.4519 Z0.2549
G1 X45.1351 Y-23.4811 Z0.2537
G1 X45.1351 Y-23.5006 Z0.2529
G1 X45.1351 Y-23.5201 Z0.2520
G1 X45.1351 Y-23.5396 Z0.2511
G1 X45.1351 Y-23.5591 Z0.2501
G1 X45.1351 Y-23.5786 Z0.2491
G1 X45.1351 Y-23.6079 Z0.2474
G1 X45.1351 Y-23.6371 Z0.2457
G1 X45.1351 Y-23.6664 Z0.2438
G1 X45.1351 Y-23.6761 Z0.2432
G1 X45.1351 Y-23.6956 Z0.2418
G1 X45.1351 Y-23.7151 Z0.2404
G1 X45.1351 Y-23.7346 Z0.2390
G1 X45.1351 Y-23.7541 Z0.2375
G1 X45.1351 Y-23.7639 Z0.2367
G1 X45.1351 Y-23.7931 Z0.2344
G1 X45.1351 Y-23.8224 Z0.2319
G1 X45.1351 Y-23.8516 Z0.2293
G1 X45.1351 Y-23.8711 Z0.2275
G1 X45.1351 Y-23.8906 Z0.2256
G1 X45.1351 Y-23.9102 Z0.2237
G1 X45.1351 Y-23.9199 Z0.2228
G1 X45.1351 Y-23.9492 Z0.2198
G1 X45.1351 Y-23.9784 Z0.2167
G1 X45.1351 Y-24.0077 Z0.2135
G1 X45.1351 Y-24.0369 Z0.2101
G1 X45.1351 Y-24.0467 Z0.2090
G1 X45.1351 Y-24.0662 Z0.2067
G1 X45.1351 Y-24.0857 Z0.2043
G1 X45.1351 Y-24.1052 Z0.2019
G1 X45.1351 Y-24.1247 Z0.1994
G1 X45.1351 Y-24.1344 Z0.1982
G1 X45.1351 Y-24.1637 Z0.1943
G1 X45.1351 Y-24.1929 Z0.1904
G1 X45.1351 Y-24.2222 Z0.1863
G1 X45.1351 Y-24.2514 Z0.1821
G1 X45.1351 Y-24.2612 Z0.1807
G1 X45.1351 Y-24.2807 Z0.1778
G1 X45.1351 Y-24.3002 Z0.1749
G1 X45.1351 Y-24.3197 Z0.1719
G1 X45.1351 Y-24.3445 Z0.1680
G1 X45.1351 Y-24.3694 Z0.1640
G1 X45.1351 Y-24.3777 Z0.1627
G1 X45.1351 Y-24.3860 Z0.1613
G1 X45.1351 Y-24.3994 Z0.1598
G1 X45.1351 Y-24.4130 Z0.1598
G1 X45.1351 Y-24.4264 Z0.1613
G1 X45.1351 Y-24.4397 Z0.1642
G1 X45.1351 Y-24.4525 Z0.1685
G1 X45.1351 Y-24.4648 Z0.1742
G1 X45.1351 Y-24.4764 Z0.1812
G1 X45.1351 Y-24.4872 Z0.1894
G1 X45.1351 Y-24.4970 Z0.1987
G1 X45.1351 Y-24.5058 Z0.2090
G1 X45.1351 Y-24.5134 Z0.2202
G1 X45.1351 Y-24.5197 Z0.2322
G1 X45.1351 Y-24.5247 Z0.2447
G1 X45.1351 Y-24.5284 Z0.2578
G1 X45.1351 Y-24.5306 Z0.2711
G1 X45.1351 Y-24.5313 Z0.2847
G0 Z0.3101
G0 X45.1351 Y-24.5313 
G0 Z0.3851
G0 X45.0101 Y-21.0744 
G1 X45.0101 Y-21.0750 Z0.3728 F50.
G1 X45.0101 Y-21.0768 Z0.3607
G1 X45.0101 Y-21.0798 Z0.3488
G1 X45.0101 Y-21.0839 Z0.3372
G1 X45.0101 Y-21.0892 Z0.3261
G1 X45.0101 Y-21.0955 Z0.3156
G1 X45.0101 Y-21.1028 Z0.3058
G1 X45.0101 Y-21.1110 Z0.2967
G1 X45.0101 Y-21.1201 Z0.2884
G1 X45.0101 Y-21.1300 Z0.2811
G1 X45.0101 Y-21.1405 Z0.2748
G1 X45.0101 Y-21.1516 Z0.2696
G1 X45.0101 Y-21.1631 Z0.2654
G1 X45.0101 Y-21.1750 Z0.2625
G1 X45.0101 Y-21.1872 Z0.2607
G1 X45.0101 Y-21.1994 Z0.2601
G1 X45.0101 Y-23.1691 Z0.2601 F75.
G1 X45.0101 Y-23.1886 Z0.2600
G1 X45.0101 Y-23.2081 Z0.2600
G1 X45.0101 Y-23.2276 Z0.2598
G1 X45.0101 Y-23.2373 Z0.2598
G1 X45.0101 Y-23.2666 Z0.2595
G1 X45.0101 Y-23.2959 Z0.2590
G1 X45.0101 Y-23.3251 Z0.2585
G1 X45.0101 Y-23.3446 Z0.2581
G1 X45.0101 Y-23.3641 Z0.2576
G1 X45.0101 Y-23.3836 Z0.2571
G1 X45.0101 Y-23.3934 Z0.2568
G1 X45.0101 Y-23.4226 Z0.2559
G1 X45.0101 Y-23.4519 Z0.2549
G1 X45.0101 Y-23.4811 Z0.2537
G1 X45.0101 Y-23.5006 Z0.2529
G1 X45.0101 Y-23.5201 Z0.2520
G1 X45.0101 Y-23.5396 Z0.2511
G1 X45.0101 Y-23.5591 Z0.2501
G1 X45.0101 Y-23.5786 Z0.2491
G1 X45.0101 Y-23.6079 Z0.2474
G1 X45.0101 Y-23.6371 Z0.2457
G1 X45.0101 Y-23.6664 Z0.2438
G1 X45.0101 Y-23.6761 Z0.2432
G1 X45.0101 Y-23.6956 Z0.2418
G1 X45.0101 Y-23.7151 Z0.2404
G1 X45.0101 Y-23.7346 Z0.2390
G1 X45.0101 Y-23.7541 Z0.2375
G1 X45.0101 Y-23.7639 Z0.2367
G1 X45.0101 Y-23.7931 Z0.2344
G1 X45.0101 Y-23.8224 Z0.2319
G1 X45.0101 Y-23.8516 Z0.2293
G1 X45.0101 Y-23.8711 Z0.2275
G1 X45.0101 Y-23.8906 Z0.2256
G1 X45.0101 Y-23.9102 Z0.2237
G1 X45.0101 Y-23.9199 Z0.2228
G1 X45.0101 Y-23.9492 Z0.2198
G1 X45.0101 Y-23.9784 Z0.2167
G1 X45.0101 Y-24.0077 Z0.2135
G1 X45.0101 Y-24.0369 Z0.2101
G1 X45.0101 Y-24.0467 Z0.2090
G1 X45.0101 Y-24.0662 Z0.2067
G1 X45.0101 Y-24.0857 Z0.2043
G1 X45.0101 Y-24.1052 Z0.2019
G1 X45.0101 Y-24.1247 Z0.1994
G1 X45.0101 Y-24.1344 Z0.1982
G1 X45.0101 Y-24.1637 Z0.1943
G1 X45.0101 Y-24.1929 Z0.1904
G1 X45.0101 Y-24.2222 Z0.1863
G1 X45.0101 Y-24.2514 Z0.1821
G1 X45.0101 Y-24.2612 Z0.1807
G1 X45.0101 Y-24.2807 Z0.1778
G1 X45.0101 Y-24.3002 Z0.1749
G1 X45.0101 Y-24.3197 Z0.1719
G1 X45.0101 Y-24.3451 Z0.1679
G1 X45.0101 Y-24.3705 Z0.1638
G1 X45.0101 Y-24.3874 Z0.1611
G1 X45.0101 Y-24.4009 Z0.1596
G1 X45.0101 Y-24.4144 Z0.1596
G1 X45.0101 Y-24.4278 Z0.1611
G1 X45.0101 Y-24.4410 Z0.1640
G1 X45.0101 Y-24.4539 Z0.1683
G1 X45.0101 Y-24.4661 Z0.1740
G1 X45.0101 Y-24.4777 Z0.1810
G1 X45.0101 Y-24.4885 Z0.1892
G1 X45.0101 Y-24.4983 Z0.1985
G1 X45.0101 Y-24.5071 Z0.2088
G1 X45.0101 Y-24.5147 Z0.2200
G1 X45.0101 Y-24.5210 Z0.2320
G1 X45.0101 Y-24.5260 Z0.2446
G1 X45.0101 Y-24.5296 Z0.2576
G1 X45.0101 Y-24.5318 Z0.2709
G1 X45.0101 Y-24.5325 Z0.2844
G0 Z0.3101
G0 X45.0101 Y-24.5325 
G0 Z0.3851
G0 X44.8851 Y-21.0744 
G1 X44.8851 Y-21.0750 Z0.3728 F50.
G1 X44.8851 Y-21.0768 Z0.3607
G1 X44.8851 Y-21.0798 Z0.3488
G1 X44.8851 Y-21.0839 Z0.3372
G1 X44.8851 Y-21.0892 Z0.3261
G1 X44.8851 Y-21.0955 Z0.3156
G1 X44.8851 Y-21.1028 Z0.3058
G1 X44.8851 Y-21.1110 Z0.2967
G1 X44.8851 Y-21.1201 Z0.2884
G1 X44.8851 Y-21.1300 Z0.2811
G1 X44.8851 Y-21.1405 Z0.2748
G1 X44.8851 Y-21.1516 Z0.2696
G1 X44.8851 Y-21.1631 Z0.2654
G1 X44.8851 Y-21.1750 Z0.2625
G1 X44.8851 Y-21.1872 Z0.2607
G1 X44.8851 Y-21.1994 Z0.2601
G1 X44.8851 Y-23.1691 Z0.2601 F75.
G1 X44.8851 Y-23.1886 Z0.2600
G1 X44.8851 Y-23.2081 Z0.2600
G1 X44.8851 Y-23.2276 Z0.2598
G1 X44.8851 Y-23.2373 Z0.2598
G1 X44.8851 Y-23.2666 Z0.2595
G1 X44.8851 Y-23.2959 Z0.2590
G1 X44.8851 Y-23.3251 Z0.2585
G1 X44.8851 Y-23.3446 Z0.2581
G1 X44.8851 Y-23.3641 Z0.2576
G1 X44.8851 Y-23.3836 Z0.2571
G1 X44.8851 Y-23.3934 Z0.2568
G1 X44.8851 Y-23.4226 Z0.2559
G1 X44.8851 Y-23.4519 Z0.2549
G1 X44.8851 Y-23.4811 Z0.2537
G1 X44.8851 Y-23.5006 Z0.2529
G1 X44.8851 Y-23.5201 Z0.2520
G1 X44.8851 Y-23.5396 Z0.2511
G1 X44.8851 Y-23.5591 Z0.2501
G1 X44.8851 Y-23.5786 Z0.2491
G1 X44.8851 Y-23.6079 Z0.2474
G1 X44.8851 Y-23.6371 Z0.2457
G1 X44.8851 Y-23.6664 Z0.2438
G1 X44.8851 Y-23.6761 Z0.2432
G1 X44.8851 Y-23.6956 Z0.2418
G1 X44.8851 Y-23.7151 Z0.2404
G1 X44.8851 Y-23.7346 Z0.2390
G1 X44.8851 Y-23.7541 Z0.2375
G1 X44.8851 Y-23.7639 Z0.2367
G1 X44.8851 Y-23.7931 Z0.2344
G1 X44.8851 Y-23.8224 Z0.2319
G1 X44.8851 Y-23.8516 Z0.2293
G1 X44.8851 Y-23.8711 Z0.2275
G1 X44.8851 Y-23.8906 Z0.2256
G1 X44.8851 Y-23.9102 Z0.2237
G1 X44.8851 Y-23.9199 Z0.2228
G1 X44.8851 Y-23.9492 Z0.2198
G1 X44.8851 Y-23.9784 Z0.2167
G1 X44.8851 Y-24.0077 Z0.2135
G1 X44.8851 Y-24.0369 Z0.2101
G1 X44.8851 Y-24.0467 Z0.2090
G1 X44.8851 Y-24.0662 Z0.2067
G1 X44.8851 Y-24.0857 Z0.2043
G1 X44.8851 Y-24.1052 Z0.2019
G1 X44.8851 Y-24.1247 Z0.1994
G1 X44.8851 Y-24.1344 Z0.1982
G1 X44.8851 Y-24.1637 Z0.1943
G1 X44.8851 Y-24.1929 Z0.1904
G1 X44.8851 Y-24.2222 Z0.1863
G1 X44.8851 Y-24.2514 Z0.1821
G1 X44.8851 Y-24.2612 Z0.1807
G1 X44.8851 Y-24.2807 Z0.1778
G1 X44.8851 Y-24.3002 Z0.1749
G1 X44.8851 Y-24.3197 Z0.1719
G1 X44.8851 Y-24.3456 Z0.1678
G1 X44.8851 Y-24.3715 Z0.1637
G1 X44.8851 Y-24.3888 Z0.1608
G1 X44.8851 Y-24.4023 Z0.1594
G1 X44.8851 Y-24.4158 Z0.1594
G1 X44.8851 Y-24.4293 Z0.1609
G1 X44.8851 Y-24.4425 Z0.1638
G1 X44.8851 Y-24.4553 Z0.1681
G1 X44.8851 Y-24.4676 Z0.1738
G1 X44.8851 Y-24.4792 Z0.1808
G1 X44.8851 Y-24.4899 Z0.1890
G1 X44.8851 Y-24.4998 Z0.1983
G1 X44.8851 Y-24.5085 Z0.2086
G1 X44.8851 Y-24.5161 Z0.2198
G1 X44.8851 Y-24.5224 Z0.2317
G1 X44.8851 Y-24.5274 Z0.2443
G1 X44.8851 Y-24.5311 Z0.2573
G1 X44.8851 Y-24.5333 Z0.2707
G1 X44.8851 Y-24.5340 Z0.2842
G0 Z0.3101
G0 X44.8851 Y-24.5340 
G0 Z0.3851
G0 X44.7601 Y-21.0744 
G1 X44.7601 Y-21.0750 Z0.3728 F50.
G1 X44.7601 Y-21.0768 Z0.3607
G1 X44.7601 Y-21.0798 Z0.3488
G1 X44.7601 Y-21.0839 Z0.3372
G1 X44.7601 Y-21.0892 Z0.3261
G1 X44.7601 Y-21.0955 Z0.3156
G1 X44.7601 Y-21.1028 Z0.3058
G1 X44.7601 Y-21.1110 Z0.2967
G1 X44.7601 Y-21.1201 Z0.2884
G1 X44.7601 Y-21.1300 Z0.2811
G1 X44.7601 Y-21.1405 Z0.2748
G1 X44.7601 Y-21.1516 Z0.2696
G1 X44.7601 Y-21.1631 Z0.2654
G1 X44.7601 Y-21.1750 Z0.2625
G1 X44.7601 Y-21.1872 Z0.2607
G1 X44.7601 Y-21.1994 Z0.2601
G1 X44.7601 Y-23.1691 Z0.2601 F75.
G1 X44.7601 Y-23.1886 Z0.2600
G1 X44.7601 Y-23.2081 Z0.2600
G1 X44.7601 Y-23.2276 Z0.2598
G1 X44.7601 Y-23.2373 Z0.2598
G1 X44.7601 Y-23.2666 Z0.2595
G1 X44.7601 Y-23.2959 Z0.2590
G1 X44.7601 Y-23.3251 Z0.2585
G1 X44.7601 Y-23.3446 Z0.2581
G1 X44.7601 Y-23.3641 Z0.2576
G1 X44.7601 Y-23.3836 Z0.2571
G1 X44.7601 Y-23.3934 Z0.2568
G1 X44.7601 Y-23.4226 Z0.2559
G1 X44.7601 Y-23.4519 Z0.2549
G1 X44.7601 Y-23.4811 Z0.2537
G1 X44.7601 Y-23.5006 Z0.2529
G1 X44.7601 Y-23.5201 Z0.2520
G1 X44.7601 Y-23.5396 Z0.2511
G1 X44.7601 Y-23.5591 Z0.2501
G1 X44.7601 Y-23.5786 Z0.2491
G1 X44.7601 Y-23.6079 Z0.2474
G1 X44.7601 Y-23.6371 Z0.2457
G1 X44.7601 Y-23.6664 Z0.2438
G1 X44.7601 Y-23.6761 Z0.2432
G1 X44.7601 Y-23.6956 Z0.2418
G1 X44.7601 Y-23.7151 Z0.2404
G1 X44.7601 Y-23.7346 Z0.2390
G1 X44.7601 Y-23.7541 Z0.2375
G1 X44.7601 Y-23.7639 Z0.2367
G1 X44.7601 Y-23.7931 Z0.2344
G1 X44.7601 Y-23.8224 Z0.2319
G1 X44.7601 Y-23.8516 Z0.2293
G1 X44.7601 Y-23.8711 Z0.2275
G1 X44.7601 Y-23.8906 Z0.2256
G1 X44.7601 Y-23.9102 Z0.2237
G1 X44.7601 Y-23.9199 Z0.2228
G1 X44.7601 Y-23.9492 Z0.2198
G1 X44.7601 Y-23.9784 Z0.2167
G1 X44.7601 Y-24.0077 Z0.2135
G1 X44.7601 Y-24.0369 Z0.2101
G1 X44.7601 Y-24.0467 Z0.2090
G1 X44.7601 Y-24.0662 Z0.2067
G1 X44.7601 Y-24.0857 Z0.2043
G1 X44.7601 Y-24.1052 Z0.2019
G1 X44.7601 Y-24.1247 Z0.1994
G1 X44.7601 Y-24.1344 Z0.1982
G1 X44.7601 Y-24.1637 Z0.1943
G1 X44.7601 Y-24.1929 Z0.1904
G1 X44.7601 Y-24.2222 Z0.1863
G1 X44.7601 Y-24.2514 Z0.1821
G1 X44.7601 Y-24.2612 Z0.1807
G1 X44.7601 Y-24.2807 Z0.1778
G1 X44.7601 Y-24.3002 Z0.1749
G1 X44.7601 Y-24.3197 Z0.1719
G1 X44.7601 Y-24.3461 Z0.1677
G1 X44.7601 Y-24.3726 Z0.1635
G1 X44.7601 Y-24.3902 Z0.1606
G1 X44.7601 Y-24.4037 Z0.1592
G1 X44.7601 Y-24.4172 Z0.1592
G1 X44.7601 Y-24.4307 Z0.1606
G1 X44.7601 Y-24.4439 Z0.1635
G1 X44.7601 Y-24.4567 Z0.1679
G1 X44.7601 Y-24.4690 Z0.1735
G1 X44.7601 Y-24.4806 Z0.1805
G1 X44.7601 Y-24.4914 Z0.1887
G1 X44.7601 Y-24.5012 Z0.1980
G1 X44.7601 Y-24.5100 Z0.2083
G1 X44.7601 Y-24.5175 Z0.2195
G1 X44.7601 Y-24.5239 Z0.2315
G1 X44.7601 Y-24.5289 Z0.2441
G1 X44.7601 Y-24.5325 Z0.2571
G1 X44.7601 Y-24.5347 Z0.2705
G1 X44.7601 Y-24.5354 Z0.2840
G0 Z0.3101
G0 X44.7601 Y-24.5354 
G0 Z0.3851
G0 X44.6351 Y-21.0744 
G1 X44.6351 Y-21.0750 Z0.3728 F50.
G1 X44.6351 Y-21.0768 Z0.3607
G1 X44.6351 Y-21.0798 Z0.3488
G1 X44.6351 Y-21.0839 Z0.3372
G1 X44.6351 Y-21.0892 Z0.3261
G1 X44.6351 Y-21.0955 Z0.3156
G1 X44.6351 Y-21.1028 Z0.3058
G1 X44.6351 Y-21.1110 Z0.2967
G1 X44.6351 Y-21.1201 Z0.2884
G1 X44.6351 Y-21.1300 Z0.2811
G1 X44.6351 Y-21.1405 Z0.2748
G1 X44.6351 Y-21.1516 Z0.2696
G1 X44.6351 Y-21.1631 Z0.2654
G1 X44.6351 Y-21.1750 Z0.2625
G1 X44.6351 Y-21.1872 Z0.2607
G1 X44.6351 Y-21.1994 Z0.2601
G1 X44.6351 Y-23.1691 Z0.2601 F75.
G1 X44.6351 Y-23.1886 Z0.2600
G1 X44.6351 Y-23.2081 Z0.2600
G1 X44.6351 Y-23.2276 Z0.2598
G1 X44.6351 Y-23.2373 Z0.2598
G1 X44.6351 Y-23.2666 Z0.2595
G1 X44.6351 Y-23.2959 Z0.2590
G1 X44.6351 Y-23.3251 Z0.2585
G1 X44.6351 Y-23.3446 Z0.2581
G1 X44.6351 Y-23.3641 Z0.2576
G1 X44.6351 Y-23.3836 Z0.2571
G1 X44.6351 Y-23.3934 Z0.2568
G1 X44.6351 Y-23.4226 Z0.2559
G1 X44.6351 Y-23.4519 Z0.2549
G1 X44.6351 Y-23.4811 Z0.2537
G1 X44.6351 Y-23.5006 Z0.2529
G1 X44.6351 Y-23.5201 Z0.2520
G1 X44.6351 Y-23.5396 Z0.2511
G1 X44.6351 Y-23.5591 Z0.2501
G1 X44.6351 Y-23.5786 Z0.2491
G1 X44.6351 Y-23.6079 Z0.2474
G1 X44.6351 Y-23.6371 Z0.2457
G1 X44.6351 Y-23.6664 Z0.2438
G1 X44.6351 Y-23.6761 Z0.2432
G1 X44.6351 Y-23.6956 Z0.2418
G1 X44.6351 Y-23.7151 Z0.2404
G1 X44.6351 Y-23.7346 Z0.2390
G1 X44.6351 Y-23.7541 Z0.2375
G1 X44.6351 Y-23.7639 Z0.2367
G1 X44.6351 Y-23.7931 Z0.2344
G1 X44.6351 Y-23.8224 Z0.2319
G1 X44.6351 Y-23.8516 Z0.2293
G1 X44.6351 Y-23.8711 Z0.2275
G1 X44.6351 Y-23.8906 Z0.2256
G1 X44.6351 Y-23.9102 Z0.2237
G1 X44.6351 Y-23.9199 Z0.2228
G1 X44.6351 Y-23.9492 Z0.2198
G1 X44.6351 Y-23.9784 Z0.2167
G1 X44.6351 Y-24.0077 Z0.2135
G1 X44.6351 Y-24.0369 Z0.2101
G1 X44.6351 Y-24.0467 Z0.2090
G1 X44.6351 Y-24.0662 Z0.2067
G1 X44.6351 Y-24.0857 Z0.2043
G1 X44.6351 Y-24.1052 Z0.2019
G1 X44.6351 Y-24.1247 Z0.1994
G1 X44.6351 Y-24.1344 Z0.1982
G1 X44.6351 Y-24.1637 Z0.1943
G1 X44.6351 Y-24.1929 Z0.1904
G1 X44.6351 Y-24.2222 Z0.1863
G1 X44.6351 Y-24.2514 Z0.1821
G1 X44.6351 Y-24.2612 Z0.1807
G1 X44.6351 Y-24.2807 Z0.1778
G1 X44.6351 Y-24.3002 Z0.1749
G1 X44.6351 Y-24.3197 Z0.1719
G1 X44.6351 Y-24.3467 Z0.1677
G1 X44.6351 Y-24.3737 Z0.1633
G1 X44.6351 Y-24.3916 Z0.1604
G1 X44.6351 Y-24.4051 Z0.1589
G1 X44.6351 Y-24.4186 Z0.1589
G1 X44.6351 Y-24.4321 Z0.1604
G1 X44.6351 Y-24.4453 Z0.1633
G1 X44.6351 Y-24.4581 Z0.1676
G1 X44.6351 Y-24.4704 Z0.1733
G1 X44.6351 Y-24.4820 Z0.1803
G1 X44.6351 Y-24.4928 Z0.1885
G1 X44.6351 Y-24.5026 Z0.1978
G1 X44.6351 Y-24.5114 Z0.2081
G1 X44.6351 Y-24.5190 Z0.2193
G1 X44.6351 Y-24.5253 Z0.2312
G1 X44.6351 Y-24.5303 Z0.2438
G1 X44.6351 Y-24.5340 Z0.2569
G1 X44.6351 Y-24.5362 Z0.2702
G1 X44.6351 Y-24.5369 Z0.2837
G0 Z0.3101
G0 X44.6351 Y-24.5369 
G0 Z0.3851
G0 X44.5101 Y-21.0744 
G1 X44.5101 Y-21.0750 Z0.3728 F50.
G1 X44.5101 Y-21.0768 Z0.3607
G1 X44.5101 Y-21.0798 Z0.3488
G1 X44.5101 Y-21.0839 Z0.3372
G1 X44.5101 Y-21.0892 Z0.3261
G1 X44.5101 Y-21.0955 Z0.3156
G1 X44.5101 Y-21.1028 Z0.3058
G1 X44.5101 Y-21.1110 Z0.2967
G1 X44.5101 Y-21.1201 Z0.2884
G1 X44.5101 Y-21.1300 Z0.2811
G1 X44.5101 Y-21.1405 Z0.2748
G1 X44.5101 Y-21.1516 Z0.2696
G1 X44.5101 Y-21.1631 Z0.2654
G1 X44.5101 Y-21.1750 Z0.2625
G1 X44.5101 Y-21.1872 Z0.2607
G1 X44.5101 Y-21.1994 Z0.2601
G1 X44.5101 Y-23.1691 Z0.2601 F75.
G1 X44.5101 Y-23.1886 Z0.2600
G1 X44.5101 Y-23.2081 Z0.2600
G1 X44.5101 Y-23.2276 Z0.2598
G1 X44.5101 Y-23.2373 Z0.2598
G1 X44.5101 Y-23.2666 Z0.2595
G1 X44.5101 Y-23.2959 Z0.2590
G1 X44.5101 Y-23.3251 Z0.2585
G1 X44.5101 Y-23.3446 Z0.2581
G1 X44.5101 Y-23.3641 Z0.2576
G1 X44.5101 Y-23.3836 Z0.2571
G1 X44.5101 Y-23.3934 Z0.2568
G1 X44.5101 Y-23.4226 Z0.2559
G1 X44.5101 Y-23.4519 Z0.2549
G1 X44.5101 Y-23.4811 Z0.2537
G1 X44.5101 Y-23.5006 Z0.2529
G1 X44.5101 Y-23.5201 Z0.2520
G1 X44.5101 Y-23.5396 Z0.2511
G1 X44.5101 Y-23.5591 Z0.2501
G1 X44.5101 Y-23.5786 Z0.2491
G1 X44.5101 Y-23.6079 Z0.2474
G1 X44.5101 Y-23.6371 Z0.2457
G1 X44.5101 Y-23.6664 Z0.2438
G1 X44.5101 Y-23.6761 Z0.2432
G1 X44.5101 Y-23.6956 Z0.2418
G1 X44.5101 Y-23.7151 Z0.2404
G1 X44.5101 Y-23.7346 Z0.2390
G1 X44.5101 Y-23.7541 Z0.2375
G1 X44.5101 Y-23.7639 Z0.2367
G1 X44.5101 Y-23.7931 Z0.2344
G1 X44.5101 Y-23.8224 Z0.2319
G1 X44.5101 Y-23.8516 Z0.2293
G1 X44.5101 Y-23.8711 Z0.2275
G1 X44.5101 Y-23.8906 Z0.2256
G1 X44.5101 Y-23.9102 Z0.2237
G1 X44.5101 Y-23.9199 Z0.2228
G1 X44.5101 Y-23.9492 Z0.2198
G1 X44.5101 Y-23.9784 Z0.2167
G1 X44.5101 Y-24.0077 Z0.2135
G1 X44.5101 Y-24.0369 Z0.2101
G1 X44.5101 Y-24.0467 Z0.2090
G1 X44.5101 Y-24.0662 Z0.2067
G1 X44.5101 Y-24.0857 Z0.2043
G1 X44.5101 Y-24.1052 Z0.2019
G1 X44.5101 Y-24.1247 Z0.1994
G1 X44.5101 Y-24.1344 Z0.1982
G1 X44.5101 Y-24.1637 Z0.1943
G1 X44.5101 Y-24.1929 Z0.1904
G1 X44.5101 Y-24.2222 Z0.1863
G1 X44.5101 Y-24.2514 Z0.1821
G1 X44.5101 Y-24.2612 Z0.1807
G1 X44.5101 Y-24.2807 Z0.1778
G1 X44.5101 Y-24.3002 Z0.1749
G1 X44.5101 Y-24.3197 Z0.1719
G1 X44.5101 Y-24.3472 Z0.1676
G1 X44.5101 Y-24.3747 Z0.1632
G1 X44.5101 Y-24.3931 Z0.1601
G1 X44.5101 Y-24.4065 Z0.1587
G1 X44.5101 Y-24.4201 Z0.1587
G1 X44.5101 Y-24.4335 Z0.1601
G1 X44.5101 Y-24.4467 Z0.1630
G1 X44.5101 Y-24.4596 Z0.1674
G1 X44.5101 Y-24.4719 Z0.1730
G1 X44.5101 Y-24.4835 Z0.1800
G1 X44.5101 Y-24.4942 Z0.1882
G1 X44.5101 Y-24.5041 Z0.1975
G1 X44.5101 Y-24.5128 Z0.2078
G1 X44.5101 Y-24.5204 Z0.2190
G1 X44.5101 Y-24.5268 Z0.2310
G1 X44.5101 Y-24.5318 Z0.2436
G1 X44.5101 Y-24.5354 Z0.2566
G1 X44.5101 Y-24.5376 Z0.2700
G1 X44.5101 Y-24.5383 Z0.2835
G0 Z0.3101
G0 X44.5101 Y-24.5383 
G0 Z0.3851
G0 X44.3851 Y-21.0744 
G1 X44.3851 Y-21.0750 Z0.3728 F50.
G1 X44.3851 Y-21.0768 Z0.3607
G1 X44.3851 Y-21.0798 Z0.3488
G1 X44.3851 Y-21.0839 Z0.3372
G1 X44.3851 Y-21.0892 Z0.3261
G1 X44.3851 Y-21.0955 Z0.3156
G1 X44.3851 Y-21.1028 Z0.3058
G1 X44.3851 Y-21.1110 Z0.2967
G1 X44.3851 Y-21.1201 Z0.2884
G1 X44.3851 Y-21.1300 Z0.2811
G1 X44.3851 Y-21.1405 Z0.2748
G1 X44.3851 Y-21.1516 Z0.2696
G1 X44.3851 Y-21.1631 Z0.2654
G1 X44.3851 Y-21.1750 Z0.2625
G1 X44.3851 Y-21.1872 Z0.2607
G1 X44.3851 Y-21.1994 Z0.2601
G1 X44.3851 Y-23.1691 Z0.2601 F75.
G1 X44.3851 Y-23.1886 Z0.2600
G1 X44.3851 Y-23.2081 Z0.2600
G1 X44.3851 Y-23.2276 Z0.2598
G1 X44.3851 Y-23.2373 Z0.2598
G1 X44.3851 Y-23.2666 Z0.2595
G1 X44.3851 Y-23.2959 Z0.2590
G1 X44.3851 Y-23.3251 Z0.2585
G1 X44.3851 Y-23.3446 Z0.2581
G1 X44.3851 Y-23.3641 Z0.2576
G1 X44.3851 Y-23.3836 Z0.2571
G1 X44.3851 Y-23.3934 Z0.2568
G1 X44.3851 Y-23.4226 Z0.2559
G1 X44.3851 Y-23.4519 Z0.2549
G1 X44.3851 Y-23.4811 Z0.2537
G1 X44.3851 Y-23.5006 Z0.2529
G1 X44.3851 Y-23.5201 Z0.2520
G1 X44.3851 Y-23.5396 Z0.2511
G1 X44.3851 Y-23.5591 Z0.2501
G1 X44.3851 Y-23.5786 Z0.2491
G1 X44.3851 Y-23.6079 Z0.2474
G1 X44.3851 Y-23.6371 Z0.2457
G1 X44.3851 Y-23.6664 Z0.2438
G1 X44.3851 Y-23.6761 Z0.2432
G1 X44.3851 Y-23.6956 Z0.2418
G1 X44.3851 Y-23.7151 Z0.2404
G1 X44.3851 Y-23.7346 Z0.2390
G1 X44.3851 Y-23.7541 Z0.2375
G1 X44.3851 Y-23.7639 Z0.2367
G1 X44.3851 Y-23.7931 Z0.2344
G1 X44.3851 Y-23.8224 Z0.2319
G1 X44.3851 Y-23.8516 Z0.2293
G1 X44.3851 Y-23.8711 Z0.2275
G1 X44.3851 Y-23.8906 Z0.2256
G1 X44.3851 Y-23.9102 Z0.2237
G1 X44.3851 Y-23.9199 Z0.2228
G1 X44.3851 Y-23.9492 Z0.2198
G1 X44.3851 Y-23.9784 Z0.2167
G1 X44.3851 Y-24.0077 Z0.2135
G1 X44.3851 Y-24.0369 Z0.2101
G1 X44.3851 Y-24.0467 Z0.2090
G1 X44.3851 Y-24.0662 Z0.2067
G1 X44.3851 Y-24.0857 Z0.2043
G1 X44.3851 Y-24.1052 Z0.2019
G1 X44.3851 Y-24.1247 Z0.1994
G1 X44.3851 Y-24.1344 Z0.1982
G1 X44.3851 Y-24.1637 Z0.1943
G1 X44.3851 Y-24.1929 Z0.1904
G1 X44.3851 Y-24.2222 Z0.1863
G1 X44.3851 Y-24.2514 Z0.1821
G1 X44.3851 Y-24.2612 Z0.1807
G1 X44.3851 Y-24.2807 Z0.1778
G1 X44.3851 Y-24.3002 Z0.1749
G1 X44.3851 Y-24.3197 Z0.1719
G1 X44.3851 Y-24.3384 Z0.1690
G1 X44.3851 Y-24.3477 Z0.1675
G1 X44.3851 Y-24.3758 Z0.1630
G1 X44.3851 Y-24.3945 Z0.1599
G1 X44.3851 Y-24.4079 Z0.1584
G1 X44.3851 Y-24.4215 Z0.1584
G1 X44.3851 Y-24.4349 Z0.1599
G1 X44.3851 Y-24.4482 Z0.1628
G1 X44.3851 Y-24.4610 Z0.1671
G1 X44.3851 Y-24.4733 Z0.1728
G1 X44.3851 Y-24.4849 Z0.1798
G1 X44.3851 Y-24.4957 Z0.1880
G1 X44.3851 Y-24.5055 Z0.1973
G1 X44.3851 Y-24.5143 Z0.2076
G1 X44.3851 Y-24.5219 Z0.2188
G1 X44.3851 Y-24.5282 Z0.2308
G1 X44.3851 Y-24.5332 Z0.2433
G1 X44.3851 Y-24.5368 Z0.2564
G1 X44.3851 Y-24.5390 Z0.2697
G1 X44.3851 Y-24.5398 Z0.2833
G0 Z0.3101
G0 X44.3851 Y-24.5398 
G0 Z0.3851
G0 X44.2601 Y-21.0744 
G1 X44.2601 Y-21.0750 Z0.3728 F50.
G1 X44.2601 Y-21.0768 Z0.3607
G1 X44.2601 Y-21.0798 Z0.3488
G1 X44.2601 Y-21.0839 Z0.3372
G1 X44.2601 Y-21.0892 Z0.3261
G1 X44.2601 Y-21.0955 Z0.3156
G1 X44.2601 Y-21.1028 Z0.3058
G1 X44.2601 Y-21.1110 Z0.2967
G1 X44.2601 Y-21.1201 Z0.2884
G1 X44.2601 Y-21.1300 Z0.2811
G1 X44.2601 Y-21.1405 Z0.2748
G1 X44.2601 Y-21.1516 Z0.2696
G1 X44.2601 Y-21.1631 Z0.2654
G1 X44.2601 Y-21.1750 Z0.2625
G1 X44.2601 Y-21.1872 Z0.2607
G1 X44.2601 Y-21.1994 Z0.2601
G1 X44.2601 Y-23.1691 Z0.2601 F75.
G1 X44.2601 Y-23.1886 Z0.2600
G1 X44.2601 Y-23.2081 Z0.2600
G1 X44.2601 Y-23.2276 Z0.2598
G1 X44.2601 Y-23.2373 Z0.2598
G1 X44.2601 Y-23.2666 Z0.2595
G1 X44.2601 Y-23.2959 Z0.2590
G1 X44.2601 Y-23.3251 Z0.2585
G1 X44.2601 Y-23.3446 Z0.2581
G1 X44.2601 Y-23.3641 Z0.2576
G1 X44.2601 Y-23.3836 Z0.2571
G1 X44.2601 Y-23.3934 Z0.2568
G1 X44.2601 Y-23.4226 Z0.2559
G1 X44.2601 Y-23.4519 Z0.2549
G1 X44.2601 Y-23.4811 Z0.2537
G1 X44.2601 Y-23.5006 Z0.2529
G1 X44.2601 Y-23.5201 Z0.2520
G1 X44.2601 Y-23.5396 Z0.2511
G1 X44.2601 Y-23.5591 Z0.2501
G1 X44.2601 Y-23.5786 Z0.2491
G1 X44.2601 Y-23.6079 Z0.2474
G1 X44.2601 Y-23.6371 Z0.2457
G1 X44.2601 Y-23.6664 Z0.2438
G1 X44.2601 Y-23.6761 Z0.2432
G1 X44.2601 Y-23.6956 Z0.2418
G1 X44.2601 Y-23.7151 Z0.2404
G1 X44.2601 Y-23.7346 Z0.2390
G1 X44.2601 Y-23.7541 Z0.2375
G1 X44.2601 Y-23.7639 Z0.2367
G1 X44.2601 Y-23.7931 Z0.2344
G1 X44.2601 Y-23.8224 Z0.2319
G1 X44.2601 Y-23.8516 Z0.2293
G1 X44.2601 Y-23.8711 Z0.2275
G1 X44.2601 Y-23.8906 Z0.2256
G1 X44.2601 Y-23.9102 Z0.2237
G1 X44.2601 Y-23.9199 Z0.2228
G1 X44.2601 Y-23.9492 Z0.2198
G1 X44.2601 Y-23.9784 Z0.2167
G1 X44.2601 Y-24.0077 Z0.2135
G1 X44.2601 Y-24.0369 Z0.2101
G1 X44.2601 Y-24.0467 Z0.2090
G1 X44.2601 Y-24.0662 Z0.2067
G1 X44.2601 Y-24.0857 Z0.2043
G1 X44.2601 Y-24.1052 Z0.2019
G1 X44.2601 Y-24.1247 Z0.1994
G1 X44.2601 Y-24.1344 Z0.1982
G1 X44.2601 Y-24.1637 Z0.1943
G1 X44.2601 Y-24.1929 Z0.1904
G1 X44.2601 Y-24.2222 Z0.1863
G1 X44.2601 Y-24.2514 Z0.1821
G1 X44.2601 Y-24.2612 Z0.1807
G1 X44.2601 Y-24.2807 Z0.1778
G1 X44.2601 Y-24.3002 Z0.1749
G1 X44.2601 Y-24.3197 Z0.1719
G1 X44.2601 Y-24.3387 Z0.1689
G1 X44.2601 Y-24.3483 Z0.1674
G1 X44.2601 Y-24.3768 Z0.1628
G1 X44.2601 Y-24.3959 Z0.1597
G1 X44.2601 Y-24.4094 Z0.1582
G1 X44.2601 Y-24.4229 Z0.1582
G1 X44.2601 Y-24.4364 Z0.1597
G1 X44.2601 Y-24.4496 Z0.1626
G1 X44.2601 Y-24.4624 Z0.1669
G1 X44.2601 Y-24.4747 Z0.1726
G1 X44.2601 Y-24.4863 Z0.1795
G1 X44.2601 Y-24.4971 Z0.1877
G1 X44.2601 Y-24.5069 Z0.1970
G1 X44.2601 Y-24.5157 Z0.2074
G1 X44.2601 Y-24.5233 Z0.2186
G1 X44.2601 Y-24.5296 Z0.2305
G1 X44.2601 Y-24.5346 Z0.2431
G1 X44.2601 Y-24.5383 Z0.2561
G1 X44.2601 Y-24.5405 Z0.2695
G1 X44.2601 Y-24.5412 Z0.2830
G0 Z0.3101
G0 X44.2601 Y-24.5412 
G0 Z0.3851
G0 X44.1351 Y-21.0744 
G1 X44.1351 Y-21.0750 Z0.3728 F50.
G1 X44.1351 Y-21.0768 Z0.3607
G1 X44.1351 Y-21.0798 Z0.3488
G1 X44.1351 Y-21.0839 Z0.3372
G1 X44.1351 Y-21.0892 Z0.3261
G1 X44.1351 Y-21.0955 Z0.3156
G1 X44.1351 Y-21.1028 Z0.3058
G1 X44.1351 Y-21.1110 Z0.2967
G1 X44.1351 Y-21.1201 Z0.2884
G1 X44.1351 Y-21.1300 Z0.2811
G1 X44.1351 Y-21.1405 Z0.2748
G1 X44.1351 Y-21.1516 Z0.2696
G1 X44.1351 Y-21.1631 Z0.2654
G1 X44.1351 Y-21.1750 Z0.2625
G1 X44.1351 Y-21.1872 Z0.2607
G1 X44.1351 Y-21.1994 Z0.2601
G1 X44.1351 Y-23.1691 Z0.2601 F75.
G1 X44.1351 Y-23.1886 Z0.2600
G1 X44.1351 Y-23.2081 Z0.2600
G1 X44.1351 Y-23.2276 Z0.2598
G1 X44.1351 Y-23.2373 Z0.2598
G1 X44.1351 Y-23.2666 Z0.2595
G1 X44.1351 Y-23.2959 Z0.2590
G1 X44.1351 Y-23.3251 Z0.2585
G1 X44.1351 Y-23.3446 Z0.2581
G1 X44.1351 Y-23.3641 Z0.2576
G1 X44.1351 Y-23.3836 Z0.2571
G1 X44.1351 Y-23.3934 Z0.2568
G1 X44.1351 Y-23.4226 Z0.2559
G1 X44.1351 Y-23.4519 Z0.2549
G1 X44.1351 Y-23.4811 Z0.2537
G1 X44.1351 Y-23.5006 Z0.2529
G1 X44.1351 Y-23.5201 Z0.2520
G1 X44.1351 Y-23.5396 Z0.2511
G1 X44.1351 Y-23.5591 Z0.2501
G1 X44.1351 Y-23.5786 Z0.2491
G1 X44.1351 Y-23.6079 Z0.2474
G1 X44.1351 Y-23.6371 Z0.2457
G1 X44.1351 Y-23.6664 Z0.2438
G1 X44.1351 Y-23.6761 Z0.2432
G1 X44.1351 Y-23.6956 Z0.2418
G1 X44.1351 Y-23.7151 Z0.2404
G1 X44.1351 Y-23.7346 Z0.2390
G1 X44.1351 Y-23.7541 Z0.2375
G1 X44.1351 Y-23.7639 Z0.2367
G1 X44.1351 Y-23.7931 Z0.2344
G1 X44.1351 Y-23.8224 Z0.2319
G1 X44.1351 Y-23.8516 Z0.2293
G1 X44.1351 Y-23.8711 Z0.2275
G1 X44.1351 Y-23.8906 Z0.2256
G1 X44.1351 Y-23.9102 Z0.2237
G1 X44.1351 Y-23.9199 Z0.2228
G1 X44.1351 Y-23.9492 Z0.2198
G1 X44.1351 Y-23.9784 Z0.2167
G1 X44.1351 Y-24.0077 Z0.2135
G1 X44.1351 Y-24.0369 Z0.2101
G1 X44.1351 Y-24.0467 Z0.2090
G1 X44.1351 Y-24.0662 Z0.2067
G1 X44.1351 Y-24.0857 Z0.2043
G1 X44.1351 Y-24.1052 Z0.2019
G1 X44.1351 Y-24.1247 Z0.1994
G1 X44.1351 Y-24.1344 Z0.1982
G1 X44.1351 Y-24.1637 Z0.1943
G1 X44.1351 Y-24.1929 Z0.1904
G1 X44.1351 Y-24.2222 Z0.1863
G1 X44.1351 Y-24.2514 Z0.1821
G1 X44.1351 Y-24.2612 Z0.1807
G1 X44.1351 Y-24.2807 Z0.1778
G1 X44.1351 Y-24.3002 Z0.1749
G1 X44.1351 Y-24.3197 Z0.1719
G1 X44.1351 Y-24.3391 Z0.1689
G1 X44.1351 Y-24.3488 Z0.1673
G1 X44.1351 Y-24.3779 Z0.1626
G1 X44.1351 Y-24.3973 Z0.1595
G1 X44.1351 Y-24.4108 Z0.1580
G1 X44.1351 Y-24.4243 Z0.1580
G1 X44.1351 Y-24.4378 Z0.1594
G1 X44.1351 Y-24.4510 Z0.1623
G1 X44.1351 Y-24.4638 Z0.1666
G1 X44.1351 Y-24.4761 Z0.1723
G1 X44.1351 Y-24.4877 Z0.1793
G1 X44.1351 Y-24.4985 Z0.1875
G1 X44.1351 Y-24.5083 Z0.1968
G1 X44.1351 Y-24.5171 Z0.2071
G1 X44.1351 Y-24.5247 Z0.2183
G1 X44.1351 Y-24.5310 Z0.2303
G1 X44.1351 Y-24.5361 Z0.2429
G1 X44.1351 Y-24.5397 Z0.2559
G1 X44.1351 Y-24.5419 Z0.2693
G1 X44.1351 Y-24.5426 Z0.2828
G0 Z0.3101
G0 X44.1351 Y-24.5426 
G0 Z0.3851
G0 X44.0101 Y-21.0744 
G1 X44.0101 Y-21.0750 Z0.3728 F50.
G1 X44.0101 Y-21.0768 Z0.3607
G1 X44.0101 Y-21.0798 Z0.3488
G1 X44.0101 Y-21.0839 Z0.3372
G1 X44.0101 Y-21.0892 Z0.3261
G1 X44.0101 Y-21.0955 Z0.3156
G1 X44.0101 Y-21.1028 Z0.3058
G1 X44.0101 Y-21.1110 Z0.2967
G1 X44.0101 Y-21.1201 Z0.2884
G1 X44.0101 Y-21.1300 Z0.2811
G1 X44.0101 Y-21.1405 Z0.2748
G1 X44.0101 Y-21.1516 Z0.2696
G1 X44.0101 Y-21.1631 Z0.2654
G1 X44.0101 Y-21.1750 Z0.2625
G1 X44.0101 Y-21.1872 Z0.2607
G1 X44.0101 Y-21.1994 Z0.2601
G1 X44.0101 Y-23.1691 Z0.2601 F75.
G1 X44.0101 Y-23.1886 Z0.2600
G1 X44.0101 Y-23.2081 Z0.2600
G1 X44.0101 Y-23.2276 Z0.2598
G1 X44.0101 Y-23.2373 Z0.2598
G1 X44.0101 Y-23.2666 Z0.2595
G1 X44.0101 Y-23.2959 Z0.2590
G1 X44.0101 Y-23.3251 Z0.2585
G1 X44.0101 Y-23.3446 Z0.2581
G1 X44.0101 Y-23.3641 Z0.2576
G1 X44.0101 Y-23.3836 Z0.2571
G1 X44.0101 Y-23.3934 Z0.2568
G1 X44.0101 Y-23.4226 Z0.2559
G1 X44.0101 Y-23.4519 Z0.2549
G1 X44.0101 Y-23.4811 Z0.2537
G1 X44.0101 Y-23.5006 Z0.2529
G1 X44.0101 Y-23.5201 Z0.2520
G1 X44.0101 Y-23.5396 Z0.2511
G1 X44.0101 Y-23.5591 Z0.2501
G1 X44.0101 Y-23.5786 Z0.2491
G1 X44.0101 Y-23.6079 Z0.2474
G1 X44.0101 Y-23.6371 Z0.2457
G1 X44.0101 Y-23.6664 Z0.2438
G1 X44.0101 Y-23.6761 Z0.2432
G1 X44.0101 Y-23.6956 Z0.2418
G1 X44.0101 Y-23.7151 Z0.2404
G1 X44.0101 Y-23.7346 Z0.2390
G1 X44.0101 Y-23.7541 Z0.2375
G1 X44.0101 Y-23.7639 Z0.2367
G1 X44.0101 Y-23.7931 Z0.2344
G1 X44.0101 Y-23.8224 Z0.2319
G1 X44.0101 Y-23.8516 Z0.2293
G1 X44.0101 Y-23.8711 Z0.2275
G1 X44.0101 Y-23.8906 Z0.2256
G1 X44.0101 Y-23.9102 Z0.2237
G1 X44.0101 Y-23.9199 Z0.2228
G1 X44.0101 Y-23.9492 Z0.2198
G1 X44.0101 Y-23.9784 Z0.2167
G1 X44.0101 Y-24.0077 Z0.2135
G1 X44.0101 Y-24.0369 Z0.2101
G1 X44.0101 Y-24.0467 Z0.2090
G1 X44.0101 Y-24.0662 Z0.2067
G1 X44.0101 Y-24.0857 Z0.2043
G1 X44.0101 Y-24.1052 Z0.2019
G1 X44.0101 Y-24.1247 Z0.1994
G1 X44.0101 Y-24.1344 Z0.1982
G1 X44.0101 Y-24.1637 Z0.1943
G1 X44.0101 Y-24.1929 Z0.1904
G1 X44.0101 Y-24.2222 Z0.1863
G1 X44.0101 Y-24.2514 Z0.1821
G1 X44.0101 Y-24.2612 Z0.1807
G1 X44.0101 Y-24.2807 Z0.1778
G1 X44.0101 Y-24.3002 Z0.1749
G1 X44.0101 Y-24.3197 Z0.1719
G1 X44.0101 Y-24.3394 Z0.1688
G1 X44.0101 Y-24.3493 Z0.1672
G1 X44.0101 Y-24.3790 Z0.1625
G1 X44.0101 Y-24.3987 Z0.1592
G1 X44.0101 Y-24.4122 Z0.1577
G1 X44.0101 Y-24.4257 Z0.1577
G1 X44.0101 Y-24.4392 Z0.1592
G1 X44.0101 Y-24.4524 Z0.1621
G1 X44.0101 Y-24.4652 Z0.1664
G1 X44.0101 Y-24.4775 Z0.1721
G1 X44.0101 Y-24.4891 Z0.1791
G1 X44.0101 Y-24.4999 Z0.1873
G1 X44.0101 Y-24.5097 Z0.1966
G1 X44.0101 Y-24.5185 Z0.2069
G1 X44.0101 Y-24.5261 Z0.2181
G1 X44.0101 Y-24.5325 Z0.2301
G1 X44.0101 Y-24.5375 Z0.2426
G1 X44.0101 Y-24.5411 Z0.2557
G1 X44.0101 Y-24.5433 Z0.2690
G1 X44.0101 Y-24.5440 Z0.2826
G0 Z0.3101
G0 X44.0101 Y-24.5440 
G0 Z0.3851
G0 X43.8851 Y-21.0744 
G1 X43.8851 Y-21.0750 Z0.3728 F50.
G1 X43.8851 Y-21.0768 Z0.3607
G1 X43.8851 Y-21.0798 Z0.3488
G1 X43.8851 Y-21.0839 Z0.3372
G1 X43.8851 Y-21.0892 Z0.3261
G1 X43.8851 Y-21.0955 Z0.3156
G1 X43.8851 Y-21.1028 Z0.3058
G1 X43.8851 Y-21.1110 Z0.2967
G1 X43.8851 Y-21.1201 Z0.2884
G1 X43.8851 Y-21.1300 Z0.2811
G1 X43.8851 Y-21.1405 Z0.2748
G1 X43.8851 Y-21.1516 Z0.2696
G1 X43.8851 Y-21.1631 Z0.2654
G1 X43.8851 Y-21.1750 Z0.2625
G1 X43.8851 Y-21.1872 Z0.2607
G1 X43.8851 Y-21.1994 Z0.2601
G1 X43.8851 Y-23.1691 Z0.2601 F75.
G1 X43.8851 Y-23.1886 Z0.2600
G1 X43.8851 Y-23.2081 Z0.2600
G1 X43.8851 Y-23.2276 Z0.2598
G1 X43.8851 Y-23.2373 Z0.2598
G1 X43.8851 Y-23.2666 Z0.2595
G1 X43.8851 Y-23.2959 Z0.2590
G1 X43.8851 Y-23.3251 Z0.2585
G1 X43.8851 Y-23.3446 Z0.2581
G1 X43.8851 Y-23.3641 Z0.2576
G1 X43.8851 Y-23.3836 Z0.2571
G1 X43.8851 Y-23.3934 Z0.2568
G1 X43.8851 Y-23.4226 Z0.2559
G1 X43.8851 Y-23.4519 Z0.2549
G1 X43.8851 Y-23.4811 Z0.2537
G1 X43.8851 Y-23.5006 Z0.2529
G1 X43.8851 Y-23.5201 Z0.2520
G1 X43.8851 Y-23.5396 Z0.2511
G1 X43.8851 Y-23.5591 Z0.2501
G1 X43.8851 Y-23.5786 Z0.2491
G1 X43.8851 Y-23.6079 Z0.2474
G1 X43.8851 Y-23.6371 Z0.2457
G1 X43.8851 Y-23.6664 Z0.2438
G1 X43.8851 Y-23.6761 Z0.2432
G1 X43.8851 Y-23.6956 Z0.2418
G1 X43.8851 Y-23.7151 Z0.2404
G1 X43.8851 Y-23.7346 Z0.2390
G1 X43.8851 Y-23.7541 Z0.2375
G1 X43.8851 Y-23.7639 Z0.2367
G1 X43.8851 Y-23.7931 Z0.2344
G1 X43.8851 Y-23.8224 Z0.2319
G1 X43.8851 Y-23.8516 Z0.2293
G1 X43.8851 Y-23.8711 Z0.2275
G1 X43.8851 Y-23.8906 Z0.2256
G1 X43.8851 Y-23.9102 Z0.2237
G1 X43.8851 Y-23.9199 Z0.2228
G1 X43.8851 Y-23.9492 Z0.2198
G1 X43.8851 Y-23.9784 Z0.2167
G1 X43.8851 Y-24.0077 Z0.2135
G1 X43.8851 Y-24.0369 Z0.2101
G1 X43.8851 Y-24.0467 Z0.2090
G1 X43.8851 Y-24.0662 Z0.2067
G1 X43.8851 Y-24.0857 Z0.2043
G1 X43.8851 Y-24.1052 Z0.2019
G1 X43.8851 Y-24.1247 Z0.1994
G1 X43.8851 Y-24.1344 Z0.1982
G1 X43.8851 Y-24.1637 Z0.1943
G1 X43.8851 Y-24.1929 Z0.1904
G1 X43.8851 Y-24.2222 Z0.1863
G1 X43.8851 Y-24.2514 Z0.1821
G1 X43.8851 Y-24.2612 Z0.1807
G1 X43.8851 Y-24.2807 Z0.1778
G1 X43.8851 Y-24.3002 Z0.1749
G1 X43.8851 Y-24.3197 Z0.1719
G1 X43.8851 Y-24.3398 Z0.1687
G1 X43.8851 Y-24.3599 Z0.1655
G1 X43.8851 Y-24.3800 Z0.1623
G1 X43.8851 Y-24.4001 Z0.1590
G1 X43.8851 Y-24.4136 Z0.1575
G1 X43.8851 Y-24.4271 Z0.1575
G1 X43.8851 Y-24.4406 Z0.1590
G1 X43.8851 Y-24.4538 Z0.1619
G1 X43.8851 Y-24.4667 Z0.1662
G1 X43.8851 Y-24.4789 Z0.1719
G1 X43.8851 Y-24.4905 Z0.1788
G1 X43.8851 Y-24.5013 Z0.1870
G1 X43.8851 Y-24.5112 Z0.1963
G1 X43.8851 Y-24.5199 Z0.2067
G1 X43.8851 Y-24.5275 Z0.2179
G1 X43.8851 Y-24.5339 Z0.2298
G1 X43.8851 Y-24.5389 Z0.2424
G1 X43.8851 Y-24.5425 Z0.2554
G1 X43.8851 Y-24.5447 Z0.2688
G1 X43.8851 Y-24.5454 Z0.2823
G0 Z0.3101
G0 X43.8851 Y-24.5454 
G0 Z0.3851
G0 X43.7601 Y-21.0744 
G1 X43.7601 Y-21.0750 Z0.3728 F50.
G1 X43.7601 Y-21.0768 Z0.3607
G1 X43.7601 Y-21.0798 Z0.3488
G1 X43.7601 Y-21.0839 Z0.3372
G1 X43.7601 Y-21.0892 Z0.3261
G1 X43.7601 Y-21.0955 Z0.3156
G1 X43.7601 Y-21.1028 Z0.3058
G1 X43.7601 Y-21.1110 Z0.2967
G1 X43.7601 Y-21.1201 Z0.2884
G1 X43.7601 Y-21.1300 Z0.2811
G1 X43.7601 Y-21.1405 Z0.2748
G1 X43.7601 Y-21.1516 Z0.2696
G1 X43.7601 Y-21.1631 Z0.2654
G1 X43.7601 Y-21.1750 Z0.2625
G1 X43.7601 Y-21.1872 Z0.2607
G1 X43.7601 Y-21.1994 Z0.2601
G1 X43.7601 Y-23.1691 Z0.2601 F75.
G1 X43.7601 Y-23.1886 Z0.2600
G1 X43.7601 Y-23.2081 Z0.2600
G1 X43.7601 Y-23.2276 Z0.2598
G1 X43.7601 Y-23.2373 Z0.2598
G1 X43.7601 Y-23.2666 Z0.2595
G1 X43.7601 Y-23.2959 Z0.2590
G1 X43.7601 Y-23.3251 Z0.2585
G1 X43.7601 Y-23.3446 Z0.2581
G1 X43.7601 Y-23.3641 Z0.2576
G1 X43.7601 Y-23.3836 Z0.2571
G1 X43.7601 Y-23.3934 Z0.2568
G1 X43.7601 Y-23.4226 Z0.2559
G1 X43.7601 Y-23.4519 Z0.2549
G1 X43.7601 Y-23.4811 Z0.2537
G1 X43.7601 Y-23.5006 Z0.2529
G1 X43.7601 Y-23.5201 Z0.2520
G1 X43.7601 Y-23.5396 Z0.2511
G1 X43.7601 Y-23.5591 Z0.2501
G1 X43.7601 Y-23.5786 Z0.2491
G1 X43.7601 Y-23.6079 Z0.2474
G1 X43.7601 Y-23.6371 Z0.2457
G1 X43.7601 Y-23.6664 Z0.2438
G1 X43.7601 Y-23.6761 Z0.2432
G1 X43.7601 Y-23.6956 Z0.2418
G1 X43.7601 Y-23.7151 Z0.2404
G1 X43.7601 Y-23.7346 Z0.2390
G1 X43.7601 Y-23.7541 Z0.2375
G1 X43.7601 Y-23.7639 Z0.2367
G1 X43.7601 Y-23.7931 Z0.2344
G1 X43.7601 Y-23.8224 Z0.2319
G1 X43.7601 Y-23.8516 Z0.2293
G1 X43.7601 Y-23.8711 Z0.2275
G1 X43.7601 Y-23.8906 Z0.2256
G1 X43.7601 Y-23.9102 Z0.2237
G1 X43.7601 Y-23.9199 Z0.2228
G1 X43.7601 Y-23.9492 Z0.2198
G1 X43.7601 Y-23.9784 Z0.2167
G1 X43.7601 Y-24.0077 Z0.2135
G1 X43.7601 Y-24.0369 Z0.2101
G1 X43.7601 Y-24.0467 Z0.2090
G1 X43.7601 Y-24.0662 Z0.2067
G1 X43.7601 Y-24.0857 Z0.2043
G1 X43.7601 Y-24.1052 Z0.2019
G1 X43.7601 Y-24.1247 Z0.1994
G1 X43.7601 Y-24.1344 Z0.1982
G1 X43.7601 Y-24.1637 Z0.1943
G1 X43.7601 Y-24.1929 Z0.1904
G1 X43.7601 Y-24.2222 Z0.1863
G1 X43.7601 Y-24.2514 Z0.1821
G1 X43.7601 Y-24.2612 Z0.1807
G1 X43.7601 Y-24.2807 Z0.1778
G1 X43.7601 Y-24.3002 Z0.1749
G1 X43.7601 Y-24.3197 Z0.1719
G1 X43.7601 Y-24.3401 Z0.1687
G1 X43.7601 Y-24.3606 Z0.1654
G1 X43.7601 Y-24.3811 Z0.1621
G1 X43.7601 Y-24.4016 Z0.1588
G1 X43.7601 Y-24.4150 Z0.1573
G1 X43.7601 Y-24.4285 Z0.1573
G1 X43.7601 Y-24.4420 Z0.1587
G1 X43.7601 Y-24.4552 Z0.1616
G1 X43.7601 Y-24.4681 Z0.1660
G1 X43.7601 Y-24.4804 Z0.1716
G1 X43.7601 Y-24.4920 Z0.1786
G1 X43.7601 Y-24.5027 Z0.1868
G1 X43.7601 Y-24.5126 Z0.1961
G1 X43.7601 Y-24.5213 Z0.2064
G1 X43.7601 Y-24.5289 Z0.2176
G1 X43.7601 Y-24.5353 Z0.2296
G1 X43.7601 Y-24.5403 Z0.2422
G1 X43.7601 Y-24.5439 Z0.2552
G1 X43.7601 Y-24.5461 Z0.2686
G1 X43.7601 Y-24.5469 Z0.2821
G0 Z0.3101
G0 X43.7601 Y-24.5469 
G0 Z0.3851
G0 X43.6351 Y-21.0744 
G1 X43.6351 Y-21.0750 Z0.3728 F50.
G1 X43.6351 Y-21.0768 Z0.3607
G1 X43.6351 Y-21.0798 Z0.3488
G1 X43.6351 Y-21.0839 Z0.3372
G1 X43.6351 Y-21.0892 Z0.3261
G1 X43.6351 Y-21.0955 Z0.3156
G1 X43.6351 Y-21.1028 Z0.3058
G1 X43.6351 Y-21.1110 Z0.2967
G1 X43.6351 Y-21.1201 Z0.2884
G1 X43.6351 Y-21.1300 Z0.2811
G1 X43.6351 Y-21.1405 Z0.2748
G1 X43.6351 Y-21.1516 Z0.2696
G1 X43.6351 Y-21.1631 Z0.2654
G1 X43.6351 Y-21.1750 Z0.2625
G1 X43.6351 Y-21.1872 Z0.2607
G1 X43.6351 Y-21.1994 Z0.2601
G1 X43.6351 Y-23.1691 Z0.2601 F75.
G1 X43.6351 Y-23.1886 Z0.2600
G1 X43.6351 Y-23.2081 Z0.2600
G1 X43.6351 Y-23.2276 Z0.2598
G1 X43.6351 Y-23.2373 Z0.2598
G1 X43.6351 Y-23.2666 Z0.2595
G1 X43.6351 Y-23.2959 Z0.2590
G1 X43.6351 Y-23.3251 Z0.2585
G1 X43.6351 Y-23.3446 Z0.2581
G1 X43.6351 Y-23.3641 Z0.2576
G1 X43.6351 Y-23.3836 Z0.2571
G1 X43.6351 Y-23.3934 Z0.2568
G1 X43.6351 Y-23.4226 Z0.2559
G1 X43.6351 Y-23.4519 Z0.2549
G1 X43.6351 Y-23.4811 Z0.2537
G1 X43.6351 Y-23.5006 Z0.2529
G1 X43.6351 Y-23.5201 Z0.2520
G1 X43.6351 Y-23.5396 Z0.2511
G1 X43.6351 Y-23.5591 Z0.2501
G1 X43.6351 Y-23.5786 Z0.2491
G1 X43.6351 Y-23.6079 Z0.2474
G1 X43.6351 Y-23.6371 Z0.2457
G1 X43.6351 Y-23.6664 Z0.2438
G1 X43.6351 Y-23.6761 Z0.2432
G1 X43.6351 Y-23.6956 Z0.2418
G1 X43.6351 Y-23.7151 Z0.2404
G1 X43.6351 Y-23.7346 Z0.2390
G1 X43.6351 Y-23.7541 Z0.2375
G1 X43.6351 Y-23.7639 Z0.2367
G1 X43.6351 Y-23.7931 Z0.2344
G1 X43.6351 Y-23.8224 Z0.2319
G1 X43.6351 Y-23.8516 Z0.2293
G1 X43.6351 Y-23.8711 Z0.2275
G1 X43.6351 Y-23.8906 Z0.2256
G1 X43.6351 Y-23.9102 Z0.2237
G1 X43.6351 Y-23.9199 Z0.2228
G1 X43.6351 Y-23.9492 Z0.2198
G1 X43.6351 Y-23.9784 Z0.2167
G1 X43.6351 Y-24.0077 Z0.2135
G1 X43.6351 Y-24.0369 Z0.2101
G1 X43.6351 Y-24.0467 Z0.2090
G1 X43.6351 Y-24.0662 Z0.2067
G1 X43.6351 Y-24.0857 Z0.2043
G1 X43.6351 Y-24.1052 Z0.2019
G1 X43.6351 Y-24.1247 Z0.1994
G1 X43.6351 Y-24.1344 Z0.1982
G1 X43.6351 Y-24.1637 Z0.1943
G1 X43.6351 Y-24.1929 Z0.1904
G1 X43.6351 Y-24.2222 Z0.1863
G1 X43.6351 Y-24.2514 Z0.1821
G1 X43.6351 Y-24.2612 Z0.1807
G1 X43.6351 Y-24.2807 Z0.1778
G1 X43.6351 Y-24.3002 Z0.1749
G1 X43.6351 Y-24.3197 Z0.1719
G1 X43.6351 Y-24.3405 Z0.1686
G1 X43.6351 Y-24.3613 Z0.1653
G1 X43.6351 Y-24.3717 Z0.1636
G1 X43.6351 Y-24.3821 Z0.1619
G1 X43.6351 Y-24.4030 Z0.1585
G1 X43.6351 Y-24.4164 Z0.1570
G1 X43.6351 Y-24.4300 Z0.1570
G1 X43.6351 Y-24.4434 Z0.1585
G1 X43.6351 Y-24.4567 Z0.1614
G1 X43.6351 Y-24.4695 Z0.1657
G1 X43.6351 Y-24.4818 Z0.1714
G1 X43.6351 Y-24.4934 Z0.1784
G1 X43.6351 Y-24.5042 Z0.1866
G1 X43.6351 Y-24.5140 Z0.1959
G1 X43.6351 Y-24.5228 Z0.2062
G1 X43.6351 Y-24.5304 Z0.2174
G1 X43.6351 Y-24.5367 Z0.2294
G1 X43.6351 Y-24.5417 Z0.2419
G1 X43.6351 Y-24.5453 Z0.2550
G1 X43.6351 Y-24.5475 Z0.2683
G1 X43.6351 Y-24.5483 Z0.2819
G0 Z0.3101
G0 X43.6351 Y-24.5483 
G0 Z0.3851
G0 X43.5101 Y-21.0744 
G1 X43.5101 Y-21.0750 Z0.3728 F50.
G1 X43.5101 Y-21.0768 Z0.3607
G1 X43.5101 Y-21.0798 Z0.3488
G1 X43.5101 Y-21.0839 Z0.3372
G1 X43.5101 Y-21.0892 Z0.3261
G1 X43.5101 Y-21.0955 Z0.3156
G1 X43.5101 Y-21.1028 Z0.3058
G1 X43.5101 Y-21.1110 Z0.2967
G1 X43.5101 Y-21.1201 Z0.2884
G1 X43.5101 Y-21.1300 Z0.2811
G1 X43.5101 Y-21.1405 Z0.2748
G1 X43.5101 Y-21.1516 Z0.2696
G1 X43.5101 Y-21.1631 Z0.2654
G1 X43.5101 Y-21.1750 Z0.2625
G1 X43.5101 Y-21.1872 Z0.2607
G1 X43.5101 Y-21.1994 Z0.2601
G1 X43.5101 Y-23.1691 Z0.2601 F75.
G1 X43.5101 Y-23.1886 Z0.2600
G1 X43.5101 Y-23.2081 Z0.2600
G1 X43.5101 Y-23.2276 Z0.2598
G1 X43.5101 Y-23.2373 Z0.2598
G1 X43.5101 Y-23.2666 Z0.2595
G1 X43.5101 Y-23.2959 Z0.2590
G1 X43.5101 Y-23.3251 Z0.2585
G1 X43.5101 Y-23.3446 Z0.2581
G1 X43.5101 Y-23.3641 Z0.2576
G1 X43.5101 Y-23.3836 Z0.2571
G1 X43.5101 Y-23.3934 Z0.2568
G1 X43.5101 Y-23.4226 Z0.2559
G1 X43.5101 Y-23.4519 Z0.2549
G1 X43.5101 Y-23.4811 Z0.2537
G1 X43.5101 Y-23.5006 Z0.2529
G1 X43.5101 Y-23.5201 Z0.2520
G1 X43.5101 Y-23.5396 Z0.2511
G1 X43.5101 Y-23.5591 Z0.2501
G1 X43.5101 Y-23.5786 Z0.2491
G1 X43.5101 Y-23.6079 Z0.2474
G1 X43.5101 Y-23.6371 Z0.2457
G1 X43.5101 Y-23.6664 Z0.2438
G1 X43.5101 Y-23.6761 Z0.2432
G1 X43.5101 Y-23.6956 Z0.2418
G1 X43.5101 Y-23.7151 Z0.2404
G1 X43.5101 Y-23.7346 Z0.2390
G1 X43.5101 Y-23.7541 Z0.2375
G1 X43.5101 Y-23.7639 Z0.2367
G1 X43.5101 Y-23.7931 Z0.2344
G1 X43.5101 Y-23.8224 Z0.2319
G1 X43.5101 Y-23.8516 Z0.2293
G1 X43.5101 Y-23.8711 Z0.2275
G1 X43.5101 Y-23.8906 Z0.2256
G1 X43.5101 Y-23.9102 Z0.2237
G1 X43.5101 Y-23.9199 Z0.2228
G1 X43.5101 Y-23.9492 Z0.2198
G1 X43.5101 Y-23.9784 Z0.2167
G1 X43.5101 Y-24.0077 Z0.2135
G1 X43.5101 Y-24.0369 Z0.2101
G1 X43.5101 Y-24.0467 Z0.2090
G1 X43.5101 Y-24.0662 Z0.2067
G1 X43.5101 Y-24.0857 Z0.2043
G1 X43.5101 Y-24.1052 Z0.2019
G1 X43.5101 Y-24.1247 Z0.1994
G1 X43.5101 Y-24.1344 Z0.1982
G1 X43.5101 Y-24.1637 Z0.1943
G1 X43.5101 Y-24.1929 Z0.1904
G1 X43.5101 Y-24.2222 Z0.1863
G1 X43.5101 Y-24.2514 Z0.1821
G1 X43.5101 Y-24.2612 Z0.1807
G1 X43.5101 Y-24.2807 Z0.1778
G1 X43.5101 Y-24.3002 Z0.1749
G1 X43.5101 Y-24.3197 Z0.1719
G1 X43.5101 Y-24.3409 Z0.1686
G1 X43.5101 Y-24.3620 Z0.1652
G1 X43.5101 Y-24.3726 Z0.1635
G1 X43.5101 Y-24.3832 Z0.1618
G1 X43.5101 Y-24.4044 Z0.1583
G1 X43.5101 Y-24.4178 Z0.1568
G1 X43.5101 Y-24.4314 Z0.1568
G1 X43.5101 Y-24.4448 Z0.1583
G1 X43.5101 Y-24.4581 Z0.1612
G1 X43.5101 Y-24.4709 Z0.1655
G1 X43.5101 Y-24.4832 Z0.1712
G1 X43.5101 Y-24.4948 Z0.1781
G1 X43.5101 Y-24.5056 Z0.1863
G1 X43.5101 Y-24.5154 Z0.1956
G1 X43.5101 Y-24.5242 Z0.2060
G1 X43.5101 Y-24.5318 Z0.2172
G1 X43.5101 Y-24.5381 Z0.2291
G1 X43.5101 Y-24.5431 Z0.2417
G1 X43.5101 Y-24.5468 Z0.2547
G1 X43.5101 Y-24.5489 Z0.2681
G1 X43.5101 Y-24.5497 Z0.2816
G0 Z0.3101
G0 X43.5101 Y-24.5497 
G0 Z0.3851
G0 X43.3851 Y-21.0744 
G1 X43.3851 Y-21.0750 Z0.3728 F50.
G1 X43.3851 Y-21.0768 Z0.3607
G1 X43.3851 Y-21.0798 Z0.3488
G1 X43.3851 Y-21.0839 Z0.3372
G1 X43.3851 Y-21.0892 Z0.3261
G1 X43.3851 Y-21.0955 Z0.3156
G1 X43.3851 Y-21.1028 Z0.3058
G1 X43.3851 Y-21.1110 Z0.2967
G1 X43.3851 Y-21.1201 Z0.2884
G1 X43.3851 Y-21.1300 Z0.2811
G1 X43.3851 Y-21.1405 Z0.2748
G1 X43.3851 Y-21.1516 Z0.2696
G1 X43.3851 Y-21.1631 Z0.2654
G1 X43.3851 Y-21.1750 Z0.2625
G1 X43.3851 Y-21.1872 Z0.2607
G1 X43.3851 Y-21.1994 Z0.2601
G1 X43.3851 Y-23.1691 Z0.2601 F75.
G1 X43.3851 Y-23.1886 Z0.2600
G1 X43.3851 Y-23.2081 Z0.2600
G1 X43.3851 Y-23.2276 Z0.2598
G1 X43.3851 Y-23.2373 Z0.2598
G1 X43.3851 Y-23.2666 Z0.2595
G1 X43.3851 Y-23.2959 Z0.2590
G1 X43.3851 Y-23.3251 Z0.2585
G1 X43.3851 Y-23.3446 Z0.2581
G1 X43.3851 Y-23.3641 Z0.2576
G1 X43.3851 Y-23.3836 Z0.2571
G1 X43.3851 Y-23.3934 Z0.2568
G1 X43.3851 Y-23.4226 Z0.2559
G1 X43.3851 Y-23.4519 Z0.2549
G1 X43.3851 Y-23.4811 Z0.2537
G1 X43.3851 Y-23.5006 Z0.2529
G1 X43.3851 Y-23.5201 Z0.2520
G1 X43.3851 Y-23.5396 Z0.2511
G1 X43.3851 Y-23.5591 Z0.2501
G1 X43.3851 Y-23.5786 Z0.2491
G1 X43.3851 Y-23.6079 Z0.2474
G1 X43.3851 Y-23.6371 Z0.2457
G1 X43.3851 Y-23.6664 Z0.2438
G1 X43.3851 Y-23.6761 Z0.2432
G1 X43.3851 Y-23.6956 Z0.2418
G1 X43.3851 Y-23.7151 Z0.2404
G1 X43.3851 Y-23.7346 Z0.2390
G1 X43.3851 Y-23.7541 Z0.2375
G1 X43.3851 Y-23.7639 Z0.2367
G1 X43.3851 Y-23.7931 Z0.2344
G1 X43.3851 Y-23.8224 Z0.2319
G1 X43.3851 Y-23.8516 Z0.2293
G1 X43.3851 Y-23.8711 Z0.2275
G1 X43.3851 Y-23.8906 Z0.2256
G1 X43.3851 Y-23.9102 Z0.2237
G1 X43.3851 Y-23.9199 Z0.2228
G1 X43.3851 Y-23.9492 Z0.2198
G1 X43.3851 Y-23.9784 Z0.2167
G1 X43.3851 Y-24.0077 Z0.2135
G1 X43.3851 Y-24.0369 Z0.2101
G1 X43.3851 Y-24.0467 Z0.2090
G1 X43.3851 Y-24.0662 Z0.2067
G1 X43.3851 Y-24.0857 Z0.2043
G1 X43.3851 Y-24.1052 Z0.2019
G1 X43.3851 Y-24.1247 Z0.1994
G1 X43.3851 Y-24.1344 Z0.1982
G1 X43.3851 Y-24.1637 Z0.1943
G1 X43.3851 Y-24.1929 Z0.1904
G1 X43.3851 Y-24.2222 Z0.1863
G1 X43.3851 Y-24.2514 Z0.1821
G1 X43.3851 Y-24.2612 Z0.1807
G1 X43.3851 Y-24.2807 Z0.1778
G1 X43.3851 Y-24.3002 Z0.1749
G1 X43.3851 Y-24.3197 Z0.1719
G1 X43.3851 Y-24.3412 Z0.1685
G1 X43.3851 Y-24.3627 Z0.1651
G1 X43.3851 Y-24.3735 Z0.1634
G1 X43.3851 Y-24.3843 Z0.1616
G1 X43.3851 Y-24.4058 Z0.1581
G1 X43.3851 Y-24.4193 Z0.1566
G1 X43.3851 Y-24.4328 Z0.1566
G1 X43.3851 Y-24.4463 Z0.1580
G1 X43.3851 Y-24.4595 Z0.1609
G1 X43.3851 Y-24.4723 Z0.1653
G1 X43.3851 Y-24.4846 Z0.1709
G1 X43.3851 Y-24.4962 Z0.1779
G1 X43.3851 Y-24.5070 Z0.1861
G1 X43.3851 Y-24.5168 Z0.1954
G1 X43.3851 Y-24.5256 Z0.2057
G1 X43.3851 Y-24.5332 Z0.2169
G1 X43.3851 Y-24.5395 Z0.2289
G1 X43.3851 Y-24.5445 Z0.2415
G1 X43.3851 Y-24.5482 Z0.2545
G1 X43.3851 Y-24.5504 Z0.2679
G1 X43.3851 Y-24.5511 Z0.2814
G0 Z0.3101
G0 X43.3851 Y-24.5511 
G0 Z0.3851
G0 X43.2601 Y-21.0744 
G1 X43.2601 Y-21.0750 Z0.3728 F50.
G1 X43.2601 Y-21.0768 Z0.3607
G1 X43.2601 Y-21.0798 Z0.3488
G1 X43.2601 Y-21.0839 Z0.3372
G1 X43.2601 Y-21.0892 Z0.3261
G1 X43.2601 Y-21.0955 Z0.3156
G1 X43.2601 Y-21.1028 Z0.3058
G1 X43.2601 Y-21.1110 Z0.2967
G1 X43.2601 Y-21.1201 Z0.2884
G1 X43.2601 Y-21.1300 Z0.2811
G1 X43.2601 Y-21.1405 Z0.2748
G1 X43.2601 Y-21.1516 Z0.2696
G1 X43.2601 Y-21.1631 Z0.2654
G1 X43.2601 Y-21.1750 Z0.2625
G1 X43.2601 Y-21.1872 Z0.2607
G1 X43.2601 Y-21.1994 Z0.2601
G1 X43.2601 Y-23.1691 Z0.2601 F75.
G1 X43.2601 Y-23.1886 Z0.2600
G1 X43.2601 Y-23.2081 Z0.2600
G1 X43.2601 Y-23.2276 Z0.2598
G1 X43.2601 Y-23.2373 Z0.2598
G1 X43.2601 Y-23.2666 Z0.2595
G1 X43.2601 Y-23.2959 Z0.2590
G1 X43.2601 Y-23.3251 Z0.2585
G1 X43.2601 Y-23.3446 Z0.2581
G1 X43.2601 Y-23.3641 Z0.2576
G1 X43.2601 Y-23.3836 Z0.2571
G1 X43.2601 Y-23.3934 Z0.2568
G1 X43.2601 Y-23.4226 Z0.2559
G1 X43.2601 Y-23.4519 Z0.2549
G1 X43.2601 Y-23.4811 Z0.2537
G1 X43.2601 Y-23.5006 Z0.2529
G1 X43.2601 Y-23.5201 Z0.2520
G1 X43.2601 Y-23.5396 Z0.2511
G1 X43.2601 Y-23.5591 Z0.2501
G1 X43.2601 Y-23.5786 Z0.2491
G1 X43.2601 Y-23.6079 Z0.2474
G1 X43.2601 Y-23.6371 Z0.2457
G1 X43.2601 Y-23.6664 Z0.2438
G1 X43.2601 Y-23.6761 Z0.2432
G1 X43.2601 Y-23.6956 Z0.2418
G1 X43.2601 Y-23.7151 Z0.2404
G1 X43.2601 Y-23.7346 Z0.2390
G1 X43.2601 Y-23.7541 Z0.2375
G1 X43.2601 Y-23.7639 Z0.2367
G1 X43.2601 Y-23.7931 Z0.2344
G1 X43.2601 Y-23.8224 Z0.2319
G1 X43.2601 Y-23.8516 Z0.2293
G1 X43.2601 Y-23.8711 Z0.2275
G1 X43.2601 Y-23.8906 Z0.2256
G1 X43.2601 Y-23.9102 Z0.2237
G1 X43.2601 Y-23.9199 Z0.2228
G1 X43.2601 Y-23.9492 Z0.2198
G1 X43.2601 Y-23.9784 Z0.2167
G1 X43.2601 Y-24.0077 Z0.2135
G1 X43.2601 Y-24.0369 Z0.2101
G1 X43.2601 Y-24.0467 Z0.2090
G1 X43.2601 Y-24.0662 Z0.2067
G1 X43.2601 Y-24.0857 Z0.2043
G1 X43.2601 Y-24.1052 Z0.2019
G1 X43.2601 Y-24.1247 Z0.1994
G1 X43.2601 Y-24.1344 Z0.1982
G1 X43.2601 Y-24.1637 Z0.1943
G1 X43.2601 Y-24.1929 Z0.1904
G1 X43.2601 Y-24.2222 Z0.1863
G1 X43.2601 Y-24.2514 Z0.1821
G1 X43.2601 Y-24.2612 Z0.1807
G1 X43.2601 Y-24.2807 Z0.1778
G1 X43.2601 Y-24.3002 Z0.1749
G1 X43.2601 Y-24.3197 Z0.1719
G1 X43.2601 Y-24.3416 Z0.1685
G1 X43.2601 Y-24.3634 Z0.1650
G1 X43.2601 Y-24.3744 Z0.1632
G1 X43.2601 Y-24.3853 Z0.1614
G1 X43.2601 Y-24.4072 Z0.1578
G1 X43.2601 Y-24.4207 Z0.1563
G1 X43.2601 Y-24.4342 Z0.1563
G1 X43.2601 Y-24.4477 Z0.1578
G1 X43.2601 Y-24.4609 Z0.1607
G1 X43.2601 Y-24.4737 Z0.1650
G1 X43.2601 Y-24.4860 Z0.1707
G1 X43.2601 Y-24.4976 Z0.1777
G1 X43.2601 Y-24.5084 Z0.1859
G1 X43.2601 Y-24.5183 Z0.1952
G1 X43.2601 Y-24.5270 Z0.2055
G1 X43.2601 Y-24.5346 Z0.2167
G1 X43.2601 Y-24.5410 Z0.2286
G1 X43.2601 Y-24.5460 Z0.2412
G1 X43.2601 Y-24.5496 Z0.2543
G1 X43.2601 Y-24.5518 Z0.2676
G1 X43.2601 Y-24.5525 Z0.2812
G0 Z0.3101
G0 X43.2601 Y-24.5525 
G0 Z0.3851
G0 X43.1351 Y-21.0744 
G1 X43.1351 Y-21.0750 Z0.3728 F50.
G1 X43.1351 Y-21.0768 Z0.3607
G1 X43.1351 Y-21.0798 Z0.3488
G1 X43.1351 Y-21.0839 Z0.3372
G1 X43.1351 Y-21.0892 Z0.3261
G1 X43.1351 Y-21.0955 Z0.3156
G1 X43.1351 Y-21.1028 Z0.3058
G1 X43.1351 Y-21.1110 Z0.2967
G1 X43.1351 Y-21.1201 Z0.2884
G1 X43.1351 Y-21.1300 Z0.2811
G1 X43.1351 Y-21.1405 Z0.2748
G1 X43.1351 Y-21.1516 Z0.2696
G1 X43.1351 Y-21.1631 Z0.2654
G1 X43.1351 Y-21.1750 Z0.2625
G1 X43.1351 Y-21.1872 Z0.2607
G1 X43.1351 Y-21.1994 Z0.2601
G1 X43.1351 Y-23.1691 Z0.2601 F75.
G1 X43.1351 Y-23.1886 Z0.2600
G1 X43.1351 Y-23.2081 Z0.2600
G1 X43.1351 Y-23.2276 Z0.2598
G1 X43.1351 Y-23.2373 Z0.2598
G1 X43.1351 Y-23.2666 Z0.2595
G1 X43.1351 Y-23.2959 Z0.2590
G1 X43.1351 Y-23.3251 Z0.2585
G1 X43.1351 Y-23.3446 Z0.2581
G1 X43.1351 Y-23.3641 Z0.2576
G1 X43.1351 Y-23.3836 Z0.2571
G1 X43.1351 Y-23.3934 Z0.2568
G1 X43.1351 Y-23.4226 Z0.2559
G1 X43.1351 Y-23.4519 Z0.2549
G1 X43.1351 Y-23.4811 Z0.2537
G1 X43.1351 Y-23.5006 Z0.2529
G1 X43.1351 Y-23.5201 Z0.2520
G1 X43.1351 Y-23.5396 Z0.2511
G1 X43.1351 Y-23.5591 Z0.2501
G1 X43.1351 Y-23.5786 Z0.2491
G1 X43.1351 Y-23.6079 Z0.2474
G1 X43.1351 Y-23.6371 Z0.2457
G1 X43.1351 Y-23.6664 Z0.2438
G1 X43.1351 Y-23.6761 Z0.2432
G1 X43.1351 Y-23.6956 Z0.2418
G1 X43.1351 Y-23.7151 Z0.2404
G1 X43.1351 Y-23.7346 Z0.2390
G1 X43.1351 Y-23.7541 Z0.2375
G1 X43.1351 Y-23.7639 Z0.2367
G1 X43.1351 Y-23.7931 Z0.2344
G1 X43.1351 Y-23.8224 Z0.2319
G1 X43.1351 Y-23.8516 Z0.2293
G1 X43.1351 Y-23.8711 Z0.2275
G1 X43.1351 Y-23.8906 Z0.2256
G1 X43.1351 Y-23.9102 Z0.2237
G1 X43.1351 Y-23.9199 Z0.2228
G1 X43.1351 Y-23.9492 Z0.2198
G1 X43.1351 Y-23.9784 Z0.2167
G1 X43.1351 Y-24.0077 Z0.2135
G1 X43.1351 Y-24.0369 Z0.2101
G1 X43.1351 Y-24.0467 Z0.2090
G1 X43.1351 Y-24.0662 Z0.2067
G1 X43.1351 Y-24.0857 Z0.2043
G1 X43.1351 Y-24.1052 Z0.2019
G1 X43.1351 Y-24.1247 Z0.1994
G1 X43.1351 Y-24.1344 Z0.1982
G1 X43.1351 Y-24.1637 Z0.1943
G1 X43.1351 Y-24.1929 Z0.1904
G1 X43.1351 Y-24.2222 Z0.1863
G1 X43.1351 Y-24.2514 Z0.1821
G1 X43.1351 Y-24.2612 Z0.1807
G1 X43.1351 Y-24.2807 Z0.1778
G1 X43.1351 Y-24.3002 Z0.1749
G1 X43.1351 Y-24.3197 Z0.1719
G1 X43.1351 Y-24.3419 Z0.1684
G1 X43.1351 Y-24.3753 Z0.1631
G1 X43.1351 Y-24.4086 Z0.1576
G1 X43.1351 Y-24.4221 Z0.1561
G1 X43.1351 Y-24.4356 Z0.1561
G1 X43.1351 Y-24.4491 Z0.1575
G1 X43.1351 Y-24.4623 Z0.1604
G1 X43.1351 Y-24.4752 Z0.1648
G1 X43.1351 Y-24.4874 Z0.1704
G1 X43.1351 Y-24.4991 Z0.1774
G1 X43.1351 Y-24.5098 Z0.1856
G1 X43.1351 Y-24.5197 Z0.1949
G1 X43.1351 Y-24.5284 Z0.2052
G1 X43.1351 Y-24.5360 Z0.2164
G1 X43.1351 Y-24.5424 Z0.2284
G1 X43.1351 Y-24.5474 Z0.2410
G1 X43.1351 Y-24.5510 Z0.2540
G1 X43.1351 Y-24.5532 Z0.2674
G1 X43.1351 Y-24.5540 Z0.2809
G0 Z0.3101
G0 X43.1351 Y-24.5540 
G0 Z0.3851
G0 X43.0101 Y-21.0744 
G1 X43.0101 Y-21.0750 Z0.3728 F50.
G1 X43.0101 Y-21.0768 Z0.3607
G1 X43.0101 Y-21.0798 Z0.3488
G1 X43.0101 Y-21.0839 Z0.3372
G1 X43.0101 Y-21.0892 Z0.3261
G1 X43.0101 Y-21.0955 Z0.3156
G1 X43.0101 Y-21.1028 Z0.3058
G1 X43.0101 Y-21.1110 Z0.2967
G1 X43.0101 Y-21.1201 Z0.2884
G1 X43.0101 Y-21.1300 Z0.2811
G1 X43.0101 Y-21.1405 Z0.2748
G1 X43.0101 Y-21.1516 Z0.2696
G1 X43.0101 Y-21.1631 Z0.2654
G1 X43.0101 Y-21.1750 Z0.2625
G1 X43.0101 Y-21.1872 Z0.2607
G1 X43.0101 Y-21.1994 Z0.2601
G1 X43.0101 Y-23.1691 Z0.2601 F75.
G1 X43.0101 Y-23.1886 Z0.2600
G1 X43.0101 Y-23.2081 Z0.2600
G1 X43.0101 Y-23.2276 Z0.2598
G1 X43.0101 Y-23.2373 Z0.2598
G1 X43.0101 Y-23.2666 Z0.2595
G1 X43.0101 Y-23.2959 Z0.2590
G1 X43.0101 Y-23.3251 Z0.2585
G1 X43.0101 Y-23.3446 Z0.2581
G1 X43.0101 Y-23.3641 Z0.2576
G1 X43.0101 Y-23.3836 Z0.2571
G1 X43.0101 Y-23.3934 Z0.2568
G1 X43.0101 Y-23.4226 Z0.2559
G1 X43.0101 Y-23.4519 Z0.2549
G1 X43.0101 Y-23.4811 Z0.2537
G1 X43.0101 Y-23.5006 Z0.2529
G1 X43.0101 Y-23.5201 Z0.2520
G1 X43.0101 Y-23.5396 Z0.2511
G1 X43.0101 Y-23.5591 Z0.2501
G1 X43.0101 Y-23.5786 Z0.2491
G1 X43.0101 Y-23.6079 Z0.2474
G1 X43.0101 Y-23.6371 Z0.2457
G1 X43.0101 Y-23.6664 Z0.2438
G1 X43.0101 Y-23.6761 Z0.2432
G1 X43.0101 Y-23.6956 Z0.2418
G1 X43.0101 Y-23.7151 Z0.2404
G1 X43.0101 Y-23.7346 Z0.2390
G1 X43.0101 Y-23.7541 Z0.2375
G1 X43.0101 Y-23.7639 Z0.2367
G1 X43.0101 Y-23.7931 Z0.2344
G1 X43.0101 Y-23.8224 Z0.2319
G1 X43.0101 Y-23.8516 Z0.2293
G1 X43.0101 Y-23.8711 Z0.2275
G1 X43.0101 Y-23.8906 Z0.2256
G1 X43.0101 Y-23.9102 Z0.2237
G1 X43.0101 Y-23.9199 Z0.2228
G1 X43.0101 Y-23.9492 Z0.2198
G1 X43.0101 Y-23.9784 Z0.2167
G1 X43.0101 Y-24.0077 Z0.2135
G1 X43.0101 Y-24.0369 Z0.2101
G1 X43.0101 Y-24.0467 Z0.2090
G1 X43.0101 Y-24.0662 Z0.2067
G1 X43.0101 Y-24.0857 Z0.2043
G1 X43.0101 Y-24.1052 Z0.2019
G1 X43.0101 Y-24.1247 Z0.1994
G1 X43.0101 Y-24.1344 Z0.1982
G1 X43.0101 Y-24.1637 Z0.1943
G1 X43.0101 Y-24.1929 Z0.1904
G1 X43.0101 Y-24.2222 Z0.1863
G1 X43.0101 Y-24.2514 Z0.1821
G1 X43.0101 Y-24.2612 Z0.1807
G1 X43.0101 Y-24.2807 Z0.1778
G1 X43.0101 Y-24.3002 Z0.1749
G1 X43.0101 Y-24.3197 Z0.1719
G1 X43.0101 Y-24.3423 Z0.1684
G1 X43.0101 Y-24.3649 Z0.1647
G1 X43.0101 Y-24.3762 Z0.1629
G1 X43.0101 Y-24.3875 Z0.1611
G1 X43.0101 Y-24.4100 Z0.1573
G1 X43.0101 Y-24.4235 Z0.1559
G1 X43.0101 Y-24.4370 Z0.1558
G1 X43.0101 Y-24.4505 Z0.1573
G1 X43.0101 Y-24.4637 Z0.1602
G1 X43.0101 Y-24.4766 Z0.1645
G1 X43.0101 Y-24.4889 Z0.1702
G1 X43.0101 Y-24.5005 Z0.1772
G1 X43.0101 Y-24.5113 Z0.1853
G1 X43.0101 Y-24.5211 Z0.1947
G1 X43.0101 Y-24.5299 Z0.2050
G1 X43.0101 Y-24.5375 Z0.2162
G1 X43.0101 Y-24.5439 Z0.2281
G1 X43.0101 Y-24.5489 Z0.2407
G1 X43.0101 Y-24.5525 Z0.2538
G1 X43.0101 Y-24.5547 Z0.2671
G1 X43.0101 Y-24.5554 Z0.2807
G0 Z0.3101
