( MOP:  03-surface-s25PT5-nw43-htsstyle-nf22-start-02-NOMIRROR )
( FILE: G:\Shared drives\AlloyProjectFiles\Customer CAD files\Alloy-Standard-Builds-CAM\Fingerboards-in\03-surface-s25PT5-nw43-htsstyle-nf21-start-02-NOMIRROR.nc)
G90
(  BEGIN TOOL LIST )
(  TOOL 3 - Downcut PT750 - DESC: 0.7500 DIA, 2 FLUTE,  CARBIDE MAT )
(  ENDOF TOOL LIST )
( 03-surface-s25PT5-nw43-htsstyle-nf22-start-02-NOMIRROR)
T03
S14000
M3
G0 Z6.0000
G0 X8.3915 Y-7.6250 
G1 X8.3915 Y-7.6250 Z1.9200 F75.
G1 X11.2544 Y-7.6250 Z1.7950 F50.
G1 X23.8438 Y-7.6250 Z1.7950 F250.
G1 X23.8438 Y-12.8493 Z1.7950
G1 X18.6216 Y-12.7763 Z1.7950
G1 X18.6164 Y-12.7763 Z1.7950
G17
G3X18.0014Y-13.2894Z1.7950I0.0000J-0.6250
G3X18.0014Y-15.2131Z1.7950I5.2883J-0.9619
G3X18.6164Y-15.7263Z1.7950I0.6150J0.1118
G1 X18.6216 Y-15.7262 Z1.7950
G1 X23.8438 Y-15.6525 Z1.7950
G1 X23.8438 Y-18.2611 Z1.7950
G1 X23.8438 Y-20.8750 Z1.7950
G1 X4.5937 Y-20.8750 Z1.7950
G1 X4.5937 Y-7.6250 Z1.7950
G1 X11.2544 Y-7.6250 Z1.7950
G1 X11.2544 Y-7.8500 Z1.7950
G1 X23.6188 Y-7.8500 Z1.7950
G1 X23.6188 Y-12.6211 Z1.7950
G1 X18.6164 Y-12.5513 Z1.7950
G3X17.7801Y-13.2491Z1.7950I0.0000J-0.8500
G3X17.7801Y-15.2534Z1.7950I5.5096J-1.0022
G3X18.6164Y-15.9513Z1.7950I0.8363J0.1521
G1 X23.6188 Y-15.8807 Z1.7950
G1 X23.6188 Y-20.6500 Z1.7950
G1 X4.8187 Y-20.6500 Z1.7950
G1 X4.8187 Y-7.8500 Z1.7950
G1 X11.2544 Y-7.8500 Z1.7950
G1 X11.2544 Y-8.0750 Z1.7950
G1 X23.3938 Y-8.0750 Z1.7950
G1 X23.3938 Y-12.3929 Z1.7950
G1 X18.6164 Y-12.3263 Z1.7950
G3X17.5587Y-13.2089Z1.7950I0.0000J-1.0750
G3X17.5587Y-15.2936Z1.7950I5.7310J-1.0424
G3X18.6164Y-16.1763Z1.7950I1.0577J0.1923
G1 X23.3938 Y-16.1089 Z1.7950
G1 X23.3938 Y-20.4250 Z1.7950
G1 X5.0437 Y-20.4250 Z1.7950
G1 X5.0437 Y-8.0750 Z1.7950
G1 X11.2544 Y-8.0750 Z1.7950
G1 X11.2544 Y-8.3000 Z1.7950
G1 X23.1688 Y-8.3000 Z1.7950
G1 X23.1688 Y-12.1648 Z1.7950
G1 X18.6164 Y-12.1013 Z1.7950
G3X17.3373Y-13.1686Z1.7950I0.0000J-1.3000
G3X17.3373Y-15.3339Z1.7950I5.9524J-1.0827
G3X18.6164Y-16.4013Z1.7950I1.2791J0.2326
G1 X23.1688 Y-16.3371 Z1.7950
G1 X23.1688 Y-20.2000 Z1.7950
G1 X5.2687 Y-20.2000 Z1.7950
G1 X5.2687 Y-8.3000 Z1.7950
G1 X11.2544 Y-8.3000 Z1.7950
G1 X11.2544 Y-8.5250 Z1.7950
G1 X22.9438 Y-8.5250 Z1.7950
G1 X22.9438 Y-11.9366 Z1.7950
G1 X18.6164 Y-11.8763 Z1.7950
G3X17.1160Y-13.1284Z1.7950I0.0000J-1.5250
G3X17.1160Y-15.3741Z1.7950I6.1737J-1.1229
G3X18.6164Y-16.6263Z1.7950I1.5004J0.2728
G1 X22.9438 Y-16.5653 Z1.7950
G1 X22.9438 Y-19.9750 Z1.7950
G1 X5.4937 Y-19.9750 Z1.7950
G1 X5.4937 Y-8.5250 Z1.7950
G1 X11.2544 Y-8.5250 Z1.7950
G1 X11.2544 Y-8.7500 Z1.7950
G1 X22.7188 Y-8.7500 Z1.7950
G1 X22.7188 Y-11.7085 Z1.7950
G1 X18.6164 Y-11.6513 Z1.7950
G3X16.8946Y-13.0881Z1.7950I0.0000J-1.7500
G3X16.8946Y-15.4144Z1.7950I6.3951J-1.1632
G3X18.6164Y-16.8513Z1.7950I1.7218J0.3131
G1 X22.7188 Y-16.7935 Z1.7950
G1 X22.7188 Y-19.7500 Z1.7950
G1 X5.7187 Y-19.7500 Z1.7950
G1 X5.7187 Y-8.7500 Z1.7950
G1 X11.2544 Y-8.7500 Z1.7950
G1 X11.2544 Y-8.9750 Z1.7950
G1 X22.4938 Y-8.9750 Z1.7950
G1 X22.4938 Y-11.4803 Z1.7950
G1 X18.6164 Y-11.4263 Z1.7950
G3X16.6732Y-13.0478Z1.7950I0.0000J-1.9750
G3X16.6732Y-15.4547Z1.7950I6.6165J-1.2035
G3X18.6164Y-17.0763Z1.7950I1.9432J0.3534
G1 X22.4938 Y-17.0217 Z1.7950
G1 X22.4938 Y-19.5250 Z1.7950
G1 X5.9437 Y-19.5250 Z1.7950
G1 X5.9437 Y-8.9750 Z1.7950
G1 X11.2544 Y-8.9750 Z1.7950
G1 X11.2544 Y-9.2000 Z1.7950
G1 X22.2688 Y-9.2000 Z1.7950
G1 X22.2688 Y-11.2521 Z1.7950
G1 X18.6164 Y-11.2013 Z1.7950
G3X16.4519Y-13.0076Z1.7950I0.0000J-2.2000
G3X16.4519Y-15.4949Z1.7950I6.8378J-1.2437
G3X18.6164Y-17.3013Z1.7950I2.1645J0.3936
G1 X22.2688 Y-17.2499 Z1.7950
G1 X22.2688 Y-19.3000 Z1.7950
G1 X6.1687 Y-19.3000 Z1.7950
G1 X6.1687 Y-9.2000 Z1.7950
G1 X11.2544 Y-9.2000 Z1.7950
G1 X11.2544 Y-9.4250 Z1.7950
G1 X22.0438 Y-9.4250 Z1.7950
G1 X22.0438 Y-11.0240 Z1.7950
G1 X18.6164 Y-10.9763 Z1.7950
G3X16.2305Y-12.9673Z1.7950I0.0000J-2.4250
G3X16.2305Y-15.5352Z1.7950I7.0592J-1.2840
G3X18.6164Y-17.5263Z1.7950I2.3859J0.4339
G1 X22.0438 Y-17.4781 Z1.7950
G1 X22.0438 Y-19.0750 Z1.7950
G1 X6.3937 Y-19.0750 Z1.7950
G1 X6.3937 Y-9.4250 Z1.7950
G1 X11.2544 Y-9.4250 Z1.7950
G1 X11.2544 Y-9.6500 Z1.7950
G1 X21.8188 Y-9.6500 Z1.7950
G1 X21.8188 Y-10.7958 Z1.7950
G1 X18.6164 Y-10.7513 Z1.7950
G3X16.0091Y-12.9270Z1.7950I0.0000J-2.6500
G3X16.0091Y-15.5755Z1.7950I7.2806J-1.3243
G3X18.6164Y-17.7513Z1.7950I2.6073J0.4742
G1 X21.8188 Y-17.7062 Z1.7950
G1 X21.8188 Y-18.8500 Z1.7950
G1 X6.6187 Y-18.8500 Z1.7950
G1 X6.6187 Y-9.6500 Z1.7950
G1 X11.2544 Y-9.6500 Z1.7950
G1 X11.2544 Y-9.8750 Z1.7950
G1 X21.5938 Y-9.8750 Z1.7950
G1 X21.5938 Y-10.5677 Z1.7950
G1 X18.6164 Y-10.5263 Z1.7950
G3X15.7878Y-12.8868Z1.7950I0.0000J-2.8750
G3X15.7878Y-15.6157Z1.7950I7.5019J-1.3645
G3X18.6164Y-17.9763Z1.7950I2.8286J0.5144
G1 X21.5938 Y-17.9344 Z1.7950
G1 X21.5938 Y-18.6250 Z1.7950
G1 X6.8437 Y-18.6250 Z1.7950
G1 X6.8437 Y-9.8750 Z1.7950
G1 X11.2544 Y-9.8750 Z1.7950
G1 X11.2544 Y-10.1000 Z1.7950
G1 X21.3688 Y-10.1000 Z1.7950
G1 X21.3688 Y-10.3395 Z1.7950
G1 X18.6164 Y-10.3013 Z1.7950
G3X15.5664Y-12.8465Z1.7950I0.0000J-3.1000
G3X15.5664Y-15.6560Z1.7950I7.7233J-1.4048
G3X18.6164Y-18.2013Z1.7950I3.0500J0.5547
G1 X21.3688 Y-18.1626 Z1.7950
G1 X21.3688 Y-18.4000 Z1.7950
G1 X7.0687 Y-18.4000 Z1.7950
G1 X7.0687 Y-10.1000 Z1.7950
G1 X11.2544 Y-10.1000 Z1.7950
G1 X11.2544 Y-10.3250 Z1.7950
G1 X17.3545 Y-10.3250 Z1.7950
G3X15.3450Y-12.8063Z1.7950I1.2619J-3.0763
G3X15.3450Y-15.6963Z1.7950I7.9447J-1.4450
G3X17.3484Y-18.1750Z1.7950I3.2714J0.5950
G1 X7.2937 Y-18.1750 Z1.7950
G1 X7.2937 Y-10.3250 Z1.7950
G1 X11.2544 Y-10.3250 Z1.7950
G1 X11.2544 Y-10.5500 Z1.7950
G1 X16.5014 Y-10.5500 Z1.7950
G3X15.1237Y-12.7660Z1.7950I2.1150J-2.8513
G3X15.1237Y-15.7365Z1.7950I8.1660J-1.4853
G3X16.4981Y-17.9500Z1.7950I3.4927J0.6352
G1 X7.5187 Y-17.9500 Z1.7950
G1 X7.5187 Y-10.5500 Z1.7950
G1 X11.2544 Y-10.5500 Z1.7950
G1 X11.2544 Y-10.7750 Z1.7950
G1 X15.9046 Y-10.7750 Z1.7950
G3X14.9023Y-12.7257Z1.7950I2.7118J-2.6263
G3X14.9023Y-15.7768Z1.7950I8.3874J-1.5256
G3X15.9022Y-17.7250Z1.7950I3.7141J0.6755
G1 X7.7437 Y-17.7250 Z1.7950
G1 X7.7437 Y-10.7750 Z1.7950
G1 X11.2544 Y-10.7750 Z1.7950
G1 X11.2544 Y-11.0000 Z1.7950
G1 X15.4173 Y-11.0000 Z1.7950
G3X14.6809Y-12.6855Z1.7950I3.1991J-2.4013
G3X14.6809Y-15.8170Z1.7950I8.6088J-1.5658
G3X15.4154Y-17.5000Z1.7950I3.9355J0.7157
G1 X7.9687 Y-17.5000 Z1.7950
G1 X7.9687 Y-11.0000 Z1.7950
G1 X11.2544 Y-11.0000 Z1.7950
G1 X11.2544 Y-11.2250 Z1.7950
G1 X14.9950 Y-11.2250 Z1.7950
G3X14.4596Y-12.6452Z1.7950I3.6214J-2.1763
G3X14.4596Y-15.8573Z1.7950I8.8301J-1.6061
G3X14.9934Y-17.2750Z1.7950I4.1568J0.7560
G1 X8.1937 Y-17.2750 Z1.7950
G1 X8.1937 Y-11.2250 Z1.7950
G1 X11.2544 Y-11.2250 Z1.7950
G1 X11.2544 Y-11.4500 Z1.7950
G1 X14.6170 Y-11.4500 Z1.7950
G3X14.2382Y-12.6049Z1.7950I3.9994J-1.9513
G3X14.2382Y-15.8976Z1.7950I9.0515J-1.6464
G3X14.6157Y-17.0500Z1.7950I4.3782J0.7963
G1 X8.4187 Y-17.0500 Z1.7950
G1 X8.4187 Y-11.4500 Z1.7950
G1 X11.2544 Y-11.4500 Z1.7950
G1 X11.2544 Y-11.6750 Z1.7950
G1 X14.2717 Y-11.6750 Z1.7950
G3X14.0168Y-12.5647Z1.7950I4.3447J-1.7263
G3X14.0168Y-15.9378Z1.7950I9.2729J-1.6866
G3X14.2707Y-16.8250Z1.7950I4.5996J0.8365
G1 X8.6437 Y-16.8250 Z1.7950
G1 X8.6437 Y-11.6750 Z1.7950
G1 X11.2544 Y-11.6750 Z1.7950
G1 X11.2544 Y-11.9000 Z1.7950
G1 X13.9520 Y-11.9000 Z1.7950
G3X13.7954Y-12.5244Z1.7950I4.6644J-1.5013
G3X13.7954Y-15.9781Z1.7950I9.4943J-1.7269
G3X13.9512Y-16.6000Z1.7950I4.8210J0.8768
G1 X8.8687 Y-16.6000 Z1.7950
G1 X8.8687 Y-11.9000 Z1.7950
G1 X11.2544 Y-11.9000 Z1.7950
G1 X11.2544 Y-12.1250 Z1.7950
G1 X13.6528 Y-12.1250 Z1.7950
G3X13.5741Y-12.4841Z1.7950I4.9636J-1.2763
G3X13.5741Y-16.0184Z1.7950I9.7156J-1.7672
G3X13.6522Y-16.3750Z1.7950I5.0423J0.9171
G1 X9.0937 Y-16.3750 Z1.7950
G1 X9.0937 Y-12.1250 Z1.7950
G1 X11.2544 Y-12.1250 Z1.7950
G1 X11.2544 Y-12.3500 Z1.7950
G1 X13.3707 Y-12.3500 Z1.7950
G3X13.3527Y-12.4439Z1.7950I5.2457J-1.0513
G3X13.3527Y-16.0586Z1.7950I9.9370J-1.8074
G3X13.3702Y-16.1500Z1.7950I5.2637J0.9573
G1 X9.3187 Y-16.1500 Z1.7950
G1 X9.3187 Y-12.3500 Z1.7950
G1 X11.2544 Y-12.3500 Z1.7950
G1 X11.2544 Y-12.5750 Z1.7950
G1 X13.1017 Y-12.5750 Z1.7950
G3X13.1012Y-15.9250Z1.7950I10.1880J-1.6763
G1 X9.5437 Y-15.9250 Z1.7950
G1 X9.5437 Y-12.5750 Z1.7950
G1 X11.2544 Y-12.5750 Z1.7950
G1 X11.2544 Y-12.8000 Z1.7950
G1 X12.8400 Y-12.8000 Z1.7950
G3X12.8396Y-15.7000Z1.7950I10.4497J-1.4513
G1 X9.7687 Y-15.7000 Z1.7950
G1 X9.7687 Y-12.8000 Z1.7950
G1 X11.2544 Y-12.8000 Z1.7950
G1 X11.2544 Y-13.0250 Z1.7950
G1 X12.5847 Y-13.0250 Z1.7950
G3X12.5844Y-15.4750Z1.7950I10.7050J-1.2263
G1 X9.9937 Y-15.4750 Z1.7950
G1 X9.9937 Y-13.0250 Z1.7950
G1 X11.2544 Y-13.0250 Z1.7950
G1 X11.2544 Y-13.2500 Z1.7950
G1 X12.3353 Y-13.2500 Z1.7950
G3X12.3351Y-15.2500Z1.7950I10.9544J-1.0013
G1 X10.2187 Y-15.2500 Z1.7950
G1 X10.2187 Y-13.2500 Z1.7950
G1 X11.2544 Y-13.2500 Z1.7950
G1 X11.2544 Y-13.4750 Z1.7950
G1 X12.0916 Y-13.4750 Z1.7950
G3X12.0914Y-15.0250Z1.7950I11.1981J-0.7763
G1 X10.4437 Y-15.0250 Z1.7950
G1 X10.4437 Y-13.4750 Z1.7950
G1 X11.2544 Y-13.4750 Z1.7950
G1 X11.2544 Y-13.7000 Z1.7950
G1 X11.8530 Y-13.7000 Z1.7950
G3X11.8528Y-14.8000Z1.7950I11.4367J-0.5513
G1 X10.6687 Y-14.8000 Z1.7950
G1 X10.6687 Y-13.7000 Z1.7950
G1 X11.2544 Y-13.7000 Z1.7950
G1 X11.2544 Y-13.9250 Z1.7950
G1 X11.6192 Y-13.9250 Z1.7950
G3X11.6192Y-14.5750Z1.7950I11.6705J-0.3263
G1 X10.8937 Y-14.5750 Z1.7950
G1 X10.8937 Y-13.9250 Z1.7950
G1 X11.2544 Y-13.9250 Z1.7950
G1 X11.2544 Y-14.1500 Z1.7950
G1 X11.3901 Y-14.1500 Z1.7950
G3X11.3901Y-14.3500Z1.7950I11.8996J-0.1013
G1 X11.1187 Y-14.3500 Z1.7950
G1 X11.1187 Y-14.1500 Z1.7950
G1 X11.2544 Y-14.1500 Z1.7950
G0 Z6.0000
G0 X11.2544 Y-14.1500 
M5
G53 Z
X2Y0
