( MOP:  03-tr-WheelInset-s25PT5-AaronTaylor-03 )
( FILE: G:\Shared drives\AlloyProjectFiles\Customer CAD files\Alloy-Standard-Builds-CAM\Fingerboards-in\03-tr-WheelInset-s25PT5-AaronTaylor-03.nc)
G90
(  BEGIN TOOL LIST )
(  TOOL 7 - Downcut PT125 - DESC: 0.1250 DIA, 2 FLUTE,  CARBIDE MAT )
(  ENDOF TOOL LIST )
( 03-tr-WheelInset-s25PT5-AaronTaylor-03)
T07
S12000
M3
G0 Z4.0000
G0 X10.1729 Y-22.7475 
G1 X10.1729 Y-22.7475 Z1.5000 F75.
G1 X10.4229 Y-22.7475 Z1.5000 F25.
G1 X11.2861 Y-22.7475 Z1.5000 F75.
G1 X11.2861 Y-22.5025 Z1.5000
G1 X9.5596 Y-22.5025 Z1.5000
G1 X9.5596 Y-22.7475 Z1.5000
G1 X10.4229 Y-22.7475 Z1.5000
G1 X10.6729 Y-22.7475 Z1.5000
G0 Z4.0000
G0 X10.6729 Y-22.7475 
M5
G53 Z
X2Y0
