( MOP:  03-tr-WheelInset-s25PT5-AaronTaylor-02 )
( FILE: G:\Shared drives\AlloyProjectFiles\Customer CAD files\Alloy-Standard-Builds-CAM\Fingerboards-in\03-tr-WheelInset-s25PT5-AaronTaylor-02.nc)
G90
(  BEGIN TOOL LIST )
(  TOOL 7 - Downcut PT125 - DESC: 0.1250 DIA, 2 FLUTE,  CARBIDE MAT )
(  ENDOF TOOL LIST )
( 03-tr-WheelInset-s25PT5-AaronTaylor-02)
T07
S12000
M3
G0 Z4.0000
G0 X19.4011 Y-22.6965 
G1 X19.4011 Y-22.6965 Z1.5750 F75.
G1 X19.6511 Y-22.6965 Z1.5750 F25.
G1 X27.2861 Y-22.6965 Z1.5750 F75.
G1 X27.2861 Y-22.5535 Z1.5750
G1 X11.9636 Y-22.5535 Z1.5750
G17
G2X11.9218Y-22.5325Z1.5750I-0.0002J0.0518
G1 X11.3386 Y-22.5325 Z1.5750
G2X11.2912Y-22.5025Z1.5750I0.0000J0.0524
G1 X9.5596 Y-22.5025 Z1.5750
G1 X9.5596 Y-22.7475 Z1.5750
G1 X11.2913 Y-22.7472 Z1.5750
G2X11.3386Y-22.7175Z1.5750I0.0473J-0.0228
G1 X11.9218 Y-22.7175 Z1.5750
G2X11.9636Y-22.6965Z1.5750I0.0416J-0.0308
G1 X19.6511 Y-22.6965 Z1.5750
G1 X19.9011 Y-22.6965 Z1.5750
G0 Z4.0000
G0 X19.9011 Y-22.6965 
M5
G53 Z
X2Y0
