( MOP:  03-tr-WheelInset-s25PT5-AaronTaylor-01 )
( FILE: G:\Shared drives\AlloyProjectFiles\Customer CAD files\Alloy-Standard-Builds-CAM\Fingerboards-in\03-tr-WheelInset-s25PT5-AaronTaylor-01.nc)
G90
(  BEGIN TOOL LIST )
(  TOOL 7 - Downcut PT125 - DESC: 0.1250 DIA, 2 FLUTE,  CARBIDE MAT )
(  ENDOF TOOL LIST )
( 03-tr-WheelInset-s25PT5-AaronTaylor-01)
T07
S12000
M3
G0 Z4.0000
G0 X9.5071 Y-22.8000 
G1 X9.5071 Y-22.8000 Z2.0750 F75.
G1 X9.5071 Y-22.8000 Z1.9500 F25.
G1 X11.3386 Y-22.8000 Z1.9500 F75.
G1 X11.3386 Y-22.7700 Z1.9500
G1 X11.9636 Y-22.7700 Z1.9500
G1 X11.9636 Y-22.7587 Z1.9500
G1 X9.5071 Y-22.7587 Z1.9500
G1 X9.5071 Y-22.7175 Z1.9500
G1 X27.3386 Y-22.7175 Z1.9500
G1 X27.3386 Y-22.6762 Z1.9500
G1 X9.5071 Y-22.6762 Z1.9500
G1 X9.5071 Y-22.6350 Z1.9500
G1 X27.3386 Y-22.6350 Z1.9500
G1 X27.3386 Y-22.5937 Z1.9500
G1 X9.5071 Y-22.5937 Z1.9500
G1 X9.5071 Y-22.5525 Z1.9500
G1 X27.3386 Y-22.5525 Z1.9500
G1 X27.3386 Y-22.5112 Z1.9500
G1 X9.5071 Y-22.5112 Z1.9500
G1 X9.5071 Y-22.4700 Z1.9500
G1 X11.3386 Y-22.4700 Z1.9500
G1 X11.3386 Y-22.4500 Z1.9500
G1 X9.5071 Y-22.4500 Z1.9500
G0 Z2.0750
G0 X9.5071 Y-22.4500 
G0 Z2.0750
G0 X9.5071 Y-22.8000 
G1 X9.5071 Y-22.8000 Z1.9500 F25.
G1 X11.3386 Y-22.8000 Z1.9500 F75.
G1 X11.3386 Y-22.7700 Z1.9500
G1 X11.9636 Y-22.7700 Z1.9500
G1 X11.9636 Y-22.7587 Z1.9500
G1 X9.5071 Y-22.7587 Z1.9500
G1 X9.5071 Y-22.7376 Z1.9500
G1 X9.5071 Y-22.7376 Z1.8250
G1 X9.5071 Y-22.7175 Z1.8250
G1 X11.3047 Y-22.7175 Z1.8250
G1 X11.3050 Y-22.7175 Z1.9500
G1 X27.3386 Y-22.7175 Z1.9500
G1 X27.3386 Y-22.6762 Z1.9500
G1 X27.2761 Y-22.6762 Z1.9500
G1 X27.2758 Y-22.6762 Z1.8250
G1 X9.5071 Y-22.6762 Z1.8250
G1 X9.5071 Y-22.6350 Z1.8250
G1 X27.2763 Y-22.6350 Z1.8250
G1 X27.2766 Y-22.6350 Z1.9500
G1 X27.3386 Y-22.6350 Z1.9500
G1 X27.3386 Y-22.5937 Z1.9500
G1 X27.2761 Y-22.5937 Z1.9500
G1 X27.2758 Y-22.5937 Z1.8250
G1 X9.5071 Y-22.5937 Z1.8250
G1 X9.5071 Y-22.5525 Z1.8250
G1 X11.8037 Y-22.5525 Z1.8250
G1 X11.8040 Y-22.5525 Z1.9500
G1 X27.3386 Y-22.5525 Z1.9500
G1 X27.3386 Y-22.5112 Z1.9500
G1 X9.5071 Y-22.5112 Z1.9500
G1 X9.5071 Y-22.4700 Z1.9500
G1 X11.3386 Y-22.4700 Z1.9500
G1 X11.3386 Y-22.4500 Z1.9500
G1 X9.5071 Y-22.4500 Z1.9500
G0 Z2.0750
G0 X9.5071 Y-22.4500 
G0 Z2.0750
G0 X9.5071 Y-22.7376 
G1 X9.5071 Y-22.7376 Z1.9500 F75.
G1 X9.5071 Y-22.7376 Z1.8250 F25.
G1 X9.5071 Y-22.7375 Z1.7000 F75.
G1 X9.5071 Y-22.7175 Z1.7000
G1 X11.3044 Y-22.7175 Z1.7000
G1 X11.3047 Y-22.7175 Z1.8250
G0 Z2.0750
G0 X11.3047 Y-22.7175 
G0 Z2.0750
G0 X27.2758 Y-22.6762 
G1 X27.2758 Y-22.6762 Z1.9500 F75.
G1 X27.2758 Y-22.6762 Z1.8250 F25.
G1 X27.2754 Y-22.6762 Z1.7000 F75.
G1 X9.5071 Y-22.6762 Z1.7000
G1 X9.5071 Y-22.6350 Z1.7000
G1 X27.2760 Y-22.6350 Z1.7000
G1 X27.2763 Y-22.6350 Z1.8250
G0 Z2.0750
G0 X27.2763 Y-22.6350 
G0 Z2.0750
G0 X27.2758 Y-22.5937 
G1 X27.2758 Y-22.5937 Z1.9500 F75.
G1 X27.2758 Y-22.5937 Z1.8250 F25.
G1 X27.2754 Y-22.5937 Z1.7000 F75.
G1 X9.5071 Y-22.5937 Z1.7000
G1 X9.5071 Y-22.5525 Z1.7000
G1 X11.8033 Y-22.5525 Z1.7000
G1 X11.8037 Y-22.5525 Z1.8250
G0 Z2.0750
G0 X11.8037 Y-22.5525 
G0 Z2.0750
G0 X9.5071 Y-22.7376 
G1 X9.5071 Y-22.7376 Z1.8250 F75.
G1 X9.5071 Y-22.7376 Z1.7000 F25.
G1 X9.5071 Y-22.7375 Z1.5750 F75.
G1 X9.5071 Y-22.7175 Z1.5750
G1 X11.3041 Y-22.7175 Z1.5750
G1 X11.3044 Y-22.7175 Z1.7000
G0 Z2.0750
G0 X11.3044 Y-22.7175 
G0 Z2.0750
G0 X27.2754 Y-22.6762 
G1 X27.2754 Y-22.6762 Z1.8250 F75.
G1 X27.2754 Y-22.6762 Z1.7000 F25.
G1 X27.2751 Y-22.6762 Z1.5750 F75.
G1 X9.5071 Y-22.6762 Z1.5750
G1 X9.5071 Y-22.6350 Z1.5750
G1 X27.2757 Y-22.6350 Z1.5750
G1 X27.2760 Y-22.6350 Z1.7000
G0 Z1.7000
G0 X27.2754 Y-22.5937 
G1 X27.2751 Y-22.5937 Z1.5750 F75.
G1 X9.5071 Y-22.5937 Z1.5750
G1 X9.5071 Y-22.5525 Z1.5750
G1 X11.8030 Y-22.5525 Z1.5750
G1 X11.8033 Y-22.5525 Z1.7000
G0 Z2.0750
G0 X11.8033 Y-22.5525 
G0 Z2.0750
G0 X9.5071 Y-22.7375 
G1 X9.5071 Y-22.7375 Z1.7000 F75.
G1 X9.5071 Y-22.7375 Z1.5750 F25.
G1 X9.5071 Y-22.7375 Z1.5000 F75.
G1 X9.5071 Y-22.7175 Z1.5000
G1 X11.1204 Y-22.7175 Z1.5000
G1 X11.1214 Y-22.7175 Z1.5400
G1 X11.3040 Y-22.7175 Z1.5400
G1 X11.3041 Y-22.7175 Z1.5750
G0 Z2.0750
G0 X11.3041 Y-22.7175 
G0 Z2.0750
G0 X27.2751 Y-22.6762 
G1 X27.2751 Y-22.6762 Z1.7000 F75.
G1 X27.2751 Y-22.6762 Z1.5750 F25.
G1 X11.7771 Y-22.6762 Z1.5750 F75.
G1 X11.7761 Y-22.6762 Z1.5400
G1 X11.1218 Y-22.6762 Z1.5400
G1 X11.1208 Y-22.6762 Z1.5000
G1 X9.5071 Y-22.6762 Z1.5000
G1 X9.5071 Y-22.6350 Z1.5000
G1 X11.1204 Y-22.6350 Z1.5000
G1 X11.1214 Y-22.6350 Z1.5400
G1 X11.7757 Y-22.6350 Z1.5400
G1 X11.7766 Y-22.6350 Z1.5750
G1 X27.2757 Y-22.6350 Z1.5750
G0 Z1.5750
G0 X27.2751 Y-22.5937 
G1 X11.7771 Y-22.5937 Z1.5750 F75.
G1 X11.7761 Y-22.5937 Z1.5400
G1 X11.1218 Y-22.5937 Z1.5400
G1 X11.1208 Y-22.5937 Z1.5000
G1 X9.5071 Y-22.5937 Z1.5000
G1 X9.5071 Y-22.5525 Z1.5000
G1 X11.1204 Y-22.5525 Z1.5000
G1 X11.1214 Y-22.5525 Z1.5400
G1 X11.7758 Y-22.5525 Z1.5400
G1 X11.7765 Y-22.5525 Z1.5750
G1 X11.8030 Y-22.5525 Z1.5750
G0 Z4.0000
G0 X11.8030 Y-22.5525 
M5
G53 Z
X2Y0
