( MOP:  03-frets-r12-s25PT5-NFrets22-StandardDepth-StandardKerf )
( FILE: G:\Shared drives\AlloyProjectFiles\Customer CAD files\Alloy-Standard-Builds-CAM\Fingerboards-in\03-frets-r12-s25PT5-NFrets22-StandardDepth-StandardKerf.nc)
G90
(  BEGIN TOOL LIST )
(  TOOL 15 - Fretkerf PT025 - DESC: 0.0250 DIA, 2 FLUTE,  CARBIDE MAT )
(  ENDOF TOOL LIST )
( 03-frets-r12-s25PT5-NFrets22-StandardDepth-StandardKerf)
T15
S14000
M3
G0 Z4.0000
G0 X27.9158 Y-23.8993 
G1 X27.9158 Y-23.8993 Z0.1935 F21.
G1 X27.9158 Y-23.9078 Z0.1920
G1 X27.9158 Y-24.0127 Z0.1735
G1 X27.9158 Y-23.6678 Z0.2037 F22.
G1 X27.9158 Y-23.3222 Z0.2240
G1 X27.9158 Y-22.9762 Z0.2343
G1 X27.9158 Y-22.6300 Z0.2346
G1 X27.9158 Y-22.2839 Z0.2249
G1 X27.9158 Y-21.9383 Z0.2052
G1 X27.9158 Y-21.5934 Z0.1756
G0 Z0.3542
G0 X27.9158 Y-21.5934 
G0 Z0.3542
G0 X27.9158 Y-23.8993 
G1 X27.9158 Y-23.8993 Z0.1792 F21.
G1 X27.9158 Y-23.9078 Z0.1777
G1 X27.9158 Y-24.0127 Z0.1592
G1 X27.9158 Y-23.6678 Z0.1894 F22.
G1 X27.9158 Y-23.3222 Z0.2097
G1 X27.9158 Y-22.9762 Z0.2199
G1 X27.9158 Y-22.6300 Z0.2202
G1 X27.9158 Y-22.2839 Z0.2105
G1 X27.9158 Y-21.9383 Z0.1909
G1 X27.9158 Y-21.5934 Z0.1612
G0 Z0.3398
G0 X27.9158 Y-21.5934 
G0 Z0.3398
G0 X27.9158 Y-23.8993 
G1 X27.9158 Y-23.8993 Z0.1648 F21.
G1 X27.9158 Y-23.9078 Z0.1633
G1 X27.9158 Y-24.0127 Z0.1448
G1 X27.9158 Y-23.6678 Z0.1751 F22.
G1 X27.9158 Y-23.3222 Z0.1953
G1 X27.9158 Y-22.9762 Z0.2056
G1 X27.9158 Y-22.6300 Z0.2059
G1 X27.9158 Y-22.2839 Z0.1962
G1 X27.9158 Y-21.9383 Z0.1765
G1 X27.9158 Y-21.5934 Z0.1469
G0 Z0.3255
G0 X27.9158 Y-21.5934 
G0 Z0.3255
G0 X27.9158 Y-23.8993 
G1 X27.9158 Y-23.8993 Z0.1505 F21.
G1 X27.9158 Y-23.9078 Z0.1490
G1 X27.9158 Y-24.0127 Z0.1305
G1 X27.9158 Y-23.6678 Z0.1607 F22.
G1 X27.9158 Y-23.3222 Z0.1810
G1 X27.9158 Y-22.9762 Z0.1913
G1 X27.9158 Y-22.6300 Z0.1916
G1 X27.9158 Y-22.2839 Z0.1819
G1 X27.9158 Y-21.9383 Z0.1622
G1 X27.9158 Y-21.5934 Z0.1326
G0 Z0.3112
G0 X27.9158 Y-21.5934 
G0 Z0.3112
G0 X27.9158 Y-23.8993 
G1 X27.9158 Y-23.8993 Z0.1362 F21.
G1 X27.9158 Y-23.9078 Z0.1347
G1 X27.9158 Y-24.0127 Z0.1162
G1 X27.9158 Y-23.6678 Z0.1464 F22.
G1 X27.9158 Y-23.3222 Z0.1667
G1 X27.9158 Y-22.9762 Z0.1769
G1 X27.9158 Y-22.6300 Z0.1772
G1 X27.9158 Y-22.2839 Z0.1675
G1 X27.9158 Y-21.9383 Z0.1479
G1 X27.9158 Y-21.5934 Z0.1182
G0 Z0.2968
G0 X27.9158 Y-21.5934 
G0 Z0.2968
G0 X27.9158 Y-23.8993 
G1 X27.9158 Y-23.8993 Z0.1218 F21.
G1 X27.9158 Y-23.9078 Z0.1203
G1 X27.9158 Y-24.0127 Z0.1018
G1 X27.9158 Y-23.6678 Z0.1321 F22.
G1 X27.9158 Y-23.3222 Z0.1523
G1 X27.9158 Y-22.9762 Z0.1626
G1 X27.9158 Y-22.6300 Z0.1629
G1 X27.9158 Y-22.2839 Z0.1532
G1 X27.9158 Y-21.9383 Z0.1335
G1 X27.9158 Y-21.5934 Z0.1039
G0 Z0.3691
G0 X27.9158 Y-21.5934 
G0 Z0.3691
G0 X28.3413 Y-23.8935 
G1 X28.3413 Y-23.8935 Z0.1941 F21.
G1 X28.3413 Y-23.9026 Z0.1925
G1 X28.3413 Y-24.0070 Z0.1741
G1 X28.3413 Y-23.6637 Z0.2040 F22.
G1 X28.3413 Y-23.3197 Z0.2241
G1 X28.3413 Y-22.9753 Z0.2343
G1 X28.3413 Y-22.6308 Z0.2346
G1 X28.3413 Y-22.2863 Z0.2250
G1 X28.3413 Y-21.9423 Z0.2055
G1 X28.3413 Y-21.5990 Z0.1761
G0 Z0.3548
G0 X28.3413 Y-21.5990 
G0 Z0.3548
G0 X28.3413 Y-23.8935 
G1 X28.3413 Y-23.8935 Z0.1798 F21.
G1 X28.3413 Y-23.9026 Z0.1782
G1 X28.3413 Y-24.0070 Z0.1598
G1 X28.3413 Y-23.6637 Z0.1897 F22.
G1 X28.3413 Y-23.3197 Z0.2098
G1 X28.3413 Y-22.9753 Z0.2199
G1 X28.3413 Y-22.6308 Z0.2202
G1 X28.3413 Y-22.2863 Z0.2106
G1 X28.3413 Y-21.9423 Z0.1912
G1 X28.3413 Y-21.5990 Z0.1618
G0 Z0.3404
G0 X28.3413 Y-21.5990 
G0 Z0.3404
G0 X28.3413 Y-23.8935 
G1 X28.3413 Y-23.8935 Z0.1654 F21.
G1 X28.3413 Y-23.9026 Z0.1638
G1 X28.3413 Y-24.0070 Z0.1454
G1 X28.3413 Y-23.6637 Z0.1754 F22.
G1 X28.3413 Y-23.3197 Z0.1954
G1 X28.3413 Y-22.9753 Z0.2056
G1 X28.3413 Y-22.6308 Z0.2059
G1 X28.3413 Y-22.2863 Z0.1963
G1 X28.3413 Y-21.9423 Z0.1768
G1 X28.3413 Y-21.5990 Z0.1475
G0 Z0.3261
G0 X28.3413 Y-21.5990 
G0 Z0.3261
G0 X28.3413 Y-23.8935 
G1 X28.3413 Y-23.8935 Z0.1511 F21.
G1 X28.3413 Y-23.9026 Z0.1495
G1 X28.3413 Y-24.0070 Z0.1311
G1 X28.3413 Y-23.6637 Z0.1610 F22.
G1 X28.3413 Y-23.3197 Z0.1811
G1 X28.3413 Y-22.9753 Z0.1913
G1 X28.3413 Y-22.6308 Z0.1916
G1 X28.3413 Y-22.2863 Z0.1820
G1 X28.3413 Y-21.9423 Z0.1625
G1 X28.3413 Y-21.5990 Z0.1331
G0 Z0.3118
G0 X28.3413 Y-21.5990 
G0 Z0.3118
G0 X28.3413 Y-23.8935 
G1 X28.3413 Y-23.8935 Z0.1368 F21.
G1 X28.3413 Y-23.9026 Z0.1352
G1 X28.3413 Y-24.0070 Z0.1168
G1 X28.3413 Y-23.6637 Z0.1467 F22.
G1 X28.3413 Y-23.3197 Z0.1668
G1 X28.3413 Y-22.9753 Z0.1769
G1 X28.3413 Y-22.6308 Z0.1772
G1 X28.3413 Y-22.2863 Z0.1676
G1 X28.3413 Y-21.9423 Z0.1482
G1 X28.3413 Y-21.5990 Z0.1188
G0 Z0.2974
G0 X28.3413 Y-21.5990 
G0 Z0.2974
G0 X28.3413 Y-23.8935 
G1 X28.3413 Y-23.8935 Z0.1224 F21.
G1 X28.3413 Y-23.9026 Z0.1208
G1 X28.3413 Y-24.0070 Z0.1024
G1 X28.3413 Y-23.6637 Z0.1324 F22.
G1 X28.3413 Y-23.3197 Z0.1524
G1 X28.3413 Y-22.9753 Z0.1626
G1 X28.3413 Y-22.6308 Z0.1629
G1 X28.3413 Y-22.2863 Z0.1533
G1 X28.3413 Y-21.9423 Z0.1338
G1 X28.3413 Y-21.5990 Z0.1045
G0 Z0.3697
G0 X28.3413 Y-21.5990 
G0 Z0.3697
G0 X28.7921 Y-23.8875 
G1 X28.7921 Y-23.8875 Z0.1947 F21.
G1 X28.7921 Y-23.8970 Z0.1930
G1 X28.7921 Y-24.0009 Z0.1747
G1 X28.7921 Y-23.6594 Z0.2043 F22.
G1 X28.7921 Y-23.3171 Z0.2242
G1 X28.7921 Y-22.9744 Z0.2343
G1 X28.7921 Y-22.6316 Z0.2346
G1 X28.7921 Y-22.2889 Z0.2251
G1 X28.7921 Y-21.9466 Z0.2058
G1 X28.7921 Y-21.6050 Z0.1767
G0 Z0.3554
G0 X28.7921 Y-21.6050 
G0 Z0.3554
G0 X28.7921 Y-23.8875 
G1 X28.7921 Y-23.8875 Z0.1804 F21.
G1 X28.7921 Y-23.8970 Z0.1787
G1 X28.7921 Y-24.0009 Z0.1604
G1 X28.7921 Y-23.6594 Z0.1900 F22.
G1 X28.7921 Y-23.3171 Z0.2099
G1 X28.7921 Y-22.9744 Z0.2200
G1 X28.7921 Y-22.6316 Z0.2203
G1 X28.7921 Y-22.2889 Z0.2107
G1 X28.7921 Y-21.9466 Z0.1915
G1 X28.7921 Y-21.6050 Z0.1624
G0 Z0.3410
G0 X28.7921 Y-21.6050 
G0 Z0.3410
G0 X28.7921 Y-23.8875 
G1 X28.7921 Y-23.8875 Z0.1660 F21.
G1 X28.7921 Y-23.8970 Z0.1644
G1 X28.7921 Y-24.0009 Z0.1460
G1 X28.7921 Y-23.6594 Z0.1757 F22.
G1 X28.7921 Y-23.3171 Z0.1955
G1 X28.7921 Y-22.9744 Z0.2056
G1 X28.7921 Y-22.6316 Z0.2059
G1 X28.7921 Y-22.2889 Z0.1964
G1 X28.7921 Y-21.9466 Z0.1771
G1 X28.7921 Y-21.6050 Z0.1481
G0 Z0.3267
G0 X28.7921 Y-21.6050 
G0 Z0.3267
G0 X28.7921 Y-23.8875 
G1 X28.7921 Y-23.8875 Z0.1517 F21.
G1 X28.7921 Y-23.8970 Z0.1500
G1 X28.7921 Y-24.0009 Z0.1317
G1 X28.7921 Y-23.6594 Z0.1613 F22.
G1 X28.7921 Y-23.3171 Z0.1812
G1 X28.7921 Y-22.9744 Z0.1913
G1 X28.7921 Y-22.6316 Z0.1916
G1 X28.7921 Y-22.2889 Z0.1821
G1 X28.7921 Y-21.9466 Z0.1628
G1 X28.7921 Y-21.6050 Z0.1337
G0 Z0.3124
G0 X28.7921 Y-21.6050 
G0 Z0.3124
G0 X28.7921 Y-23.8875 
G1 X28.7921 Y-23.8875 Z0.1374 F21.
G1 X28.7921 Y-23.8970 Z0.1357
G1 X28.7921 Y-24.0009 Z0.1174
G1 X28.7921 Y-23.6594 Z0.1470 F22.
G1 X28.7921 Y-23.3171 Z0.1669
G1 X28.7921 Y-22.9744 Z0.1770
G1 X28.7921 Y-22.6316 Z0.1773
G1 X28.7921 Y-22.2889 Z0.1677
G1 X28.7921 Y-21.9466 Z0.1485
G1 X28.7921 Y-21.6050 Z0.1194
G0 Z0.2980
G0 X28.7921 Y-21.6050 
G0 Z0.2980
G0 X28.7921 Y-23.8875 
G1 X28.7921 Y-23.8875 Z0.1230 F21.
G1 X28.7921 Y-23.8970 Z0.1214
G1 X28.7921 Y-24.0009 Z0.1030
G1 X28.7921 Y-23.6594 Z0.1327 F22.
G1 X28.7921 Y-23.3171 Z0.1525
G1 X28.7921 Y-22.9744 Z0.1626
G1 X28.7921 Y-22.6316 Z0.1629
G1 X28.7921 Y-22.2889 Z0.1534
G1 X28.7921 Y-21.9466 Z0.1341
G1 X28.7921 Y-21.6050 Z0.1051
G0 Z0.3704
G0 X28.7921 Y-21.6050 
G0 Z0.3704
G0 X29.2697 Y-23.8811 
G1 X29.2697 Y-23.8811 Z0.1954 F21.
G1 X29.2697 Y-23.8912 Z0.1936
G1 X29.2697 Y-23.9945 Z0.1754
G1 X29.2697 Y-23.6547 Z0.2047 F22.
G1 X29.2697 Y-23.3143 Z0.2243
G1 X29.2697 Y-22.9735 Z0.2343
G1 X29.2697 Y-22.6325 Z0.2346
G1 X29.2697 Y-22.2916 Z0.2252
G1 X29.2697 Y-21.9511 Z0.2061
G1 X29.2697 Y-21.6113 Z0.1774
G0 Z0.3560
G0 X29.2697 Y-21.6113 
G0 Z0.3560
G0 X29.2697 Y-23.8811 
G1 X29.2697 Y-23.8811 Z0.1810 F21.
G1 X29.2697 Y-23.8912 Z0.1792
G1 X29.2697 Y-23.9945 Z0.1610
G1 X29.2697 Y-23.6547 Z0.1903 F22.
G1 X29.2697 Y-23.3143 Z0.2100
G1 X29.2697 Y-22.9735 Z0.2200
G1 X29.2697 Y-22.6325 Z0.2203
G1 X29.2697 Y-22.2916 Z0.2109
G1 X29.2697 Y-21.9511 Z0.1918
G1 X29.2697 Y-21.6113 Z0.1630
G0 Z0.3417
G0 X29.2697 Y-21.6113 
G0 Z0.3417
G0 X29.2697 Y-23.8811 
G1 X29.2697 Y-23.8811 Z0.1667 F21.
G1 X29.2697 Y-23.8912 Z0.1649
G1 X29.2697 Y-23.9945 Z0.1467
G1 X29.2697 Y-23.6547 Z0.1760 F22.
G1 X29.2697 Y-23.3143 Z0.1957
G1 X29.2697 Y-22.9735 Z0.2056
G1 X29.2697 Y-22.6325 Z0.2059
G1 X29.2697 Y-22.2916 Z0.1965
G1 X29.2697 Y-21.9511 Z0.1774
G1 X29.2697 Y-21.6113 Z0.1487
G0 Z0.3274
G0 X29.2697 Y-21.6113 
G0 Z0.3274
G0 X29.2697 Y-23.8811 
G1 X29.2697 Y-23.8811 Z0.1524 F21.
G1 X29.2697 Y-23.8912 Z0.1506
G1 X29.2697 Y-23.9945 Z0.1324
G1 X29.2697 Y-23.6547 Z0.1617 F22.
G1 X29.2697 Y-23.3143 Z0.1813
G1 X29.2697 Y-22.9735 Z0.1913
G1 X29.2697 Y-22.6325 Z0.1916
G1 X29.2697 Y-22.2916 Z0.1822
G1 X29.2697 Y-21.9511 Z0.1631
G1 X29.2697 Y-21.6113 Z0.1344
G0 Z0.3130
G0 X29.2697 Y-21.6113 
G0 Z0.3130
G0 X29.2697 Y-23.8811 
G1 X29.2697 Y-23.8811 Z0.1380 F21.
G1 X29.2697 Y-23.8912 Z0.1362
G1 X29.2697 Y-23.9945 Z0.1180
G1 X29.2697 Y-23.6547 Z0.1473 F22.
G1 X29.2697 Y-23.3143 Z0.1670
G1 X29.2697 Y-22.9735 Z0.1770
G1 X29.2697 Y-22.6325 Z0.1773
G1 X29.2697 Y-22.2916 Z0.1679
G1 X29.2697 Y-21.9511 Z0.1488
G1 X29.2697 Y-21.6113 Z0.1200
G0 Z0.2987
G0 X29.2697 Y-21.6113 
G0 Z0.2987
G0 X29.2697 Y-23.8811 
G1 X29.2697 Y-23.8811 Z0.1237 F21.
G1 X29.2697 Y-23.8912 Z0.1219
G1 X29.2697 Y-23.9945 Z0.1037
G1 X29.2697 Y-23.6547 Z0.1330 F22.
G1 X29.2697 Y-23.3143 Z0.1527
G1 X29.2697 Y-22.9735 Z0.1626
G1 X29.2697 Y-22.6325 Z0.1629
G1 X29.2697 Y-22.2916 Z0.1535
G1 X29.2697 Y-21.9511 Z0.1344
G1 X29.2697 Y-21.6113 Z0.1057
G0 Z0.3710
G0 X29.2697 Y-21.6113 
G0 Z0.3710
G0 X29.7757 Y-23.8743 
G1 X29.7757 Y-23.8743 Z0.1960 F21.
G1 X29.7757 Y-23.8803 Z0.1950
G1 X29.7757 Y-23.9877 Z0.1760
G1 X29.7757 Y-23.6499 Z0.2050 F22.
G1 X29.7757 Y-23.3114 Z0.2245
G1 X29.7757 Y-22.9724 Z0.2343
G1 X29.7757 Y-22.6334 Z0.2346
G1 X29.7757 Y-22.2945 Z0.2253
G1 X29.7757 Y-21.9559 Z0.2064
G1 X29.7757 Y-21.6181 Z0.1780
G0 Z0.3567
G0 X29.7757 Y-21.6181 
G0 Z0.3567
G0 X29.7757 Y-23.8743 
G1 X29.7757 Y-23.8743 Z0.1817 F21.
G1 X29.7757 Y-23.8803 Z0.1806
G1 X29.7757 Y-23.9877 Z0.1617
G1 X29.7757 Y-23.6499 Z0.1907 F22.
G1 X29.7757 Y-23.3114 Z0.2101
G1 X29.7757 Y-22.9724 Z0.2200
G1 X29.7757 Y-22.6334 Z0.2203
G1 X29.7757 Y-22.2945 Z0.2110
G1 X29.7757 Y-21.9559 Z0.1921
G1 X29.7757 Y-21.6181 Z0.1637
G0 Z0.3424
G0 X29.7757 Y-21.6181 
G0 Z0.3424
G0 X29.7757 Y-23.8743 
G1 X29.7757 Y-23.8743 Z0.1674 F21.
G1 X29.7757 Y-23.8803 Z0.1663
G1 X29.7757 Y-23.9877 Z0.1474
G1 X29.7757 Y-23.6499 Z0.1764 F22.
G1 X29.7757 Y-23.3114 Z0.1958
G1 X29.7757 Y-22.9724 Z0.2057
G1 X29.7757 Y-22.6334 Z0.2059
G1 X29.7757 Y-22.2945 Z0.1966
G1 X29.7757 Y-21.9559 Z0.1778
G1 X29.7757 Y-21.6181 Z0.1494
G0 Z0.3280
G0 X29.7757 Y-21.6181 
G0 Z0.3280
G0 X29.7757 Y-23.8743 
G1 X29.7757 Y-23.8743 Z0.1530 F21.
G1 X29.7757 Y-23.8803 Z0.1520
G1 X29.7757 Y-23.9877 Z0.1330
G1 X29.7757 Y-23.6499 Z0.1620 F22.
G1 X29.7757 Y-23.3114 Z0.1815
G1 X29.7757 Y-22.9724 Z0.1913
G1 X29.7757 Y-22.6334 Z0.1916
G1 X29.7757 Y-22.2945 Z0.1823
G1 X29.7757 Y-21.9559 Z0.1634
G1 X29.7757 Y-21.6181 Z0.1350
G0 Z0.3137
G0 X29.7757 Y-21.6181 
G0 Z0.3137
G0 X29.7757 Y-23.8743 
G1 X29.7757 Y-23.8743 Z0.1387 F21.
G1 X29.7757 Y-23.8803 Z0.1376
G1 X29.7757 Y-23.9877 Z0.1187
G1 X29.7757 Y-23.6499 Z0.1477 F22.
G1 X29.7757 Y-23.3114 Z0.1671
G1 X29.7757 Y-22.9724 Z0.1770
G1 X29.7757 Y-22.6334 Z0.1773
G1 X29.7757 Y-22.2945 Z0.1680
G1 X29.7757 Y-21.9559 Z0.1491
G1 X29.7757 Y-21.6181 Z0.1207
G0 Z0.2994
G0 X29.7757 Y-21.6181 
G0 Z0.2994
G0 X29.7757 Y-23.8743 
G1 X29.7757 Y-23.8743 Z0.1244 F21.
G1 X29.7757 Y-23.8803 Z0.1233
G1 X29.7757 Y-23.9877 Z0.1044
G1 X29.7757 Y-23.6499 Z0.1334 F22.
G1 X29.7757 Y-23.3114 Z0.1528
G1 X29.7757 Y-22.9724 Z0.1627
G1 X29.7757 Y-22.6334 Z0.1629
G1 X29.7757 Y-22.2945 Z0.1536
G1 X29.7757 Y-21.9559 Z0.1348
G1 X29.7757 Y-21.6181 Z0.1064
G0 Z0.3718
G0 X29.7757 Y-21.6181 
G0 Z0.3718
G0 X30.3118 Y-23.8670 
G1 X30.3118 Y-23.8670 Z0.1968 F21.
G1 X30.3118 Y-23.8737 Z0.1956
G1 X30.3118 Y-23.9805 Z0.1768
G1 X30.3118 Y-23.6447 Z0.2054 F22.
G1 X30.3118 Y-23.3082 Z0.2246
G1 X30.3118 Y-22.9714 Z0.2343
G1 X30.3118 Y-22.6344 Z0.2346
G1 X30.3118 Y-22.2975 Z0.2254
G1 X30.3118 Y-21.9610 Z0.2068
G1 X30.3118 Y-21.6252 Z0.1787
G0 Z0.3574
G0 X30.3118 Y-21.6252 
G0 Z0.3574
G0 X30.3118 Y-23.8670 
G1 X30.3118 Y-23.8670 Z0.1824 F21.
G1 X30.3118 Y-23.8737 Z0.1812
G1 X30.3118 Y-23.9805 Z0.1624
G1 X30.3118 Y-23.6447 Z0.1911 F22.
G1 X30.3118 Y-23.3082 Z0.2103
G1 X30.3118 Y-22.9714 Z0.2200
G1 X30.3118 Y-22.6344 Z0.2203
G1 X30.3118 Y-22.2975 Z0.2111
G1 X30.3118 Y-21.9610 Z0.1925
G1 X30.3118 Y-21.6252 Z0.1644
G0 Z0.3431
G0 X30.3118 Y-21.6252 
G0 Z0.3431
G0 X30.3118 Y-23.8670 
G1 X30.3118 Y-23.8670 Z0.1681 F21.
G1 X30.3118 Y-23.8737 Z0.1669
G1 X30.3118 Y-23.9805 Z0.1481
G1 X30.3118 Y-23.6447 Z0.1767 F22.
G1 X30.3118 Y-23.3082 Z0.1959
G1 X30.3118 Y-22.9714 Z0.2057
G1 X30.3118 Y-22.6344 Z0.2060
G1 X30.3118 Y-22.2975 Z0.1968
G1 X30.3118 Y-21.9610 Z0.1781
G1 X30.3118 Y-21.6252 Z0.1501
G0 Z0.3288
G0 X30.3118 Y-21.6252 
G0 Z0.3288
G0 X30.3118 Y-23.8670 
G1 X30.3118 Y-23.8670 Z0.1538 F21.
G1 X30.3118 Y-23.8737 Z0.1526
G1 X30.3118 Y-23.9805 Z0.1338
G1 X30.3118 Y-23.6447 Z0.1624 F22.
G1 X30.3118 Y-23.3082 Z0.1816
G1 X30.3118 Y-22.9714 Z0.1913
G1 X30.3118 Y-22.6344 Z0.1916
G1 X30.3118 Y-22.2975 Z0.1824
G1 X30.3118 Y-21.9610 Z0.1638
G1 X30.3118 Y-21.6252 Z0.1357
G0 Z0.3144
G0 X30.3118 Y-21.6252 
G0 Z0.3144
G0 X30.3118 Y-23.8670 
G1 X30.3118 Y-23.8670 Z0.1394 F21.
G1 X30.3118 Y-23.8737 Z0.1382
G1 X30.3118 Y-23.9805 Z0.1194
G1 X30.3118 Y-23.6447 Z0.1481 F22.
G1 X30.3118 Y-23.3082 Z0.1673
G1 X30.3118 Y-22.9714 Z0.1770
G1 X30.3118 Y-22.6344 Z0.1773
G1 X30.3118 Y-22.2975 Z0.1681
G1 X30.3118 Y-21.9610 Z0.1495
G1 X30.3118 Y-21.6252 Z0.1214
G0 Z0.3001
G0 X30.3118 Y-21.6252 
G0 Z0.3001
G0 X30.3118 Y-23.8670 
G1 X30.3118 Y-23.8670 Z0.1251 F21.
G1 X30.3118 Y-23.8737 Z0.1239
G1 X30.3118 Y-23.9805 Z0.1051
G1 X30.3118 Y-23.6447 Z0.1337 F22.
G1 X30.3118 Y-23.3082 Z0.1529
G1 X30.3118 Y-22.9714 Z0.1627
G1 X30.3118 Y-22.6344 Z0.1630
G1 X30.3118 Y-22.2975 Z0.1538
G1 X30.3118 Y-21.9610 Z0.1351
G1 X30.3118 Y-21.6252 Z0.1071
G0 Z0.3725
G0 X30.3118 Y-21.6252 
G0 Z0.3725
G0 X30.8798 Y-23.8594 
G1 X30.8798 Y-23.8594 Z0.1975 F21.
G1 X30.8798 Y-23.8668 Z0.1962
G1 X30.8798 Y-23.9728 Z0.1775
G1 X30.8798 Y-23.6392 Z0.2058 F22.
G1 X30.8798 Y-23.3049 Z0.2247
G1 X30.8798 Y-22.9702 Z0.2344
G1 X30.8798 Y-22.6354 Z0.2346
G1 X30.8798 Y-22.3007 Z0.2256
G1 X30.8798 Y-21.9664 Z0.2072
G1 X30.8798 Y-21.6327 Z0.1795
G0 Z0.3582
G0 X30.8798 Y-21.6327 
G0 Z0.3582
G0 X30.8798 Y-23.8594 
G1 X30.8798 Y-23.8594 Z0.1832 F21.
G1 X30.8798 Y-23.8668 Z0.1819
G1 X30.8798 Y-23.9728 Z0.1632
G1 X30.8798 Y-23.6392 Z0.1915 F22.
G1 X30.8798 Y-23.3049 Z0.2104
G1 X30.8798 Y-22.9702 Z0.2200
G1 X30.8798 Y-22.6354 Z0.2203
G1 X30.8798 Y-22.3007 Z0.2112
G1 X30.8798 Y-21.9664 Z0.1928
G1 X30.8798 Y-21.6327 Z0.1651
G0 Z0.3438
G0 X30.8798 Y-21.6327 
G0 Z0.3438
G0 X30.8798 Y-23.8594 
G1 X30.8798 Y-23.8594 Z0.1688 F21.
G1 X30.8798 Y-23.8668 Z0.1675
G1 X30.8798 Y-23.9728 Z0.1488
G1 X30.8798 Y-23.6392 Z0.1771 F22.
G1 X30.8798 Y-23.3049 Z0.1961
G1 X30.8798 Y-22.9702 Z0.2057
G1 X30.8798 Y-22.6354 Z0.2060
G1 X30.8798 Y-22.3007 Z0.1969
G1 X30.8798 Y-21.9664 Z0.1785
G1 X30.8798 Y-21.6327 Z0.1508
G0 Z0.3295
G0 X30.8798 Y-21.6327 
G0 Z0.3295
G0 X30.8798 Y-23.8594 
G1 X30.8798 Y-23.8594 Z0.1545 F21.
G1 X30.8798 Y-23.8668 Z0.1532
G1 X30.8798 Y-23.9728 Z0.1345
G1 X30.8798 Y-23.6392 Z0.1628 F22.
G1 X30.8798 Y-23.3049 Z0.1817
G1 X30.8798 Y-22.9702 Z0.1914
G1 X30.8798 Y-22.6354 Z0.1916
G1 X30.8798 Y-22.3007 Z0.1826
G1 X30.8798 Y-21.9664 Z0.1642
G1 X30.8798 Y-21.6327 Z0.1365
G0 Z0.3152
G0 X30.8798 Y-21.6327 
G0 Z0.3152
G0 X30.8798 Y-23.8594 
G1 X30.8798 Y-23.8594 Z0.1402 F21.
G1 X30.8798 Y-23.8668 Z0.1389
G1 X30.8798 Y-23.9728 Z0.1202
G1 X30.8798 Y-23.6392 Z0.1485 F22.
G1 X30.8798 Y-23.3049 Z0.1674
G1 X30.8798 Y-22.9702 Z0.1770
G1 X30.8798 Y-22.6354 Z0.1773
G1 X30.8798 Y-22.3007 Z0.1682
G1 X30.8798 Y-21.9664 Z0.1498
G1 X30.8798 Y-21.6327 Z0.1221
G0 Z0.3008
G0 X30.8798 Y-21.6327 
G0 Z0.3008
G0 X30.8798 Y-23.8594 
G1 X30.8798 Y-23.8594 Z0.1258 F21.
G1 X30.8798 Y-23.8668 Z0.1245
G1 X30.8798 Y-23.9728 Z0.1058
G1 X30.8798 Y-23.6392 Z0.1341 F22.
G1 X30.8798 Y-23.3049 Z0.1531
G1 X30.8798 Y-22.9702 Z0.1627
G1 X30.8798 Y-22.6354 Z0.1630
G1 X30.8798 Y-22.3007 Z0.1539
G1 X30.8798 Y-21.9664 Z0.1355
G1 X30.8798 Y-21.6327 Z0.1078
G0 Z0.3733
G0 X30.8798 Y-21.6327 
G0 Z0.3733
G0 X31.4816 Y-23.8513 
G1 X31.4816 Y-23.8513 Z0.1983 F21.
G1 X31.4816 Y-23.8594 Z0.1969
G1 X31.4816 Y-23.9647 Z0.1783
G1 X31.4816 Y-23.6334 Z0.2062 F22.
G1 X31.4816 Y-23.3014 Z0.2249
G1 X31.4816 Y-22.9690 Z0.2344
G1 X31.4816 Y-22.6365 Z0.2347
G1 X31.4816 Y-22.3041 Z0.2257
G1 X31.4816 Y-21.9721 Z0.2076
G1 X31.4816 Y-21.6407 Z0.1802
G0 Z0.3590
G0 X31.4816 Y-21.6407 
G0 Z0.3590
G0 X31.4816 Y-23.8513 
G1 X31.4816 Y-23.8513 Z0.1840 F21.
G1 X31.4816 Y-23.8594 Z0.1826
G1 X31.4816 Y-23.9647 Z0.1640
G1 X31.4816 Y-23.6334 Z0.1919 F22.
G1 X31.4816 Y-23.3014 Z0.2106
G1 X31.4816 Y-22.9690 Z0.2200
G1 X31.4816 Y-22.6365 Z0.2203
G1 X31.4816 Y-22.3041 Z0.2114
G1 X31.4816 Y-21.9721 Z0.1932
G1 X31.4816 Y-21.6407 Z0.1659
G0 Z0.3446
G0 X31.4816 Y-21.6407 
G0 Z0.3446
G0 X31.4816 Y-23.8513 
G1 X31.4816 Y-23.8513 Z0.1696 F21.
G1 X31.4816 Y-23.8594 Z0.1682
G1 X31.4816 Y-23.9647 Z0.1496
G1 X31.4816 Y-23.6334 Z0.1775 F22.
G1 X31.4816 Y-23.3014 Z0.1962
G1 X31.4816 Y-22.9690 Z0.2057
G1 X31.4816 Y-22.6365 Z0.2060
G1 X31.4816 Y-22.3041 Z0.1970
G1 X31.4816 Y-21.9721 Z0.1789
G1 X31.4816 Y-21.6407 Z0.1516
G0 Z0.3303
G0 X31.4816 Y-21.6407 
G0 Z0.3303
G0 X31.4816 Y-23.8513 
G1 X31.4816 Y-23.8513 Z0.1553 F21.
G1 X31.4816 Y-23.8594 Z0.1539
G1 X31.4816 Y-23.9647 Z0.1353
G1 X31.4816 Y-23.6334 Z0.1632 F22.
G1 X31.4816 Y-23.3014 Z0.1819
G1 X31.4816 Y-22.9690 Z0.1914
G1 X31.4816 Y-22.6365 Z0.1917
G1 X31.4816 Y-22.3041 Z0.1827
G1 X31.4816 Y-21.9721 Z0.1646
G1 X31.4816 Y-21.6407 Z0.1372
G0 Z0.3160
G0 X31.4816 Y-21.6407 
G0 Z0.3160
G0 X31.4816 Y-23.8513 
G1 X31.4816 Y-23.8513 Z0.1410 F21.
G1 X31.4816 Y-23.8594 Z0.1396
G1 X31.4816 Y-23.9647 Z0.1210
G1 X31.4816 Y-23.6334 Z0.1489 F22.
G1 X31.4816 Y-23.3014 Z0.1676
G1 X31.4816 Y-22.9690 Z0.1770
G1 X31.4816 Y-22.6365 Z0.1773
G1 X31.4816 Y-22.3041 Z0.1684
G1 X31.4816 Y-21.9721 Z0.1502
G1 X31.4816 Y-21.6407 Z0.1229
G0 Z0.3016
G0 X31.4816 Y-21.6407 
G0 Z0.3016
G0 X31.4816 Y-23.8513 
G1 X31.4816 Y-23.8513 Z0.1266 F21.
G1 X31.4816 Y-23.8594 Z0.1252
G1 X31.4816 Y-23.9647 Z0.1066
G1 X31.4816 Y-23.6334 Z0.1345 F22.
G1 X31.4816 Y-23.3014 Z0.1532
G1 X31.4816 Y-22.9690 Z0.1627
G1 X31.4816 Y-22.6365 Z0.1630
G1 X31.4816 Y-22.3041 Z0.1540
G1 X31.4816 Y-21.9721 Z0.1359
G1 X31.4816 Y-21.6407 Z0.1086
G0 Z0.3741
G0 X31.4816 Y-21.6407 
G0 Z0.3741
G0 X32.1191 Y-23.8428 
G1 X32.1191 Y-23.8428 Z0.1991 F21.
G1 X32.1191 Y-23.8516 Z0.1976
G1 X32.1191 Y-23.9562 Z0.1791
G1 X32.1191 Y-23.6273 Z0.2066 F22.
G1 X32.1191 Y-23.2977 Z0.2250
G1 X32.1191 Y-22.9678 Z0.2344
G1 X32.1191 Y-22.6377 Z0.2347
G1 X32.1191 Y-22.3077 Z0.2259
G1 X32.1191 Y-21.9782 Z0.2080
G1 X32.1191 Y-21.6492 Z0.1810
G0 Z0.3598
G0 X32.1191 Y-21.6492 
G0 Z0.3598
G0 X32.1191 Y-23.8428 
G1 X32.1191 Y-23.8428 Z0.1848 F21.
G1 X32.1191 Y-23.8516 Z0.1833
G1 X32.1191 Y-23.9562 Z0.1648
G1 X32.1191 Y-23.6273 Z0.1923 F22.
G1 X32.1191 Y-23.2977 Z0.2107
G1 X32.1191 Y-22.9678 Z0.2201
G1 X32.1191 Y-22.6377 Z0.2203
G1 X32.1191 Y-22.3077 Z0.2115
G1 X32.1191 Y-21.9782 Z0.1936
G1 X32.1191 Y-21.6492 Z0.1667
G0 Z0.3455
G0 X32.1191 Y-21.6492 
G0 Z0.3455
G0 X32.1191 Y-23.8428 
G1 X32.1191 Y-23.8428 Z0.1705 F21.
G1 X32.1191 Y-23.8516 Z0.1689
G1 X32.1191 Y-23.9562 Z0.1505
G1 X32.1191 Y-23.6273 Z0.1780 F22.
G1 X32.1191 Y-23.2977 Z0.1964
G1 X32.1191 Y-22.9678 Z0.2057
G1 X32.1191 Y-22.6377 Z0.2060
G1 X32.1191 Y-22.3077 Z0.1972
G1 X32.1191 Y-21.9782 Z0.1793
G1 X32.1191 Y-21.6492 Z0.1524
G0 Z0.3311
G0 X32.1191 Y-21.6492 
G0 Z0.3311
G0 X32.1191 Y-23.8428 
G1 X32.1191 Y-23.8428 Z0.1561 F21.
G1 X32.1191 Y-23.8516 Z0.1546
G1 X32.1191 Y-23.9562 Z0.1361
G1 X32.1191 Y-23.6273 Z0.1636 F22.
G1 X32.1191 Y-23.2977 Z0.1820
G1 X32.1191 Y-22.9678 Z0.1914
G1 X32.1191 Y-22.6377 Z0.1917
G1 X32.1191 Y-22.3077 Z0.1829
G1 X32.1191 Y-21.9782 Z0.1650
G1 X32.1191 Y-21.6492 Z0.1380
G0 Z0.3168
G0 X32.1191 Y-21.6492 
G0 Z0.3168
G0 X32.1191 Y-23.8428 
G1 X32.1191 Y-23.8428 Z0.1418 F21.
G1 X32.1191 Y-23.8516 Z0.1403
G1 X32.1191 Y-23.9562 Z0.1218
G1 X32.1191 Y-23.6273 Z0.1493 F22.
G1 X32.1191 Y-23.2977 Z0.1677
G1 X32.1191 Y-22.9678 Z0.1771
G1 X32.1191 Y-22.6377 Z0.1773
G1 X32.1191 Y-22.3077 Z0.1685
G1 X32.1191 Y-21.9782 Z0.1506
G1 X32.1191 Y-21.6492 Z0.1237
G0 Z0.3025
G0 X32.1191 Y-21.6492 
G0 Z0.3025
G0 X32.1191 Y-23.8428 
G1 X32.1191 Y-23.8428 Z0.1275 F21.
G1 X32.1191 Y-23.8516 Z0.1259
G1 X32.1191 Y-23.9562 Z0.1075
G1 X32.1191 Y-23.6273 Z0.1350 F22.
G1 X32.1191 Y-23.2977 Z0.1534
G1 X32.1191 Y-22.9678 Z0.1627
G1 X32.1191 Y-22.6377 Z0.1630
G1 X32.1191 Y-22.3077 Z0.1542
G1 X32.1191 Y-21.9782 Z0.1363
G1 X32.1191 Y-21.6492 Z0.1094
G0 Z0.3750
G0 X32.1191 Y-21.6492 
G0 Z0.3750
G0 X32.7945 Y-23.8337 
G1 X32.7945 Y-23.8337 Z0.2000 F21.
G1 X32.7945 Y-23.8433 Z0.1983
G1 X32.7945 Y-23.9471 Z0.1800
G1 X32.7945 Y-23.6207 Z0.2071 F22.
G1 X32.7945 Y-23.2938 Z0.2252
G1 X32.7945 Y-22.9664 Z0.2344
G1 X32.7945 Y-22.6389 Z0.2347
G1 X32.7945 Y-22.3116 Z0.2260
G1 X32.7945 Y-21.9846 Z0.2084
G1 X32.7945 Y-21.6582 Z0.1819
G0 Z0.3607
G0 X32.7945 Y-21.6582 
G0 Z0.3607
G0 X32.7945 Y-23.8337 
G1 X32.7945 Y-23.8337 Z0.1857 F21.
G1 X32.7945 Y-23.8433 Z0.1840
G1 X32.7945 Y-23.9471 Z0.1657
G1 X32.7945 Y-23.6207 Z0.1927 F22.
G1 X32.7945 Y-23.2938 Z0.2109
G1 X32.7945 Y-22.9664 Z0.2201
G1 X32.7945 Y-22.6389 Z0.2203
G1 X32.7945 Y-22.3116 Z0.2117
G1 X32.7945 Y-21.9846 Z0.1941
G1 X32.7945 Y-21.6582 Z0.1676
G0 Z0.3464
G0 X32.7945 Y-21.6582 
G0 Z0.3464
G0 X32.7945 Y-23.8337 
G1 X32.7945 Y-23.8337 Z0.1714 F21.
G1 X32.7945 Y-23.8433 Z0.1697
G1 X32.7945 Y-23.9471 Z0.1514
G1 X32.7945 Y-23.6207 Z0.1784 F22.
G1 X32.7945 Y-23.2938 Z0.1965
G1 X32.7945 Y-22.9664 Z0.2057
G1 X32.7945 Y-22.6389 Z0.2060
G1 X32.7945 Y-22.3116 Z0.1973
G1 X32.7945 Y-21.9846 Z0.1797
G1 X32.7945 Y-21.6582 Z0.1532
G0 Z0.3320
G0 X32.7945 Y-21.6582 
G0 Z0.3320
G0 X32.7945 Y-23.8337 
G1 X32.7945 Y-23.8337 Z0.1570 F21.
G1 X32.7945 Y-23.8433 Z0.1553
G1 X32.7945 Y-23.9471 Z0.1370
G1 X32.7945 Y-23.6207 Z0.1641 F22.
G1 X32.7945 Y-23.2938 Z0.1822
G1 X32.7945 Y-22.9664 Z0.1914
G1 X32.7945 Y-22.6389 Z0.1917
G1 X32.7945 Y-22.3116 Z0.1830
G1 X32.7945 Y-21.9846 Z0.1654
G1 X32.7945 Y-21.6582 Z0.1389
G0 Z0.3177
G0 X32.7945 Y-21.6582 
G0 Z0.3177
G0 X32.7945 Y-23.8337 
G1 X32.7945 Y-23.8337 Z0.1427 F21.
G1 X32.7945 Y-23.8433 Z0.1410
G1 X32.7945 Y-23.9471 Z0.1227
G1 X32.7945 Y-23.6207 Z0.1497 F22.
G1 X32.7945 Y-23.2938 Z0.1679
G1 X32.7945 Y-22.9664 Z0.1771
G1 X32.7945 Y-22.6389 Z0.1773
G1 X32.7945 Y-22.3116 Z0.1687
G1 X32.7945 Y-21.9846 Z0.1511
G1 X32.7945 Y-21.6582 Z0.1246
G0 Z0.3034
G0 X32.7945 Y-21.6582 
G0 Z0.3034
G0 X32.7945 Y-23.8337 
G1 X32.7945 Y-23.8337 Z0.1284 F21.
G1 X32.7945 Y-23.8433 Z0.1267
G1 X32.7945 Y-23.9471 Z0.1084
G1 X32.7945 Y-23.6207 Z0.1354 F22.
G1 X32.7945 Y-23.2938 Z0.1535
G1 X32.7945 Y-22.9664 Z0.1627
G1 X32.7945 Y-22.6389 Z0.1630
G1 X32.7945 Y-22.3116 Z0.1543
G1 X32.7945 Y-21.9846 Z0.1367
G1 X32.7945 Y-21.6582 Z0.1102
G0 Z0.3760
G0 X32.7945 Y-21.6582 
G0 Z0.3760
G0 X33.5101 Y-23.8241 
G1 X33.5101 Y-23.8241 Z0.2010 F21.
G1 X33.5101 Y-23.8346 Z0.1991
G1 X33.5101 Y-23.9375 Z0.1810
G1 X33.5101 Y-23.6138 Z0.2076 F22.
G1 X33.5101 Y-23.2896 Z0.2254
G1 X33.5101 Y-22.9650 Z0.2344
G1 X33.5101 Y-22.6402 Z0.2347
G1 X33.5101 Y-22.3156 Z0.2262
G1 X33.5101 Y-21.9913 Z0.2089
G1 X33.5101 Y-21.6677 Z0.1828
G0 Z0.3616
G0 X33.5101 Y-21.6677 
G0 Z0.3616
G0 X33.5101 Y-23.8241 
G1 X33.5101 Y-23.8241 Z0.1866 F21.
G1 X33.5101 Y-23.8346 Z0.1848
G1 X33.5101 Y-23.9375 Z0.1666
G1 X33.5101 Y-23.6138 Z0.1932 F22.
G1 X33.5101 Y-23.2896 Z0.2111
G1 X33.5101 Y-22.9650 Z0.2201
G1 X33.5101 Y-22.6402 Z0.2204
G1 X33.5101 Y-22.3156 Z0.2118
G1 X33.5101 Y-21.9913 Z0.1945
G1 X33.5101 Y-21.6677 Z0.1685
G0 Z0.3473
G0 X33.5101 Y-21.6677 
G0 Z0.3473
G0 X33.5101 Y-23.8241 
G1 X33.5101 Y-23.8241 Z0.1723 F21.
G1 X33.5101 Y-23.8346 Z0.1704
G1 X33.5101 Y-23.9375 Z0.1523
G1 X33.5101 Y-23.6138 Z0.1789 F22.
G1 X33.5101 Y-23.2896 Z0.1967
G1 X33.5101 Y-22.9650 Z0.2058
G1 X33.5101 Y-22.6402 Z0.2060
G1 X33.5101 Y-22.3156 Z0.1975
G1 X33.5101 Y-21.9913 Z0.1802
G1 X33.5101 Y-21.6677 Z0.1541
G0 Z0.3330
G0 X33.5101 Y-21.6677 
G0 Z0.3330
G0 X33.5101 Y-23.8241 
G1 X33.5101 Y-23.8241 Z0.1580 F21.
G1 X33.5101 Y-23.8346 Z0.1561
G1 X33.5101 Y-23.9375 Z0.1380
G1 X33.5101 Y-23.6138 Z0.1646 F22.
G1 X33.5101 Y-23.2896 Z0.1824
G1 X33.5101 Y-22.9650 Z0.1914
G1 X33.5101 Y-22.6402 Z0.1917
G1 X33.5101 Y-22.3156 Z0.1832
G1 X33.5101 Y-21.9913 Z0.1659
G1 X33.5101 Y-21.6677 Z0.1398
G0 Z0.3186
G0 X33.5101 Y-21.6677 
G0 Z0.3186
G0 X33.5101 Y-23.8241 
G1 X33.5101 Y-23.8241 Z0.1436 F21.
G1 X33.5101 Y-23.8346 Z0.1418
G1 X33.5101 Y-23.9375 Z0.1236
G1 X33.5101 Y-23.6138 Z0.1502 F22.
G1 X33.5101 Y-23.2896 Z0.1681
G1 X33.5101 Y-22.9650 Z0.1771
G1 X33.5101 Y-22.6402 Z0.1774
G1 X33.5101 Y-22.3156 Z0.1688
G1 X33.5101 Y-21.9913 Z0.1515
G1 X33.5101 Y-21.6677 Z0.1255
G0 Z0.3043
G0 X33.5101 Y-21.6677 
G0 Z0.3043
G0 X33.5101 Y-23.8241 
G1 X33.5101 Y-23.8241 Z0.1293 F21.
G1 X33.5101 Y-23.8346 Z0.1274
G1 X33.5101 Y-23.9375 Z0.1093
G1 X33.5101 Y-23.6138 Z0.1359 F22.
G1 X33.5101 Y-23.2896 Z0.1537
G1 X33.5101 Y-22.9650 Z0.1628
G1 X33.5101 Y-22.6402 Z0.1630
G1 X33.5101 Y-22.3156 Z0.1545
G1 X33.5101 Y-21.9913 Z0.1372
G1 X33.5101 Y-21.6677 Z0.1111
G0 Z0.3769
G0 X33.5101 Y-21.6677 
G0 Z0.3769
G0 X34.2683 Y-23.8139 
G1 X34.2683 Y-23.8139 Z0.2019 F21.
G1 X34.2683 Y-23.8204 Z0.2008
G1 X34.2683 Y-23.9273 Z0.1819
G1 X34.2683 Y-23.6065 Z0.2081 F22.
G1 X34.2683 Y-23.2852 Z0.2256
G1 X34.2683 Y-22.9635 Z0.2345
G1 X34.2683 Y-22.6416 Z0.2347
G1 X34.2683 Y-22.3199 Z0.2263
G1 X34.2683 Y-21.9985 Z0.2094
G1 X34.2683 Y-21.6777 Z0.1837
G0 Z0.3626
G0 X34.2683 Y-21.6777 
G0 Z0.3626
G0 X34.2683 Y-23.8139 
G1 X34.2683 Y-23.8139 Z0.1876 F21.
G1 X34.2683 Y-23.8204 Z0.1864
G1 X34.2683 Y-23.9273 Z0.1676
G1 X34.2683 Y-23.6065 Z0.1937 F22.
G1 X34.2683 Y-23.2852 Z0.2112
G1 X34.2683 Y-22.9635 Z0.2201
G1 X34.2683 Y-22.6416 Z0.2204
G1 X34.2683 Y-22.3199 Z0.2120
G1 X34.2683 Y-21.9985 Z0.1950
G1 X34.2683 Y-21.6777 Z0.1694
G0 Z0.3483
G0 X34.2683 Y-21.6777 
G0 Z0.3483
G0 X34.2683 Y-23.8139 
G1 X34.2683 Y-23.8139 Z0.1733 F21.
G1 X34.2683 Y-23.8204 Z0.1721
G1 X34.2683 Y-23.9273 Z0.1533
G1 X34.2683 Y-23.6065 Z0.1794 F22.
G1 X34.2683 Y-23.2852 Z0.1969
G1 X34.2683 Y-22.9635 Z0.2058
G1 X34.2683 Y-22.6416 Z0.2061
G1 X34.2683 Y-22.3199 Z0.1977
G1 X34.2683 Y-21.9985 Z0.1807
G1 X34.2683 Y-21.6777 Z0.1551
G0 Z0.3339
G0 X34.2683 Y-21.6777 
G0 Z0.3339
G0 X34.2683 Y-23.8139 
G1 X34.2683 Y-23.8139 Z0.1589 F21.
G1 X34.2683 Y-23.8204 Z0.1578
G1 X34.2683 Y-23.9273 Z0.1389
G1 X34.2683 Y-23.6065 Z0.1651 F22.
G1 X34.2683 Y-23.2852 Z0.1826
G1 X34.2683 Y-22.9635 Z0.1915
G1 X34.2683 Y-22.6416 Z0.1917
G1 X34.2683 Y-22.3199 Z0.1833
G1 X34.2683 Y-21.9985 Z0.1664
G1 X34.2683 Y-21.6777 Z0.1407
G0 Z0.3196
G0 X34.2683 Y-21.6777 
G0 Z0.3196
G0 X34.2683 Y-23.8139 
G1 X34.2683 Y-23.8139 Z0.1446 F21.
G1 X34.2683 Y-23.8204 Z0.1434
G1 X34.2683 Y-23.9273 Z0.1246
G1 X34.2683 Y-23.6065 Z0.1507 F22.
G1 X34.2683 Y-23.2852 Z0.1682
G1 X34.2683 Y-22.9635 Z0.1771
G1 X34.2683 Y-22.6416 Z0.1774
G1 X34.2683 Y-22.3199 Z0.1690
G1 X34.2683 Y-21.9985 Z0.1520
G1 X34.2683 Y-21.6777 Z0.1264
G0 Z0.3053
G0 X34.2683 Y-21.6777 
G0 Z0.3053
G0 X34.2683 Y-23.8139 
G1 X34.2683 Y-23.8139 Z0.1303 F21.
G1 X34.2683 Y-23.8204 Z0.1291
G1 X34.2683 Y-23.9273 Z0.1103
G1 X34.2683 Y-23.6065 Z0.1364 F22.
G1 X34.2683 Y-23.2852 Z0.1539
G1 X34.2683 Y-22.9635 Z0.1628
G1 X34.2683 Y-22.6416 Z0.1631
G1 X34.2683 Y-22.3199 Z0.1547
G1 X34.2683 Y-21.9985 Z0.1377
G1 X34.2683 Y-21.6777 Z0.1121
G0 Z0.3779
G0 X34.2683 Y-21.6777 
G0 Z0.3779
G0 X35.0715 Y-23.8031 
G1 X35.0715 Y-23.8031 Z0.2029 F21.
G1 X35.0715 Y-23.8107 Z0.2016
G1 X35.0715 Y-23.9165 Z0.1829
G1 X35.0715 Y-23.5988 Z0.2086 F22.
G1 X35.0715 Y-23.2805 Z0.2258
G1 X35.0715 Y-22.9619 Z0.2345
G1 X35.0715 Y-22.6431 Z0.2347
G1 X35.0715 Y-22.3245 Z0.2265
G1 X35.0715 Y-22.0061 Z0.2099
G1 X35.0715 Y-21.6884 Z0.1847
G0 Z0.3636
G0 X35.0715 Y-21.6884 
G0 Z0.3636
G0 X35.0715 Y-23.8031 
G1 X35.0715 Y-23.8031 Z0.1886 F21.
G1 X35.0715 Y-23.8107 Z0.1873
G1 X35.0715 Y-23.9165 Z0.1686
G1 X35.0715 Y-23.5988 Z0.1942 F22.
G1 X35.0715 Y-23.2805 Z0.2114
G1 X35.0715 Y-22.9619 Z0.2201
G1 X35.0715 Y-22.6431 Z0.2204
G1 X35.0715 Y-22.3245 Z0.2122
G1 X35.0715 Y-22.0061 Z0.1955
G1 X35.0715 Y-21.6884 Z0.1704
G0 Z0.3493
G0 X35.0715 Y-21.6884 
G0 Z0.3493
G0 X35.0715 Y-23.8031 
G1 X35.0715 Y-23.8031 Z0.1743 F21.
G1 X35.0715 Y-23.8107 Z0.1729
G1 X35.0715 Y-23.9165 Z0.1543
G1 X35.0715 Y-23.5988 Z0.1799 F22.
G1 X35.0715 Y-23.2805 Z0.1971
G1 X35.0715 Y-22.9619 Z0.2058
G1 X35.0715 Y-22.6431 Z0.2061
G1 X35.0715 Y-22.3245 Z0.1979
G1 X35.0715 Y-22.0061 Z0.1812
G1 X35.0715 Y-21.6884 Z0.1561
G0 Z0.3349
G0 X35.0715 Y-21.6884 
G0 Z0.3349
G0 X35.0715 Y-23.8031 
G1 X35.0715 Y-23.8031 Z0.1599 F21.
G1 X35.0715 Y-23.8107 Z0.1586
G1 X35.0715 Y-23.9165 Z0.1399
G1 X35.0715 Y-23.5988 Z0.1656 F22.
G1 X35.0715 Y-23.2805 Z0.1828
G1 X35.0715 Y-22.9619 Z0.1915
G1 X35.0715 Y-22.6431 Z0.1917
G1 X35.0715 Y-22.3245 Z0.1835
G1 X35.0715 Y-22.0061 Z0.1669
G1 X35.0715 Y-21.6884 Z0.1417
G0 Z0.3206
G0 X35.0715 Y-21.6884 
G0 Z0.3206
G0 X35.0715 Y-23.8031 
G1 X35.0715 Y-23.8031 Z0.1456 F21.
G1 X35.0715 Y-23.8107 Z0.1443
G1 X35.0715 Y-23.9165 Z0.1256
G1 X35.0715 Y-23.5988 Z0.1512 F22.
G1 X35.0715 Y-23.2805 Z0.1684
G1 X35.0715 Y-22.9619 Z0.1771
G1 X35.0715 Y-22.6431 Z0.1774
G1 X35.0715 Y-22.3245 Z0.1692
G1 X35.0715 Y-22.0061 Z0.1525
G1 X35.0715 Y-21.6884 Z0.1274
G0 Z0.3063
G0 X35.0715 Y-21.6884 
G0 Z0.3063
G0 X35.0715 Y-23.8031 
G1 X35.0715 Y-23.8031 Z0.1313 F21.
G1 X35.0715 Y-23.8107 Z0.1299
G1 X35.0715 Y-23.9165 Z0.1113
G1 X35.0715 Y-23.5988 Z0.1369 F22.
G1 X35.0715 Y-23.2805 Z0.1541
G1 X35.0715 Y-22.9619 Z0.1628
G1 X35.0715 Y-22.6431 Z0.1631
G1 X35.0715 Y-22.3245 Z0.1549
G1 X35.0715 Y-22.0061 Z0.1382
G1 X35.0715 Y-21.6884 Z0.1131
G0 Z0.3790
G0 X35.0715 Y-21.6884 
G0 Z0.3790
G0 X35.9225 Y-23.7916 
G1 X35.9225 Y-23.7916 Z0.2040 F21.
G1 X35.9225 Y-23.8003 Z0.2025
G1 X35.9225 Y-23.9051 Z0.1840
G1 X35.9225 Y-23.5906 Z0.2091 F22.
G1 X35.9225 Y-23.2755 Z0.2260
G1 X35.9225 Y-22.9602 Z0.2345
G1 X35.9225 Y-22.6447 Z0.2348
G1 X35.9225 Y-22.3293 Z0.2267
G1 X35.9225 Y-22.0142 Z0.2104
G1 X35.9225 Y-21.6997 Z0.1858
G0 Z0.3647
G0 X35.9225 Y-21.6997 
G0 Z0.3647
G0 X35.9225 Y-23.7916 
G1 X35.9225 Y-23.7916 Z0.1897 F21.
G1 X35.9225 Y-23.8003 Z0.1882
G1 X35.9225 Y-23.9051 Z0.1697
G1 X35.9225 Y-23.5906 Z0.1948 F22.
G1 X35.9225 Y-23.2755 Z0.2116
G1 X35.9225 Y-22.9602 Z0.2202
G1 X35.9225 Y-22.6447 Z0.2204
G1 X35.9225 Y-22.3293 Z0.2124
G1 X35.9225 Y-22.0142 Z0.1960
G1 X35.9225 Y-21.6997 Z0.1714
G0 Z0.3504
G0 X35.9225 Y-21.6997 
G0 Z0.3504
G0 X35.9225 Y-23.7916 
G1 X35.9225 Y-23.7916 Z0.1754 F21.
G1 X35.9225 Y-23.8003 Z0.1738
G1 X35.9225 Y-23.9051 Z0.1554
G1 X35.9225 Y-23.5906 Z0.1805 F22.
G1 X35.9225 Y-23.2755 Z0.1973
G1 X35.9225 Y-22.9602 Z0.2058
G1 X35.9225 Y-22.6447 Z0.2061
G1 X35.9225 Y-22.3293 Z0.1980
G1 X35.9225 Y-22.0142 Z0.1817
G1 X35.9225 Y-21.6997 Z0.1571
G0 Z0.3360
G0 X35.9225 Y-21.6997 
G0 Z0.3360
G0 X35.9225 Y-23.7916 
G1 X35.9225 Y-23.7916 Z0.1610 F21.
G1 X35.9225 Y-23.8003 Z0.1595
G1 X35.9225 Y-23.9051 Z0.1410
G1 X35.9225 Y-23.5906 Z0.1661 F22.
G1 X35.9225 Y-23.2755 Z0.1830
G1 X35.9225 Y-22.9602 Z0.1915
G1 X35.9225 Y-22.6447 Z0.1918
G1 X35.9225 Y-22.3293 Z0.1837
G1 X35.9225 Y-22.0142 Z0.1674
G1 X35.9225 Y-21.6997 Z0.1428
G0 Z0.3217
G0 X35.9225 Y-21.6997 
G0 Z0.3217
G0 X35.9225 Y-23.7916 
G1 X35.9225 Y-23.7916 Z0.1467 F21.
G1 X35.9225 Y-23.8003 Z0.1452
G1 X35.9225 Y-23.9051 Z0.1267
G1 X35.9225 Y-23.5906 Z0.1518 F22.
G1 X35.9225 Y-23.2755 Z0.1686
G1 X35.9225 Y-22.9602 Z0.1772
G1 X35.9225 Y-22.6447 Z0.1774
G1 X35.9225 Y-22.3293 Z0.1694
G1 X35.9225 Y-22.0142 Z0.1530
G1 X35.9225 Y-21.6997 Z0.1284
G0 Z0.3074
G0 X35.9225 Y-21.6997 
G0 Z0.3074
G0 X35.9225 Y-23.7916 
G1 X35.9225 Y-23.7916 Z0.1324 F21.
G1 X35.9225 Y-23.8003 Z0.1308
G1 X35.9225 Y-23.9051 Z0.1124
G1 X35.9225 Y-23.5906 Z0.1375 F22.
G1 X35.9225 Y-23.2755 Z0.1543
G1 X35.9225 Y-22.9602 Z0.1628
G1 X35.9225 Y-22.6447 Z0.1631
G1 X35.9225 Y-22.3293 Z0.1550
G1 X35.9225 Y-22.0142 Z0.1387
G1 X35.9225 Y-21.6997 Z0.1141
G0 Z0.3801
G0 X35.9225 Y-21.6997 
G0 Z0.3801
G0 X36.8241 Y-23.7795 
G1 X36.8241 Y-23.7795 Z0.2051 F21.
G1 X36.8241 Y-23.7893 Z0.2034
G1 X36.8241 Y-23.8929 Z0.1851
G1 X36.8241 Y-23.5819 Z0.2097 F22.
G1 X36.8241 Y-23.2703 Z0.2262
G1 X36.8241 Y-22.9584 Z0.2345
G1 X36.8241 Y-22.6463 Z0.2348
G1 X36.8241 Y-22.3344 Z0.2269
G1 X36.8241 Y-22.0228 Z0.2109
G1 X36.8241 Y-21.7117 Z0.1869
G0 Z0.3658
G0 X36.8241 Y-21.7117 
G0 Z0.3658
G0 X36.8241 Y-23.7795 
G1 X36.8241 Y-23.7795 Z0.1908 F21.
G1 X36.8241 Y-23.7893 Z0.1891
G1 X36.8241 Y-23.8929 Z0.1708
G1 X36.8241 Y-23.5819 Z0.1954 F22.
G1 X36.8241 Y-23.2703 Z0.2118
G1 X36.8241 Y-22.9584 Z0.2202
G1 X36.8241 Y-22.6463 Z0.2204
G1 X36.8241 Y-22.3344 Z0.2126
G1 X36.8241 Y-22.0228 Z0.1966
G1 X36.8241 Y-21.7117 Z0.1725
G0 Z0.3515
G0 X36.8241 Y-21.7117 
G0 Z0.3515
G0 X36.8241 Y-23.7795 
G1 X36.8241 Y-23.7795 Z0.1765 F21.
G1 X36.8241 Y-23.7893 Z0.1747
G1 X36.8241 Y-23.8929 Z0.1565
G1 X36.8241 Y-23.5819 Z0.1810 F22.
G1 X36.8241 Y-23.2703 Z0.1975
G1 X36.8241 Y-22.9584 Z0.2059
G1 X36.8241 Y-22.6463 Z0.2061
G1 X36.8241 Y-22.3344 Z0.1982
G1 X36.8241 Y-22.0228 Z0.1823
G1 X36.8241 Y-21.7117 Z0.1582
G0 Z0.3371
G0 X36.8241 Y-21.7117 
G0 Z0.3371
G0 X36.8241 Y-23.7795 
G1 X36.8241 Y-23.7795 Z0.1621 F21.
G1 X36.8241 Y-23.7893 Z0.1604
G1 X36.8241 Y-23.8929 Z0.1421
G1 X36.8241 Y-23.5819 Z0.1667 F22.
G1 X36.8241 Y-23.2703 Z0.1832
G1 X36.8241 Y-22.9584 Z0.1915
G1 X36.8241 Y-22.6463 Z0.1918
G1 X36.8241 Y-22.3344 Z0.1839
G1 X36.8241 Y-22.0228 Z0.1679
G1 X36.8241 Y-21.7117 Z0.1439
G0 Z0.3228
G0 X36.8241 Y-21.7117 
G0 Z0.3228
G0 X36.8241 Y-23.7795 
G1 X36.8241 Y-23.7795 Z0.1478 F21.
G1 X36.8241 Y-23.7893 Z0.1461
G1 X36.8241 Y-23.8929 Z0.1278
G1 X36.8241 Y-23.5819 Z0.1524 F22.
G1 X36.8241 Y-23.2703 Z0.1688
G1 X36.8241 Y-22.9584 Z0.1772
G1 X36.8241 Y-22.6463 Z0.1774
G1 X36.8241 Y-22.3344 Z0.1696
G1 X36.8241 Y-22.0228 Z0.1536
G1 X36.8241 Y-21.7117 Z0.1295
G0 Z0.3085
G0 X36.8241 Y-21.7117 
G0 Z0.3085
G0 X36.8241 Y-23.7795 
G1 X36.8241 Y-23.7795 Z0.1335 F21.
G1 X36.8241 Y-23.7893 Z0.1317
G1 X36.8241 Y-23.8929 Z0.1135
G1 X36.8241 Y-23.5819 Z0.1380 F22.
G1 X36.8241 Y-23.2703 Z0.1545
G1 X36.8241 Y-22.9584 Z0.1629
G1 X36.8241 Y-22.6463 Z0.1631
G1 X36.8241 Y-22.3344 Z0.1552
G1 X36.8241 Y-22.0228 Z0.1393
G1 X36.8241 Y-21.7117 Z0.1152
G0 Z0.3813
G0 X36.8241 Y-21.7117 
G0 Z0.3813
G0 X37.7793 Y-23.7667 
G1 X37.7793 Y-23.7667 Z0.2063 F21.
G1 X37.7793 Y-23.7726 Z0.2053
G1 X37.7793 Y-23.8801 Z0.1863
G1 X37.7793 Y-23.5214 Z0.2135 F22.
G1 X37.7793 Y-23.1620 Z0.2300
G1 X37.7793 Y-22.8023 Z0.2357
G1 X37.7793 Y-22.4425 Z0.2306
G1 X37.7793 Y-22.0831 Z0.2147
G1 X37.7793 Y-21.7243 Z0.1880
G0 Z0.3670
G0 X37.7793 Y-21.7243 
G0 Z0.3670
G0 X37.7793 Y-23.7667 
G1 X37.7793 Y-23.7667 Z0.1920 F21.
G1 X37.7793 Y-23.7726 Z0.1909
G1 X37.7793 Y-23.8801 Z0.1720
G1 X37.7793 Y-23.5214 Z0.1992 F22.
G1 X37.7793 Y-23.1620 Z0.2157
G1 X37.7793 Y-22.8023 Z0.2213
G1 X37.7793 Y-22.4425 Z0.2162
G1 X37.7793 Y-22.0831 Z0.2003
G1 X37.7793 Y-21.7243 Z0.1737
G0 Z0.3526
G0 X37.7793 Y-21.7243 
G0 Z0.3526
G0 X37.7793 Y-23.7667 
G1 X37.7793 Y-23.7667 Z0.1776 F21.
G1 X37.7793 Y-23.7726 Z0.1766
G1 X37.7793 Y-23.8801 Z0.1576
G1 X37.7793 Y-23.5214 Z0.1849 F22.
G1 X37.7793 Y-23.1620 Z0.2013
G1 X37.7793 Y-22.8023 Z0.2070
G1 X37.7793 Y-22.4425 Z0.2019
G1 X37.7793 Y-22.0831 Z0.1860
G1 X37.7793 Y-21.7243 Z0.1593
G0 Z0.3383
G0 X37.7793 Y-21.7243 
G0 Z0.3383
G0 X37.7793 Y-23.7667 
G1 X37.7793 Y-23.7667 Z0.1633 F21.
G1 X37.7793 Y-23.7726 Z0.1623
G1 X37.7793 Y-23.8801 Z0.1433
G1 X37.7793 Y-23.5214 Z0.1705 F22.
G1 X37.7793 Y-23.1620 Z0.1870
G1 X37.7793 Y-22.8023 Z0.1927
G1 X37.7793 Y-22.4425 Z0.1876
G1 X37.7793 Y-22.0831 Z0.1717
G1 X37.7793 Y-21.7243 Z0.1450
G0 Z0.3240
G0 X37.7793 Y-21.7243 
G0 Z0.3240
G0 X37.7793 Y-23.7667 
G1 X37.7793 Y-23.7667 Z0.1490 F21.
G1 X37.7793 Y-23.7726 Z0.1479
G1 X37.7793 Y-23.8801 Z0.1290
G1 X37.7793 Y-23.5214 Z0.1562 F22.
G1 X37.7793 Y-23.1620 Z0.1727
G1 X37.7793 Y-22.8023 Z0.1783
G1 X37.7793 Y-22.4425 Z0.1732
G1 X37.7793 Y-22.0831 Z0.1573
G1 X37.7793 Y-21.7243 Z0.1307
G0 Z0.3096
G0 X37.7793 Y-21.7243 
G0 Z0.3096
G0 X37.7793 Y-23.7667 
G1 X37.7793 Y-23.7667 Z0.1346 F21.
G1 X37.7793 Y-23.7726 Z0.1336
G1 X37.7793 Y-23.8801 Z0.1146
G1 X37.7793 Y-23.5214 Z0.1419 F22.
G1 X37.7793 Y-23.1620 Z0.1583
G1 X37.7793 Y-22.8023 Z0.1640
G1 X37.7793 Y-22.4425 Z0.1589
G1 X37.7793 Y-22.0831 Z0.1430
G1 X37.7793 Y-21.7243 Z0.1163
G0 Z0.3825
G0 X37.7793 Y-21.7243 
G0 Z0.3825
G0 X38.7913 Y-23.7531 
G1 X38.7913 Y-23.7531 Z0.2075 F21.
G1 X38.7913 Y-23.7603 Z0.2063
G1 X38.7913 Y-23.8665 Z0.1875
G1 X38.7913 Y-23.5122 Z0.2141 F22.
G1 X38.7913 Y-23.1574 Z0.2301
G1 X38.7913 Y-22.8022 Z0.2357
G1 X38.7913 Y-22.4470 Z0.2307
G1 X38.7913 Y-22.0921 Z0.2152
G1 X38.7913 Y-21.7378 Z0.1892
G0 Z0.3682
G0 X38.7913 Y-21.7378 
G0 Z0.3682
G0 X38.7913 Y-23.7531 
G1 X38.7913 Y-23.7531 Z0.1932 F21.
G1 X38.7913 Y-23.7603 Z0.1919
G1 X38.7913 Y-23.8665 Z0.1732
G1 X38.7913 Y-23.5122 Z0.1998 F22.
G1 X38.7913 Y-23.1574 Z0.2158
G1 X38.7913 Y-22.8022 Z0.2213
G1 X38.7913 Y-22.4470 Z0.2164
G1 X38.7913 Y-22.0921 Z0.2009
G1 X38.7913 Y-21.7378 Z0.1749
G0 Z0.3539
G0 X38.7913 Y-21.7378 
G0 Z0.3539
G0 X38.7913 Y-23.7531 
G1 X38.7913 Y-23.7531 Z0.1789 F21.
G1 X38.7913 Y-23.7603 Z0.1776
G1 X38.7913 Y-23.8665 Z0.1589
G1 X38.7913 Y-23.5122 Z0.1854 F22.
G1 X38.7913 Y-23.1574 Z0.2015
G1 X38.7913 Y-22.8022 Z0.2070
G1 X38.7913 Y-22.4470 Z0.2020
G1 X38.7913 Y-22.0921 Z0.1865
G1 X38.7913 Y-21.7378 Z0.1605
G0 Z0.3395
G0 X38.7913 Y-21.7378 
G0 Z0.3395
G0 X38.7913 Y-23.7531 
G1 X38.7913 Y-23.7531 Z0.1645 F21.
G1 X38.7913 Y-23.7603 Z0.1633
G1 X38.7913 Y-23.8665 Z0.1445
G1 X38.7913 Y-23.5122 Z0.1711 F22.
G1 X38.7913 Y-23.1574 Z0.1871
G1 X38.7913 Y-22.8022 Z0.1927
G1 X38.7913 Y-22.4470 Z0.1877
G1 X38.7913 Y-22.0921 Z0.1722
G1 X38.7913 Y-21.7378 Z0.1462
G0 Z0.3252
G0 X38.7913 Y-21.7378 
G0 Z0.3252
G0 X38.7913 Y-23.7531 
G1 X38.7913 Y-23.7531 Z0.1502 F21.
G1 X38.7913 Y-23.7603 Z0.1489
G1 X38.7913 Y-23.8665 Z0.1302
G1 X38.7913 Y-23.5122 Z0.1568 F22.
G1 X38.7913 Y-23.1574 Z0.1728
G1 X38.7913 Y-22.8022 Z0.1783
G1 X38.7913 Y-22.4470 Z0.1734
G1 X38.7913 Y-22.0921 Z0.1579
G1 X38.7913 Y-21.7378 Z0.1319
G0 Z0.3109
G0 X38.7913 Y-21.7378 
G0 Z0.3109
G0 X38.7913 Y-23.7531 
G1 X38.7913 Y-23.7531 Z0.1359 F21.
G1 X38.7913 Y-23.7603 Z0.1346
G1 X38.7913 Y-23.8665 Z0.1159
G1 X38.7913 Y-23.5122 Z0.1424 F22.
G1 X38.7913 Y-23.1574 Z0.1585
G1 X38.7913 Y-22.8022 Z0.1640
G1 X38.7913 Y-22.4470 Z0.1590
G1 X38.7913 Y-22.0921 Z0.1435
G1 X38.7913 Y-21.7378 Z0.1175
G0 Z0.3838
G0 X38.7913 Y-21.7378 
G0 Z0.3838
G0 X39.8635 Y-23.7387 
G1 X39.8635 Y-23.7387 Z0.2088 F21.
G1 X39.8635 Y-23.7473 Z0.2073
G1 X39.8635 Y-23.8521 Z0.1888
G1 X39.8635 Y-23.5026 Z0.2147 F22.
G1 X39.8635 Y-23.1525 Z0.2303
G1 X39.8635 Y-22.8021 Z0.2357
G1 X39.8635 Y-22.4517 Z0.2308
G1 X39.8635 Y-22.1016 Z0.2157
G1 X39.8635 Y-21.7520 Z0.1904
G0 Z0.3695
G0 X39.8635 Y-21.7520 
G0 Z0.3695
G0 X39.8635 Y-23.7387 
G1 X39.8635 Y-23.7387 Z0.1945 F21.
G1 X39.8635 Y-23.7473 Z0.1930
G1 X39.8635 Y-23.8521 Z0.1745
G1 X39.8635 Y-23.5026 Z0.2003 F22.
G1 X39.8635 Y-23.1525 Z0.2159
G1 X39.8635 Y-22.8021 Z0.2213
G1 X39.8635 Y-22.4517 Z0.2165
G1 X39.8635 Y-22.1016 Z0.2014
G1 X39.8635 Y-21.7520 Z0.1761
G0 Z0.3552
G0 X39.8635 Y-21.7520 
G0 Z0.3552
G0 X39.8635 Y-23.7387 
G1 X39.8635 Y-23.7387 Z0.1802 F21.
G1 X39.8635 Y-23.7473 Z0.1786
G1 X39.8635 Y-23.8521 Z0.1602
G1 X39.8635 Y-23.5026 Z0.1860 F22.
G1 X39.8635 Y-23.1525 Z0.2016
G1 X39.8635 Y-22.8021 Z0.2070
G1 X39.8635 Y-22.4517 Z0.2022
G1 X39.8635 Y-22.1016 Z0.1871
G1 X39.8635 Y-21.7520 Z0.1618
G0 Z0.3408
G0 X39.8635 Y-21.7520 
G0 Z0.3408
G0 X39.8635 Y-23.7387 
G1 X39.8635 Y-23.7387 Z0.1658 F21.
G1 X39.8635 Y-23.7473 Z0.1643
G1 X39.8635 Y-23.8521 Z0.1458
G1 X39.8635 Y-23.5026 Z0.1717 F22.
G1 X39.8635 Y-23.1525 Z0.1873
G1 X39.8635 Y-22.8021 Z0.1927
G1 X39.8635 Y-22.4517 Z0.1878
G1 X39.8635 Y-22.1016 Z0.1727
G1 X39.8635 Y-21.7520 Z0.1474
G0 Z0.3265
G0 X39.8635 Y-21.7520 
G0 Z0.3265
G0 X39.8635 Y-23.7387 
G1 X39.8635 Y-23.7387 Z0.1515 F21.
G1 X39.8635 Y-23.7473 Z0.1500
G1 X39.8635 Y-23.8521 Z0.1315
G1 X39.8635 Y-23.5026 Z0.1573 F22.
G1 X39.8635 Y-23.1525 Z0.1729
G1 X39.8635 Y-22.8021 Z0.1783
G1 X39.8635 Y-22.4517 Z0.1735
G1 X39.8635 Y-22.1016 Z0.1584
G1 X39.8635 Y-21.7520 Z0.1331
G0 Z0.3122
G0 X39.8635 Y-21.7520 
G0 Z0.3122
G0 X39.8635 Y-23.7387 
G1 X39.8635 Y-23.7387 Z0.1372 F21.
G1 X39.8635 Y-23.7473 Z0.1356
G1 X39.8635 Y-23.8521 Z0.1172
G1 X39.8635 Y-23.5026 Z0.1430 F22.
G1 X39.8635 Y-23.1525 Z0.1586
G1 X39.8635 Y-22.8021 Z0.1640
G1 X39.8635 Y-22.4517 Z0.1592
G1 X39.8635 Y-22.1016 Z0.1441
G1 X39.8635 Y-21.7520 Z0.1188
G0 Z0.3852
G0 X39.8635 Y-21.7520 
G0 Z0.3852
G0 X40.9995 Y-23.7234 
G1 X40.9995 Y-23.7234 Z0.2102 F21.
G1 X40.9995 Y-23.7336 Z0.2084
G1 X40.9995 Y-23.8368 Z0.1902
G1 X40.9995 Y-23.4924 Z0.2153 F22.
G1 X40.9995 Y-23.1473 Z0.2304
G1 X40.9995 Y-22.8020 Z0.2357
G1 X40.9995 Y-22.4567 Z0.2310
G1 X40.9995 Y-22.1116 Z0.2163
G1 X40.9995 Y-21.7671 Z0.1917
G0 Z0.3708
G0 X40.9995 Y-21.7671 
G0 Z0.3708
G0 X40.9995 Y-23.7234 
G1 X40.9995 Y-23.7234 Z0.1958 F21.
G1 X40.9995 Y-23.7336 Z0.1940
G1 X40.9995 Y-23.8368 Z0.1758
G1 X40.9995 Y-23.4924 Z0.2009 F22.
G1 X40.9995 Y-23.1473 Z0.2161
G1 X40.9995 Y-22.8020 Z0.2213
G1 X40.9995 Y-22.4567 Z0.2166
G1 X40.9995 Y-22.1116 Z0.2020
G1 X40.9995 Y-21.7671 Z0.1774
G0 Z0.3565
G0 X40.9995 Y-21.7671 
G0 Z0.3565
G0 X40.9995 Y-23.7234 
G1 X40.9995 Y-23.7234 Z0.1815 F21.
G1 X40.9995 Y-23.7336 Z0.1797
G1 X40.9995 Y-23.8368 Z0.1615
G1 X40.9995 Y-23.4924 Z0.1866 F22.
G1 X40.9995 Y-23.1473 Z0.2018
G1 X40.9995 Y-22.8020 Z0.2070
G1 X40.9995 Y-22.4567 Z0.2023
G1 X40.9995 Y-22.1116 Z0.1876
G1 X40.9995 Y-21.7671 Z0.1631
G0 Z0.3422
G0 X40.9995 Y-21.7671 
G0 Z0.3422
G0 X40.9995 Y-23.7234 
G1 X40.9995 Y-23.7234 Z0.1672 F21.
G1 X40.9995 Y-23.7336 Z0.1654
G1 X40.9995 Y-23.8368 Z0.1472
G1 X40.9995 Y-23.4924 Z0.1723 F22.
G1 X40.9995 Y-23.1473 Z0.1874
G1 X40.9995 Y-22.8020 Z0.1927
G1 X40.9995 Y-22.4567 Z0.1880
G1 X40.9995 Y-22.1116 Z0.1733
G1 X40.9995 Y-21.7671 Z0.1487
G0 Z0.3278
G0 X40.9995 Y-21.7671 
G0 Z0.3278
G0 X40.9995 Y-23.7234 
G1 X40.9995 Y-23.7234 Z0.1528 F21.
G1 X40.9995 Y-23.7336 Z0.1510
G1 X40.9995 Y-23.8368 Z0.1328
G1 X40.9995 Y-23.4924 Z0.1579 F22.
G1 X40.9995 Y-23.1473 Z0.1731
G1 X40.9995 Y-22.8020 Z0.1783
G1 X40.9995 Y-22.4567 Z0.1736
G1 X40.9995 Y-22.1116 Z0.1590
G1 X40.9995 Y-21.7671 Z0.1344
G0 Z0.3135
G0 X40.9995 Y-21.7671 
G0 Z0.3135
G0 X40.9995 Y-23.7234 
G1 X40.9995 Y-23.7234 Z0.1385 F21.
G1 X40.9995 Y-23.7336 Z0.1367
G1 X40.9995 Y-23.8368 Z0.1185
G1 X40.9995 Y-23.4924 Z0.1436 F22.
G1 X40.9995 Y-23.1473 Z0.1588
G1 X40.9995 Y-22.8020 Z0.1640
G1 X40.9995 Y-22.4567 Z0.1593
G1 X40.9995 Y-22.1116 Z0.1446
G1 X40.9995 Y-21.7671 Z0.1201
G0 Z0.3866
G0 X40.9995 Y-21.7671 
G0 Z0.3866
G0 X42.2030 Y-23.7072 
G1 X42.2030 Y-23.7072 Z0.2116 F21.
G1 X42.2030 Y-23.7136 Z0.2104
G1 X42.2030 Y-23.8206 Z0.1916
G1 X42.2030 Y-23.4815 Z0.2159 F22.
G1 X42.2030 Y-23.1418 Z0.2306
G1 X42.2030 Y-22.8019 Z0.2357
G1 X42.2030 Y-22.4619 Z0.2311
G1 X42.2030 Y-22.1222 Z0.2169
G1 X42.2030 Y-21.7831 Z0.1931
G0 Z0.3722
G0 X42.2030 Y-21.7831 
G0 Z0.3722
G0 X42.2030 Y-23.7072 
G1 X42.2030 Y-23.7072 Z0.1972 F21.
G1 X42.2030 Y-23.7136 Z0.1961
G1 X42.2030 Y-23.8206 Z0.1772
G1 X42.2030 Y-23.4815 Z0.2016 F22.
G1 X42.2030 Y-23.1418 Z0.2163
G1 X42.2030 Y-22.8019 Z0.2213
G1 X42.2030 Y-22.4619 Z0.2168
G1 X42.2030 Y-22.1222 Z0.2026
G1 X42.2030 Y-21.7831 Z0.1788
G0 Z0.3579
G0 X42.2030 Y-21.7831 
G0 Z0.3579
G0 X42.2030 Y-23.7072 
G1 X42.2030 Y-23.7072 Z0.1829 F21.
G1 X42.2030 Y-23.7136 Z0.1818
G1 X42.2030 Y-23.8206 Z0.1629
G1 X42.2030 Y-23.4815 Z0.1872 F22.
G1 X42.2030 Y-23.1418 Z0.2019
G1 X42.2030 Y-22.8019 Z0.2070
G1 X42.2030 Y-22.4619 Z0.2024
G1 X42.2030 Y-22.1222 Z0.1883
G1 X42.2030 Y-21.7831 Z0.1644
G0 Z0.3436
G0 X42.2030 Y-21.7831 
G0 Z0.3436
G0 X42.2030 Y-23.7072 
G1 X42.2030 Y-23.7072 Z0.1686 F21.
G1 X42.2030 Y-23.7136 Z0.1674
G1 X42.2030 Y-23.8206 Z0.1486
G1 X42.2030 Y-23.4815 Z0.1729 F22.
G1 X42.2030 Y-23.1418 Z0.1876
G1 X42.2030 Y-22.8019 Z0.1927
G1 X42.2030 Y-22.4619 Z0.1881
G1 X42.2030 Y-22.1222 Z0.1739
G1 X42.2030 Y-21.7831 Z0.1501
G0 Z0.3292
G0 X42.2030 Y-21.7831 
G0 Z0.3292
G0 X42.2030 Y-23.7072 
G1 X42.2030 Y-23.7072 Z0.1542 F21.
G1 X42.2030 Y-23.7136 Z0.1531
G1 X42.2030 Y-23.8206 Z0.1342
G1 X42.2030 Y-23.4815 Z0.1586 F22.
G1 X42.2030 Y-23.1418 Z0.1733
G1 X42.2030 Y-22.8019 Z0.1783
G1 X42.2030 Y-22.4619 Z0.1738
G1 X42.2030 Y-22.1222 Z0.1596
G1 X42.2030 Y-21.7831 Z0.1358
G0 Z0.3149
G0 X42.2030 Y-21.7831 
G0 Z0.3149
G0 X42.2030 Y-23.7072 
G1 X42.2030 Y-23.7072 Z0.1399 F21.
G1 X42.2030 Y-23.7136 Z0.1388
G1 X42.2030 Y-23.8206 Z0.1199
G1 X42.2030 Y-23.4815 Z0.1442 F22.
G1 X42.2030 Y-23.1418 Z0.1589
G1 X42.2030 Y-22.8019 Z0.1640
G1 X42.2030 Y-22.4619 Z0.1594
G1 X42.2030 Y-22.1222 Z0.1453
G1 X42.2030 Y-21.7831 Z0.1214
G0 Z0.3880
G0 X42.2030 Y-21.7831 
G0 Z0.3880
G0 X43.4780 Y-23.6901 
G1 X43.4780 Y-23.6901 Z0.2130 F21.
G1 X43.4780 Y-23.6983 Z0.2116
G1 X43.4780 Y-23.8035 Z0.1930
G1 X43.4780 Y-23.4700 Z0.2165 F22.
G1 X43.4780 Y-23.1360 Z0.2308
G1 X43.4780 Y-22.8018 Z0.2357
G1 X43.4780 Y-22.4675 Z0.2313
G1 X43.4780 Y-22.1335 Z0.2175
G1 X43.4780 Y-21.8000 Z0.1945
G0 Z0.3737
G0 X43.4780 Y-21.8000 
G0 Z0.3737
G0 X43.4780 Y-23.6901 
G1 X43.4780 Y-23.6901 Z0.1987 F21.
G1 X43.4780 Y-23.6983 Z0.1973
G1 X43.4780 Y-23.8035 Z0.1787
G1 X43.4780 Y-23.4700 Z0.2022 F22.
G1 X43.4780 Y-23.1360 Z0.2164
G1 X43.4780 Y-22.8018 Z0.2213
G1 X43.4780 Y-22.4675 Z0.2169
G1 X43.4780 Y-22.1335 Z0.2032
G1 X43.4780 Y-21.8000 Z0.1802
G0 Z0.3594
G0 X43.4780 Y-21.8000 
G0 Z0.3594
G0 X43.4780 Y-23.6901 
G1 X43.4780 Y-23.6901 Z0.1844 F21.
G1 X43.4780 Y-23.6983 Z0.1829
G1 X43.4780 Y-23.8035 Z0.1644
G1 X43.4780 Y-23.4700 Z0.1879 F22.
G1 X43.4780 Y-23.1360 Z0.2021
G1 X43.4780 Y-22.8018 Z0.2070
G1 X43.4780 Y-22.4675 Z0.2026
G1 X43.4780 Y-22.1335 Z0.1889
G1 X43.4780 Y-21.8000 Z0.1659
G0 Z0.3450
G0 X43.4780 Y-21.8000 
G0 Z0.3450
G0 X43.4780 Y-23.6901 
G1 X43.4780 Y-23.6901 Z0.1700 F21.
G1 X43.4780 Y-23.6983 Z0.1686
G1 X43.4780 Y-23.8035 Z0.1500
G1 X43.4780 Y-23.4700 Z0.1735 F22.
G1 X43.4780 Y-23.1360 Z0.1878
G1 X43.4780 Y-22.8018 Z0.1927
G1 X43.4780 Y-22.4675 Z0.1883
G1 X43.4780 Y-22.1335 Z0.1745
G1 X43.4780 Y-21.8000 Z0.1515
G0 Z0.3307
G0 X43.4780 Y-21.8000 
G0 Z0.3307
G0 X43.4780 Y-23.6901 
G1 X43.4780 Y-23.6901 Z0.1557 F21.
G1 X43.4780 Y-23.6983 Z0.1543
G1 X43.4780 Y-23.8035 Z0.1357
G1 X43.4780 Y-23.4700 Z0.1592 F22.
G1 X43.4780 Y-23.1360 Z0.1734
G1 X43.4780 Y-22.8018 Z0.1783
G1 X43.4780 Y-22.4675 Z0.1739
G1 X43.4780 Y-22.1335 Z0.1602
G1 X43.4780 Y-21.8000 Z0.1372
G0 Z0.3164
G0 X43.4780 Y-21.8000 
G0 Z0.3164
G0 X43.4780 Y-23.6901 
G1 X43.4780 Y-23.6901 Z0.1414 F21.
G1 X43.4780 Y-23.6983 Z0.1399
G1 X43.4780 Y-23.8035 Z0.1214
G1 X43.4780 Y-23.4700 Z0.1449 F22.
G1 X43.4780 Y-23.1360 Z0.1591
G1 X43.4780 Y-22.8018 Z0.1640
G1 X43.4780 Y-22.4675 Z0.1596
G1 X43.4780 Y-22.1335 Z0.1459
G1 X43.4780 Y-21.8000 Z0.1229
G0 Z0.3896
G0 X43.4780 Y-21.8000 
G0 Z0.3896
G0 X44.8289 Y-23.6719 
G1 X44.8289 Y-23.6719 Z0.2146 F21.
G1 X44.8289 Y-23.6820 Z0.2128
G1 X44.8289 Y-23.7853 Z0.1946
G1 X44.8289 Y-23.4579 Z0.2172 F22.
G1 X44.8289 Y-23.1299 Z0.2309
G1 X44.8289 Y-22.8017 Z0.2357
G1 X44.8289 Y-22.4734 Z0.2314
G1 X44.8289 Y-22.1455 Z0.2182
G1 X44.8289 Y-21.8180 Z0.1960
G0 Z0.3752
G0 X44.8289 Y-21.8180 
G0 Z0.3752
G0 X44.8289 Y-23.6719 
G1 X44.8289 Y-23.6719 Z0.2002 F21.
G1 X44.8289 Y-23.6820 Z0.1984
G1 X44.8289 Y-23.7853 Z0.1802
G1 X44.8289 Y-23.4579 Z0.2029 F22.
G1 X44.8289 Y-23.1299 Z0.2166
G1 X44.8289 Y-22.8017 Z0.2213
G1 X44.8289 Y-22.4734 Z0.2171
G1 X44.8289 Y-22.1455 Z0.2039
G1 X44.8289 Y-21.8180 Z0.1817
G0 Z0.3609
G0 X44.8289 Y-21.8180 
G0 Z0.3609
G0 X44.8289 Y-23.6719 
G1 X44.8289 Y-23.6719 Z0.1859 F21.
G1 X44.8289 Y-23.6820 Z0.1841
G1 X44.8289 Y-23.7853 Z0.1659
G1 X44.8289 Y-23.4579 Z0.1886 F22.
G1 X44.8289 Y-23.1299 Z0.2023
G1 X44.8289 Y-22.8017 Z0.2070
G1 X44.8289 Y-22.4734 Z0.2028
G1 X44.8289 Y-22.1455 Z0.1895
G1 X44.8289 Y-21.8180 Z0.1673
G0 Z0.3466
G0 X44.8289 Y-21.8180 
G0 Z0.3466
G0 X44.8289 Y-23.6719 
G1 X44.8289 Y-23.6719 Z0.1716 F21.
G1 X44.8289 Y-23.6820 Z0.1698
G1 X44.8289 Y-23.7853 Z0.1516
G1 X44.8289 Y-23.4579 Z0.1742 F22.
G1 X44.8289 Y-23.1299 Z0.1879
G1 X44.8289 Y-22.8017 Z0.1927
G1 X44.8289 Y-22.4734 Z0.1884
G1 X44.8289 Y-22.1455 Z0.1752
G1 X44.8289 Y-21.8180 Z0.1530
G0 Z0.3322
G0 X44.8289 Y-21.8180 
G0 Z0.3322
G0 X44.8289 Y-23.6719 
G1 X44.8289 Y-23.6719 Z0.1572 F21.
G1 X44.8289 Y-23.6820 Z0.1554
G1 X44.8289 Y-23.7853 Z0.1372
G1 X44.8289 Y-23.4579 Z0.1599 F22.
G1 X44.8289 Y-23.1299 Z0.1736
G1 X44.8289 Y-22.8017 Z0.1783
G1 X44.8289 Y-22.4734 Z0.1741
G1 X44.8289 Y-22.1455 Z0.1609
G1 X44.8289 Y-21.8180 Z0.1387
G0 Z0.3179
G0 X44.8289 Y-21.8180 
G0 Z0.3179
G0 X44.8289 Y-23.6719 
G1 X44.8289 Y-23.6719 Z0.1429 F21.
G1 X44.8289 Y-23.6820 Z0.1411
G1 X44.8289 Y-23.7853 Z0.1229
G1 X44.8289 Y-23.4579 Z0.1456 F22.
G1 X44.8289 Y-23.1299 Z0.1593
G1 X44.8289 Y-22.8017 Z0.1640
G1 X44.8289 Y-22.4734 Z0.1598
G1 X44.8289 Y-22.1455 Z0.1465
G1 X44.8289 Y-21.8180 Z0.1243
G0 Z4.0000
G0 X44.8289 Y-21.8180 
M5
G53 Z
X2Y0
