( MOP:  05-profile-s24PT625-nw43-Gibson-Moser-NFrets24-01 )
( FILE: G:\Shared drives\AlloyProjectFiles\Customer CAD files\Alloy-Standard-Builds-CAM\Fingerboards-in\05-profile-s24PT625-nw43-Gibson-Moser-NFrets24-01.nc)
G90
(  BEGIN TOOL LIST )
(  TOOL 11 - Downcut PT750 ROUGH - DESC: 0.7500 DIA, 2 FLUTE,  CARBIDE MAT )
(  ENDOF TOOL LIST )
( 05-profile-s24PT625-nw43-Gibson-Moser-NFrets24-01)
T11
S14000
M3
G0 Z4.0000
G0 X15.3210 Y-24.8623 
G1 X15.3210 Y-24.8623 Z0.3000 F75.
G1 X13.6199 Y-24.8885 Z0.0000 F50.
G1 X13.6198 Y-24.8885 Z0.0000
G1 X13.6198 Y-24.8885 Z0.0000 F150.
G1 X4.1903 Y-25.0334 Z0.0000
G17
G2X3.1008Y-23.9386Z0.0000I0.0057J1.0952
G1 X3.1014 Y-21.6378 Z0.0000
G2X4.2127Y-20.5653Z0.0000I1.0949J-0.0225
G1 X23.0489 Y-20.8563 Z0.0000
G2X24.1051Y-21.9503Z0.0000I-0.0390J-1.0945
G2X24.1046Y-23.6725Z0.0000I-203.7734J-0.7956
G2X23.0270Y-24.7435Z0.0000I-1.0950J0.0241
G1 X13.6199 Y-24.8885 Z0.0000
G1 X13.6198 Y-24.8885 Z0.0000
G1 X13.6164 Y-24.6652 Z0.0000
G1 X4.1994 Y-24.8102 Z0.0000
G2X3.3242Y-23.9387Z0.0000I-0.0033J0.8720
G1 X3.3244 Y-21.6503 Z0.0000
G2X4.2093Y-20.7886Z0.0000I0.8719J-0.0102
G1 X23.0332 Y-21.0790 Z0.0000
G2X23.8818Y-21.9503Z0.0000I-0.0234J-0.8717
G2X23.8816Y-23.6599Z0.0000I-233.9855J-0.8254
G2X23.0236Y-24.5202Z0.0000I-0.8718J0.0115
G1 X13.6164 Y-24.6652 Z0.0000
G1 X13.6130 Y-24.4419 Z0.0000
G1 X4.2058 Y-24.5870 Z0.0000
G1 X4.2052 Y-24.5870 Z0.0000
G1 X4.2045 Y-24.5870 Z0.0000
G1 X4.2039 Y-24.5870 Z0.0000
G1 X4.2032 Y-24.5870 Z0.0000
G1 X4.2025 Y-24.5870 Z0.0000
G1 X4.2019 Y-24.5870 Z0.0000
G1 X4.2012 Y-24.5870 Z0.0000
G1 X4.2006 Y-24.5870 Z0.0000
G1 X4.1999 Y-24.5870 Z0.0000
G1 X4.1993 Y-24.5870 Z0.0000
G1 X4.1986 Y-24.5870 Z0.0000
G1 X4.1979 Y-24.5869 Z0.0000
G1 X4.1973 Y-24.5869 Z0.0000
G2X3.5475Y-23.9387Z0.0000I-0.0014J0.6484
G2X3.5475Y-21.6589Z0.0000I388.0670J1.1393
G1 X3.5475 Y-21.6582 Z0.0000
G1 X3.5475 Y-21.6575 Z0.0000
G1 X3.5475 Y-21.6569 Z0.0000
G1 X3.5475 Y-21.6562 Z0.0000
G1 X3.5475 Y-21.6556 Z0.0000
G1 X3.5476 Y-21.6549 Z0.0000
G1 X3.5476 Y-21.6543 Z0.0000
G1 X3.5476 Y-21.6536 Z0.0000
G1 X3.5476 Y-21.6530 Z0.0000
G1 X3.5476 Y-21.6523 Z0.0000
G1 X3.5477 Y-21.6516 Z0.0000
G2X4.2058Y-21.0119Z0.0000I0.6483J-0.0086
G1 X23.0201 Y-21.3020 Z0.0000
G1 X23.0208 Y-21.3020 Z0.0000
G1 X23.0214 Y-21.3020 Z0.0000
G1 X23.0221 Y-21.3020 Z0.0000
G1 X23.0227 Y-21.3020 Z0.0000
G1 X23.0233 Y-21.3021 Z0.0000
G1 X23.0240 Y-21.3021 Z0.0000
G1 X23.0246 Y-21.3021 Z0.0000
G1 X23.0253 Y-21.3021 Z0.0000
G1 X23.0259 Y-21.3022 Z0.0000
G1 X23.0266 Y-21.3022 Z0.0000
G1 X23.0272 Y-21.3022 Z0.0000
G1 X23.0278 Y-21.3022 Z0.0000
G1 X23.0285 Y-21.3023 Z0.0000
G2X23.6585Y-21.9502Z0.0000I-0.0185J-0.6481
G2X23.6585Y-23.6499Z0.0000I-295.0456J-0.8492
G1 X23.6585 Y-23.6506 Z0.0000
G1 X23.6584 Y-23.6512 Z0.0000
G1 X23.6584 Y-23.6518 Z0.0000
G1 X23.6584 Y-23.6525 Z0.0000
G1 X23.6584 Y-23.6531 Z0.0000
G1 X23.6584 Y-23.6538 Z0.0000
G1 X23.6584 Y-23.6544 Z0.0000
G1 X23.6584 Y-23.6551 Z0.0000
G1 X23.6583 Y-23.6557 Z0.0000
G1 X23.6583 Y-23.6563 Z0.0000
G1 X23.6583 Y-23.6570 Z0.0000
G2X23.0201Y-24.2969Z0.0000I-0.6484J0.0085
G1 X13.6130 Y-24.4419 Z0.0000
G1 X13.6095 Y-24.2186 Z0.0000
G1 X4.2024 Y-24.3637 Z0.0000
G2X3.7708Y-23.9387Z0.0000I-0.0066J0.4250
G1 X3.7708 Y-21.6602 Z0.0000
G2X4.2024Y-21.2352Z0.0000I0.4250J0.0000
G1 X23.0167 Y-21.5253 Z0.0000
G2X23.4351Y-21.9502Z0.0000I-0.0066J-0.4249
G1 X23.4351 Y-23.6486 Z0.0000
G2X23.0167Y-24.0736Z0.0000I-0.4250J0.0000
G1 X13.6095 Y-24.2186 Z0.0000
G0 Z4.0000
G0 X13.6095 Y-24.2186 
M5
G53 Z
X2Y0
