( MOP:  05-profile-s34-nw41-Fender-J-NFrets20-01 )
( FILE: G:\Shared drives\AlloyProjectFiles\Customer CAD files\Alloy-Standard-Builds-CAM\Fingerboards-in\05-profile-s34-nw41-Fender-J-NFrets20-01.nc)
G90
(  BEGIN TOOL LIST )
(  TOOL 11 - Downcut PT750 ROUGH - DESC: 0.7500 DIA, 2 FLUTE,  CARBIDE MAT )
(  ENDOF TOOL LIST )
( 05-profile-s34-nw41-Fender-J-NFrets20-01)
T11
S14000
M3
G0 Z4.0000
G0 X20.5429 Y-19.0925 
G1 X20.5429 Y-19.0925 Z0.3000 F75.
G1 X18.8418 Y-19.1246 Z0.0000 F50.
G1 X7.1055 Y-19.3460 Z0.0000 F110.
G1 X7.1050 Y-19.3460 Z0.0000
G17
G2X5.6353Y-18.1545Z0.0000I-0.0239J1.4726
G2X5.6068Y-17.9067Z0.0000I2.4779J0.4102
G2X5.6193Y-15.9594Z0.0000I10.9886J0.9032
G2X7.0343Y-14.6564Z0.0000I1.4615J-0.1672
G2X7.0821Y-14.6561Z0.0000I0.0315J-1.5833
G1 X30.3707 Y-15.0951 Z0.0000
G2X32.5302Y-15.8715Z0.0000I0.9396J-0.7782
G1 X32.5288 Y-18.1790 Z0.0000
G2X30.3711Y-18.9074Z0.0000I-1.2186J0.0498
G1 X18.8418 Y-19.1246 Z0.0000
G1 X18.8376 Y-18.9013 Z0.0000
G1 X7.1018 Y-19.1227 Z0.0000
G1 X7.1013 Y-19.1227 Z0.0000
G2X5.8498Y-18.0835Z0.0000I-0.0205J1.2484
G2X5.8296Y-17.8906Z0.0000I2.6188J0.3715
G2X5.8412Y-15.9848Z0.0000I10.7706J0.8872
G2X7.0413Y-14.8796Z0.0000I1.2396J-0.1418
G1 X7.0723 Y-14.8794 Z0.0000
G1 X7.0779 Y-14.8794 Z0.0000
G1 X30.4757 Y-15.3205 Z0.0000
G2X30.5267Y-15.2556Z0.0000I0.4751J-0.3212
G2X32.3069Y-15.8713Z0.0000I0.7828J-0.6182
G1 X32.3059 Y-18.1642 Z0.0000
G2X30.5617Y-18.7869Z0.0000I-0.9958J0.0350
G2X30.4753Y-18.6820Z0.0000I0.7134J0.6753
G1 X18.8376 Y-18.9013 Z0.0000
G1 X18.8334 Y-18.6780 Z0.0000
G1 X7.0980 Y-18.8994 Z0.0000
G1 X7.0976 Y-18.8994 Z0.0000
G2X6.0664Y-18.0211Z0.0000I-0.0171J1.0243
G2X6.0631Y-16.0101Z0.0000I10.4433J1.0227
G2X7.0737Y-15.1027Z0.0000I1.0170J-0.1162
G1 X7.0793 Y-15.1028 Z0.0000
G1 X30.5590 Y-15.5458 Z0.0000
G3X30.6024Y-15.5291Z0.0000I0.0082J0.0436
G2X30.8472Y-15.2540Z0.0000I0.8564J-0.5153
G2X32.0835Y-15.8712Z0.0000I0.4628J-0.6197
G1 X32.0831 Y-18.1495 Z0.0000
G2X30.7317Y-18.6421Z0.0000I-0.7729J0.0203
G2X30.5970Y-18.4675Z0.0000I0.9170J0.8463
G3X30.5590Y-18.4567Z0.0000I-0.0300J-0.0335
G1 X18.8334 Y-18.6780 Z0.0000
G1 X18.8292 Y-18.4547 Z0.0000
G1 X7.0938 Y-18.6761 Z0.0000
G2X6.2851Y-17.9676Z0.0000I-0.0136J0.8003
G2X6.2850Y-16.0355Z0.0000I10.2937J0.9664
G2X7.0751Y-15.3261Z0.0000I0.7951J-0.0908
G1 X30.5579 Y-15.7691 Z0.0000
G3X30.7818Y-15.6624Z0.0000I0.0113J0.2645
G2X30.9761Y-15.4363Z0.0000I0.7894J-0.4819
G2X31.8602Y-15.8712Z0.0000I0.3339J-0.4373
G1 X31.8597 Y-18.1494 Z0.0000
G2X30.9009Y-18.4964Z0.0000I-0.5495J0.0203
G2X30.7714Y-18.3270Z0.0000I1.0355J0.9263
G3X30.5579Y-18.2334Z0.0000I-0.2022J-0.1706
G1 X18.8292 Y-18.4547 Z0.0000
G0 Z4.0000
G0 X18.8292 Y-18.4547 
M5
G53 Z
X2Y0
