( MOP:  05-profile-s24PT625-nw43-Gibson-McSwain-NFrets22-02 )
( FILE: G:\Shared drives\AlloyProjectFiles\Customer CAD files\Alloy-Standard-Builds-CAM\Fingerboards-in\05-profile-s24PT625-nw43-Gibson-McSwain-NFrets22-02.nc)
G90
(  BEGIN TOOL LIST )
(  TOOL 5 - Downcut PT375 - DESC: 0.3750 DIA, 2 FLUTE,  CARBIDE MAT )
(  ENDOF TOOL LIST )
( 05-profile-s24PT625-nw43-Gibson-McSwain-NFrets22-02)
( Max Depth 1.75)
T05
S12000
M3
G0 Z4.0000
G0 X5.3949 Y-24.2556 
G1 X5.3949 Y-24.2556 Z0.0000 F75.
G17
G3X5.1414Y-24.0091Z0.0000I-0.2500J-0.0035 F25.
G2X4.7738Y-23.6467Z0.0000I-0.0051J0.3624 F80.
G1 X4.7738 Y-21.9522 Z0.0000
G2X5.1414Y-21.5897Z0.0000I0.3625J0.0000
G3X5.3949Y-21.3433Z0.0000I0.0035J0.2499 F75.
G0 Z4.0000
G0 X5.3949 Y-21.3433 
( 05-profile-s24PT625-nw43-Gibson-McSwain-NFrets22-03)
( Max Depth 1.75)
G0 Z4.0000
G0 X23.2663 Y-24.0039 
G1 X23.2663 Y-24.0039 Z0.0000 F75.
G3X23.0128Y-23.7575Z0.0000I-0.2499J-0.0035 F25.
G1 X5.1414 Y-24.0091 Z0.0000 F80.
G3X4.8949Y-24.2626Z0.0000I0.0035J-0.2500 F75.
G0 Z4.0000
G0 X4.8949 Y-24.2626 
( 05-profile-s24PT625-nw43-Gibson-McSwain-NFrets22-04)
( Max Depth 1.75)
G0 Z4.0000
G0 X4.8949 Y-21.3362 
G1 X4.8949 Y-21.3362 Z0.0000 F75.
G3X5.1414Y-21.5897Z0.0000I0.2500J-0.0036 F25.
G1 X23.0128 Y-21.8414 Z0.0000 F80.
G3X23.2663Y-21.5950Z0.0000I0.0036J0.2500 F75.
G0 Z4.0000
G0 X23.2663 Y-21.5950 
M5
G53 Z
X2Y0
