( MOP:  05-profile-s24PT75-nw45-Fender-T-NFrets22-02 )
( FILE: G:\Shared drives\AlloyProjectFiles\Customer CAD files\Alloy-Standard-Builds-CAM\Fingerboards-in\05-profile-s24PT75-nw45-Fender-T-NFrets22-02.nc)
G90
(  BEGIN TOOL LIST )
(  TOOL 5 - Downcut PT375 - DESC: 0.3750 DIA, 2 FLUTE,  CARBIDE MAT )
(  ENDOF TOOL LIST )
( 05-profile-s24PT75-nw45-Fender-T-NFrets22-02)
( Max Depth 1.75)
T05
S12000
M3
G0 Z2.0000
G0 X23.6605 Y-24.5404 
G1 X23.6605 Y-24.5404 Z0.0000 F75.
G17
G3X23.6629Y-24.1868Z0.0000I-0.1756J0.1780 F25.
G2X23.5957Y-24.1077Z0.0000I0.4929J0.4863 F80.
G3X23.1255Y-23.8367Z0.0000I-0.5388J-0.3916
G1 X5.2233 Y-24.0979 Z0.0000
G2X4.7743Y-23.6555Z0.0000I-0.0065J0.4424
G1 X4.7743 Y-21.9434 Z0.0000
G2X5.2233Y-21.5010Z0.0000I0.4425J0.0000
G1 X23.1249 Y-21.7621 Z0.0000
G3X23.5957Y-21.4887Z0.0000I-0.0744J0.6701
G2X23.6629Y-21.4095Z0.0000I0.5601J-0.4072
G3X23.6605Y-21.0560Z0.0000I-0.1780J0.1756 F75.
G0 Z2.0000
G0 X23.6605 Y-21.0560 
M5
G53 Z
X2Y0
