( MOP:  05-profile-s26PT5-nw43-Fender-S-NFrets22-02 )
( FILE: G:\Shared drives\AlloyProjectFiles\Customer CAD files\Alloy-Standard-Builds-CAM\Fingerboards-in\05-profile-s26PT5-nw43-Fender-S-NFrets22-02.nc)
G90
(  BEGIN TOOL LIST )
(  TOOL 5 - Downcut PT375 - DESC: 0.3750 DIA, 2 FLUTE,  CARBIDE MAT )
(  ENDOF TOOL LIST )
( 05-profile-s26PT5-nw43-Fender-S-NFrets22-02)
( Max Depth 1.75)
T05
S12000
M3
G0 Z4.0000
G0 X23.6605 Y-24.5404 
G1 X23.6605 Y-24.5404 Z0.0000 F75.
G17
G3X23.6629Y-24.1868Z0.0000I-0.1756J0.1780 F25.
G2X23.5941Y-24.1054Z0.0000I0.4929J0.4863 F80.
G3X23.1680Y-23.8379Z0.0000I-0.4700J-0.2755
G1 X23.1342 Y-23.8372 Z0.0000
G1 X3.9627 Y-24.0921 Z0.0000
G2X3.5214Y-23.7288Z0.0000I-0.0059J0.4424
G2X3.5214Y-21.8705Z0.0000I5.1087J0.9291
G2X3.6791Y-21.6051Z0.0000I0.4354J-0.0792
G2X3.9627Y-21.5072Z0.0000I0.2777J-0.3446
G1 X23.1344 Y-21.7622 Z0.0000
G3X23.5456Y-21.5587Z0.0000I-0.0012J0.5196
G1 X23.5676 Y-21.5299 Z0.0000
G1 X23.5941 Y-21.4909 Z0.0000
G2X23.6629Y-21.4095Z0.0000I0.5617J-0.4050
G3X23.6605Y-21.0560Z0.0000I-0.1780J0.1756 F75.
G0 Z4.0000
G0 X23.6605 Y-21.0560 
M5
G53 Z
X2Y0
