( MOP:  05-profile-s27-nw42-Fender-S-NFrets22-01 )
( FILE: G:\Shared drives\AlloyProjectFiles\Customer CAD files\Alloy-Standard-Builds-CAM\Fingerboards-in\05-profile-s27-nw42-Fender-S-NFrets22-01.nc)
G90
(  BEGIN TOOL LIST )
(  TOOL 11 - Downcut PT750 ROUGH - DESC: 0.7500 DIA, 2 FLUTE,  CARBIDE MAT )
(  ENDOF TOOL LIST )
( 05-profile-s27-nw42-Fender-S-NFrets22-01)
T11
S14000
M3
G0 Z4.0000
G0 X14.9515 Y-24.8327 
G1 X14.9515 Y-24.8327 Z0.3000 F75.
G1 X13.2503 Y-24.8564 Z0.0000 F50.
G1 X3.4740 Y-24.9931 Z0.0000 F150.
G1 X3.4736 Y-24.9931 Z0.0000
G17
G2X2.1631Y-24.0214Z0.0000I-0.0161J1.3480
G2X2.1193Y-23.8122Z0.0000I1.8935J0.5050
G2X2.0850Y-22.0056Z0.0000I6.0662J1.0190
G2X2.1386Y-21.6788Z0.0000I6.0277J-0.8216
G2X3.4448Y-20.6031Z0.0000I1.3179J-0.2694
G1 X3.4498 Y-20.6031 Z0.0000
G1 X22.9308 Y-20.8748 Z0.0000
G2X23.0206Y-20.7755Z0.0000I1.2820J-1.0697
G2X24.2873Y-20.4787Z0.0000I0.8694J-0.8590
G2X24.3856Y-20.5178Z0.0000I-0.5602J-1.5503
G2X25.1089Y-21.6327Z0.0000I-0.4960J-1.1139
G1 X25.1089 Y-23.9639 Z0.0000
G1 X25.1089 Y-23.9640 Z0.0000
G2X24.4138Y-25.0659Z0.0000I-1.2223J0.0008
G2X24.3182Y-25.1062Z0.0000I-0.7288J1.5970
G2X23.0413Y-24.8419Z0.0000I-0.4293J1.1425
G2X22.9312Y-24.7216Z0.0000I0.8756J0.9119
G1 X13.2503 Y-24.8564 Z0.0000
G1 X13.2471 Y-24.6331 Z0.0000
G1 X3.4712 Y-24.7697 Z0.0000
G1 X3.4709 Y-24.7698 Z0.0000
G2X2.3707Y-23.9331Z0.0000I-0.0137J1.1237
G2X2.3396Y-23.7751Z0.0000I1.7568J0.4287
G2X2.3168Y-21.9620Z0.0000I5.8244J0.9799
G2X2.3574Y-21.7235Z0.0000I5.6210J-0.8354
G2X3.4467Y-20.8264Z0.0000I1.0991J-0.2247
G1 X3.4518 Y-20.8264 Z0.0000
G1 X23.0159 Y-21.0997 Z0.0000
G1 X23.0393 Y-21.0997 Z0.0000
G2X23.1795Y-20.9325Z0.0000I1.0938J-0.7743
G2X24.2147Y-20.6899Z0.0000I0.7105J-0.7020
G2X24.2948Y-20.7218Z0.0000I-0.4976J-1.3630
G2X24.8856Y-21.6326Z0.0000I-0.4052J-0.9099
G1 X24.8856 Y-23.9638 Z0.0000
G1 X24.8856 Y-23.9639 Z0.0000
G2X24.2951Y-24.8744Z0.0000I-0.9978J0.0004
G2X24.2396Y-24.8972Z0.0000I-0.6822J1.5829
G2X23.1792Y-24.6637Z0.0000I-0.3506J0.9322
G1 X23.1789 Y-24.6633 Z0.0000
G1 X23.1785 Y-24.6629 Z0.0000
G1 X23.1782 Y-24.6626 Z0.0000
G1 X23.1778 Y-24.6622 Z0.0000
G1 X23.1775 Y-24.6619 Z0.0000
G1 X23.1771 Y-24.6615 Z0.0000
G1 X23.1768 Y-24.6611 Z0.0000
G1 X23.1764 Y-24.6608 Z0.0000
G1 X23.1761 Y-24.6604 Z0.0000
G1 X23.1757 Y-24.6600 Z0.0000
G1 X23.1754 Y-24.6597 Z0.0000
G1 X23.1751 Y-24.6593 Z0.0000
G1 X23.1747 Y-24.6589 Z0.0000
G2X23.0396Y-24.4967Z0.0000I0.9486J0.9274
G1 X23.0159 Y-24.4966 Z0.0000
G1 X13.2471 Y-24.6331 Z0.0000
G1 X13.2440 Y-24.4098 Z0.0000
G1 X3.4684 Y-24.5464 Z0.0000
G1 X3.4681 Y-24.5464 Z0.0000
G2X2.5814Y-23.8536Z0.0000I-0.0112J0.8994
G2X2.5598Y-23.7380Z0.0000I2.7950J0.5832
G2X2.5482Y-21.9271Z0.0000I5.5867J0.9413
G2X2.5762Y-21.7683Z0.0000I6.0776J-0.9903
G2X3.4487Y-21.0497Z0.0000I0.8803J-0.1799
G1 X3.4537 Y-21.0497 Z0.0000
G1 X23.0147 Y-21.3231 Z0.0000
G3X23.1364Y-21.3224Z0.0000I0.0547J1.0643
G3X23.1919Y-21.2727Z0.0000I-0.0438J0.1049
G2X23.3384Y-21.0894Z0.0000I0.9316J-0.5940
G2X24.1609Y-20.9082Z0.0000I0.5510J-0.5441
G1 X24.2039 Y-20.9259 Z0.0000
G2X24.6622Y-21.6325Z0.0000I-0.3143J-0.7058
G1 X24.6622 Y-23.9638 Z0.0000
G2X24.2039Y-24.6705Z0.0000I-0.7744J0.0003
G1 X24.1609 Y-24.6881 Z0.0000
G2X23.3384Y-24.5070Z0.0000I-0.2719J0.7231
G1 X23.3381 Y-24.5067 Z0.0000
G1 X23.3377 Y-24.5063 Z0.0000
G1 X23.3374 Y-24.5060 Z0.0000
G1 X23.3371 Y-24.5057 Z0.0000
G1 X23.3368 Y-24.5053 Z0.0000
G1 X23.3365 Y-24.5050 Z0.0000
G1 X23.3362 Y-24.5047 Z0.0000
G1 X23.3358 Y-24.5043 Z0.0000
G1 X23.3355 Y-24.5040 Z0.0000
G1 X23.3352 Y-24.5037 Z0.0000
G1 X23.3349 Y-24.5033 Z0.0000
G1 X23.3346 Y-24.5030 Z0.0000
G1 X23.3343 Y-24.5027 Z0.0000
G2X23.1773Y-24.3049Z0.0000I0.9571J0.9207
G3X23.1241Y-24.2733Z0.0000I-0.0578J-0.0367
G1 X23.0147 Y-24.2733 Z0.0000
G1 X13.2440 Y-24.4098 Z0.0000
G1 X13.2409 Y-24.1865 Z0.0000
G1 X3.4653 Y-24.3231 Z0.0000
G2X2.7950Y-23.7834Z0.0000I-0.0087J0.6753
G1 X2.7800 Y-23.7009 Z0.0000
G2X2.7800Y-21.8955Z0.0000I5.3498J0.9027
G1 X2.7950 Y-21.8130 Z0.0000
G2X3.4506Y-21.2730Z0.0000I0.6615J-0.1352
G1 X23.0131 Y-21.5464 Z0.0000
G3X23.1649Y-21.5441Z0.0000I0.0574J1.2391
G3X23.3748Y-21.4009Z0.0000I-0.0560J0.3075
G2X23.4974Y-21.2462Z0.0000I0.7594J-0.4755
G2X24.0977Y-21.1237Z0.0000I0.3915J-0.3863
G2X24.4389Y-21.6325Z0.0000I-0.2088J-0.5088
G1 X24.4389 Y-23.9638 Z0.0000
G2X24.0977Y-24.4727Z0.0000I-0.5500J0.0000
G2X23.4974Y-24.3501Z0.0000I-0.2088J0.5089
G2X23.3603Y-24.1757Z0.0000I0.7606J0.7387
G3X23.1279Y-24.0499Z0.0000I-0.2399J-0.1658
G1 X23.0132 Y-24.0499 Z0.0000
G1 X13.2409 Y-24.1865 Z0.0000
G0 Z4.0000
G0 X13.2409 Y-24.1865 
M5
G53 Z
X2Y0
