( MOP:  05-profile-s25PT5-nw43-FenderTruncated-Square-NFrets24-02 )
( FILE: G:\Shared drives\AlloyProjectFiles\Customer CAD files\Alloy-Standard-Builds-CAM\Fingerboards-in\05-profile-s25PT5-nw43-FenderTruncated-Square-NFrets24-02.nc)
G90
(  BEGIN TOOL LIST )
(  TOOL 5 - Downcut PT375 - DESC: 0.3750 DIA, 2 FLUTE,  CARBIDE MAT )
(  ENDOF TOOL LIST )
( 05-profile-s25PT5-nw43-FenderTruncated-Square-NFrets24-02)
( Max Depth 1.75)
T05
S12000
M3
G0 Z4.0000
G0 X23.6671 Y-24.0780 
G1 X23.6671 Y-24.0780 Z0.0000 F75.
G17
G3X23.4132Y-23.8320Z0.0000I-0.2499J-0.0040 F25.
G1 X3.6382 Y-24.1466 Z0.0000 F80.
G2X3.4426Y-23.9542Z0.0000I-0.0031J0.1924
G1 X3.4426 Y-21.6447 Z0.0000
G2X3.6382Y-21.4522Z0.0000I0.1925J0.0000
G1 X23.4132 Y-21.7669 Z0.0000
G3X23.6671Y-21.5209Z0.0000I0.0040J0.2500 F75.
G0 Z4.0000
G0 X23.6671 Y-21.5209 
M5
G53 Z
X2Y0
