( MOP:  05-profile-s25PT5-nw43-Fender-T-NFrets24-01 )
( FILE: G:\Shared drives\AlloyProjectFiles\Customer CAD files\Alloy-Standard-Builds-CAM\Fingerboards-in\05-profile-s25PT5-nw43-Fender-T-NFrets24-01.nc)
G90
(  BEGIN TOOL LIST )
(  TOOL 11 - Downcut PT750 ROUGH - DESC: 0.7500 DIA, 2 FLUTE,  CARBIDE MAT )
(  ENDOF TOOL LIST )
( 05-profile-s25PT5-nw43-Fender-T-NFrets24-01)
T11
S14000
M3
G0 Z2.0000
G0 X15.2276 Y-24.8041 
G1 X15.2276 Y-24.8041 Z0.3000 F75.
G1 X13.5264 Y-24.8280 Z0.0000 F50.
G1 X3.9035 Y-24.9633 Z0.0000 F150.
G17
G2X2.5853Y-23.6629Z0.0000I-0.0182J1.2999
G1 X2.5853 Y-21.9361 Z0.0000
G2X3.9033Y-20.6357Z0.0000I1.3000J0.0005
G1 X22.9672 Y-20.9010 Z0.0000
G2X23.0525Y-20.8073Z0.0000I1.1886J-0.9949
G2X25.0639Y-21.6325Z0.0000I0.8364J-0.8252
G1 X25.0639 Y-23.9638 Z0.0000
G2X23.0525Y-24.7891Z0.0000I-1.1750J0.0000
G2X22.9673Y-24.6953Z0.0000I1.1033J1.0886
G1 X13.5264 Y-24.8280 Z0.0000
G1 X13.5235 Y-24.6197 Z0.0000
G1 X3.9006 Y-24.7549 Z0.0000
G2X2.7936Y-23.6629Z0.0000I-0.0153J1.0915
G1 X2.7936 Y-21.9361 Z0.0000
G2X3.9004Y-20.8441Z0.0000I1.0917J0.0005
G1 X23.0679 Y-21.1108 Z0.0000
G2X23.2008Y-20.9536Z0.0000I1.0879J-0.7851
G2X24.8556Y-21.6325Z0.0000I0.6881J-0.6789
G1 X24.8556 Y-23.9638 Z0.0000
G2X23.2008Y-24.6428Z0.0000I-0.9667J0.0000
G2X23.0679Y-24.4856Z0.0000I0.9550J0.9423
G1 X13.5235 Y-24.6197 Z0.0000
G1 X13.5205 Y-24.4114 Z0.0000
G1 X3.8977 Y-24.5466 Z0.0000
G2X3.0019Y-23.6630Z0.0000I-0.0124J0.8832
G1 X3.0019 Y-21.9360 Z0.0000
G2X3.8975Y-21.0524Z0.0000I0.8834J0.0004
G1 X23.1433 Y-21.3202 Z0.0000
G3X23.1941Y-21.2962Z0.0000I0.0009J0.0639
G2X23.3491Y-21.0999Z0.0000I0.9617J-0.5997
G2X24.6472Y-21.6325Z0.0000I0.5398J-0.5326
G1 X24.6472 Y-23.9638 Z0.0000
G2X23.3491Y-24.4964Z0.0000I-0.7583J0.0000
G2X23.1941Y-24.3001Z0.0000I0.8067J0.7959
G3X23.1434Y-24.2762Z0.0000I-0.0499J-0.0400
G1 X13.5205 Y-24.4114 Z0.0000
G1 X13.5176 Y-24.2031 Z0.0000
G1 X3.8947 Y-24.3383 Z0.0000
G2X3.2103Y-23.6630Z0.0000I-0.0094J0.6749
G1 X3.2103 Y-21.9360 Z0.0000
G2X3.8946Y-21.2607Z0.0000I0.6750J0.0004
G1 X23.1404 Y-21.5285 Z0.0000
G3X23.3670Y-21.4128Z0.0000I0.0038J0.2722
G2X23.4974Y-21.2462Z0.0000I0.7888J-0.4831
G2X24.4389Y-21.6325Z0.0000I0.3915J-0.3863
G1 X24.4389 Y-23.9638 Z0.0000
G2X23.4974Y-24.3501Z0.0000I-0.5500J0.0000
G2X23.3670Y-24.1835Z0.0000I0.6584J0.6496
G3X23.1405Y-24.0678Z0.0000I-0.2228J-0.1566
G1 X13.5176 Y-24.2031 Z0.0000
G0 Z2.0000
G0 X13.5176 Y-24.2031 
M5
G53 Z
X2Y0
