( MOP:  05-profile-s25PT5-nw43-Fender-S-NFrets24-02 )
( FILE: G:\Shared drives\AlloyProjectFiles\Customer CAD files\Alloy-Standard-Builds-CAM\Fingerboards-in\05-profile-s25PT5-nw43-Fender-S-NFrets24-02.nc)
G90
(  BEGIN TOOL LIST )
(  TOOL 5 - Downcut PT375 - DESC: 0.3750 DIA, 2 FLUTE,  CARBIDE MAT )
(  ENDOF TOOL LIST )
( 05-profile-s25PT5-nw43-Fender-S-NFrets24-02)
( Max Depth 1.75)
T05
S12000
M3
G0 Z2.0000
G0 X24.1389 Y-24.5313 
G1 X24.1389 Y-24.5313 Z0.0000 F75.
G17
G3X23.8889Y-24.2813Z0.0000I-0.2500J0.0000 F25.
G2X23.6629Y-24.1868Z0.0000I0.0000J0.3175 F80.
G2X23.5623Y-24.0573Z0.0000I0.4929J0.4863
G3X23.1372Y-23.8354Z0.0000I-0.4181J-0.2828
G1 X3.8915 Y-24.1070 Z0.0000
G2X3.4502Y-23.7451Z0.0000I-0.0062J0.4425
G2X3.4502Y-21.8539Z0.0000I5.1056J0.9456
G2X3.8914Y-21.4920Z0.0000I0.4351J-0.0806
G1 X23.1372 Y-21.7610 Z0.0000
G3X23.5623Y-21.5391Z0.0000I0.0070J0.5047
G2X23.6629Y-21.4095Z0.0000I0.5935J-0.3568
G2X23.8889Y-21.3150Z0.0000I0.2260J-0.2230
G3X24.1389Y-21.0650Z0.0000I0.0000J0.2500 F75.
G0 Z2.0000
G0 X24.1389 Y-21.0650 
M5
G53 Z
X2Y0
