( MOP:  05-profile-s24PT75-nw43-Gibson-Foley-NFrets21-01 )
( FILE: G:\Shared drives\AlloyProjectFiles\Customer CAD files\Alloy-Standard-Builds-CAM\Fingerboards-in\05-profile-s24PT75-nw43-Gibson-Foley-NFrets21-01.nc)
G90
(  BEGIN TOOL LIST )
(  TOOL 11 - Downcut PT750 ROUGH - DESC: 0.7500 DIA, 2 FLUTE,  CARBIDE MAT )
(  ENDOF TOOL LIST )
( 05-profile-s24PT75-nw43-Gibson-Foley-NFrets21-01)
T11
S14000
M3
G0 Z4.0000
G0 X12.5031 Y-20.7033 
G1 X12.5031 Y-20.7033 Z0.3000 F75.
G1 X14.2043 Y-20.7283 Z0.0000 F50.
G1 X14.2043 Y-20.7283 Z0.0000
G1 X14.2044 Y-20.7283 Z0.0000 F150.
G1 X23.0482 Y-20.8590 Z0.0000
G17
G2X24.1051Y-21.9531Z0.0000I-0.0383J-1.0945
G2X24.1046Y-23.6698Z0.0000I-203.1687J-0.7928
G2X23.0273Y-24.7408Z0.0000I-1.0950J0.0241
G1 X5.4753 Y-25.0166 Z0.0000
G1 X5.4750 Y-25.0167 Z0.0000
G2X4.5374Y-24.6554Z0.0000I-0.0192J1.3476
G2X4.4872Y-24.6060Z0.0000I1.6042J1.6797
G2X4.1116Y-23.7446Z0.0000I0.9700J0.9355
G2X4.1104Y-23.6971Z0.0000I1.4782J0.0636
G1 X4.1103 Y-21.9258 Z0.0000
G1 X4.1103 Y-21.9256 Z0.0000
G2X4.9766Y-20.6701Z0.0000I1.3450J-0.0015
G2X5.3824Y-20.5986Z0.0000I0.3917J-1.0343
G1 X14.2043 Y-20.7283 Z0.0000
G1 X14.2011 Y-20.9516 Z0.0000
G1 X23.0326 Y-21.0818 Z0.0000
G2X23.8818Y-21.9530Z0.0000I-0.0228J-0.8716
G2X23.8816Y-23.6572Z0.0000I-233.2842J-0.8227
G2X23.0238Y-24.5175Z0.0000I-0.8718J0.0115
G1 X5.4720 Y-24.7933 Z0.0000
G1 X5.4718 Y-24.7933 Z0.0000
G2X4.6896Y-24.4920Z0.0000I-0.0160J1.1242
G2X4.6480Y-24.4510Z0.0000I41.8467J42.5318
G2X4.3346Y-23.7323Z0.0000I0.8092J0.7805
G1 X4.3338 Y-23.7036 Z0.0000
G1 X4.3337 Y-23.6971 Z0.0000
G1 X4.3337 Y-21.9261 Z0.0000
G1 X4.3337 Y-21.9258 Z0.0000
G2X5.0561Y-20.8788Z0.0000I1.1216J-0.0013
G1 X5.0568 Y-20.8786 Z0.0000
G1 X5.0574 Y-20.8784 Z0.0000
G1 X5.0580 Y-20.8781 Z0.0000
G1 X5.0586 Y-20.8779 Z0.0000
G1 X5.0593 Y-20.8777 Z0.0000
G1 X5.0599 Y-20.8775 Z0.0000
G1 X5.0605 Y-20.8772 Z0.0000
G1 X5.0611 Y-20.8770 Z0.0000
G1 X5.0618 Y-20.8768 Z0.0000
G1 X5.0624 Y-20.8766 Z0.0000
G1 X5.0630 Y-20.8763 Z0.0000
G1 X5.0637 Y-20.8761 Z0.0000
G1 X5.0643 Y-20.8759 Z0.0000
G2X5.3792Y-20.8219Z0.0000I0.3040J-0.8267
G1 X14.2011 Y-20.9516 Z0.0000
G1 X14.1978 Y-21.1749 Z0.0000
G1 X23.0197 Y-21.3047 Z0.0000
G1 X23.0203 Y-21.3047 Z0.0000
G1 X23.0209 Y-21.3047 Z0.0000
G1 X23.0216 Y-21.3048 Z0.0000
G1 X23.0222 Y-21.3048 Z0.0000
G1 X23.0229 Y-21.3048 Z0.0000
G1 X23.0235 Y-21.3048 Z0.0000
G1 X23.0242 Y-21.3048 Z0.0000
G1 X23.0248 Y-21.3048 Z0.0000
G1 X23.0255 Y-21.3049 Z0.0000
G1 X23.0261 Y-21.3049 Z0.0000
G1 X23.0267 Y-21.3049 Z0.0000
G1 X23.0274 Y-21.3050 Z0.0000
G1 X23.0280 Y-21.3050 Z0.0000
G2X23.6585Y-21.9530Z0.0000I-0.0180J-0.6482
G2X23.6585Y-23.6472Z0.0000I-294.1540J-0.8464
G1 X23.6585 Y-23.6478 Z0.0000
G1 X23.6584 Y-23.6485 Z0.0000
G1 X23.6584 Y-23.6491 Z0.0000
G1 X23.6584 Y-23.6498 Z0.0000
G1 X23.6584 Y-23.6504 Z0.0000
G1 X23.6584 Y-23.6510 Z0.0000
G1 X23.6584 Y-23.6517 Z0.0000
G1 X23.6584 Y-23.6523 Z0.0000
G1 X23.6583 Y-23.6530 Z0.0000
G1 X23.6583 Y-23.6536 Z0.0000
G1 X23.6583 Y-23.6543 Z0.0000
G2X23.0203Y-24.2941Z0.0000I-0.6484J0.0085
G1 X5.4687 Y-24.5700 Z0.0000
G1 X5.4685 Y-24.5700 Z0.0000
G2X4.8251Y-24.3120Z0.0000I-0.0132J0.8982
G2X4.5570Y-23.6971Z0.0000I0.6321J0.6415
G1 X4.5570 Y-23.6727 Z0.0000
G1 X4.5570 Y-23.6725 Z0.0000
G1 X4.5570 Y-21.9263 Z0.0000
G1 X4.5570 Y-21.9261 Z0.0000
G2X5.1356Y-21.0876Z0.0000I0.8983J-0.0010
G2X5.3759Y-21.0452Z0.0000I0.2318J-0.6118
G1 X14.1978 Y-21.1749 Z0.0000
G1 X14.1945 Y-21.3983 Z0.0000
G1 X23.0164 Y-21.5280 Z0.0000
G2X23.4351Y-21.9530Z0.0000I-0.0063J-0.4250
G1 X23.4351 Y-23.6459 Z0.0000
G2X23.0168Y-24.0708Z0.0000I-0.4250J0.0000
G1 X5.4652 Y-24.3467 Z0.0000
G2X4.7803Y-23.6725Z0.0000I-0.0099J0.6749
G1 X4.7803 Y-21.9263 Z0.0000
G2X5.2151Y-21.2963Z0.0000I0.6750J-0.0008
G2X5.3726Y-21.2685Z0.0000I0.1512J-0.3971
G1 X14.1945 Y-21.3983 Z0.0000
G0 Z4.0000
G0 X14.1945 Y-21.3983 
M5
G53 Z
X2Y0
