( MOP:  05-profile-s24-nw45-Fender-T-NFrets21-01 )
( FILE: G:\Shared drives\AlloyProjectFiles\Customer CAD files\Alloy-Standard-Builds-CAM\Fingerboards-in\05-profile-s24-nw45-Fender-T-NFrets21-01.nc)
G90
(  BEGIN TOOL LIST )
(  TOOL 11 - Downcut PT750 ROUGH - DESC: 0.7500 DIA, 2 FLUTE,  CARBIDE MAT )
(  ENDOF TOOL LIST )
( 05-profile-s24-nw45-Fender-T-NFrets21-01)
T11
S14000
M3
G0 Z4.0000
G0 X12.8178 Y-20.6904 
G1 X12.8178 Y-20.6904 Z0.3000 F75.
G1 X14.5190 Y-20.7134 Z0.0000 F50.
G1 X22.9724 Y-20.8273 Z0.0000 F150.
G17
G2X23.0206Y-20.7755Z0.0000I0.7609J-0.6596
G2X24.2873Y-20.4787Z0.0000I0.8694J-0.8590
G2X24.3856Y-20.5178Z0.0000I-0.5602J-1.5503
G2X25.1089Y-21.6327Z0.0000I-0.4960J-1.1139
G1 X25.1089 Y-23.9639 Z0.0000
G1 X25.1089 Y-23.9641 Z0.0000
G2X24.4156Y-25.0650Z0.0000I-1.2222J0.0009
G2X24.3182Y-25.1062Z0.0000I-0.6900J1.4971
G2X23.0201Y-24.8203Z0.0000I-0.4292J1.1412
G1 X23.0197 Y-24.8200 Z0.0000
G1 X23.0194 Y-24.8196 Z0.0000
G1 X23.0190 Y-24.8192 Z0.0000
G1 X23.0186 Y-24.8188 Z0.0000
G1 X23.0183 Y-24.8185 Z0.0000
G1 X23.0179 Y-24.8181 Z0.0000
G1 X23.0175 Y-24.8177 Z0.0000
G1 X23.0172 Y-24.8173 Z0.0000
G1 X23.0168 Y-24.8170 Z0.0000
G1 X23.0165 Y-24.8166 Z0.0000
G1 X23.0161 Y-24.8162 Z0.0000
G1 X23.0158 Y-24.8158 Z0.0000
G1 X23.0154 Y-24.8154 Z0.0000
G2X22.9750Y-24.7714Z0.0000I6.2879J5.8119
G1 X6.0130 Y-25.0006 Z0.0000
G1 X6.0128 Y-25.0006 Z0.0000
G2X5.1261Y-24.6837Z0.0000I-0.0165J1.3529
G2X5.0250Y-24.5879Z0.0000I1.1070J1.2701
G2X4.6553Y-23.7876Z0.0000I0.9765J0.9367
G2X4.6499Y-23.6698Z0.0000I1.3846J0.1216
G1 X4.6499 Y-21.9431 Z0.0000
G1 X4.6499 Y-21.9429 Z0.0000
G2X4.9788Y-21.0605Z0.0000I1.3530J-0.0018
G2X5.0762Y-20.9604Z0.0000I1.2634J-1.1321
G2X6.0134Y-20.5983Z0.0000I0.9175J-0.9808
G1 X14.5190 Y-20.7134 Z0.0000
G1 X14.5160 Y-20.9367 Z0.0000
G1 X23.0186 Y-21.0518 Z0.0000
G1 X23.0753 Y-21.0521 Z0.0000
G2X23.1795Y-20.9325Z0.0000I0.8881J-0.6681
G2X24.2147Y-20.6899Z0.0000I0.7105J-0.7020
G2X24.2948Y-20.7218Z0.0000I-0.4976J-1.3630
G2X24.8856Y-21.6326Z0.0000I-0.4052J-0.9099
G1 X24.8856 Y-23.9638 Z0.0000
G1 X24.8856 Y-23.9639 Z0.0000
G2X24.3190Y-24.8637Z0.0000I-0.9989J0.0007
G2X24.2396Y-24.8972Z0.0000I-0.6030J1.3197
G2X23.1792Y-24.6637Z0.0000I-0.3506J0.9322
G2X23.0765Y-24.5467Z0.0000I0.9813J0.9658
G1 X23.0193 Y-24.5470 Z0.0000
G1 X6.0101 Y-24.7772 Z0.0000
G1 X6.0100 Y-24.7772 Z0.0000
G2X5.2500Y-24.4952Z0.0000I-0.0142J1.1265
G2X5.1861Y-24.4333Z0.0000I1.0957J1.1952
G2X4.8755Y-23.7384Z0.0000I0.8124J0.7800
G2X4.8733Y-23.6698Z0.0000I1.2672J0.0757
G1 X4.8733 Y-21.9432 Z0.0000
G1 X4.8733 Y-21.9431 Z0.0000
G2X5.1656Y-21.1870Z0.0000I1.1266J-0.0010
G2X5.2288Y-21.1235Z0.0000I1.1931J-1.1241
G2X6.0103Y-20.8216Z0.0000I0.7649J-0.8177
G1 X14.5160 Y-20.9367 Z0.0000
G1 X14.5130 Y-21.1601 Z0.0000
G1 X23.0166 Y-21.2751 Z0.0000
G1 X23.1610 Y-21.2761 Z0.0000
G3X23.2076Y-21.2446Z0.0000I-0.0148J0.0721
G3X23.2675Y-21.1682Z0.0000I-27.9327J21.9821
G2X23.3384Y-21.0894Z0.0000I0.9143J-0.7509
G2X24.1609Y-20.9082Z0.0000I0.5510J-0.5441
G1 X24.2039 Y-20.9259 Z0.0000
G2X24.6622Y-21.6325Z0.0000I-0.3143J-0.7058
G1 X24.6622 Y-23.9638 Z0.0000
G2X24.2039Y-24.6705Z0.0000I-0.7744J0.0003
G1 X24.1609 Y-24.6881 Z0.0000
G2X23.3384Y-24.5070Z0.0000I-0.2719J0.7231
G1 X23.3381 Y-24.5067 Z0.0000
G1 X23.3378 Y-24.5064 Z0.0000
G1 X23.3375 Y-24.5060 Z0.0000
G1 X23.3372 Y-24.5057 Z0.0000
G1 X23.3369 Y-24.5054 Z0.0000
G1 X23.3365 Y-24.5051 Z0.0000
G1 X23.3362 Y-24.5048 Z0.0000
G1 X23.3359 Y-24.5045 Z0.0000
G1 X23.3356 Y-24.5041 Z0.0000
G1 X23.3353 Y-24.5038 Z0.0000
G1 X23.3350 Y-24.5035 Z0.0000
G1 X23.3347 Y-24.5032 Z0.0000
G1 X23.3344 Y-24.5029 Z0.0000
G2X23.2078Y-24.3521Z0.0000I1.0266J0.9906
G3X23.1634Y-24.3226Z0.0000I-0.0620J-0.0451
G1 X23.0171 Y-24.3237 Z0.0000
G1 X6.0071 Y-24.5539 Z0.0000
G2X5.3813Y-24.3123Z0.0000I-0.0118J0.9005
G2X5.3471Y-24.2785Z0.0000I57.7622J58.5667
G2X5.0972Y-23.6984Z0.0000I0.6487J0.6234
G1 X5.0966 Y-23.6747 Z0.0000
G1 X5.0966 Y-23.6698 Z0.0000
G1 X5.0966 Y-21.9432 Z0.0000
G2X5.3467Y-21.3208Z0.0000I0.9006J-0.0004
G1 X5.3813 Y-21.2866 Z0.0000
G2X6.0071Y-21.0449Z0.0000I0.6124J-0.6546
G1 X14.5130 Y-21.1601 Z0.0000
G1 X14.5100 Y-21.3834 Z0.0000
G1 X23.0144 Y-21.4985 Z0.0000
G3X23.2005Y-21.4973Z0.0000I0.0839J1.4642
G3X23.3894Y-21.3757Z0.0000I-0.0613J0.3026
G2X23.4974Y-21.2462Z0.0000I0.8952J-0.6368
G2X24.0977Y-21.1237Z0.0000I0.3915J-0.3863
G2X24.4389Y-21.6325Z0.0000I-0.2088J-0.5088
G1 X24.4389 Y-23.9638 Z0.0000
G2X24.0977Y-24.4727Z0.0000I-0.5500J0.0000
G2X23.4974Y-24.3501Z0.0000I-0.2088J0.5089
G2X23.3726Y-24.2011Z0.0000I1.3966J1.2969
G3X23.1893Y-24.0998Z0.0000I-0.2204J-0.1821
G1 X23.1652 Y-24.0992 Z0.0000
G1 X23.0147 Y-24.1004 Z0.0000
G1 X6.0041 Y-24.3306 Z0.0000
G2X5.5209Y-24.1362Z0.0000I-0.0092J0.6749
G2X5.3199Y-23.6698Z0.0000I0.4749J0.4811
G1 X5.3199 Y-21.9432 Z0.0000
G2X5.5209Y-21.4627Z0.0000I0.6750J0.0000
G2X6.0041Y-21.2682Z0.0000I0.4740J-0.4805
G1 X14.5100 Y-21.3834 Z0.0000
G0 Z4.0000
G0 X14.5100 Y-21.3834 
M5
G53 Z
X2Y0
