( MOP:  05-profile-s24PT75-nw43-Gibson-Square-NFrets22-02 )
( FILE: G:\Shared drives\AlloyProjectFiles\Customer CAD files\Alloy-Standard-Builds-CAM\Fingerboards-in\05-profile-s24PT75-nw43-Gibson-Square-NFrets22-02.nc)
G90
(  BEGIN TOOL LIST )
(  TOOL 5 - Downcut PT375 - DESC: 0.3750 DIA, 2 FLUTE,  CARBIDE MAT )
(  ENDOF TOOL LIST )
( 05-profile-s24PT75-nw43-Gibson-Square-NFrets22-02)
( Max Depth 1.75)
T05
S12000
M3
G0 Z2.0000
G0 X23.2669 Y-24.0846 
G1 X23.2669 Y-24.0846 Z0.0000 F75.
G17
G3X23.0131Y-23.8384Z0.0000I-0.2500J-0.0038 F25.
G1 X4.8185 Y-24.1166 Z0.0000 F80.
G2X4.6230Y-23.9242Z0.0000I-0.0030J0.1924
G1 X4.6230 Y-21.6722 Z0.0000
G2X4.8185Y-21.4797Z0.0000I0.1925J0.0000
G1 X23.0131 Y-21.7579 Z0.0000
G3X23.2669Y-21.5118Z0.0000I0.0038J0.2500 F75.
G0 Z2.0000
G0 X23.2669 Y-21.5118 
M5
G53 Z
X2Y0
