( MOP:  05-profile-s24PT625-nw43-Fender-ADHD-NFrets24-01 )
( FILE: G:\Shared drives\AlloyProjectFiles\Customer CAD files\Alloy-Standard-Builds-CAM\Fingerboards-in\05-profile-s24PT625-nw43-Fender-ADHD-NFrets24-01.nc)
G90
(  BEGIN TOOL LIST )
(  TOOL 11 - Downcut PT750 ROUGH - DESC: 0.7500 DIA, 2 FLUTE,  CARBIDE MAT )
(  ENDOF TOOL LIST )
( 05-profile-s24PT625-nw43-Fender-ADHD-NFrets24-01)
T11
S14000
M3
G0 Z4.0000
G0 X15.5593 Y-24.8588 
G1 X15.5593 Y-24.8588 Z0.3000 F75.
G1 X13.8581 Y-24.8851 Z0.0000 F50.
G1 X4.6893 Y-25.0264 Z0.0000 F150.
G1 X4.6893 Y-25.0264 Z0.0000
G17
G2X3.6867Y-24.6536Z0.0000I-0.0219J1.4755
G2X3.6098Y-24.5791Z0.0000I1.4217J1.5459
G2X3.1975Y-23.6311Z0.0000I1.0586J1.0240
G2X3.1963Y-23.5833Z0.0000I1.6021J0.0645
G1 X3.1963 Y-22.0424 Z0.0000
G1 X3.1963 Y-22.0422 Z0.0000
G2X3.5851Y-21.0457Z0.0000I1.4758J-0.0017
G2X3.6615Y-20.9693Z0.0000I1.5471J-1.4694
G2X4.6895Y-20.5729Z0.0000I1.0035J-1.0712
G1 X23.0489 Y-20.8565 Z0.0000
G2X24.1051Y-21.9505Z0.0000I-0.0390J-1.0945
G2X24.1046Y-23.6727Z0.0000I-203.7734J-0.7956
G2X23.0270Y-24.7437Z0.0000I-1.0950J0.0241
G1 X13.8581 Y-24.8851 Z0.0000
G1 X13.8547 Y-24.6618 Z0.0000
G1 X4.6859 Y-24.8031 Z0.0000
G2X3.8142Y-24.4670Z0.0000I-0.0190J1.2493
G2X3.7703Y-24.4238Z0.0000I48.4645J49.2673
G2X3.4206Y-23.6196Z0.0000I0.8981J0.8687
G1 X3.4198 Y-23.5894 Z0.0000
G1 X3.4197 Y-23.5833 Z0.0000
G1 X3.4197 Y-22.0425 Z0.0000
G1 X3.4197 Y-22.0424 Z0.0000
G2X3.7697Y-21.1761Z0.0000I1.2494J-0.0009
G1 X3.8142 Y-21.1323 Z0.0000
G2X4.6859Y-20.7962Z0.0000I0.8508J-0.9082
G1 X23.0332 Y-21.0792 Z0.0000
G2X23.8818Y-21.9505Z0.0000I-0.0234J-0.8717
G2X23.8816Y-23.6601Z0.0000I-233.9855J-0.8255
G2X23.0236Y-24.5204Z0.0000I-0.8718J0.0115
G1 X13.8547 Y-24.6618 Z0.0000
G1 X13.8512 Y-24.4384 Z0.0000
G1 X4.6824 Y-24.5798 Z0.0000
G2X3.9486Y-24.2859Z0.0000I-0.0159J1.0233
G2X3.6430Y-23.5833Z0.0000I0.7198J0.7308
G1 X3.6430 Y-23.5568 Z0.0000
G1 X3.6430 Y-23.5567 Z0.0000
G1 X3.6430 Y-22.0425 Z0.0000
G2X3.9486Y-21.3133Z0.0000I1.0235J-0.0003
G2X4.6824Y-21.0195Z0.0000I0.7179J-0.7295
G1 X23.0201 Y-21.3022 Z0.0000
G1 X23.0208 Y-21.3022 Z0.0000
G1 X23.0214 Y-21.3022 Z0.0000
G1 X23.0221 Y-21.3022 Z0.0000
G1 X23.0227 Y-21.3022 Z0.0000
G1 X23.0233 Y-21.3023 Z0.0000
G1 X23.0240 Y-21.3023 Z0.0000
G1 X23.0246 Y-21.3023 Z0.0000
G1 X23.0253 Y-21.3023 Z0.0000
G1 X23.0259 Y-21.3024 Z0.0000
G1 X23.0266 Y-21.3024 Z0.0000
G1 X23.0272 Y-21.3024 Z0.0000
G1 X23.0278 Y-21.3024 Z0.0000
G1 X23.0285 Y-21.3025 Z0.0000
G2X23.6585Y-21.9504Z0.0000I-0.0185J-0.6481
G2X23.6585Y-23.6501Z0.0000I-295.0455J-0.8493
G1 X23.6585 Y-23.6508 Z0.0000
G1 X23.6584 Y-23.6514 Z0.0000
G1 X23.6584 Y-23.6520 Z0.0000
G1 X23.6584 Y-23.6527 Z0.0000
G1 X23.6584 Y-23.6533 Z0.0000
G1 X23.6584 Y-23.6540 Z0.0000
G1 X23.6584 Y-23.6546 Z0.0000
G1 X23.6584 Y-23.6553 Z0.0000
G1 X23.6583 Y-23.6559 Z0.0000
G1 X23.6583 Y-23.6565 Z0.0000
G1 X23.6583 Y-23.6572 Z0.0000
G2X23.0201Y-24.2971Z0.0000I-0.6484J0.0085
G1 X13.8512 Y-24.4384 Z0.0000
G1 X13.8478 Y-24.2151 Z0.0000
G1 X4.6790 Y-24.3565 Z0.0000
G2X3.8663Y-23.5567Z0.0000I-0.0125J0.8000
G1 X3.8663 Y-22.0425 Z0.0000
G2X4.6790Y-21.2428Z0.0000I0.8002J-0.0003
G1 X23.0167 Y-21.5255 Z0.0000
G2X23.4351Y-21.9504Z0.0000I-0.0066J-0.4249
G1 X23.4351 Y-23.6488 Z0.0000
G2X23.0167Y-24.0738Z0.0000I-0.4250J0.0000
G1 X13.8478 Y-24.2151 Z0.0000
G0 Z4.0000
G0 X13.8478 Y-24.2151 
M5
G53 Z
X2Y0
