( MOP:  05-profile-s24PT625-nw43-Fender-ADHD-NFrets24-02 )
( FILE: G:\Shared drives\AlloyProjectFiles\Customer CAD files\Alloy-Standard-Builds-CAM\Fingerboards-in\05-profile-s24PT625-nw43-Fender-ADHD-NFrets24-02.nc)
G90
(  BEGIN TOOL LIST )
(  TOOL 5 - Downcut PT375 - DESC: 0.3750 DIA, 2 FLUTE,  CARBIDE MAT )
(  ENDOF TOOL LIST )
( 05-profile-s24PT625-nw43-Fender-ADHD-NFrets24-02)
( Max Depth 1.75)
T05
S12000
M3
G0 Z4.0000
G0 X23.2669 Y-24.0874 
G1 X23.2669 Y-24.0874 Z0.0000 F75.
G17
G3X23.0131Y-23.8413Z0.0000I-0.2500J-0.0039 F25.
G1 X4.6754 Y-24.1240 Z0.0000 F80.
G2X4.0988Y-23.5567Z0.0000I-0.0089J0.5675
G1 X4.0988 Y-22.0426 Z0.0000
G2X4.6754Y-21.4752Z0.0000I0.5677J-0.0002
G1 X23.0131 Y-21.7580 Z0.0000
G3X23.2669Y-21.5119Z0.0000I0.0038J0.2500 F75.
G0 Z4.0000
G0 X23.2669 Y-21.5119 
M5
G53 Z
X2Y0
