( MOP:  05-profile-s25PT5-nw43-FenderTruncated-Square-NFrets24-01 )
( FILE: G:\Shared drives\AlloyProjectFiles\Customer CAD files\Alloy-Standard-Builds-CAM\Fingerboards-in\05-profile-s25PT5-nw43-FenderTruncated-Square-NFrets24-01.nc)
G90
(  BEGIN TOOL LIST )
(  TOOL 11 - Downcut PT750 ROUGH - DESC: 0.7500 DIA, 2 FLUTE,  CARBIDE MAT )
(  ENDOF TOOL LIST )
( 05-profile-s25PT5-nw43-FenderTruncated-Square-NFrets24-01)
T11
S14000
M3
G0 Z4.0000
G0 X11.8389 Y-20.6801 
G1 X11.8389 Y-20.6801 Z0.3000 F75.
G1 X13.5400 Y-20.7072 Z0.0000 F50.
G1 X13.5401 Y-20.7072 Z0.0000
G1 X13.5401 Y-20.7072 Z0.0000 F150.
G1 X23.4494 Y-20.8654 Z0.0000
G17
G2X24.5051Y-21.9594Z0.0000I-0.0395J-1.0945
G2X24.5046Y-23.6634Z0.0000I-201.6944J-0.7865
G2X23.4275Y-24.7344Z0.0000I-1.0950J0.0241
G1 X3.6302 Y-25.0488 Z0.0000
G2X2.5401Y-23.9541Z0.0000I0.0051J1.0951
G1 X2.5407 Y-21.6223 Z0.0000
G2X3.6525Y-20.5499Z0.0000I1.0949J-0.0226
G1 X13.5400 Y-20.7072 Z0.0000
G1 X13.5401 Y-20.7072 Z0.0000
G1 X13.5365 Y-20.9305 Z0.0000
G1 X23.4336 Y-21.0881 Z0.0000
G2X24.2818Y-21.9594Z0.0000I-0.0238J-0.8717
G2X24.2816Y-23.6508Z0.0000I-231.5742J-0.8163
G2X23.4240Y-24.5111Z0.0000I-0.8718J0.0115
G1 X3.6391 Y-24.8257 Z0.0000
G2X2.7635Y-23.9541Z0.0000I-0.0037J0.8720
G1 X2.7637 Y-21.6349 Z0.0000
G2X3.6490Y-20.7732Z0.0000I0.8719J-0.0101
G1 X13.5365 Y-20.9305 Z0.0000
G1 X13.5329 Y-21.1538 Z0.0000
G1 X23.4204 Y-21.3111 Z0.0000
G1 X23.4211 Y-21.3111 Z0.0000
G1 X23.4217 Y-21.3111 Z0.0000
G1 X23.4224 Y-21.3111 Z0.0000
G1 X23.4230 Y-21.3111 Z0.0000
G1 X23.4237 Y-21.3112 Z0.0000
G1 X23.4243 Y-21.3112 Z0.0000
G1 X23.4249 Y-21.3112 Z0.0000
G1 X23.4256 Y-21.3112 Z0.0000
G1 X23.4262 Y-21.3113 Z0.0000
G1 X23.4269 Y-21.3113 Z0.0000
G1 X23.4275 Y-21.3113 Z0.0000
G1 X23.4282 Y-21.3113 Z0.0000
G1 X23.4288 Y-21.3114 Z0.0000
G2X24.0585Y-21.9593Z0.0000I-0.0188J-0.6481
G2X24.0585Y-23.6408Z0.0000I-291.9803J-0.8401
G1 X24.0585 Y-23.6415 Z0.0000
G1 X24.0584 Y-23.6421 Z0.0000
G1 X24.0584 Y-23.6427 Z0.0000
G1 X24.0584 Y-23.6434 Z0.0000
G1 X24.0584 Y-23.6440 Z0.0000
G1 X24.0584 Y-23.6447 Z0.0000
G1 X24.0584 Y-23.6453 Z0.0000
G1 X24.0584 Y-23.6460 Z0.0000
G1 X24.0583 Y-23.6466 Z0.0000
G1 X24.0583 Y-23.6472 Z0.0000
G1 X24.0583 Y-23.6479 Z0.0000
G2X23.4204Y-24.2878Z0.0000I-0.6484J0.0084
G1 X3.6454 Y-24.6024 Z0.0000
G1 X3.6448 Y-24.6024 Z0.0000
G1 X3.6441 Y-24.6024 Z0.0000
G1 X3.6435 Y-24.6024 Z0.0000
G1 X3.6428 Y-24.6024 Z0.0000
G1 X3.6422 Y-24.6024 Z0.0000
G1 X3.6415 Y-24.6024 Z0.0000
G1 X3.6408 Y-24.6024 Z0.0000
G1 X3.6402 Y-24.6024 Z0.0000
G1 X3.6395 Y-24.6024 Z0.0000
G1 X3.6389 Y-24.6024 Z0.0000
G1 X3.6382 Y-24.6024 Z0.0000
G1 X3.6376 Y-24.6024 Z0.0000
G1 X3.6369 Y-24.6024 Z0.0000
G2X2.9868Y-23.9542Z0.0000I-0.0017J0.6484
G2X2.9868Y-21.6434Z0.0000I393.2062J1.1548
G1 X2.9868 Y-21.6427 Z0.0000
G1 X2.9868 Y-21.6421 Z0.0000
G1 X2.9868 Y-21.6414 Z0.0000
G1 X2.9868 Y-21.6408 Z0.0000
G1 X2.9868 Y-21.6401 Z0.0000
G1 X2.9869 Y-21.6395 Z0.0000
G1 X2.9869 Y-21.6388 Z0.0000
G1 X2.9869 Y-21.6382 Z0.0000
G1 X2.9869 Y-21.6375 Z0.0000
G1 X2.9869 Y-21.6368 Z0.0000
G1 X2.9870 Y-21.6362 Z0.0000
G2X3.6454Y-20.9965Z0.0000I0.6483J-0.0086
G1 X13.5329 Y-21.1538 Z0.0000
G1 X13.5294 Y-21.3771 Z0.0000
G1 X23.4169 Y-21.5344 Z0.0000
G2X23.8351Y-21.9593Z0.0000I-0.0068J-0.4249
G1 X23.8351 Y-23.6395 Z0.0000
G2X23.4169Y-24.0645Z0.0000I-0.4250J0.0000
G1 X3.6419 Y-24.3791 Z0.0000
G2X3.2101Y-23.9542Z0.0000I-0.0068J0.4249
G1 X3.2101 Y-21.6447 Z0.0000
G2X3.6419Y-21.2198Z0.0000I0.4250J0.0000
G1 X13.5294 Y-21.3771 Z0.0000
G0 Z4.0000
G0 X13.5294 Y-21.3771 
M5
G53 Z
X2Y0
