( MOP:  05-profile-s25PT5-nw43-Fender-S-NFrets24-01 )
( FILE: G:\Shared drives\AlloyProjectFiles\Customer CAD files\Alloy-Standard-Builds-CAM\Fingerboards-in\05-profile-s25PT5-nw43-Fender-S-NFrets24-01.nc)
G90
(  BEGIN TOOL LIST )
(  TOOL 11 - Downcut PT750 ROUGH - DESC: 0.7500 DIA, 2 FLUTE,  CARBIDE MAT )
(  ENDOF TOOL LIST )
( 05-profile-s25PT5-nw43-Fender-S-NFrets24-01)
T11
S14000
M3
G0 Z4.0000
G0 X15.2277 Y-24.8046 
G1 X15.2277 Y-24.8046 Z0.3000 F75.
G1 X13.5265 Y-24.8286 Z0.0000 F50.
G1 X3.9036 Y-24.9644 Z0.0000 F110.
G17
G2X2.6070Y-23.9013Z0.0000I-0.0183J1.2999
G2X2.6070Y-21.6977Z0.0000I5.9488J1.1018
G2X3.9034Y-20.6346Z0.0000I1.2783J-0.2368
G1 X22.9672 Y-20.9010 Z0.0000
G2X23.0525Y-20.8073Z0.0000I1.1886J-0.9949
G2X25.0639Y-21.6325Z0.0000I0.8364J-0.8252
G1 X25.0639 Y-23.9638 Z0.0000
G2X23.0525Y-24.7891Z0.0000I-1.1750J0.0000
G2X22.9673Y-24.6954Z0.0000I1.1033J1.0886
G1 X13.5265 Y-24.8286 Z0.0000
G1 X13.5235 Y-24.6203 Z0.0000
G1 X3.9007 Y-24.7561 Z0.0000
G2X2.8118Y-23.8633Z0.0000I-0.0154J1.0916
G2X2.8118Y-21.7357Z0.0000I5.7440J1.0638
G2X3.9005Y-20.8429Z0.0000I1.0735J-0.1988
G1 X23.0679 Y-21.1108 Z0.0000
G2X23.2008Y-20.9536Z0.0000I1.0879J-0.7851
G2X24.8556Y-21.6325Z0.0000I0.6881J-0.6789
G1 X24.8556 Y-23.9638 Z0.0000
G2X23.2008Y-24.6428Z0.0000I-0.9667J0.0000
G2X23.0679Y-24.4856Z0.0000I0.9550J0.9423
G1 X13.5235 Y-24.6203 Z0.0000
G1 X13.5206 Y-24.4120 Z0.0000
G1 X3.8977 Y-24.5478 Z0.0000
G2X3.0167Y-23.8254Z0.0000I-0.0124J0.8833
G2X3.0167Y-21.7736Z0.0000I5.5391J1.0259
G2X3.8976Y-21.0512Z0.0000I0.8686J-0.1609
G1 X23.1433 Y-21.3202 Z0.0000
G3X23.1941Y-21.2962Z0.0000I0.0009J0.0639
G2X23.3491Y-21.0999Z0.0000I0.9617J-0.5997
G2X24.6472Y-21.6325Z0.0000I0.5398J-0.5326
G1 X24.6472 Y-23.9638 Z0.0000
G2X23.3491Y-24.4964Z0.0000I-0.7583J0.0000
G2X23.1941Y-24.3001Z0.0000I0.8067J0.7959
G3X23.1434Y-24.2762Z0.0000I-0.0499J-0.0400
G1 X13.5206 Y-24.4120 Z0.0000
G1 X13.5176 Y-24.2037 Z0.0000
G1 X3.8948 Y-24.3395 Z0.0000
G2X3.2215Y-23.7874Z0.0000I-0.0095J0.6750
G2X3.2215Y-21.8116Z0.0000I5.3343J0.9879
G2X3.8947Y-21.2596Z0.0000I0.6638J-0.1229
G1 X23.1404 Y-21.5285 Z0.0000
G3X23.3670Y-21.4128Z0.0000I0.0038J0.2722
G2X23.4974Y-21.2462Z0.0000I0.7888J-0.4831
G2X24.4389Y-21.6325Z0.0000I0.3915J-0.3863
G1 X24.4389 Y-23.9638 Z0.0000
G2X23.4974Y-24.3501Z0.0000I-0.5500J0.0000
G2X23.3670Y-24.1835Z0.0000I0.6584J0.6496
G3X23.1405Y-24.0678Z0.0000I-0.2228J-0.1566
G1 X13.5176 Y-24.2037 Z0.0000
G0 Z4.0000
G0 X13.5176 Y-24.2037 
M5
G53 Z
X2Y0
