( MOP:  05-profile-s25PT5-nw45-Fender-T-NFrets22-02 )
( FILE: G:\Shared drives\AlloyProjectFiles\Customer CAD files\Alloy-Standard-Builds-CAM\Fingerboards-in\05-profile-s25PT5-nw45-Fender-T-NFrets22-02.nc)
G90
(  BEGIN TOOL LIST )
(  TOOL 5 - Downcut PT375 - DESC: 0.3750 DIA, 2 FLUTE,  CARBIDE MAT )
(  ENDOF TOOL LIST )
( 05-profile-s25PT5-nw45-Fender-T-NFrets22-02)
( Max Depth 1.75)
T05
S12000
M3
G0 Z2.0000
G0 X23.5375 Y-24.4544 
G1 X23.5375 Y-24.4544 Z0.0000 F75.
G17
G3X23.5941Y-24.1054Z0.0000I-0.1462J0.2028 F25.
G3X23.1373Y-23.8750Z0.0000I-0.4503J-0.3246 F80.
G1 X4.6711 Y-24.0944 Z0.0000
G2X4.2233Y-23.6520Z0.0000I-0.0053J0.4424
G1 X4.2233 Y-21.9469 Z0.0000
G2X4.6710Y-21.5045Z0.0000I0.4425J0.0000
G1 X23.1373 Y-21.7213 Z0.0000
G3X23.5941Y-21.4909Z0.0000I0.0065J0.5550
G3X23.5375Y-21.1419Z0.0000I-0.2028J0.1462 F75.
G0 Z2.0000
G0 X23.5375 Y-21.1419 
M5
G53 Z
X2Y0
