( MOP:  05-profile-s24PT75-nw43-Gibson-Wolnick-NFrets22-01 )
( FILE: G:\Shared drives\AlloyProjectFiles\Customer CAD files\Alloy-Standard-Builds-CAM\Fingerboards-in\05-profile-s24PT75-nw43-Gibson-Wolnick-NFrets22-01.nc)
G90
(  BEGIN TOOL LIST )
(  TOOL 11 - Downcut PT750 ROUGH - DESC: 0.7500 DIA, 2 FLUTE,  CARBIDE MAT )
(  ENDOF TOOL LIST )
( 05-profile-s24PT75-nw43-Gibson-Wolnick-NFrets22-01)
T11
S14000
M3
G0 Z4.0000
G0 X21.3274 Y-24.7693 
G1 X21.3274 Y-24.7693 Z0.3000 F75.
G1 X23.0285 Y-24.7393 Z0.0000 F50.
G1 X4.8139 Y-25.0608 Z0.0000 F150.
G17
G2X3.7193Y-23.9660Z0.0000I0.0004J1.0950
G1 X3.7197 Y-21.6156 Z0.0000
G2X4.8337Y-20.5405Z0.0000I1.0949J-0.0197
G1 X23.0285 Y-20.8621 Z0.0000
G0 Z0.5500
G0 X23.0285 Y-20.8621 
G0 Z0.5500
G0 X21.3234 Y-24.5460 
G1 X21.3234 Y-24.5460 Z0.3000 F75.
G1 X23.0245 Y-24.5160 Z0.0000 F50.
G1 X4.8199 Y-24.8375 Z0.0000 F150.
G2X3.9426Y-23.9660Z0.0000I-0.0055J0.8717
G1 X3.9429 Y-21.6255 Z0.0000
G2X4.8297Y-20.7638Z0.0000I0.8717J-0.0099
G1 X23.0245 Y-21.0854 Z0.0000
G0 Z0.5500
G0 X23.0245 Y-21.0854 
G0 Z0.5500
G0 X21.3195 Y-24.3227 
G1 X21.3195 Y-24.3227 Z0.3000 F75.
G1 X23.0206 Y-24.2927 Z0.0000 F50.
G1 X4.8258 Y-24.6143 Z0.0000 F150.
G2X4.1660Y-23.9661Z0.0000I-0.0112J0.6486
G1 X4.1660 Y-21.6353 Z0.0000
G2X4.8258Y-20.9871Z0.0000I0.6486J-0.0004
G1 X23.0206 Y-21.3087 Z0.0000
G0 Z0.5500
G0 X23.0206 Y-21.3087 
G0 Z0.5500
G0 X21.3155 Y-24.0994 
G1 X21.3155 Y-24.0994 Z0.3000 F75.
G1 X23.0166 Y-24.0694 Z0.0000 F50.
G1 X4.8218 Y-24.3910 Z0.0000 F150.
G2X4.3893Y-23.9661Z0.0000I-0.0075J0.4249
G1 X4.3893 Y-21.6353 Z0.0000
G2X4.8218Y-21.2104Z0.0000I0.4250J0.0000
G1 X23.0166 Y-21.5320 Z0.0000
G0 Z4.0000
G0 X23.0166 Y-21.5320 
M5
G53 Z
X2Y0
