( MOP:  05-profile-s25PT5-nw43-Fender-T24SStyle-NFrets24-01 )
( FILE: G:\Shared drives\AlloyProjectFiles\Customer CAD files\Alloy-Standard-Builds-CAM\Fingerboards-in\05-profile-s25PT5-nw43-Fender-T24SStyle-NFrets24-01.nc)
G90
(  BEGIN TOOL LIST )
(  TOOL 11 - Downcut PT750 ROUGH - DESC: 0.7500 DIA, 2 FLUTE,  CARBIDE MAT )
(  ENDOF TOOL LIST )
( 05-profile-s25PT5-nw43-Fender-T24SStyle-NFrets24-01)
T11
S14000
M3
G0 Z4.0000
G0 X11.7078 Y-20.7083 
G1 X11.7078 Y-20.7083 Z0.3000 F75.
G1 X13.4091 Y-20.7308 Z0.0000 F50.
G1 X22.9463 Y-20.8567 Z0.0000 F150.
G17
G2X23.0206Y-20.7755Z0.0000I1.1044J-0.9356
G2X24.3175Y-20.4899Z0.0000I0.8688J-0.8580
G2X24.3857Y-20.5179Z0.0000I-0.7877J-2.0185
G2X25.1088Y-21.6007Z0.0000I-0.4968J-1.1146
G1 X25.1089 Y-21.6066 Z0.0000
G1 X25.1089 Y-23.9639 Z0.0000
G1 X25.1089 Y-23.9640 Z0.0000
G2X24.4138Y-25.0659Z0.0000I-1.2223J0.0008
G2X24.3181Y-25.1062Z0.0000I-0.7286J1.5964
G2X23.0428Y-24.8433Z0.0000I-0.4292J1.1424
G1 X23.0425 Y-24.8430 Z0.0000
G1 X23.0421 Y-24.8426 Z0.0000
G1 X23.0418 Y-24.8423 Z0.0000
G1 X23.0415 Y-24.8420 Z0.0000
G1 X23.0411 Y-24.8417 Z0.0000
G1 X23.0408 Y-24.8414 Z0.0000
G1 X23.0405 Y-24.8410 Z0.0000
G1 X23.0402 Y-24.8407 Z0.0000
G1 X23.0398 Y-24.8404 Z0.0000
G1 X23.0395 Y-24.8401 Z0.0000
G1 X23.0392 Y-24.8398 Z0.0000
G1 X23.0389 Y-24.8394 Z0.0000
G1 X23.0386 Y-24.8391 Z0.0000
G2X22.9482Y-24.7422Z0.0000I1.4580J1.4495
G1 X3.7934 Y-24.9953 Z0.0000
G1 X3.7932 Y-24.9954 Z0.0000
G2X2.4741Y-23.9927Z0.0000I-0.0168J1.3470
G2X2.4386Y-23.8147Z0.0000I2.0882J0.5093
G2X2.4041Y-22.0058Z0.0000I6.0659J1.0203
G2X2.4578Y-21.6788Z0.0000I6.0285J-0.8228
G2X3.7581Y-20.6031Z0.0000I1.3184J-0.2699
G1 X3.7641 Y-20.6031 Z0.0000
G1 X13.4091 Y-20.7308 Z0.0000
G1 X13.4061 Y-20.9541 Z0.0000
G1 X23.0172 Y-21.0813 Z0.0000
G1 X23.0525 Y-21.0814 Z0.0000
G2X23.1795Y-20.9325Z0.0000I1.0743J-0.7872
G2X24.2392Y-20.6991Z0.0000I0.7099J-0.7010
G2X24.2948Y-20.7218Z0.0000I-0.6260J-1.6058
G2X24.8856Y-21.6066Z0.0000I-0.4059J-0.9107
G1 X24.8856 Y-23.9638 Z0.0000
G1 X24.8856 Y-23.9639 Z0.0000
G2X24.2951Y-24.8744Z0.0000I-0.9978J0.0004
G2X24.2396Y-24.8972Z0.0000I-0.6822J1.5829
G2X23.1976Y-24.6823Z0.0000I-0.3507J0.9334
G2X23.0539Y-24.5174Z0.0000I1.0169J1.0309
G1 X23.0175 Y-24.5175 Z0.0000
G1 X3.7905 Y-24.7720 Z0.0000
G1 X3.7904 Y-24.7720 Z0.0000
G2X2.6900Y-23.9356Z0.0000I-0.0140J1.1236
G2X2.6588Y-23.7776Z0.0000I1.7575J0.4292
G2X2.6359Y-21.9622Z0.0000I5.8242J0.9812
G2X2.6766Y-21.7236Z0.0000I5.6463J-0.8407
G2X3.7611Y-20.8264Z0.0000I1.0996J-0.2251
G1 X13.4061 Y-20.9541 Z0.0000
G1 X13.4032 Y-21.1774 Z0.0000
G1 X23.0154 Y-21.3047 Z0.0000
G3X23.1284Y-21.3034Z0.0000I0.0426J1.2365
G3X23.2149Y-21.2363Z0.0000I-0.0712J0.1812
G2X23.3384Y-21.0894Z0.0000I1.0164J-0.7285
G2X24.1609Y-20.9082Z0.0000I0.5510J-0.5441
G1 X24.2039 Y-20.9259 Z0.0000
G2X24.6622Y-21.6325Z0.0000I-0.3143J-0.7058
G1 X24.6622 Y-23.9638 Z0.0000
G2X24.2039Y-24.6705Z0.0000I-0.7744J0.0003
G1 X24.1609 Y-24.6881 Z0.0000
G2X23.3384Y-24.5070Z0.0000I-0.2719J0.7231
G1 X23.3381 Y-24.5067 Z0.0000
G1 X23.3378 Y-24.5063 Z0.0000
G1 X23.3375 Y-24.5060 Z0.0000
G1 X23.3372 Y-24.5057 Z0.0000
G1 X23.3369 Y-24.5054 Z0.0000
G1 X23.3365 Y-24.5051 Z0.0000
G1 X23.3362 Y-24.5048 Z0.0000
G1 X23.3359 Y-24.5044 Z0.0000
G1 X23.3356 Y-24.5041 Z0.0000
G1 X23.3353 Y-24.5038 Z0.0000
G1 X23.3350 Y-24.5035 Z0.0000
G1 X23.3347 Y-24.5032 Z0.0000
G1 X23.3344 Y-24.5028 Z0.0000
G2X23.2046Y-24.3479Z0.0000I1.0064J0.9751
G3X23.1291Y-24.2949Z0.0000I-0.1258J-0.0989
G1 X23.0942 Y-24.2939 Z0.0000
G1 X23.0156 Y-24.2942 Z0.0000
G1 X3.7876 Y-24.5487 Z0.0000
G2X2.9007Y-23.8561Z0.0000I-0.0115J0.8994
G2X2.8790Y-23.7404Z0.0000I2.7969J0.5842
G2X2.8674Y-21.9273Z0.0000I5.5866J0.9424
G2X2.8955Y-21.7683Z0.0000I6.0801J-0.9919
G2X3.7877Y-21.0501Z0.0000I0.8799J-0.1799
G1 X13.4032 Y-21.1774 Z0.0000
G1 X13.4002 Y-21.4007 Z0.0000
G1 X23.0136 Y-21.5280 Z0.0000
G3X23.1572Y-21.5252Z0.0000I0.0455J1.3732
G3X23.3884Y-21.3771Z0.0000I-0.0782J0.3765
G2X23.4974Y-21.2462Z0.0000I0.8962J-0.6354
G2X24.0977Y-21.1237Z0.0000I0.3915J-0.3863
G2X24.4389Y-21.6325Z0.0000I-0.2088J-0.5088
G1 X24.4389 Y-23.9638 Z0.0000
G2X24.0977Y-24.4727Z0.0000I-0.5500J0.0000
G2X23.4974Y-24.3501Z0.0000I-0.2088J0.5089
G2X23.3704Y-24.1982Z0.0000I1.3812J1.2832
G3X23.1427Y-24.0719Z0.0000I-0.2710J-0.2202
G1 X23.0969 Y-24.0706 Z0.0000
G1 X23.0137 Y-24.0709 Z0.0000
G1 X3.7847 Y-24.3254 Z0.0000
G2X3.1143Y-23.7858Z0.0000I-0.0089J0.6753
G1 X3.0992 Y-23.7032 Z0.0000
G2X3.0992Y-21.8956Z0.0000I5.3497J0.9038
G1 X3.1143 Y-21.8131 Z0.0000
G2X3.7847Y-21.2735Z0.0000I0.6611J-0.1351
G1 X13.4002 Y-21.4007 Z0.0000
G0 Z4.0000
G0 X13.4002 Y-21.4007 
M5
G53 Z
X2Y0
