( MOP:  05-profile-s25PT5-nw45-Fender-T-NFrets22-01 )
( FILE: G:\Shared drives\AlloyProjectFiles\Customer CAD files\Alloy-Standard-Builds-CAM\Fingerboards-in\05-profile-s25PT5-nw45-Fender-T-NFrets22-01.nc)
G90
(  BEGIN TOOL LIST )
(  TOOL 11 - Downcut PT750 ROUGH - DESC: 0.7500 DIA, 2 FLUTE,  CARBIDE MAT )
(  ENDOF TOOL LIST )
( 05-profile-s25PT5-nw45-Fender-T-NFrets22-01)
T11
S14000
M3
G0 Z2.0000
G0 X12.2130 Y-20.7355 
G1 X12.2130 Y-20.7355 Z0.3000 F75.
G1 X13.9142 Y-20.7555 Z0.0000 F50.
G1 X23.0009 Y-20.8622 Z0.0000 F150.
G17
G2X23.0525Y-20.8073Z0.0000I1.1549J-1.0337
G2X25.0639Y-21.6325Z0.0000I0.8364J-0.8252
G1 X25.0639 Y-23.9638 Z0.0000
G2X23.0525Y-24.7891Z0.0000I-1.1750J0.0000
G2X23.0009Y-24.7342Z0.0000I1.1033J1.0886
G1 X4.6813 Y-24.9519 Z0.0000
G2X3.3658Y-23.6520Z0.0000I-0.0155J1.2999
G1 X3.3658 Y-21.9469 Z0.0000
G2X4.6811Y-20.6470Z0.0000I1.3000J0.0000
G1 X13.9142 Y-20.7555 Z0.0000
G1 X13.9118 Y-20.9638 Z0.0000
G1 X23.0972 Y-21.0717 Z0.0000
G2X23.2008Y-20.9536Z0.0000I1.0586J-0.8242
G2X24.8556Y-21.6325Z0.0000I0.6881J-0.6789
G1 X24.8556 Y-23.9638 Z0.0000
G2X23.2008Y-24.6428Z0.0000I-0.9667J0.0000
G2X23.0972Y-24.5247Z0.0000I0.9550J0.9423
G1 X4.6788 Y-24.7435 Z0.0000
G2X3.5742Y-23.6520Z0.0000I-0.0130J1.0915
G1 X3.5742 Y-21.9469 Z0.0000
G2X4.6786Y-20.8553Z0.0000I1.0916J0.0000
G1 X13.9118 Y-20.9638 Z0.0000
G1 X13.9093 Y-21.1721 Z0.0000
G1 X23.1425 Y-21.2805 Z0.0000
G3X23.2365Y-21.2331Z0.0000I0.0013J0.1142
G2X23.3491Y-21.0999Z0.0000I0.9193J-0.6628
G2X24.6472Y-21.6325Z0.0000I0.5398J-0.5326
G1 X24.6472 Y-23.9638 Z0.0000
G2X23.3491Y-24.4964Z0.0000I-0.7583J0.0000
G2X23.2365Y-24.3632Z0.0000I0.8067J0.7959
G3X23.1425Y-24.3158Z0.0000I-0.0927J-0.0668
G1 X4.6763 Y-24.5352 Z0.0000
G2X3.7825Y-23.6520Z0.0000I-0.0105J0.8832
G1 X3.7825 Y-21.9469 Z0.0000
G2X4.6762Y-21.0637Z0.0000I0.8833J0.0000
G1 X13.9093 Y-21.1721 Z0.0000
G1 X13.9069 Y-21.3804 Z0.0000
G1 X23.1400 Y-21.4889 Z0.0000
G3X23.4055Y-21.3550Z0.0000I0.0038J0.3226
G2X23.4974Y-21.2462Z0.0000I0.7503J-0.5409
G2X24.4389Y-21.6325Z0.0000I0.3915J-0.3863
G1 X24.4389 Y-23.9638 Z0.0000
G2X23.4974Y-24.3501Z0.0000I-0.5500J0.0000
G2X23.4055Y-24.2414Z0.0000I0.6584J0.6496
G3X23.1401Y-24.1075Z0.0000I-0.2617J-0.1886
G1 X4.6738 Y-24.3269 Z0.0000
G2X3.9908Y-23.6520Z0.0000I-0.0080J0.6749
G1 X3.9908 Y-21.9469 Z0.0000
G2X4.6737Y-21.2720Z0.0000I0.6750J0.0000
G1 X13.9069 Y-21.3804 Z0.0000
G0 Z2.0000
G0 X13.9069 Y-21.3804 
M5
G53 Z
X2Y0
