( MOP:  05-profile-s27-nw42-Fender-T-NFrets22-02 )
( FILE: G:\Shared drives\AlloyProjectFiles\Customer CAD files\Alloy-Standard-Builds-CAM\Fingerboards-in\05-profile-s27-nw42-Fender-T-NFrets22-02.nc)
G90
(  BEGIN TOOL LIST )
(  TOOL 5 - Downcut PT375 - DESC: 0.3750 DIA, 2 FLUTE,  CARBIDE MAT )
(  ENDOF TOOL LIST )
( 05-profile-s27-nw42-Fender-T-NFrets22-02)
( Max Depth 1.75)
T05
S12000
M3
G0 Z2.0000
G0 X23.5171 Y-24.4445 
G1 X23.5171 Y-24.4445 Z0.0000 F75.
G17
G3X23.5892Y-24.0984Z0.0000I-0.1370J0.2091 F25.
G3X23.2273Y-23.8270Z0.0000I-0.4944J-0.2823 F80.
G3X23.1318Y-23.8174Z0.0000I-0.0939J-0.4570
G1 X23.0115 Y-23.8174 Z0.0000
G1 X3.3860 Y-24.0917 Z0.0000
G2X2.9373Y-23.6492Z0.0000I-0.0062J0.4425
G1 X2.9373 Y-21.9471 Z0.0000
G2X3.3860Y-21.5047Z0.0000I0.4425J0.0000
G1 X23.0115 Y-21.7789 Z0.0000
G3X23.1962Y-21.7747Z0.0000I0.0601J1.4017
G3X23.5658Y-21.5338Z0.0000I-0.0866J0.5368
G1 X23.5892 Y-21.4980 Z0.0000
G3X23.5171Y-21.1519Z0.0000I-0.2091J0.1370 F75.
G0 Z2.0000
G0 X23.5171 Y-21.1519 
M5
G53 Z
X2Y0
