( MOP:  05-profile-s24PT75-nw43-Fender-T-NFrets22-01 )
( FILE: G:\Shared drives\AlloyProjectFiles\Customer CAD files\Alloy-Standard-Builds-CAM\Fingerboards-in\05-profile-s24PT75-nw43-Fender-T-NFrets22-01.nc)
G90
(  BEGIN TOOL LIST )
(  TOOL 11 - Downcut PT750 ROUGH - DESC: 0.7500 DIA, 2 FLUTE,  CARBIDE MAT )
(  ENDOF TOOL LIST )
( 05-profile-s24PT75-nw43-Fender-T-NFrets22-01)
T11
S14000
M3
G0 Z4.0000
G0 X12.4925 Y-20.7044 
G1 X12.4925 Y-20.7044 Z0.3000 F75.
G1 X14.1937 Y-20.7292 Z0.0000 F50.
G1 X22.9461 Y-20.8569 Z0.0000 F150.
G17
G2X23.0206Y-20.7755Z0.0000I1.1072J-0.9379
G2X24.3175Y-20.4899Z0.0000I0.8688J-0.8580
G2X24.3856Y-20.5178Z0.0000I-0.7884J-2.0202
G2X25.1089Y-21.6327Z0.0000I-0.4960J-1.1139
G1 X25.1089 Y-23.9639 Z0.0000
G1 X25.1089 Y-23.9640 Z0.0000
G2X24.3862Y-25.0783Z0.0000I-1.2211J0.0005
G2X24.3182Y-25.1062Z0.0000I-0.8576J1.9918
G2X23.0201Y-24.8203Z0.0000I-0.4292J1.1412
G2X22.9480Y-24.7419Z0.0000I2.1508J2.0496
G1 X5.2363 Y-25.0003 Z0.0000
G1 X5.2362 Y-25.0003 Z0.0000
G2X4.3234Y-24.6618Z0.0000I-0.0184J1.3501
G2X4.2474Y-24.5882Z0.0000I1.3066J1.4260
G2X3.8747Y-23.7552Z0.0000I0.9730J0.9352
G1 X3.8747 Y-23.7545 Z0.0000
G1 X3.8746 Y-23.7539 Z0.0000
G1 X3.8746 Y-23.7533 Z0.0000
G1 X3.8745 Y-23.7526 Z0.0000
G1 X3.8745 Y-23.7520 Z0.0000
G1 X3.8744 Y-23.7513 Z0.0000
G1 X3.8744 Y-23.7507 Z0.0000
G1 X3.8744 Y-23.7500 Z0.0000
G1 X3.8743 Y-23.7494 Z0.0000
G1 X3.8743 Y-23.7488 Z0.0000
G1 X3.8743 Y-23.7481 Z0.0000
G1 X3.8743 Y-23.7475 Z0.0000
G1 X3.8742 Y-23.7468 Z0.0000
G2X3.8718Y-23.6696Z0.0000I8.6926J0.3096
G1 X3.8718 Y-21.9433 Z0.0000
G1 X3.8718 Y-21.9431 Z0.0000
G2X4.2225Y-21.0366Z0.0000I1.3500J-0.0013
G2X4.2986Y-20.9601Z0.0000I1.3361J-1.2525
G2X5.2367Y-20.5986Z0.0000I0.9170J-0.9813
G1 X14.1937 Y-20.7292 Z0.0000
G1 X14.1905 Y-20.9525 Z0.0000
G1 X23.0517 Y-21.0818 Z0.0000
G2X23.1795Y-20.9325Z0.0000I1.1457J-0.8508
G2X24.2392Y-20.6991Z0.0000I0.7099J-0.7010
G2X24.2948Y-20.7218Z0.0000I-0.6260J-1.6058
G2X24.8856Y-21.6326Z0.0000I-0.4052J-0.9099
G1 X24.8856 Y-23.9638 Z0.0000
G1 X24.8856 Y-23.9639 Z0.0000
G2X24.2951Y-24.8744Z0.0000I-0.9978J0.0004
G2X24.2396Y-24.8972Z0.0000I-0.6822J1.5829
G2X23.1792Y-24.6637Z0.0000I-0.3506J0.9322
G1 X23.1789 Y-24.6633 Z0.0000
G1 X23.1786 Y-24.6630 Z0.0000
G1 X23.1782 Y-24.6626 Z0.0000
G1 X23.1779 Y-24.6623 Z0.0000
G1 X23.1776 Y-24.6619 Z0.0000
G1 X23.1772 Y-24.6616 Z0.0000
G1 X23.1769 Y-24.6612 Z0.0000
G1 X23.1766 Y-24.6609 Z0.0000
G1 X23.1762 Y-24.6605 Z0.0000
G1 X23.1759 Y-24.6602 Z0.0000
G1 X23.1756 Y-24.6598 Z0.0000
G1 X23.1752 Y-24.6595 Z0.0000
G1 X23.1749 Y-24.6591 Z0.0000
G2X23.0533Y-24.5170Z0.0000I1.0341J1.0076
G1 X5.2332 Y-24.7770 Z0.0000
G1 X5.2331 Y-24.7770 Z0.0000
G2X4.4514Y-24.4758Z0.0000I-0.0159J1.1238
G2X4.4084Y-24.4335Z0.0000I1.3229J1.3856
G2X4.0974Y-23.7383Z0.0000I0.8120J0.7805
G2X4.0952Y-23.6696Z0.0000I1.2672J0.0758
G1 X4.0952 Y-21.9434 Z0.0000
G1 X4.0952 Y-21.9433 Z0.0000
G2X4.3879Y-21.1868Z0.0000I1.1266J-0.0011
G2X4.4511Y-21.1233Z0.0000I1.1925J-1.1247
G2X5.2333Y-20.8219Z0.0000I0.7645J-0.8181
G1 X14.1905 Y-20.9525 Z0.0000
G1 X14.1872 Y-21.1759 Z0.0000
G1 X23.0954 Y-21.3058 Z0.0000
G3X23.2192Y-21.2307Z0.0000I-0.0469J0.2170
G2X23.3384Y-21.0894Z0.0000I0.9959J-0.7188
G2X24.1609Y-20.9082Z0.0000I0.5510J-0.5441
G1 X24.2039 Y-20.9259 Z0.0000
G2X24.6622Y-21.6325Z0.0000I-0.3143J-0.7058
G1 X24.6622 Y-23.9638 Z0.0000
G2X24.2039Y-24.6705Z0.0000I-0.7744J0.0003
G1 X24.1609 Y-24.6881 Z0.0000
G2X23.3384Y-24.5070Z0.0000I-0.2719J0.7231
G1 X23.3381 Y-24.5067 Z0.0000
G1 X23.3378 Y-24.5063 Z0.0000
G1 X23.3375 Y-24.5060 Z0.0000
G1 X23.3372 Y-24.5057 Z0.0000
G1 X23.3369 Y-24.5054 Z0.0000
G1 X23.3365 Y-24.5051 Z0.0000
G1 X23.3362 Y-24.5048 Z0.0000
G1 X23.3359 Y-24.5044 Z0.0000
G1 X23.3356 Y-24.5041 Z0.0000
G1 X23.3353 Y-24.5038 Z0.0000
G1 X23.3350 Y-24.5035 Z0.0000
G1 X23.3347 Y-24.5032 Z0.0000
G1 X23.3344 Y-24.5028 Z0.0000
G2X23.2058Y-24.3508Z0.0000I1.0807J1.0440
G3X23.0980Y-24.2930Z0.0000I-0.1515J-0.1535
G1 X5.2299 Y-24.5537 Z0.0000
G2X4.6036Y-24.3124Z0.0000I-0.0127J0.9005
G2X4.5693Y-24.2786Z0.0000I57.7293J58.5950
G2X4.3191Y-23.6982Z0.0000I0.6484J0.6237
G1 X4.3185 Y-23.6745 Z0.0000
G1 X4.3185 Y-23.6696 Z0.0000
G1 X4.3185 Y-21.9434 Z0.0000
G2X4.5689Y-21.3207Z0.0000I0.9006J-0.0004
G1 X4.6036 Y-21.2865 Z0.0000
G2X5.2299Y-21.0452Z0.0000I0.6120J-0.6549
G1 X14.1872 Y-21.1759 Z0.0000
G1 X14.1839 Y-21.3992 Z0.0000
G1 X23.1126 Y-21.5294 Z0.0000
G3X23.3928Y-21.3714Z0.0000I-0.0632J0.4394
G2X23.4974Y-21.2462Z0.0000I0.8620J-0.6142
G2X24.0977Y-21.1237Z0.0000I0.3915J-0.3863
G2X24.4389Y-21.6325Z0.0000I-0.2088J-0.5088
G1 X24.4389 Y-23.9638 Z0.0000
G2X24.0977Y-24.4727Z0.0000I-0.5500J0.0000
G2X23.4974Y-24.3501Z0.0000I-0.2088J0.5089
G2X23.3790Y-24.2088Z0.0000I1.2284J1.1492
G3X23.1139Y-24.0694Z0.0000I-0.3233J-0.2932
G1 X5.2267 Y-24.3304 Z0.0000
G2X4.7430Y-24.1362Z0.0000I-0.0099J0.6749
G2X4.5418Y-23.6696Z0.0000I0.4747J0.4813
G1 X4.5418 Y-21.9434 Z0.0000
G2X4.7430Y-21.4626Z0.0000I0.6750J0.0000
G2X5.2267Y-21.2685Z0.0000I0.4738J-0.4808
G1 X14.1839 Y-21.3992 Z0.0000
G0 Z4.0000
G0 X14.1839 Y-21.3992 
M5
G53 Z
X2Y0
