( MOP:  05-profile-s24PT75-nw43-Gibson-Foley-NFrets21-02 )
( FILE: G:\Shared drives\AlloyProjectFiles\Customer CAD files\Alloy-Standard-Builds-CAM\Fingerboards-in\05-profile-s24PT75-nw43-Gibson-Foley-NFrets21-02.nc)
G90
(  BEGIN TOOL LIST )
(  TOOL 5 - Downcut PT375 - DESC: 0.3750 DIA, 2 FLUTE,  CARBIDE MAT )
(  ENDOF TOOL LIST )
( 05-profile-s24PT75-nw43-Gibson-Foley-NFrets21-02)
( Max Depth 1.75)
T05
S12000
M3
G0 Z2.0000
G0 X23.2670 Y-24.0844 
G1 X23.2670 Y-24.0844 Z0.0000 F75.
G17
G3X23.0132Y-23.8384Z0.0000I-0.2499J-0.0039 F25.
G1 X5.4522 Y-24.1141 Z0.0000 F80.
G2X5.0128Y-23.6721Z0.0000I0.0032J0.4425
G1 X5.0128 Y-21.9266 Z0.0000
G2X5.2978Y-21.5135Z0.0000I0.4425J-0.0005
G2X5.3692Y-21.5010Z0.0000I0.0685J-0.1799
G1 X23.0130 Y-21.7605 Z0.0000
G3X23.2666Y-21.5142Z0.0000I0.0036J0.2500 F75.
G0 Z2.0000
G0 X23.2666 Y-21.5142 
M5
G53 Z
X2Y0
