( MOP:  05-profile-s24PT625-nw43-Gibson-Moser-NFrets24-02a )
( FILE: G:\Shared drives\AlloyProjectFiles\Customer CAD files\Alloy-Standard-Builds-CAM\Fingerboards-in\05-profile-s24PT625-nw43-Gibson-Moser-NFrets24-02.nc)
G90
(  BEGIN TOOL LIST )
(  TOOL 5 - Downcut PT375 - DESC: 0.3750 DIA, 2 FLUTE,  CARBIDE MAT )
(  ENDOF TOOL LIST )
( 05-profile-s24PT625-nw43-Gibson-Moser-NFrets24-02a)
( Max Depth 1.75)
T05
S12000
M3
G0 Z4.0000
G0 X3.7533 Y-24.1887 
G1 X3.7533 Y-24.1887 Z0.0000 F75.
G17
G3X4.0033Y-23.9387Z0.0000I0.0000J0.2500 F25.
G1 X4.0033 Y-21.6602 Z0.0000 F80.
G3X3.7533Y-21.4102Z0.0000I-0.2500J0.0000 F75.
G0 Z4.0000
G0 X3.7533 Y-21.4102 
( 05-profile-s24PT625-nw43-Gibson-Moser-NFrets24-02b)
( Max Depth 1.75)
G0 Z4.0000
G0 X23.2669 Y-24.0872 
G1 X23.2669 Y-24.0872 Z0.0000 F75.
G3X23.0131Y-23.8411Z0.0000I-0.2500J-0.0039 F25.
G1 X4.1988 Y-24.1312 Z0.0000 F80.
G3X3.9527Y-24.3850Z0.0000I0.0038J-0.2499 F75.
G0 Z4.0000
G0 X3.9527 Y-24.3850 
( 05-profile-s24PT625-nw43-Gibson-Moser-NFrets24-02c)
( Max Depth 1.75)
G0 Z4.0000
G0 X3.9527 Y-21.2139 
G1 X3.9527 Y-21.2139 Z0.0000 F75.
G3X4.1988Y-21.4677Z0.0000I0.2499J-0.0038 F25.
G1 X23.0131 Y-21.7578 Z0.0000 F80.
G3X23.2669Y-21.5117Z0.0000I0.0038J0.2500 F75.
G0 Z4.0000
G0 X23.2669 Y-21.5117 
M5
G53 Z
X2Y0
