( MOP:  05-profile-s25PT5-nw45-Fender-S-NFrets22-01 )
( FILE: G:\Shared drives\AlloyProjectFiles\Customer CAD files\Alloy-Standard-Builds-CAM\Fingerboards-in\05-profile-s25PT5-nw45-Fender-S-NFrets22-01.nc)
G90
(  BEGIN TOOL LIST )
(  TOOL 11 - Downcut PT750 ROUGH - DESC: 0.7500 DIA, 2 FLUTE,  CARBIDE MAT )
(  ENDOF TOOL LIST )
( 05-profile-s25PT5-nw45-Fender-S-NFrets22-01)
T11
S14000
M3
G0 Z4.0000
G0 X12.2135 Y-20.6899 
G1 X12.2135 Y-20.6899 Z0.3000 F75.
G1 X13.9148 Y-20.7100 Z0.0000 F50.
G1 X22.9811 Y-20.8169 Z0.0000 F150.
G17
G2X23.0204Y-20.7757Z0.0000I1.1747J-1.0790
G2X25.1089Y-21.6325Z0.0000I0.8685J-0.8568
G1 X25.1089 Y-23.9638 Z0.0000
G2X23.0204Y-24.8207Z0.0000I-1.2200J0.0000
G2X22.9812Y-24.7794Z0.0000I1.1354J1.1202
G1 X4.6819 Y-24.9978 Z0.0000
G2X3.3427Y-23.8945Z0.0000I-0.0161J1.3449
G2X3.3427Y-21.7044Z0.0000I5.9958J1.0950
G2X4.6817Y-20.6011Z0.0000I1.3231J-0.2416
G1 X13.9148 Y-20.7100 Z0.0000
G1 X13.9122 Y-20.9333 Z0.0000
G1 X23.0828 Y-21.0415 Z0.0000
G2X23.1794Y-20.9325Z0.0000I1.0730J-0.8544
G2X24.8856Y-21.6325Z0.0000I0.7095J-0.7000
G1 X24.8856 Y-23.9638 Z0.0000
G2X23.1794Y-24.6638Z0.0000I-0.9967J0.0000
G2X23.0828Y-24.5549Z0.0000I0.9764J0.9633
G1 X4.6792 Y-24.7745 Z0.0000
G2X3.5624Y-23.8544Z0.0000I-0.0134J1.1216
G2X3.5624Y-21.7445Z0.0000I5.7761J1.0549
G2X4.6790Y-20.8244Z0.0000I1.1034J-0.2015
G1 X13.9122 Y-20.9333 Z0.0000
G1 X13.9095 Y-21.1566 Z0.0000
G1 X23.1427 Y-21.2655 Z0.0000
G3X23.2243Y-21.2244Z0.0000I0.0011J0.0992
G2X23.3384Y-21.0894Z0.0000I0.9315J-0.6715
G2X24.6622Y-21.6325Z0.0000I0.5505J-0.5431
G1 X24.6622 Y-23.9638 Z0.0000
G2X23.3384Y-24.5070Z0.0000I-0.7733J0.0000
G2X23.2243Y-24.3720Z0.0000I0.8174J0.8065
G3X23.1427Y-24.3308Z0.0000I-0.0805J-0.0580
G1 X4.6765 Y-24.5512 Z0.0000
G2X3.7821Y-23.8143Z0.0000I-0.0107J0.8983
G2X3.7821Y-21.7846Z0.0000I5.5564J1.0148
G2X4.6764Y-21.0477Z0.0000I0.8837J-0.1614
G1 X13.9095 Y-21.1566 Z0.0000
G1 X13.9069 Y-21.3800 Z0.0000
G1 X23.1400 Y-21.4889 Z0.0000
G3X23.4055Y-21.3550Z0.0000I0.0038J0.3226
G2X23.4974Y-21.2462Z0.0000I0.7503J-0.5409
G2X24.4389Y-21.6325Z0.0000I0.3915J-0.3863
G1 X24.4389 Y-23.9638 Z0.0000
G2X23.4974Y-24.3501Z0.0000I-0.5500J0.0000
G2X23.4055Y-24.2414Z0.0000I0.6584J0.6496
G3X23.1401Y-24.1075Z0.0000I-0.2617J-0.1886
G1 X4.6739 Y-24.3278 Z0.0000
G2X4.0018Y-23.7742Z0.0000I-0.0081J0.6749
G2X4.0018Y-21.8247Z0.0000I5.3367J0.9747
G2X4.6738Y-21.2711Z0.0000I0.6640J-0.1213
G1 X13.9069 Y-21.3800 Z0.0000
G0 Z4.0000
G0 X13.9069 Y-21.3800 
M5
G53 Z
X2Y0
