( MOP:  05-profile-s25PT5-nw45-Fender-S-NFrets22-02 )
( FILE: G:\Shared drives\AlloyProjectFiles\Customer CAD files\Alloy-Standard-Builds-CAM\Fingerboards-in\05-profile-s25PT5-nw45-Fender-S-NFrets22-02.nc)
G90
(  BEGIN TOOL LIST )
(  TOOL 5 - Downcut PT375 - DESC: 0.3750 DIA, 2 FLUTE,  CARBIDE MAT )
(  ENDOF TOOL LIST )
( 05-profile-s25PT5-nw45-Fender-S-NFrets22-02)
( Max Depth 1.75)
T05
S12000
M3
G0 Z4.0000
G0 X23.6605 Y-24.5404 
G1 X23.6605 Y-24.5404 Z0.0000 F75.
G17
G3X23.6629Y-24.1868Z0.0000I-0.1756J0.1780 F25.
G2X23.5941Y-24.1054Z0.0000I0.4929J0.4863 F80.
G3X23.1373Y-23.8750Z0.0000I-0.4503J-0.3246
G1 X4.6711 Y-24.0953 Z0.0000
G2X4.2305Y-23.7324Z0.0000I-0.0053J0.4424
G2X4.2305Y-21.8665Z0.0000I5.1080J0.9329
G2X4.6710Y-21.5036Z0.0000I0.4353J-0.0795
G1 X23.1373 Y-21.7213 Z0.0000
G3X23.5941Y-21.4909Z0.0000I0.0065J0.5550
G2X23.6629Y-21.4095Z0.0000I0.5617J-0.4050
G3X23.6605Y-21.0560Z0.0000I-0.1780J0.1756 F75.
G0 Z4.0000
G0 X23.6605 Y-21.0560 
M5
G53 Z
X2Y0
