( MOP:  05-profile-s27-nw42-Fender-S-NFrets22-02 )
( FILE: G:\Shared drives\AlloyProjectFiles\Customer CAD files\Alloy-Standard-Builds-CAM\Fingerboards-in\05-profile-s27-nw42-Fender-S-NFrets22-02.nc)
G90
(  BEGIN TOOL LIST )
(  TOOL 5 - Downcut PT375 - DESC: 0.3750 DIA, 2 FLUTE,  CARBIDE MAT )
(  ENDOF TOOL LIST )
( 05-profile-s27-nw42-Fender-S-NFrets22-02)
( Max Depth 1.75)
T05
S12000
M3
G0 Z2.0000
G0 X23.6605 Y-24.5404 
G1 X23.6605 Y-24.5404 Z0.0000 F75.
G17
G3X23.6629Y-24.1868Z0.0000I-0.1756J0.1780 F25.
G2X23.5941Y-24.1054Z0.0000I0.4929J0.4863 F80.
G3X23.2273Y-23.8270Z0.0000I-0.5013J-0.2796
G3X23.1318Y-23.8174Z0.0000I-0.0939J-0.4570
G1 X23.0115 Y-23.8174 Z0.0000
G1 X3.4622 Y-24.0906 Z0.0000
G2X3.0211Y-23.7274Z0.0000I-0.0057J0.4424
G2X3.0211Y-21.8690Z0.0000I5.1087J0.9292
G2X3.4622Y-21.5057Z0.0000I0.4354J-0.0792
G1 X23.0115 Y-21.7789 Z0.0000
G3X23.1962Y-21.7747Z0.0000I0.0601J1.4017
G3X23.5658Y-21.5338Z0.0000I-0.0866J0.5368
G1 X23.5941 Y-21.4909 Z0.0000
G2X23.6629Y-21.4095Z0.0000I0.5617J-0.4050
G3X23.6605Y-21.0560Z0.0000I-0.1780J0.1756 F75.
G0 Z2.0000
G0 X23.6605 Y-21.0560 
M5
G53 Z
X2Y0
