( MOP:  05-profile-s25PT5-AnyNutWidth-Gibson-AaronV-NFrets24-02 )
( FILE: G:\Shared drives\AlloyProjectFiles\Customer CAD files\Alloy-Standard-Builds-CAM\Fingerboards-in\05-profile-s25PT5-AnyNutWidth-Gibson-AaronV-NFrets24-02.nc)
G90
(  BEGIN TOOL LIST )
(  TOOL 5 - Downcut PT375 - DESC: 0.3750 DIA, 2 FLUTE,  CARBIDE MAT )
(  ENDOF TOOL LIST )
( 05-profile-s25PT5-AnyNutWidth-Gibson-AaronV-NFrets24-02)
( Max Depth 1.75)
T05
S12000
M3
G0 Z4.0000
G0 X23.5130 Y-23.8280 
G1 X23.5130 Y-23.8280 Z0.0000 F75.
G1 X23.0131 Y-23.8357 Z0.0000 F25.
G1 X3.5303 Y-24.1344 Z0.0000 F80.
G17
G2X3.3348Y-23.9419Z0.0000I-0.0030J0.1925
G1 X3.3348 Y-21.6570 Z0.0000
G2X3.5303Y-21.4645Z0.0000I0.1925J0.0000
G1 X23.0131 Y-21.7632 Z0.0000
G1 X23.5130 Y-21.7709 Z0.0000 F75.
G0 Z4.0000
G0 X23.5130 Y-21.7709 
M5
G53 Z
X2Y0
