( MOP:  05-profile-s24PT75-nw43-Fender-T-NFrets21-01 )
( FILE: G:\Shared drives\AlloyProjectFiles\Customer CAD files\Alloy-Standard-Builds-CAM\Fingerboards-in\05-profile-s24PT75-nw43-Fender-T-NFrets21-01.nc)
G90
(  BEGIN TOOL LIST )
(  TOOL 11 - Downcut PT750 ROUGH - DESC: 0.7500 DIA, 2 FLUTE,  CARBIDE MAT )
(  ENDOF TOOL LIST )
( 05-profile-s24PT75-nw43-Fender-T-NFrets21-01)
T11
S14000
M3
G0 Z4.0000
G0 X16.0996 Y-24.8418 
G1 X16.0996 Y-24.8418 Z0.3000 F75.
G1 X14.3984 Y-24.8666 Z0.0000 F50.
G1 X14.3984 Y-24.8666 Z0.0000
G1 X14.3984 Y-24.8666 Z0.0000 F150.
G1 X5.6330 Y-24.9944 Z0.0000
G1 X5.6296 Y-24.9944 Z0.0000
G1 X5.5165 Y-24.9896 Z0.0000
G1 X5.4041 Y-24.9753 Z0.0000
G1 X5.2934 Y-24.9516 Z0.0000
G1 X5.1850 Y-24.9187 Z0.0000
G1 X5.0798 Y-24.8769 Z0.0000
G1 X4.9785 Y-24.8263 Z0.0000
G1 X4.8818 Y-24.7674 Z0.0000
G1 X4.7903 Y-24.7006 Z0.0000
G1 X4.7048 Y-24.6263 Z0.0000
G1 X4.7003 Y-24.6219 Z0.0000
G1 X4.6560 Y-24.5776 Z0.0000
G1 X4.6516 Y-24.5731 Z0.0000
G1 X4.5794 Y-24.4901 Z0.0000
G1 X4.5142 Y-24.4015 Z0.0000
G1 X4.4565 Y-24.3078 Z0.0000
G1 X4.4067 Y-24.2098 Z0.0000
G1 X4.3650 Y-24.1080 Z0.0000
G1 X4.3318 Y-24.0031 Z0.0000
G1 X4.3073 Y-23.8959 Z0.0000
G1 X4.2916 Y-23.7870 Z0.0000
G1 X4.2849 Y-23.6772 Z0.0000
G1 X4.2849 Y-23.6728 Z0.0000
G1 X4.2848 Y-21.9493 Z0.0000
G1 X4.2848 Y-21.9491 Z0.0000
G1 X4.2894 Y-21.8388 Z0.0000
G1 X4.3031 Y-21.7292 Z0.0000
G1 X4.3256 Y-21.6211 Z0.0000
G1 X4.3569 Y-21.5151 Z0.0000
G1 X4.3967 Y-21.4121 Z0.0000
G1 X4.4449 Y-21.3127 Z0.0000
G1 X4.5010 Y-21.2176 Z0.0000
G1 X4.5647 Y-21.1274 Z0.0000
G1 X4.6355 Y-21.0427 Z0.0000
G1 X4.6400 Y-21.0379 Z0.0000
G1 X4.6643 Y-21.0126 Z0.0000
G1 X4.6687 Y-21.0083 Z0.0000
G1 X4.7071 Y-20.9705 Z0.0000
G1 X4.7111 Y-20.9667 Z0.0000
G1 X4.7955 Y-20.8941 Z0.0000
G1 X4.8857 Y-20.8286 Z0.0000
G1 X4.9809 Y-20.7709 Z0.0000
G1 X5.0806 Y-20.7213 Z0.0000
G1 X5.1841 Y-20.6801 Z0.0000
G1 X5.2907 Y-20.6476 Z0.0000
G1 X5.3995 Y-20.6240 Z0.0000
G1 X5.5100 Y-20.6096 Z0.0000
G1 X5.6212 Y-20.6043 Z0.0000
G1 X5.6258 Y-20.6043 Z0.0000
G1 X22.9461 Y-20.8569 Z0.0000
G1 X22.9467 Y-20.8562 Z0.0000
G1 X22.9474 Y-20.8553 Z0.0000
G1 X22.9482 Y-20.8544 Z0.0000
G1 X22.9489 Y-20.8535 Z0.0000
G1 X22.9497 Y-20.8526 Z0.0000
G1 X22.9504 Y-20.8517 Z0.0000
G1 X22.9512 Y-20.8508 Z0.0000
G1 X22.9519 Y-20.8499 Z0.0000
G1 X22.9527 Y-20.8491 Z0.0000
G1 X22.9534 Y-20.8482 Z0.0000
G1 X22.9542 Y-20.8473 Z0.0000
G1 X22.9550 Y-20.8465 Z0.0000
G1 X22.9558 Y-20.8456 Z0.0000
G1 X22.9566 Y-20.8447 Z0.0000
G1 X22.9574 Y-20.8439 Z0.0000
G1 X22.9582 Y-20.8430 Z0.0000
G1 X23.0330 Y-20.7636 Z0.0000
G1 X23.0339 Y-20.7626 Z0.0000
G1 X23.0349 Y-20.7615 Z0.0000
G1 X23.0359 Y-20.7605 Z0.0000
G1 X23.0369 Y-20.7595 Z0.0000
G1 X23.0379 Y-20.7585 Z0.0000
G1 X23.0389 Y-20.7575 Z0.0000
G1 X23.0399 Y-20.7565 Z0.0000
G1 X23.0409 Y-20.7556 Z0.0000
G1 X23.0419 Y-20.7546 Z0.0000
G1 X23.0430 Y-20.7536 Z0.0000
G1 X23.0440 Y-20.7526 Z0.0000
G1 X23.0450 Y-20.7517 Z0.0000
G1 X23.0461 Y-20.7507 Z0.0000
G1 X23.0471 Y-20.7498 Z0.0000
G1 X23.0482 Y-20.7489 Z0.0000
G1 X23.1207 Y-20.6852 Z0.0000
G1 X23.1218 Y-20.6843 Z0.0000
G1 X23.1228 Y-20.6834 Z0.0000
G1 X23.1238 Y-20.6825 Z0.0000
G1 X23.1249 Y-20.6816 Z0.0000
G1 X23.1259 Y-20.6808 Z0.0000
G1 X23.1270 Y-20.6799 Z0.0000
G1 X23.1280 Y-20.6790 Z0.0000
G1 X23.1291 Y-20.6782 Z0.0000
G1 X23.1302 Y-20.6773 Z0.0000
G1 X23.1313 Y-20.6765 Z0.0000
G1 X23.1323 Y-20.6757 Z0.0000
G1 X23.1334 Y-20.6748 Z0.0000
G1 X23.1345 Y-20.6740 Z0.0000
G1 X23.1356 Y-20.6732 Z0.0000
G1 X23.1367 Y-20.6724 Z0.0000
G1 X23.2032 Y-20.6240 Z0.0000
G1 X23.2042 Y-20.6233 Z0.0000
G1 X23.2051 Y-20.6226 Z0.0000
G1 X23.2061 Y-20.6219 Z0.0000
G1 X23.2071 Y-20.6213 Z0.0000
G1 X23.2081 Y-20.6206 Z0.0000
G1 X23.2091 Y-20.6199 Z0.0000
G1 X23.2100 Y-20.6192 Z0.0000
G1 X23.2110 Y-20.6186 Z0.0000
G1 X23.2120 Y-20.6179 Z0.0000
G1 X23.2130 Y-20.6173 Z0.0000
G1 X23.2140 Y-20.6166 Z0.0000
G1 X23.2150 Y-20.6160 Z0.0000
G1 X23.2160 Y-20.6154 Z0.0000
G1 X23.2170 Y-20.6147 Z0.0000
G1 X23.2181 Y-20.6141 Z0.0000
G1 X23.2927 Y-20.5684 Z0.0000
G1 X23.2938 Y-20.5678 Z0.0000
G1 X23.2950 Y-20.5671 Z0.0000
G1 X23.2961 Y-20.5664 Z0.0000
G1 X23.2973 Y-20.5657 Z0.0000
G1 X23.2984 Y-20.5651 Z0.0000
G1 X23.2996 Y-20.5644 Z0.0000
G1 X23.3007 Y-20.5638 Z0.0000
G1 X23.3019 Y-20.5631 Z0.0000
G1 X23.3030 Y-20.5625 Z0.0000
G1 X23.3042 Y-20.5619 Z0.0000
G1 X23.3054 Y-20.5613 Z0.0000
G1 X23.3066 Y-20.5606 Z0.0000
G1 X23.3077 Y-20.5600 Z0.0000
G1 X23.3089 Y-20.5594 Z0.0000
G1 X23.3101 Y-20.5588 Z0.0000
G1 X23.3768 Y-20.5258 Z0.0000
G1 X23.3777 Y-20.5254 Z0.0000
G1 X23.3786 Y-20.5250 Z0.0000
G1 X23.3795 Y-20.5245 Z0.0000
G1 X23.3804 Y-20.5241 Z0.0000
G1 X23.3813 Y-20.5237 Z0.0000
G1 X23.3822 Y-20.5232 Z0.0000
G1 X23.3831 Y-20.5228 Z0.0000
G1 X23.3840 Y-20.5224 Z0.0000
G1 X23.3849 Y-20.5220 Z0.0000
G1 X23.3858 Y-20.5216 Z0.0000
G1 X23.3868 Y-20.5212 Z0.0000
G1 X23.3877 Y-20.5208 Z0.0000
G1 X23.3886 Y-20.5204 Z0.0000
G1 X23.3895 Y-20.5200 Z0.0000
G1 X23.3905 Y-20.5196 Z0.0000
G1 X23.4625 Y-20.4898 Z0.0000
G1 X23.4637 Y-20.4893 Z0.0000
G1 X23.4648 Y-20.4889 Z0.0000
G1 X23.4660 Y-20.4884 Z0.0000
G1 X23.4671 Y-20.4879 Z0.0000
G1 X23.4683 Y-20.4875 Z0.0000
G1 X23.4695 Y-20.4870 Z0.0000
G1 X23.4707 Y-20.4866 Z0.0000
G1 X23.4718 Y-20.4862 Z0.0000
G1 X23.4730 Y-20.4858 Z0.0000
G1 X23.4742 Y-20.4853 Z0.0000
G1 X23.4754 Y-20.4849 Z0.0000
G1 X23.4766 Y-20.4845 Z0.0000
G1 X23.4777 Y-20.4841 Z0.0000
G1 X23.4789 Y-20.4837 Z0.0000
G1 X23.4801 Y-20.4834 Z0.0000
G1 X23.5491 Y-20.4614 Z0.0000
G1 X23.5500 Y-20.4611 Z0.0000
G1 X23.5510 Y-20.4608 Z0.0000
G1 X23.5519 Y-20.4605 Z0.0000
G1 X23.5529 Y-20.4602 Z0.0000
G1 X23.5538 Y-20.4599 Z0.0000
G1 X23.5548 Y-20.4597 Z0.0000
G1 X23.5558 Y-20.4594 Z0.0000
G1 X23.5567 Y-20.4591 Z0.0000
G1 X23.5577 Y-20.4588 Z0.0000
G1 X23.5586 Y-20.4586 Z0.0000
G1 X23.5596 Y-20.4583 Z0.0000
G1 X23.5606 Y-20.4581 Z0.0000
G1 X23.5615 Y-20.4578 Z0.0000
G1 X23.5625 Y-20.4576 Z0.0000
G1 X23.5635 Y-20.4573 Z0.0000
G1 X23.6397 Y-20.4386 Z0.0000
G1 X23.6410 Y-20.4383 Z0.0000
G1 X23.6422 Y-20.4380 Z0.0000
G1 X23.6434 Y-20.4377 Z0.0000
G1 X23.6446 Y-20.4374 Z0.0000
G1 X23.6459 Y-20.4371 Z0.0000
G1 X23.6471 Y-20.4369 Z0.0000
G1 X23.6483 Y-20.4366 Z0.0000
G1 X23.6496 Y-20.4364 Z0.0000
G1 X23.6508 Y-20.4361 Z0.0000
G1 X23.6520 Y-20.4359 Z0.0000
G1 X23.6533 Y-20.4357 Z0.0000
G1 X23.6545 Y-20.4355 Z0.0000
G1 X23.6557 Y-20.4352 Z0.0000
G1 X23.6570 Y-20.4350 Z0.0000
G1 X23.6582 Y-20.4348 Z0.0000
G1 X23.7300 Y-20.4235 Z0.0000
G1 X23.7309 Y-20.4233 Z0.0000
G1 X23.7319 Y-20.4232 Z0.0000
G1 X23.7329 Y-20.4230 Z0.0000
G1 X23.7339 Y-20.4229 Z0.0000
G1 X23.7349 Y-20.4228 Z0.0000
G1 X23.7359 Y-20.4226 Z0.0000
G1 X23.7369 Y-20.4225 Z0.0000
G1 X23.7379 Y-20.4224 Z0.0000
G1 X23.7389 Y-20.4223 Z0.0000
G1 X23.7399 Y-20.4221 Z0.0000
G1 X23.7409 Y-20.4220 Z0.0000
G1 X23.7419 Y-20.4219 Z0.0000
G1 X23.7429 Y-20.4218 Z0.0000
G1 X23.7439 Y-20.4217 Z0.0000
G1 X23.7449 Y-20.4216 Z0.0000
G1 X23.8229 Y-20.4146 Z0.0000
G1 X23.8242 Y-20.4145 Z0.0000
G1 X23.8255 Y-20.4144 Z0.0000
G1 X23.8267 Y-20.4143 Z0.0000
G1 X23.8280 Y-20.4142 Z0.0000
G1 X23.8293 Y-20.4142 Z0.0000
G1 X23.8305 Y-20.4141 Z0.0000
G1 X23.8318 Y-20.4140 Z0.0000
G1 X23.8331 Y-20.4140 Z0.0000
G1 X23.8343 Y-20.4139 Z0.0000
G1 X23.8356 Y-20.4139 Z0.0000
G1 X23.8369 Y-20.4138 Z0.0000
G1 X23.8381 Y-20.4138 Z0.0000
G1 X23.8394 Y-20.4138 Z0.0000
G1 X23.8406 Y-20.4137 Z0.0000
G1 X23.8419 Y-20.4137 Z0.0000
G1 X23.9156 Y-20.4134 Z0.0000
G1 X23.9166 Y-20.4134 Z0.0000
G1 X23.9176 Y-20.4134 Z0.0000
G1 X23.9186 Y-20.4134 Z0.0000
G1 X23.9197 Y-20.4134 Z0.0000
G1 X23.9207 Y-20.4134 Z0.0000
G1 X23.9217 Y-20.4135 Z0.0000
G1 X23.9227 Y-20.4135 Z0.0000
G1 X23.9237 Y-20.4135 Z0.0000
G1 X23.9248 Y-20.4136 Z0.0000
G1 X23.9258 Y-20.4136 Z0.0000
G1 X23.9268 Y-20.4136 Z0.0000
G1 X23.9278 Y-20.4137 Z0.0000
G1 X23.9288 Y-20.4137 Z0.0000
G1 X23.9299 Y-20.4138 Z0.0000
G1 X23.9309 Y-20.4139 Z0.0000
G1 X24.0124 Y-20.4191 Z0.0000
G1 X24.0136 Y-20.4192 Z0.0000
G1 X24.0149 Y-20.4193 Z0.0000
G1 X24.0162 Y-20.4194 Z0.0000
G1 X24.0174 Y-20.4195 Z0.0000
G1 X24.0187 Y-20.4196 Z0.0000
G1 X24.0199 Y-20.4197 Z0.0000
G1 X24.0212 Y-20.4198 Z0.0000
G1 X24.0224 Y-20.4200 Z0.0000
G1 X24.0237 Y-20.4201 Z0.0000
G1 X24.0249 Y-20.4202 Z0.0000
G1 X24.0261 Y-20.4204 Z0.0000
G1 X24.0274 Y-20.4206 Z0.0000
G1 X24.0286 Y-20.4207 Z0.0000
G1 X24.0299 Y-20.4209 Z0.0000
G1 X24.0311 Y-20.4211 Z0.0000
G1 X24.0964 Y-20.4309 Z0.0000
G1 X24.0974 Y-20.4310 Z0.0000
G1 X24.0983 Y-20.4311 Z0.0000
G1 X24.0992 Y-20.4313 Z0.0000
G1 X24.1001 Y-20.4314 Z0.0000
G1 X24.1011 Y-20.4316 Z0.0000
G1 X24.1020 Y-20.4318 Z0.0000
G1 X24.1029 Y-20.4319 Z0.0000
G1 X24.1038 Y-20.4321 Z0.0000
G1 X24.1048 Y-20.4323 Z0.0000
G1 X24.1057 Y-20.4324 Z0.0000
G1 X24.1066 Y-20.4326 Z0.0000
G1 X24.1075 Y-20.4328 Z0.0000
G1 X24.1084 Y-20.4330 Z0.0000
G1 X24.1094 Y-20.4332 Z0.0000
G1 X24.1103 Y-20.4334 Z0.0000
G1 X24.1881 Y-20.4501 Z0.0000
G1 X24.1893 Y-20.4503 Z0.0000
G1 X24.1905 Y-20.4506 Z0.0000
G1 X24.1917 Y-20.4509 Z0.0000
G1 X24.1929 Y-20.4512 Z0.0000
G1 X24.1941 Y-20.4514 Z0.0000
G1 X24.1953 Y-20.4517 Z0.0000
G1 X24.1964 Y-20.4520 Z0.0000
G1 X24.1976 Y-20.4523 Z0.0000
G1 X24.1988 Y-20.4527 Z0.0000
G1 X24.2000 Y-20.4530 Z0.0000
G1 X24.2012 Y-20.4533 Z0.0000
G1 X24.2024 Y-20.4536 Z0.0000
G1 X24.2035 Y-20.4540 Z0.0000
G1 X24.2047 Y-20.4543 Z0.0000
G1 X24.2059 Y-20.4547 Z0.0000
G1 X24.2675 Y-20.4733 Z0.0000
G1 X24.2684 Y-20.4736 Z0.0000
G1 X24.2693 Y-20.4738 Z0.0000
G1 X24.2702 Y-20.4741 Z0.0000
G1 X24.2710 Y-20.4744 Z0.0000
G1 X24.2719 Y-20.4747 Z0.0000
G1 X24.2728 Y-20.4750 Z0.0000
G1 X24.2737 Y-20.4753 Z0.0000
G1 X24.2745 Y-20.4756 Z0.0000
G1 X24.2754 Y-20.4759 Z0.0000
G1 X24.2763 Y-20.4762 Z0.0000
G1 X24.2771 Y-20.4765 Z0.0000
G1 X24.2780 Y-20.4768 Z0.0000
G1 X24.2789 Y-20.4771 Z0.0000
G1 X24.2797 Y-20.4774 Z0.0000
G1 X24.2806 Y-20.4777 Z0.0000
G1 X24.3537 Y-20.5048 Z0.0000
G1 X24.3548 Y-20.5053 Z0.0000
G1 X24.3560 Y-20.5057 Z0.0000
G1 X24.3571 Y-20.5061 Z0.0000
G1 X24.3582 Y-20.5066 Z0.0000
G1 X24.3593 Y-20.5070 Z0.0000
G1 X24.3605 Y-20.5075 Z0.0000
G1 X24.3616 Y-20.5079 Z0.0000
G1 X24.3627 Y-20.5084 Z0.0000
G1 X24.3638 Y-20.5089 Z0.0000
G1 X24.3649 Y-20.5093 Z0.0000
G1 X24.3660 Y-20.5098 Z0.0000
G1 X24.3671 Y-20.5103 Z0.0000
G1 X24.3682 Y-20.5108 Z0.0000
G1 X24.3693 Y-20.5113 Z0.0000
G1 X24.3704 Y-20.5118 Z0.0000
G1 X24.4282 Y-20.5388 Z0.0000
G1 X24.4290 Y-20.5392 Z0.0000
G1 X24.4298 Y-20.5395 Z0.0000
G1 X24.4307 Y-20.5399 Z0.0000
G1 X24.4315 Y-20.5403 Z0.0000
G1 X24.4323 Y-20.5407 Z0.0000
G1 X24.4331 Y-20.5412 Z0.0000
G1 X24.4340 Y-20.5416 Z0.0000
G1 X24.4348 Y-20.5420 Z0.0000
G1 X24.4356 Y-20.5424 Z0.0000
G1 X24.4364 Y-20.5428 Z0.0000
G1 X24.4372 Y-20.5432 Z0.0000
G1 X24.4381 Y-20.5437 Z0.0000
G1 X24.4389 Y-20.5441 Z0.0000
G1 X24.4397 Y-20.5445 Z0.0000
G1 X24.4405 Y-20.5450 Z0.0000
G1 X24.5098 Y-20.5827 Z0.0000
G1 X24.5109 Y-20.5833 Z0.0000
G1 X24.5120 Y-20.5839 Z0.0000
G1 X24.5130 Y-20.5845 Z0.0000
G1 X24.5141 Y-20.5851 Z0.0000
G1 X24.5152 Y-20.5857 Z0.0000
G1 X24.5162 Y-20.5863 Z0.0000
G1 X24.5173 Y-20.5869 Z0.0000
G1 X24.5183 Y-20.5876 Z0.0000
G1 X24.5194 Y-20.5882 Z0.0000
G1 X24.5204 Y-20.5888 Z0.0000
G1 X24.5215 Y-20.5895 Z0.0000
G1 X24.5225 Y-20.5901 Z0.0000
G1 X24.5235 Y-20.5908 Z0.0000
G1 X24.5246 Y-20.5915 Z0.0000
G1 X24.5256 Y-20.5921 Z0.0000
G1 X24.5799 Y-20.6277 Z0.0000
G1 X24.5807 Y-20.6282 Z0.0000
G1 X24.5814 Y-20.6288 Z0.0000
G1 X24.5822 Y-20.6293 Z0.0000
G1 X24.5830 Y-20.6298 Z0.0000
G1 X24.5838 Y-20.6303 Z0.0000
G1 X24.5845 Y-20.6309 Z0.0000
G1 X24.5853 Y-20.6314 Z0.0000
G1 X24.5861 Y-20.6319 Z0.0000
G1 X24.5868 Y-20.6325 Z0.0000
G1 X24.5876 Y-20.6330 Z0.0000
G1 X24.5883 Y-20.6336 Z0.0000
G1 X24.5891 Y-20.6341 Z0.0000
G1 X24.5899 Y-20.6347 Z0.0000
G1 X24.5906 Y-20.6352 Z0.0000
G1 X24.5914 Y-20.6358 Z0.0000
G1 X24.6562 Y-20.6844 Z0.0000
G1 X24.6572 Y-20.6852 Z0.0000
G1 X24.6582 Y-20.6859 Z0.0000
G1 X24.6592 Y-20.6867 Z0.0000
G1 X24.6602 Y-20.6875 Z0.0000
G1 X24.6611 Y-20.6882 Z0.0000
G1 X24.6621 Y-20.6890 Z0.0000
G1 X24.6631 Y-20.6898 Z0.0000
G1 X24.6640 Y-20.6906 Z0.0000
G1 X24.6650 Y-20.6914 Z0.0000
G1 X24.6659 Y-20.6921 Z0.0000
G1 X24.6669 Y-20.6929 Z0.0000
G1 X24.6678 Y-20.6938 Z0.0000
G1 X24.6688 Y-20.6946 Z0.0000
G1 X24.6697 Y-20.6954 Z0.0000
G1 X24.6706 Y-20.6962 Z0.0000
G1 X24.7192 Y-20.7394 Z0.0000
G1 X24.7199 Y-20.7400 Z0.0000
G1 X24.7206 Y-20.7406 Z0.0000
G1 X24.7213 Y-20.7413 Z0.0000
G1 X24.7220 Y-20.7419 Z0.0000
G1 X24.7226 Y-20.7425 Z0.0000
G1 X24.7233 Y-20.7432 Z0.0000
G1 X24.7240 Y-20.7438 Z0.0000
G1 X24.7247 Y-20.7444 Z0.0000
G1 X24.7253 Y-20.7451 Z0.0000
G1 X24.7260 Y-20.7457 Z0.0000
G1 X24.7267 Y-20.7464 Z0.0000
G1 X24.7273 Y-20.7470 Z0.0000
G1 X24.7280 Y-20.7477 Z0.0000
G1 X24.7287 Y-20.7483 Z0.0000
G1 X24.7293 Y-20.7490 Z0.0000
G1 X24.7842 Y-20.8043 Z0.0000
G1 X24.7851 Y-20.8052 Z0.0000
G1 X24.7860 Y-20.8061 Z0.0000
G1 X24.7869 Y-20.8070 Z0.0000
G1 X24.7877 Y-20.8079 Z0.0000
G1 X24.7886 Y-20.8088 Z0.0000
G1 X24.7894 Y-20.8097 Z0.0000
G1 X24.7903 Y-20.8106 Z0.0000
G1 X24.7911 Y-20.8116 Z0.0000
G1 X24.7920 Y-20.8125 Z0.0000
G1 X24.7928 Y-20.8134 Z0.0000
G1 X24.7936 Y-20.8144 Z0.0000
G1 X24.7944 Y-20.8153 Z0.0000
G1 X24.7953 Y-20.8162 Z0.0000
G1 X24.7961 Y-20.8172 Z0.0000
G1 X24.7969 Y-20.8181 Z0.0000
G1 X24.8434 Y-20.8736 Z0.0000
G1 X24.8440 Y-20.8744 Z0.0000
G1 X24.8446 Y-20.8751 Z0.0000
G1 X24.8453 Y-20.8759 Z0.0000
G1 X24.8459 Y-20.8767 Z0.0000
G1 X24.8465 Y-20.8775 Z0.0000
G1 X24.8472 Y-20.8782 Z0.0000
G1 X24.8478 Y-20.8790 Z0.0000
G1 X24.8484 Y-20.8798 Z0.0000
G1 X24.8490 Y-20.8806 Z0.0000
G1 X24.8496 Y-20.8814 Z0.0000
G1 X24.8502 Y-20.8822 Z0.0000
G1 X24.8508 Y-20.8830 Z0.0000
G1 X24.8514 Y-20.8838 Z0.0000
G1 X24.8520 Y-20.8846 Z0.0000
G1 X24.8526 Y-20.8854 Z0.0000
G1 X24.8989 Y-20.9488 Z0.0000
G1 X24.8997 Y-20.9498 Z0.0000
G1 X24.9004 Y-20.9509 Z0.0000
G1 X24.9011 Y-20.9519 Z0.0000
G1 X24.9018 Y-20.9529 Z0.0000
G1 X24.9025 Y-20.9539 Z0.0000
G1 X24.9033 Y-20.9550 Z0.0000
G1 X24.9040 Y-20.9560 Z0.0000
G1 X24.9047 Y-20.9571 Z0.0000
G1 X24.9054 Y-20.9581 Z0.0000
G1 X24.9060 Y-20.9592 Z0.0000
G1 X24.9067 Y-20.9602 Z0.0000
G1 X24.9074 Y-20.9613 Z0.0000
G1 X24.9081 Y-20.9624 Z0.0000
G1 X24.9087 Y-20.9634 Z0.0000
G1 X24.9094 Y-20.9645 Z0.0000
G1 X24.9471 Y-21.0266 Z0.0000
G1 X24.9476 Y-21.0274 Z0.0000
G1 X24.9481 Y-21.0283 Z0.0000
G1 X24.9487 Y-21.0291 Z0.0000
G1 X24.9492 Y-21.0300 Z0.0000
G1 X24.9497 Y-21.0309 Z0.0000
G1 X24.9502 Y-21.0317 Z0.0000
G1 X24.9507 Y-21.0326 Z0.0000
G1 X24.9512 Y-21.0335 Z0.0000
G1 X24.9516 Y-21.0344 Z0.0000
G1 X24.9521 Y-21.0352 Z0.0000
G1 X24.9526 Y-21.0361 Z0.0000
G1 X24.9531 Y-21.0370 Z0.0000
G1 X24.9535 Y-21.0379 Z0.0000
G1 X24.9540 Y-21.0388 Z0.0000
G1 X24.9545 Y-21.0397 Z0.0000
G1 X24.9906 Y-21.1092 Z0.0000
G1 X24.9912 Y-21.1104 Z0.0000
G1 X24.9918 Y-21.1115 Z0.0000
G1 X24.9923 Y-21.1126 Z0.0000
G1 X24.9929 Y-21.1138 Z0.0000
G1 X24.9934 Y-21.1149 Z0.0000
G1 X24.9940 Y-21.1160 Z0.0000
G1 X24.9945 Y-21.1172 Z0.0000
G1 X24.9951 Y-21.1183 Z0.0000
G1 X24.9956 Y-21.1195 Z0.0000
G1 X24.9961 Y-21.1206 Z0.0000
G1 X24.9966 Y-21.1218 Z0.0000
G1 X24.9971 Y-21.1229 Z0.0000
G1 X24.9976 Y-21.1241 Z0.0000
G1 X24.9981 Y-21.1253 Z0.0000
G1 X24.9986 Y-21.1264 Z0.0000
G1 X25.0269 Y-21.1945 Z0.0000
G1 X25.0273 Y-21.1954 Z0.0000
G1 X25.0277 Y-21.1963 Z0.0000
G1 X25.0280 Y-21.1973 Z0.0000
G1 X25.0284 Y-21.1982 Z0.0000
G1 X25.0288 Y-21.1992 Z0.0000
G1 X25.0292 Y-21.2001 Z0.0000
G1 X25.0295 Y-21.2011 Z0.0000
G1 X25.0299 Y-21.2021 Z0.0000
G1 X25.0302 Y-21.2030 Z0.0000
G1 X25.0306 Y-21.2040 Z0.0000
G1 X25.0309 Y-21.2049 Z0.0000
G1 X25.0313 Y-21.2059 Z0.0000
G1 X25.0316 Y-21.2069 Z0.0000
G1 X25.0319 Y-21.2078 Z0.0000
G1 X25.0323 Y-21.2088 Z0.0000
G1 X25.0584 Y-21.2862 Z0.0000
G1 X25.0588 Y-21.2874 Z0.0000
G1 X25.0592 Y-21.2886 Z0.0000
G1 X25.0596 Y-21.2898 Z0.0000
G1 X25.0599 Y-21.2910 Z0.0000
G1 X25.0603 Y-21.2922 Z0.0000
G1 X25.0607 Y-21.2934 Z0.0000
G1 X25.0610 Y-21.2946 Z0.0000
G1 X25.0614 Y-21.2958 Z0.0000
G1 X25.0617 Y-21.2970 Z0.0000
G1 X25.0621 Y-21.2982 Z0.0000
G1 X25.0624 Y-21.2994 Z0.0000
G1 X25.0627 Y-21.3006 Z0.0000
G1 X25.0630 Y-21.3018 Z0.0000
G1 X25.0633 Y-21.3031 Z0.0000
G1 X25.0636 Y-21.3043 Z0.0000
G1 X25.0794 Y-21.3684 Z0.0000
G1 X25.0796 Y-21.3693 Z0.0000
G1 X25.0798 Y-21.3702 Z0.0000
G1 X25.0801 Y-21.3712 Z0.0000
G1 X25.0803 Y-21.3721 Z0.0000
G1 X25.0805 Y-21.3730 Z0.0000
G1 X25.0807 Y-21.3739 Z0.0000
G1 X25.0809 Y-21.3748 Z0.0000
G1 X25.0811 Y-21.3757 Z0.0000
G1 X25.0813 Y-21.3767 Z0.0000
G1 X25.0814 Y-21.3776 Z0.0000
G1 X25.0816 Y-21.3785 Z0.0000
G1 X25.0818 Y-21.3794 Z0.0000
G1 X25.0820 Y-21.3803 Z0.0000
G1 X25.0822 Y-21.3813 Z0.0000
G1 X25.0823 Y-21.3822 Z0.0000
G1 X25.0964 Y-21.4605 Z0.0000
G1 X25.0966 Y-21.4617 Z0.0000
G1 X25.0968 Y-21.4629 Z0.0000
G1 X25.0970 Y-21.4641 Z0.0000
G1 X25.0972 Y-21.4653 Z0.0000
G1 X25.0974 Y-21.4665 Z0.0000
G1 X25.0976 Y-21.4677 Z0.0000
G1 X25.0977 Y-21.4689 Z0.0000
G1 X25.0979 Y-21.4701 Z0.0000
G1 X25.0981 Y-21.4713 Z0.0000
G1 X25.0982 Y-21.4725 Z0.0000
G1 X25.0984 Y-21.4737 Z0.0000
G1 X25.0985 Y-21.4749 Z0.0000
G1 X25.0986 Y-21.4761 Z0.0000
G1 X25.0988 Y-21.4773 Z0.0000
G1 X25.0989 Y-21.4785 Z0.0000
G1 X25.1050 Y-21.5417 Z0.0000
G1 X25.1051 Y-21.5425 Z0.0000
G1 X25.1052 Y-21.5433 Z0.0000
G1 X25.1052 Y-21.5441 Z0.0000
G1 X25.1053 Y-21.5449 Z0.0000
G1 X25.1054 Y-21.5457 Z0.0000
G1 X25.1054 Y-21.5465 Z0.0000
G1 X25.1055 Y-21.5473 Z0.0000
G1 X25.1055 Y-21.5481 Z0.0000
G1 X25.1056 Y-21.5489 Z0.0000
G1 X25.1056 Y-21.5497 Z0.0000
G1 X25.1057 Y-21.5505 Z0.0000
G1 X25.1057 Y-21.5513 Z0.0000
G1 X25.1058 Y-21.5521 Z0.0000
G1 X25.1058 Y-21.5530 Z0.0000
G1 X25.1058 Y-21.5538 Z0.0000
G1 X25.1087 Y-21.6212 Z0.0000
G1 X25.1087 Y-21.6219 Z0.0000
G1 X25.1087 Y-21.6225 Z0.0000
G1 X25.1088 Y-21.6231 Z0.0000
G1 X25.1088 Y-21.6238 Z0.0000
G1 X25.1088 Y-21.6244 Z0.0000
G1 X25.1088 Y-21.6250 Z0.0000
G1 X25.1088 Y-21.6257 Z0.0000
G1 X25.1088 Y-21.6263 Z0.0000
G1 X25.1089 Y-21.6270 Z0.0000
G1 X25.1089 Y-21.6276 Z0.0000
G1 X25.1089 Y-21.6282 Z0.0000
G1 X25.1089 Y-21.6289 Z0.0000
G1 X25.1089 Y-21.6295 Z0.0000
G1 X25.1089 Y-21.6301 Z0.0000
G1 X25.1089 Y-21.6308 Z0.0000
G1 X25.1074 Y-24.0135 Z0.0000
G1 X25.1074 Y-24.0149 Z0.0000
G1 X25.1074 Y-24.0163 Z0.0000
G1 X25.1074 Y-24.0178 Z0.0000
G1 X25.1074 Y-24.0192 Z0.0000
G1 X25.1073 Y-24.0206 Z0.0000
G1 X25.1073 Y-24.0220 Z0.0000
G1 X25.1072 Y-24.0234 Z0.0000
G1 X25.1072 Y-24.0248 Z0.0000
G1 X25.1071 Y-24.0262 Z0.0000
G1 X25.1070 Y-24.0276 Z0.0000
G1 X25.1069 Y-24.0290 Z0.0000
G1 X25.1068 Y-24.0304 Z0.0000
G1 X25.1067 Y-24.0318 Z0.0000
G1 X25.1066 Y-24.0332 Z0.0000
G1 X25.1064 Y-24.0347 Z0.0000
G1 X25.0975 Y-24.1277 Z0.0000
G1 X25.0974 Y-24.1290 Z0.0000
G1 X25.0973 Y-24.1303 Z0.0000
G1 X25.0971 Y-24.1317 Z0.0000
G1 X25.0970 Y-24.1330 Z0.0000
G1 X25.0968 Y-24.1344 Z0.0000
G1 X25.0966 Y-24.1357 Z0.0000
G1 X25.0964 Y-24.1370 Z0.0000
G1 X25.0962 Y-24.1384 Z0.0000
G1 X25.0960 Y-24.1397 Z0.0000
G1 X25.0958 Y-24.1411 Z0.0000
G1 X25.0956 Y-24.1424 Z0.0000
G1 X25.0954 Y-24.1437 Z0.0000
G1 X25.0952 Y-24.1451 Z0.0000
G1 X25.0949 Y-24.1464 Z0.0000
G1 X25.0947 Y-24.1477 Z0.0000
G1 X25.0810 Y-24.2206 Z0.0000
G1 X25.0808 Y-24.2216 Z0.0000
G1 X25.0806 Y-24.2226 Z0.0000
G1 X25.0804 Y-24.2236 Z0.0000
G1 X25.0802 Y-24.2246 Z0.0000
G1 X25.0800 Y-24.2256 Z0.0000
G1 X25.0798 Y-24.2266 Z0.0000
G1 X25.0795 Y-24.2276 Z0.0000
G1 X25.0793 Y-24.2285 Z0.0000
G1 X25.0791 Y-24.2295 Z0.0000
G1 X25.0789 Y-24.2305 Z0.0000
G1 X25.0786 Y-24.2315 Z0.0000
G1 X25.0784 Y-24.2325 Z0.0000
G1 X25.0781 Y-24.2335 Z0.0000
G1 X25.0779 Y-24.2344 Z0.0000
G1 X25.0776 Y-24.2354 Z0.0000
G1 X25.0573 Y-24.3139 Z0.0000
G1 X25.0570 Y-24.3151 Z0.0000
G1 X25.0566 Y-24.3163 Z0.0000
G1 X25.0563 Y-24.3175 Z0.0000
G1 X25.0560 Y-24.3187 Z0.0000
G1 X25.0556 Y-24.3199 Z0.0000
G1 X25.0553 Y-24.3211 Z0.0000
G1 X25.0549 Y-24.3222 Z0.0000
G1 X25.0546 Y-24.3234 Z0.0000
G1 X25.0542 Y-24.3246 Z0.0000
G1 X25.0538 Y-24.3258 Z0.0000
G1 X25.0534 Y-24.3270 Z0.0000
G1 X25.0531 Y-24.3282 Z0.0000
G1 X25.0527 Y-24.3293 Z0.0000
G1 X25.0523 Y-24.3305 Z0.0000
G1 X25.0519 Y-24.3317 Z0.0000
G1 X25.0303 Y-24.3930 Z0.0000
G1 X25.0300 Y-24.3939 Z0.0000
G1 X25.0297 Y-24.3948 Z0.0000
G1 X25.0294 Y-24.3956 Z0.0000
G1 X25.0291 Y-24.3965 Z0.0000
G1 X25.0287 Y-24.3974 Z0.0000
G1 X25.0284 Y-24.3983 Z0.0000
G1 X25.0281 Y-24.3991 Z0.0000
G1 X25.0278 Y-24.4000 Z0.0000
G1 X25.0274 Y-24.4009 Z0.0000
G1 X25.0271 Y-24.4017 Z0.0000
G1 X25.0267 Y-24.4026 Z0.0000
G1 X25.0264 Y-24.4034 Z0.0000
G1 X25.0260 Y-24.4043 Z0.0000
G1 X25.0257 Y-24.4052 Z0.0000
G1 X25.0253 Y-24.4060 Z0.0000
G1 X24.9950 Y-24.4778 Z0.0000
G1 X24.9945 Y-24.4790 Z0.0000
G1 X24.9940 Y-24.4801 Z0.0000
G1 X24.9935 Y-24.4813 Z0.0000
G1 X24.9930 Y-24.4824 Z0.0000
G1 X24.9925 Y-24.4836 Z0.0000
G1 X24.9919 Y-24.4847 Z0.0000
G1 X24.9914 Y-24.4858 Z0.0000
G1 X24.9909 Y-24.4870 Z0.0000
G1 X24.9903 Y-24.4881 Z0.0000
G1 X24.9898 Y-24.4892 Z0.0000
G1 X24.9892 Y-24.4903 Z0.0000
G1 X24.9887 Y-24.4914 Z0.0000
G1 X24.9881 Y-24.4926 Z0.0000
G1 X24.9875 Y-24.4937 Z0.0000
G1 X24.9870 Y-24.4948 Z0.0000
G1 X24.9533 Y-24.5588 Z0.0000
G1 X24.9528 Y-24.5597 Z0.0000
G1 X24.9524 Y-24.5606 Z0.0000
G1 X24.9519 Y-24.5615 Z0.0000
G1 X24.9514 Y-24.5623 Z0.0000
G1 X24.9509 Y-24.5632 Z0.0000
G1 X24.9505 Y-24.5641 Z0.0000
G1 X24.9500 Y-24.5650 Z0.0000
G1 X24.9495 Y-24.5658 Z0.0000
G1 X24.9490 Y-24.5667 Z0.0000
G1 X24.9485 Y-24.5676 Z0.0000
G1 X24.9480 Y-24.5684 Z0.0000
G1 X24.9474 Y-24.5693 Z0.0000
G1 X24.9469 Y-24.5701 Z0.0000
G1 X24.9464 Y-24.5710 Z0.0000
G1 X24.9459 Y-24.5719 Z0.0000
G1 X24.9048 Y-24.6388 Z0.0000
G1 X24.9041 Y-24.6398 Z0.0000
G1 X24.9035 Y-24.6409 Z0.0000
G1 X24.9028 Y-24.6420 Z0.0000
G1 X24.9021 Y-24.6430 Z0.0000
G1 X24.9014 Y-24.6441 Z0.0000
G1 X24.9007 Y-24.6451 Z0.0000
G1 X24.9000 Y-24.6462 Z0.0000
G1 X24.8993 Y-24.6472 Z0.0000
G1 X24.8986 Y-24.6483 Z0.0000
G1 X24.8979 Y-24.6493 Z0.0000
G1 X24.8972 Y-24.6503 Z0.0000
G1 X24.8965 Y-24.6513 Z0.0000
G1 X24.8957 Y-24.6524 Z0.0000
G1 X24.8950 Y-24.6534 Z0.0000
G1 X24.8943 Y-24.6544 Z0.0000
G1 X24.8512 Y-24.7129 Z0.0000
G1 X24.8506 Y-24.7137 Z0.0000
G1 X24.8500 Y-24.7145 Z0.0000
G1 X24.8494 Y-24.7153 Z0.0000
G1 X24.8487 Y-24.7161 Z0.0000
G1 X24.8481 Y-24.7169 Z0.0000
G1 X24.8475 Y-24.7177 Z0.0000
G1 X24.8469 Y-24.7185 Z0.0000
G1 X24.8463 Y-24.7192 Z0.0000
G1 X24.8457 Y-24.7200 Z0.0000
G1 X24.8450 Y-24.7208 Z0.0000
G1 X24.8444 Y-24.7216 Z0.0000
G1 X24.8438 Y-24.7224 Z0.0000
G1 X24.8431 Y-24.7231 Z0.0000
G1 X24.8425 Y-24.7239 Z0.0000
G1 X24.8418 Y-24.7247 Z0.0000
G1 X24.7912 Y-24.7845 Z0.0000
G1 X24.7904 Y-24.7854 Z0.0000
G1 X24.7895 Y-24.7864 Z0.0000
G1 X24.7887 Y-24.7874 Z0.0000
G1 X24.7879 Y-24.7883 Z0.0000
G1 X24.7870 Y-24.7893 Z0.0000
G1 X24.7862 Y-24.7902 Z0.0000
G1 X24.7853 Y-24.7911 Z0.0000
G1 X24.7845 Y-24.7921 Z0.0000
G1 X24.7836 Y-24.7930 Z0.0000
G1 X24.7827 Y-24.7939 Z0.0000
G1 X24.7819 Y-24.7948 Z0.0000
G1 X24.7810 Y-24.7957 Z0.0000
G1 X24.7801 Y-24.7966 Z0.0000
G1 X24.7792 Y-24.7975 Z0.0000
G1 X24.7783 Y-24.7984 Z0.0000
G1 X24.7261 Y-24.8504 Z0.0000
G1 X24.7254 Y-24.8511 Z0.0000
G1 X24.7247 Y-24.8518 Z0.0000
G1 X24.7239 Y-24.8526 Z0.0000
G1 X24.7232 Y-24.8533 Z0.0000
G1 X24.7225 Y-24.8540 Z0.0000
G1 X24.7217 Y-24.8547 Z0.0000
G1 X24.7210 Y-24.8554 Z0.0000
G1 X24.7202 Y-24.8561 Z0.0000
G1 X24.7195 Y-24.8568 Z0.0000
G1 X24.7187 Y-24.8574 Z0.0000
G1 X24.7180 Y-24.8581 Z0.0000
G1 X24.7172 Y-24.8588 Z0.0000
G1 X24.7164 Y-24.8595 Z0.0000
G1 X24.7157 Y-24.8602 Z0.0000
G1 X24.7149 Y-24.8608 Z0.0000
G1 X24.6532 Y-24.9144 Z0.0000
G1 X24.6522 Y-24.9152 Z0.0000
G1 X24.6513 Y-24.9160 Z0.0000
G1 X24.6503 Y-24.9168 Z0.0000
G1 X24.6494 Y-24.9176 Z0.0000
G1 X24.6484 Y-24.9184 Z0.0000
G1 X24.6474 Y-24.9192 Z0.0000
G1 X24.6464 Y-24.9200 Z0.0000
G1 X24.6455 Y-24.9208 Z0.0000
G1 X24.6445 Y-24.9216 Z0.0000
G1 X24.6435 Y-24.9223 Z0.0000
G1 X24.6425 Y-24.9231 Z0.0000
G1 X24.6415 Y-24.9238 Z0.0000
G1 X24.6405 Y-24.9246 Z0.0000
G1 X24.6395 Y-24.9253 Z0.0000
G1 X24.6385 Y-24.9261 Z0.0000
G1 X24.5851 Y-24.9650 Z0.0000
G1 X24.5843 Y-24.9656 Z0.0000
G1 X24.5836 Y-24.9661 Z0.0000
G1 X24.5828 Y-24.9667 Z0.0000
G1 X24.5821 Y-24.9672 Z0.0000
G1 X24.5813 Y-24.9677 Z0.0000
G1 X24.5805 Y-24.9683 Z0.0000
G1 X24.5797 Y-24.9688 Z0.0000
G1 X24.5790 Y-24.9693 Z0.0000
G1 X24.5782 Y-24.9699 Z0.0000
G1 X24.5774 Y-24.9704 Z0.0000
G1 X24.5766 Y-24.9709 Z0.0000
G1 X24.5758 Y-24.9714 Z0.0000
G1 X24.5751 Y-24.9719 Z0.0000
G1 X24.5743 Y-24.9724 Z0.0000
G1 X24.5735 Y-24.9729 Z0.0000
G1 X24.5064 Y-25.0157 Z0.0000
G1 X24.5053 Y-25.0164 Z0.0000
G1 X24.5043 Y-25.0170 Z0.0000
G1 X24.5032 Y-25.0177 Z0.0000
G1 X24.5022 Y-25.0183 Z0.0000
G1 X24.5011 Y-25.0189 Z0.0000
G1 X24.5001 Y-25.0196 Z0.0000
G1 X24.4990 Y-25.0202 Z0.0000
G1 X24.4980 Y-25.0208 Z0.0000
G1 X24.4969 Y-25.0214 Z0.0000
G1 X24.4959 Y-25.0220 Z0.0000
G1 X24.4948 Y-25.0226 Z0.0000
G1 X24.4937 Y-25.0232 Z0.0000
G1 X24.4926 Y-25.0238 Z0.0000
G1 X24.4916 Y-25.0244 Z0.0000
G1 X24.4905 Y-25.0249 Z0.0000
G1 X24.4335 Y-25.0550 Z0.0000
G1 X24.4327 Y-25.0554 Z0.0000
G1 X24.4319 Y-25.0558 Z0.0000
G1 X24.4310 Y-25.0562 Z0.0000
G1 X24.4302 Y-25.0566 Z0.0000
G1 X24.4294 Y-25.0571 Z0.0000
G1 X24.4286 Y-25.0575 Z0.0000
G1 X24.4278 Y-25.0579 Z0.0000
G1 X24.4269 Y-25.0583 Z0.0000
G1 X24.4261 Y-25.0587 Z0.0000
G1 X24.4253 Y-25.0591 Z0.0000
G1 X24.4244 Y-25.0595 Z0.0000
G1 X24.4236 Y-25.0599 Z0.0000
G1 X24.4228 Y-25.0602 Z0.0000
G1 X24.4219 Y-25.0606 Z0.0000
G1 X24.4211 Y-25.0610 Z0.0000
G1 X24.3500 Y-25.0930 Z0.0000
G1 X24.3489 Y-25.0935 Z0.0000
G1 X24.3478 Y-25.0940 Z0.0000
G1 X24.3467 Y-25.0945 Z0.0000
G1 X24.3456 Y-25.0950 Z0.0000
G1 X24.3445 Y-25.0954 Z0.0000
G1 X24.3434 Y-25.0959 Z0.0000
G1 X24.3422 Y-25.0964 Z0.0000
G1 X24.3411 Y-25.0968 Z0.0000
G1 X24.3400 Y-25.0973 Z0.0000
G1 X24.3389 Y-25.0977 Z0.0000
G1 X24.3377 Y-25.0981 Z0.0000
G1 X24.3366 Y-25.0986 Z0.0000
G1 X24.3355 Y-25.0990 Z0.0000
G1 X24.3344 Y-25.0994 Z0.0000
G1 X24.3332 Y-25.0998 Z0.0000
G1 X24.2732 Y-25.1212 Z0.0000
G1 X24.2723 Y-25.1215 Z0.0000
G1 X24.2714 Y-25.1218 Z0.0000
G1 X24.2706 Y-25.1221 Z0.0000
G1 X24.2697 Y-25.1224 Z0.0000
G1 X24.2688 Y-25.1227 Z0.0000
G1 X24.2680 Y-25.1230 Z0.0000
G1 X24.2671 Y-25.1233 Z0.0000
G1 X24.2662 Y-25.1235 Z0.0000
G1 X24.2653 Y-25.1238 Z0.0000
G1 X24.2645 Y-25.1241 Z0.0000
G1 X24.2636 Y-25.1244 Z0.0000
G1 X24.2627 Y-25.1246 Z0.0000
G1 X24.2618 Y-25.1249 Z0.0000
G1 X24.2609 Y-25.1252 Z0.0000
G1 X24.2600 Y-25.1254 Z0.0000
G1 X24.1842 Y-25.1473 Z0.0000
G1 X24.1830 Y-25.1476 Z0.0000
G1 X24.1818 Y-25.1479 Z0.0000
G1 X24.1806 Y-25.1483 Z0.0000
G1 X24.1795 Y-25.1486 Z0.0000
G1 X24.1783 Y-25.1489 Z0.0000
G1 X24.1771 Y-25.1492 Z0.0000
G1 X24.1759 Y-25.1495 Z0.0000
G1 X24.1747 Y-25.1498 Z0.0000
G1 X24.1735 Y-25.1501 Z0.0000
G1 X24.1723 Y-25.1503 Z0.0000
G1 X24.1711 Y-25.1506 Z0.0000
G1 X24.1699 Y-25.1509 Z0.0000
G1 X24.1687 Y-25.1511 Z0.0000
G1 X24.1675 Y-25.1514 Z0.0000
G1 X24.1663 Y-25.1516 Z0.0000
G1 X24.1027 Y-25.1644 Z0.0000
G1 X24.1018 Y-25.1646 Z0.0000
G1 X24.1009 Y-25.1648 Z0.0000
G1 X24.0999 Y-25.1649 Z0.0000
G1 X24.0990 Y-25.1651 Z0.0000
G1 X24.0981 Y-25.1653 Z0.0000
G1 X24.0972 Y-25.1654 Z0.0000
G1 X24.0963 Y-25.1656 Z0.0000
G1 X24.0953 Y-25.1657 Z0.0000
G1 X24.0944 Y-25.1659 Z0.0000
G1 X24.0935 Y-25.1660 Z0.0000
G1 X24.0926 Y-25.1662 Z0.0000
G1 X24.0916 Y-25.1663 Z0.0000
G1 X24.0907 Y-25.1665 Z0.0000
G1 X24.0898 Y-25.1666 Z0.0000
G1 X24.0889 Y-25.1667 Z0.0000
G1 X24.0085 Y-25.1777 Z0.0000
G1 X24.0073 Y-25.1778 Z0.0000
G1 X24.0061 Y-25.1780 Z0.0000
G1 X24.0048 Y-25.1781 Z0.0000
G1 X24.0036 Y-25.1783 Z0.0000
G1 X24.0024 Y-25.1784 Z0.0000
G1 X24.0011 Y-25.1785 Z0.0000
G1 X23.9999 Y-25.1787 Z0.0000
G1 X23.9987 Y-25.1788 Z0.0000
G1 X23.9974 Y-25.1789 Z0.0000
G1 X23.9962 Y-25.1790 Z0.0000
G1 X23.9950 Y-25.1791 Z0.0000
G1 X23.9937 Y-25.1792 Z0.0000
G1 X23.9925 Y-25.1793 Z0.0000
G1 X23.9912 Y-25.1793 Z0.0000
G1 X23.9900 Y-25.1794 Z0.0000
G1 X23.9251 Y-25.1828 Z0.0000
G1 X23.9242 Y-25.1828 Z0.0000
G1 X23.9232 Y-25.1829 Z0.0000
G1 X23.9223 Y-25.1829 Z0.0000
G1 X23.9214 Y-25.1829 Z0.0000
G1 X23.9204 Y-25.1830 Z0.0000
G1 X23.9195 Y-25.1830 Z0.0000
G1 X23.9186 Y-25.1830 Z0.0000
G1 X23.9177 Y-25.1830 Z0.0000
G1 X23.9167 Y-25.1830 Z0.0000
G1 X23.9158 Y-25.1831 Z0.0000
G1 X23.9149 Y-25.1831 Z0.0000
G1 X23.9140 Y-25.1831 Z0.0000
G1 X23.9130 Y-25.1831 Z0.0000
G1 X23.9121 Y-25.1831 Z0.0000
G1 X23.9112 Y-25.1831 Z0.0000
G1 X23.8332 Y-25.1822 Z0.0000
G1 X23.8320 Y-25.1822 Z0.0000
G1 X23.8307 Y-25.1822 Z0.0000
G1 X23.8295 Y-25.1822 Z0.0000
G1 X23.8282 Y-25.1821 Z0.0000
G1 X23.8270 Y-25.1821 Z0.0000
G1 X23.8257 Y-25.1820 Z0.0000
G1 X23.8245 Y-25.1820 Z0.0000
G1 X23.8232 Y-25.1819 Z0.0000
G1 X23.8220 Y-25.1818 Z0.0000
G1 X23.8207 Y-25.1818 Z0.0000
G1 X23.8195 Y-25.1817 Z0.0000
G1 X23.8182 Y-25.1816 Z0.0000
G1 X23.8170 Y-25.1815 Z0.0000
G1 X23.8157 Y-25.1814 Z0.0000
G1 X23.8145 Y-25.1813 Z0.0000
G1 X23.7425 Y-25.1744 Z0.0000
G1 X23.7415 Y-25.1743 Z0.0000
G1 X23.7405 Y-25.1742 Z0.0000
G1 X23.7395 Y-25.1741 Z0.0000
G1 X23.7385 Y-25.1740 Z0.0000
G1 X23.7375 Y-25.1739 Z0.0000
G1 X23.7365 Y-25.1738 Z0.0000
G1 X23.7355 Y-25.1737 Z0.0000
G1 X23.7345 Y-25.1735 Z0.0000
G1 X23.7335 Y-25.1734 Z0.0000
G1 X23.7325 Y-25.1733 Z0.0000
G1 X23.7315 Y-25.1731 Z0.0000
G1 X23.7305 Y-25.1730 Z0.0000
G1 X23.7296 Y-25.1728 Z0.0000
G1 X23.7286 Y-25.1727 Z0.0000
G1 X23.7276 Y-25.1725 Z0.0000
G1 X23.6501 Y-25.1599 Z0.0000
G1 X23.6488 Y-25.1597 Z0.0000
G1 X23.6476 Y-25.1595 Z0.0000
G1 X23.6464 Y-25.1593 Z0.0000
G1 X23.6451 Y-25.1590 Z0.0000
G1 X23.6439 Y-25.1588 Z0.0000
G1 X23.6427 Y-25.1586 Z0.0000
G1 X23.6414 Y-25.1583 Z0.0000
G1 X23.6402 Y-25.1581 Z0.0000
G1 X23.6390 Y-25.1578 Z0.0000
G1 X23.6377 Y-25.1575 Z0.0000
G1 X23.6365 Y-25.1573 Z0.0000
G1 X23.6353 Y-25.1570 Z0.0000
G1 X23.6341 Y-25.1567 Z0.0000
G1 X23.6328 Y-25.1564 Z0.0000
G1 X23.6316 Y-25.1561 Z0.0000
G1 X23.5612 Y-25.1384 Z0.0000
G1 X23.5602 Y-25.1382 Z0.0000
G1 X23.5592 Y-25.1379 Z0.0000
G1 X23.5583 Y-25.1377 Z0.0000
G1 X23.5573 Y-25.1374 Z0.0000
G1 X23.5563 Y-25.1371 Z0.0000
G1 X23.5554 Y-25.1369 Z0.0000
G1 X23.5544 Y-25.1366 Z0.0000
G1 X23.5534 Y-25.1363 Z0.0000
G1 X23.5525 Y-25.1360 Z0.0000
G1 X23.5515 Y-25.1357 Z0.0000
G1 X23.5505 Y-25.1355 Z0.0000
G1 X23.5496 Y-25.1352 Z0.0000
G1 X23.5486 Y-25.1349 Z0.0000
G1 X23.5477 Y-25.1346 Z0.0000
G1 X23.5467 Y-25.1343 Z0.0000
G1 X23.4722 Y-25.1101 Z0.0000
G1 X23.4709 Y-25.1097 Z0.0000
G1 X23.4697 Y-25.1093 Z0.0000
G1 X23.4685 Y-25.1089 Z0.0000
G1 X23.4673 Y-25.1085 Z0.0000
G1 X23.4662 Y-25.1081 Z0.0000
G1 X23.4650 Y-25.1076 Z0.0000
G1 X23.4638 Y-25.1072 Z0.0000
G1 X23.4626 Y-25.1068 Z0.0000
G1 X23.4614 Y-25.1063 Z0.0000
G1 X23.4602 Y-25.1059 Z0.0000
G1 X23.4590 Y-25.1054 Z0.0000
G1 X23.4579 Y-25.1049 Z0.0000
G1 X23.4567 Y-25.1045 Z0.0000
G1 X23.4555 Y-25.1040 Z0.0000
G1 X23.4543 Y-25.1035 Z0.0000
G1 X23.3865 Y-25.0749 Z0.0000
G1 X23.3855 Y-25.0745 Z0.0000
G1 X23.3846 Y-25.0741 Z0.0000
G1 X23.3836 Y-25.0737 Z0.0000
G1 X23.3827 Y-25.0733 Z0.0000
G1 X23.3818 Y-25.0729 Z0.0000
G1 X23.3808 Y-25.0725 Z0.0000
G1 X23.3799 Y-25.0720 Z0.0000
G1 X23.3790 Y-25.0716 Z0.0000
G1 X23.3781 Y-25.0712 Z0.0000
G1 X23.3771 Y-25.0708 Z0.0000
G1 X23.3762 Y-25.0703 Z0.0000
G1 X23.3753 Y-25.0699 Z0.0000
G1 X23.3744 Y-25.0694 Z0.0000
G1 X23.3735 Y-25.0690 Z0.0000
G1 X23.3726 Y-25.0685 Z0.0000
G1 X23.2996 Y-25.0317 Z0.0000
G1 X23.2985 Y-25.0312 Z0.0000
G1 X23.2974 Y-25.0306 Z0.0000
G1 X23.2963 Y-25.0300 Z0.0000
G1 X23.2952 Y-25.0294 Z0.0000
G1 X23.2940 Y-25.0288 Z0.0000
G1 X23.2929 Y-25.0282 Z0.0000
G1 X23.2918 Y-25.0276 Z0.0000
G1 X23.2907 Y-25.0270 Z0.0000
G1 X23.2897 Y-25.0264 Z0.0000
G1 X23.2886 Y-25.0258 Z0.0000
G1 X23.2875 Y-25.0251 Z0.0000
G1 X23.2864 Y-25.0245 Z0.0000
G1 X23.2853 Y-25.0239 Z0.0000
G1 X23.2842 Y-25.0232 Z0.0000
G1 X23.2832 Y-25.0226 Z0.0000
G1 X23.2269 Y-24.9880 Z0.0000
G1 X23.2261 Y-24.9875 Z0.0000
G1 X23.2253 Y-24.9870 Z0.0000
G1 X23.2245 Y-24.9865 Z0.0000
G1 X23.2237 Y-24.9860 Z0.0000
G1 X23.2229 Y-24.9855 Z0.0000
G1 X23.2221 Y-24.9850 Z0.0000
G1 X23.2214 Y-24.9844 Z0.0000
G1 X23.2206 Y-24.9839 Z0.0000
G1 X23.2198 Y-24.9834 Z0.0000
G1 X23.2190 Y-24.9829 Z0.0000
G1 X23.2182 Y-24.9824 Z0.0000
G1 X23.2175 Y-24.9818 Z0.0000
G1 X23.2167 Y-24.9813 Z0.0000
G1 X23.2159 Y-24.9808 Z0.0000
G1 X23.2152 Y-24.9802 Z0.0000
G1 X23.1501 Y-24.9344 Z0.0000
G1 X23.1491 Y-24.9337 Z0.0000
G1 X23.1481 Y-24.9329 Z0.0000
G1 X23.1471 Y-24.9322 Z0.0000
G1 X23.1462 Y-24.9315 Z0.0000
G1 X23.1452 Y-24.9308 Z0.0000
G1 X23.1442 Y-24.9300 Z0.0000
G1 X23.1432 Y-24.9293 Z0.0000
G1 X23.1423 Y-24.9285 Z0.0000
G1 X23.1413 Y-24.9278 Z0.0000
G1 X23.1403 Y-24.9270 Z0.0000
G1 X23.1394 Y-24.9263 Z0.0000
G1 X23.1384 Y-24.9255 Z0.0000
G1 X23.1375 Y-24.9247 Z0.0000
G1 X23.1365 Y-24.9240 Z0.0000
G1 X23.1356 Y-24.9232 Z0.0000
G1 X23.0862 Y-24.8819 Z0.0000
G1 X23.0855 Y-24.8813 Z0.0000
G1 X23.0848 Y-24.8807 Z0.0000
G1 X23.0841 Y-24.8801 Z0.0000
G1 X23.0834 Y-24.8795 Z0.0000
G1 X23.0827 Y-24.8789 Z0.0000
G1 X23.0820 Y-24.8783 Z0.0000
G1 X23.0813 Y-24.8777 Z0.0000
G1 X23.0806 Y-24.8771 Z0.0000
G1 X23.0799 Y-24.8764 Z0.0000
G1 X23.0792 Y-24.8758 Z0.0000
G1 X23.0785 Y-24.8752 Z0.0000
G1 X23.0779 Y-24.8746 Z0.0000
G1 X23.0772 Y-24.8739 Z0.0000
G1 X23.0765 Y-24.8733 Z0.0000
G1 X23.0758 Y-24.8727 Z0.0000
G1 X23.0188 Y-24.8186 Z0.0000
G1 X23.0179 Y-24.8177 Z0.0000
G1 X23.0170 Y-24.8169 Z0.0000
G1 X23.0161 Y-24.8160 Z0.0000
G1 X23.0152 Y-24.8151 Z0.0000
G1 X23.0144 Y-24.8143 Z0.0000
G1 X23.0135 Y-24.8134 Z0.0000
G1 X23.0126 Y-24.8125 Z0.0000
G1 X23.0118 Y-24.8116 Z0.0000
G1 X23.0109 Y-24.8107 Z0.0000
G1 X23.0101 Y-24.8099 Z0.0000
G1 X23.0092 Y-24.8090 Z0.0000
G1 X23.0084 Y-24.8080 Z0.0000
G1 X23.0076 Y-24.8071 Z0.0000
G1 X23.0067 Y-24.8062 Z0.0000
G1 X23.0059 Y-24.8053 Z0.0000
G1 X22.9492 Y-24.7419 Z0.0000
G1 X14.3984 Y-24.8666 Z0.0000
G1 X14.3951 Y-24.6433 Z0.0000
G1 X5.6331 Y-24.7711 Z0.0000
G1 X5.6297 Y-24.7711 Z0.0000
G1 X5.5235 Y-24.7660 Z0.0000
G1 X5.4184 Y-24.7509 Z0.0000
G1 X5.3151 Y-24.7260 Z0.0000
G1 X5.2146 Y-24.6914 Z0.0000
G1 X5.1178 Y-24.6475 Z0.0000
G1 X5.0256 Y-24.5946 Z0.0000
G1 X4.9388 Y-24.5333 Z0.0000
G1 X4.8582 Y-24.4640 Z0.0000
G1 X4.8537 Y-24.4596 Z0.0000
G1 X4.8183 Y-24.4242 Z0.0000
G1 X4.8139 Y-24.4197 Z0.0000
G1 X4.7466 Y-24.3415 Z0.0000
G1 X4.6868 Y-24.2575 Z0.0000
G1 X4.6349 Y-24.1683 Z0.0000
G1 X4.5915 Y-24.0747 Z0.0000
G1 X4.5569 Y-23.9775 Z0.0000
G1 X4.5313 Y-23.8776 Z0.0000
G1 X4.5150 Y-23.7757 Z0.0000
G1 X4.5082 Y-23.6728 Z0.0000
G1 X4.5082 Y-23.6683 Z0.0000
G1 X4.5081 Y-21.9494 Z0.0000
G1 X4.5081 Y-21.9493 Z0.0000
G1 X4.5130 Y-21.8458 Z0.0000
G1 X4.5274 Y-21.7431 Z0.0000
G1 X4.5511 Y-21.6421 Z0.0000
G1 X4.5841 Y-21.5438 Z0.0000
G1 X4.6259 Y-21.4489 Z0.0000
G1 X4.6762 Y-21.3583 Z0.0000
G1 X4.7347 Y-21.2727 Z0.0000
G1 X4.8008 Y-21.1928 Z0.0000
G1 X4.8207 Y-21.1721 Z0.0000
G1 X4.8252 Y-21.1676 Z0.0000
G1 X4.8594 Y-21.1338 Z0.0000
G1 X4.8636 Y-21.1298 Z0.0000
G1 X4.9432 Y-21.0621 Z0.0000
G1 X5.0287 Y-21.0021 Z0.0000
G1 X5.1194 Y-20.9502 Z0.0000
G1 X5.2146 Y-20.9071 Z0.0000
G1 X5.3133 Y-20.8730 Z0.0000
G1 X5.4148 Y-20.8483 Z0.0000
G1 X5.5182 Y-20.8331 Z0.0000
G1 X5.6226 Y-20.8276 Z0.0000
G1 X5.6271 Y-20.8277 Z0.0000
G1 X23.0519 Y-21.0818 Z0.0000
G1 X23.1110 Y-21.0076 Z0.0000
G1 X23.1117 Y-21.0067 Z0.0000
G1 X23.1124 Y-21.0058 Z0.0000
G1 X23.1132 Y-21.0049 Z0.0000
G1 X23.1139 Y-21.0040 Z0.0000
G1 X23.1146 Y-21.0031 Z0.0000
G1 X23.1154 Y-21.0022 Z0.0000
G1 X23.1161 Y-21.0013 Z0.0000
G1 X23.1169 Y-21.0005 Z0.0000
G1 X23.1177 Y-20.9996 Z0.0000
G1 X23.1184 Y-20.9987 Z0.0000
G1 X23.1192 Y-20.9978 Z0.0000
G1 X23.1200 Y-20.9970 Z0.0000
G1 X23.1208 Y-20.9961 Z0.0000
G1 X23.1215 Y-20.9953 Z0.0000
G1 X23.1223 Y-20.9944 Z0.0000
G1 X23.1845 Y-20.9277 Z0.0000
G1 X23.1855 Y-20.9267 Z0.0000
G1 X23.1865 Y-20.9257 Z0.0000
G1 X23.1874 Y-20.9246 Z0.0000
G1 X23.1884 Y-20.9236 Z0.0000
G1 X23.1894 Y-20.9226 Z0.0000
G1 X23.1904 Y-20.9216 Z0.0000
G1 X23.1915 Y-20.9206 Z0.0000
G1 X23.1925 Y-20.9196 Z0.0000
G1 X23.1935 Y-20.9186 Z0.0000
G1 X23.1945 Y-20.9177 Z0.0000
G1 X23.1956 Y-20.9167 Z0.0000
G1 X23.1966 Y-20.9157 Z0.0000
G1 X23.1977 Y-20.9148 Z0.0000
G1 X23.1987 Y-20.9138 Z0.0000
G1 X23.1998 Y-20.9129 Z0.0000
G1 X23.2567 Y-20.8624 Z0.0000
G1 X23.2577 Y-20.8616 Z0.0000
G1 X23.2587 Y-20.8607 Z0.0000
G1 X23.2597 Y-20.8598 Z0.0000
G1 X23.2608 Y-20.8589 Z0.0000
G1 X23.2618 Y-20.8581 Z0.0000
G1 X23.2628 Y-20.8572 Z0.0000
G1 X23.2639 Y-20.8563 Z0.0000
G1 X23.2649 Y-20.8555 Z0.0000
G1 X23.2660 Y-20.8547 Z0.0000
G1 X23.2670 Y-20.8538 Z0.0000
G1 X23.2681 Y-20.8530 Z0.0000
G1 X23.2692 Y-20.8522 Z0.0000
G1 X23.2702 Y-20.8514 Z0.0000
G1 X23.2713 Y-20.8505 Z0.0000
G1 X23.2724 Y-20.8497 Z0.0000
G1 X23.3219 Y-20.8133 Z0.0000
G1 X23.3229 Y-20.8126 Z0.0000
G1 X23.3238 Y-20.8119 Z0.0000
G1 X23.3248 Y-20.8112 Z0.0000
G1 X23.3258 Y-20.8105 Z0.0000
G1 X23.3267 Y-20.8099 Z0.0000
G1 X23.3277 Y-20.8092 Z0.0000
G1 X23.3287 Y-20.8085 Z0.0000
G1 X23.3296 Y-20.8079 Z0.0000
G1 X23.3306 Y-20.8072 Z0.0000
G1 X23.3316 Y-20.8065 Z0.0000
G1 X23.3326 Y-20.8059 Z0.0000
G1 X23.3336 Y-20.8053 Z0.0000
G1 X23.3346 Y-20.8046 Z0.0000
G1 X23.3356 Y-20.8040 Z0.0000
G1 X23.3366 Y-20.8034 Z0.0000
G1 X23.3954 Y-20.7669 Z0.0000
G1 X23.3965 Y-20.7662 Z0.0000
G1 X23.3976 Y-20.7655 Z0.0000
G1 X23.3988 Y-20.7648 Z0.0000
G1 X23.3999 Y-20.7642 Z0.0000
G1 X23.4011 Y-20.7635 Z0.0000
G1 X23.4022 Y-20.7628 Z0.0000
G1 X23.4034 Y-20.7622 Z0.0000
G1 X23.4045 Y-20.7615 Z0.0000
G1 X23.4057 Y-20.7609 Z0.0000
G1 X23.4069 Y-20.7602 Z0.0000
G1 X23.4080 Y-20.7596 Z0.0000
G1 X23.4092 Y-20.7590 Z0.0000
G1 X23.4104 Y-20.7584 Z0.0000
G1 X23.4116 Y-20.7578 Z0.0000
G1 X23.4128 Y-20.7571 Z0.0000
G1 X23.4626 Y-20.7321 Z0.0000
G1 X23.4635 Y-20.7317 Z0.0000
G1 X23.4643 Y-20.7312 Z0.0000
G1 X23.4652 Y-20.7308 Z0.0000
G1 X23.4661 Y-20.7304 Z0.0000
G1 X23.4670 Y-20.7300 Z0.0000
G1 X23.4678 Y-20.7296 Z0.0000
G1 X23.4687 Y-20.7291 Z0.0000
G1 X23.4696 Y-20.7287 Z0.0000
G1 X23.4705 Y-20.7283 Z0.0000
G1 X23.4714 Y-20.7279 Z0.0000
G1 X23.4723 Y-20.7275 Z0.0000
G1 X23.4732 Y-20.7271 Z0.0000
G1 X23.4741 Y-20.7267 Z0.0000
G1 X23.4750 Y-20.7264 Z0.0000
G1 X23.4759 Y-20.7260 Z0.0000
G1 X23.5325 Y-20.7020 Z0.0000
G1 X23.5337 Y-20.7015 Z0.0000
G1 X23.5348 Y-20.7010 Z0.0000
G1 X23.5360 Y-20.7006 Z0.0000
G1 X23.5372 Y-20.7001 Z0.0000
G1 X23.5384 Y-20.6996 Z0.0000
G1 X23.5395 Y-20.6992 Z0.0000
G1 X23.5407 Y-20.6987 Z0.0000
G1 X23.5419 Y-20.6983 Z0.0000
G1 X23.5431 Y-20.6978 Z0.0000
G1 X23.5443 Y-20.6974 Z0.0000
G1 X23.5455 Y-20.6970 Z0.0000
G1 X23.5467 Y-20.6966 Z0.0000
G1 X23.5479 Y-20.6962 Z0.0000
G1 X23.5491 Y-20.6958 Z0.0000
G1 X23.5503 Y-20.6954 Z0.0000
G1 X23.6027 Y-20.6783 Z0.0000
G1 X23.6037 Y-20.6780 Z0.0000
G1 X23.6046 Y-20.6777 Z0.0000
G1 X23.6055 Y-20.6774 Z0.0000
G1 X23.6065 Y-20.6771 Z0.0000
G1 X23.6074 Y-20.6768 Z0.0000
G1 X23.6084 Y-20.6765 Z0.0000
G1 X23.6093 Y-20.6763 Z0.0000
G1 X23.6102 Y-20.6760 Z0.0000
G1 X23.6112 Y-20.6757 Z0.0000
G1 X23.6121 Y-20.6755 Z0.0000
G1 X23.6131 Y-20.6752 Z0.0000
G1 X23.6140 Y-20.6749 Z0.0000
G1 X23.6150 Y-20.6747 Z0.0000
G1 X23.6159 Y-20.6744 Z0.0000
G1 X23.6168 Y-20.6742 Z0.0000
G1 X23.6769 Y-20.6589 Z0.0000
G1 X23.6781 Y-20.6586 Z0.0000
G1 X23.6794 Y-20.6583 Z0.0000
G1 X23.6806 Y-20.6580 Z0.0000
G1 X23.6818 Y-20.6577 Z0.0000
G1 X23.6831 Y-20.6574 Z0.0000
G1 X23.6843 Y-20.6572 Z0.0000
G1 X23.6856 Y-20.6569 Z0.0000
G1 X23.6868 Y-20.6566 Z0.0000
G1 X23.6881 Y-20.6564 Z0.0000
G1 X23.6893 Y-20.6561 Z0.0000
G1 X23.6906 Y-20.6559 Z0.0000
G1 X23.6918 Y-20.6557 Z0.0000
G1 X23.6931 Y-20.6554 Z0.0000
G1 X23.6944 Y-20.6552 Z0.0000
G1 X23.6956 Y-20.6550 Z0.0000
G1 X23.7503 Y-20.6460 Z0.0000
G1 X23.7512 Y-20.6458 Z0.0000
G1 X23.7522 Y-20.6457 Z0.0000
G1 X23.7532 Y-20.6455 Z0.0000
G1 X23.7542 Y-20.6454 Z0.0000
G1 X23.7551 Y-20.6452 Z0.0000
G1 X23.7561 Y-20.6451 Z0.0000
G1 X23.7571 Y-20.6450 Z0.0000
G1 X23.7580 Y-20.6449 Z0.0000
G1 X23.7590 Y-20.6447 Z0.0000
G1 X23.7600 Y-20.6446 Z0.0000
G1 X23.7610 Y-20.6445 Z0.0000
G1 X23.7619 Y-20.6444 Z0.0000
G1 X23.7629 Y-20.6443 Z0.0000
G1 X23.7639 Y-20.6442 Z0.0000
G1 X23.7649 Y-20.6441 Z0.0000
G1 X23.8263 Y-20.6381 Z0.0000
G1 X23.8275 Y-20.6380 Z0.0000
G1 X23.8288 Y-20.6378 Z0.0000
G1 X23.8301 Y-20.6377 Z0.0000
G1 X23.8314 Y-20.6376 Z0.0000
G1 X23.8327 Y-20.6375 Z0.0000
G1 X23.8339 Y-20.6375 Z0.0000
G1 X23.8352 Y-20.6374 Z0.0000
G1 X23.8365 Y-20.6373 Z0.0000
G1 X23.8378 Y-20.6372 Z0.0000
G1 X23.8391 Y-20.6372 Z0.0000
G1 X23.8404 Y-20.6371 Z0.0000
G1 X23.8416 Y-20.6371 Z0.0000
G1 X23.8429 Y-20.6371 Z0.0000
G1 X23.8442 Y-20.6370 Z0.0000
G1 X23.8455 Y-20.6370 Z0.0000
G1 X23.9014 Y-20.6364 Z0.0000
G1 X23.9024 Y-20.6364 Z0.0000
G1 X23.9035 Y-20.6364 Z0.0000
G1 X23.9045 Y-20.6364 Z0.0000
G1 X23.9055 Y-20.6364 Z0.0000
G1 X23.9065 Y-20.6364 Z0.0000
G1 X23.9075 Y-20.6364 Z0.0000
G1 X23.9085 Y-20.6364 Z0.0000
G1 X23.9095 Y-20.6364 Z0.0000
G1 X23.9105 Y-20.6365 Z0.0000
G1 X23.9115 Y-20.6365 Z0.0000
G1 X23.9125 Y-20.6365 Z0.0000
G1 X23.9135 Y-20.6366 Z0.0000
G1 X23.9146 Y-20.6366 Z0.0000
G1 X23.9156 Y-20.6367 Z0.0000
G1 X23.9166 Y-20.6367 Z0.0000
G1 X23.9816 Y-20.6404 Z0.0000
G1 X23.9829 Y-20.6405 Z0.0000
G1 X23.9841 Y-20.6406 Z0.0000
G1 X23.9854 Y-20.6407 Z0.0000
G1 X23.9867 Y-20.6408 Z0.0000
G1 X23.9880 Y-20.6409 Z0.0000
G1 X23.9892 Y-20.6410 Z0.0000
G1 X23.9905 Y-20.6411 Z0.0000
G1 X23.9918 Y-20.6412 Z0.0000
G1 X23.9930 Y-20.6414 Z0.0000
G1 X23.9943 Y-20.6415 Z0.0000
G1 X23.9956 Y-20.6417 Z0.0000
G1 X23.9968 Y-20.6418 Z0.0000
G1 X23.9981 Y-20.6420 Z0.0000
G1 X23.9994 Y-20.6421 Z0.0000
G1 X24.0006 Y-20.6423 Z0.0000
G1 X24.0498 Y-20.6494 Z0.0000
G1 X24.0507 Y-20.6495 Z0.0000
G1 X24.0516 Y-20.6496 Z0.0000
G1 X24.0525 Y-20.6498 Z0.0000
G1 X24.0534 Y-20.6499 Z0.0000
G1 X24.0543 Y-20.6501 Z0.0000
G1 X24.0553 Y-20.6502 Z0.0000
G1 X24.0562 Y-20.6504 Z0.0000
G1 X24.0571 Y-20.6505 Z0.0000
G1 X24.0580 Y-20.6507 Z0.0000
G1 X24.0589 Y-20.6508 Z0.0000
G1 X24.0598 Y-20.6510 Z0.0000
G1 X24.0607 Y-20.6512 Z0.0000
G1 X24.0616 Y-20.6514 Z0.0000
G1 X24.0625 Y-20.6515 Z0.0000
G1 X24.0634 Y-20.6517 Z0.0000
G1 X24.1256 Y-20.6646 Z0.0000
G1 X24.1268 Y-20.6649 Z0.0000
G1 X24.1280 Y-20.6651 Z0.0000
G1 X24.1292 Y-20.6654 Z0.0000
G1 X24.1304 Y-20.6657 Z0.0000
G1 X24.1316 Y-20.6659 Z0.0000
G1 X24.1328 Y-20.6662 Z0.0000
G1 X24.1340 Y-20.6665 Z0.0000
G1 X24.1352 Y-20.6668 Z0.0000
G1 X24.1364 Y-20.6671 Z0.0000
G1 X24.1376 Y-20.6675 Z0.0000
G1 X24.1388 Y-20.6678 Z0.0000
G1 X24.1400 Y-20.6681 Z0.0000
G1 X24.1412 Y-20.6684 Z0.0000
G1 X24.1424 Y-20.6688 Z0.0000
G1 X24.1436 Y-20.6691 Z0.0000
G1 X24.1900 Y-20.6829 Z0.0000
G1 X24.1909 Y-20.6831 Z0.0000
G1 X24.1918 Y-20.6834 Z0.0000
G1 X24.1926 Y-20.6836 Z0.0000
G1 X24.1935 Y-20.6839 Z0.0000
G1 X24.1943 Y-20.6842 Z0.0000
G1 X24.1952 Y-20.6845 Z0.0000
G1 X24.1961 Y-20.6847 Z0.0000
G1 X24.1969 Y-20.6850 Z0.0000
G1 X24.1978 Y-20.6853 Z0.0000
G1 X24.1986 Y-20.6856 Z0.0000
G1 X24.1995 Y-20.6859 Z0.0000
G1 X24.2003 Y-20.6862 Z0.0000
G1 X24.2012 Y-20.6865 Z0.0000
G1 X24.2020 Y-20.6868 Z0.0000
G1 X24.2029 Y-20.6871 Z0.0000
G1 X24.2613 Y-20.7083 Z0.0000
G1 X24.2624 Y-20.7087 Z0.0000
G1 X24.2636 Y-20.7091 Z0.0000
G1 X24.2647 Y-20.7095 Z0.0000
G1 X24.2658 Y-20.7100 Z0.0000
G1 X24.2670 Y-20.7104 Z0.0000
G1 X24.2681 Y-20.7109 Z0.0000
G1 X24.2693 Y-20.7113 Z0.0000
G1 X24.2704 Y-20.7118 Z0.0000
G1 X24.2715 Y-20.7123 Z0.0000
G1 X24.2726 Y-20.7128 Z0.0000
G1 X24.2738 Y-20.7132 Z0.0000
G1 X24.2749 Y-20.7137 Z0.0000
G1 X24.2760 Y-20.7142 Z0.0000
G1 X24.2771 Y-20.7147 Z0.0000
G1 X24.2782 Y-20.7152 Z0.0000
G1 X24.3216 Y-20.7351 Z0.0000
G1 X24.3225 Y-20.7355 Z0.0000
G1 X24.3233 Y-20.7359 Z0.0000
G1 X24.3241 Y-20.7363 Z0.0000
G1 X24.3249 Y-20.7367 Z0.0000
G1 X24.3257 Y-20.7371 Z0.0000
G1 X24.3265 Y-20.7375 Z0.0000
G1 X24.3273 Y-20.7379 Z0.0000
G1 X24.3282 Y-20.7383 Z0.0000
G1 X24.3290 Y-20.7387 Z0.0000
G1 X24.3298 Y-20.7391 Z0.0000
G1 X24.3306 Y-20.7395 Z0.0000
G1 X24.3314 Y-20.7399 Z0.0000
G1 X24.3322 Y-20.7403 Z0.0000
G1 X24.3330 Y-20.7407 Z0.0000
G1 X24.3338 Y-20.7412 Z0.0000
G1 X24.3892 Y-20.7708 Z0.0000
G1 X24.3903 Y-20.7714 Z0.0000
G1 X24.3914 Y-20.7720 Z0.0000
G1 X24.3924 Y-20.7726 Z0.0000
G1 X24.3935 Y-20.7732 Z0.0000
G1 X24.3946 Y-20.7738 Z0.0000
G1 X24.3957 Y-20.7744 Z0.0000
G1 X24.3967 Y-20.7750 Z0.0000
G1 X24.3978 Y-20.7756 Z0.0000
G1 X24.3989 Y-20.7763 Z0.0000
G1 X24.3999 Y-20.7769 Z0.0000
G1 X24.4010 Y-20.7776 Z0.0000
G1 X24.4021 Y-20.7782 Z0.0000
G1 X24.4031 Y-20.7789 Z0.0000
G1 X24.4042 Y-20.7795 Z0.0000
G1 X24.4052 Y-20.7802 Z0.0000
G1 X24.4460 Y-20.8066 Z0.0000
G1 X24.4468 Y-20.8071 Z0.0000
G1 X24.4476 Y-20.8076 Z0.0000
G1 X24.4483 Y-20.8081 Z0.0000
G1 X24.4491 Y-20.8086 Z0.0000
G1 X24.4499 Y-20.8092 Z0.0000
G1 X24.4506 Y-20.8097 Z0.0000
G1 X24.4514 Y-20.8102 Z0.0000
G1 X24.4521 Y-20.8107 Z0.0000
G1 X24.4529 Y-20.8113 Z0.0000
G1 X24.4536 Y-20.8118 Z0.0000
G1 X24.4544 Y-20.8123 Z0.0000
G1 X24.4551 Y-20.8129 Z0.0000
G1 X24.4559 Y-20.8134 Z0.0000
G1 X24.4566 Y-20.8139 Z0.0000
G1 X24.4574 Y-20.8145 Z0.0000
G1 X24.5094 Y-20.8529 Z0.0000
G1 X24.5104 Y-20.8536 Z0.0000
G1 X24.5114 Y-20.8544 Z0.0000
G1 X24.5124 Y-20.8552 Z0.0000
G1 X24.5134 Y-20.8559 Z0.0000
G1 X24.5144 Y-20.8567 Z0.0000
G1 X24.5154 Y-20.8575 Z0.0000
G1 X24.5164 Y-20.8583 Z0.0000
G1 X24.5174 Y-20.8591 Z0.0000
G1 X24.5184 Y-20.8599 Z0.0000
G1 X24.5193 Y-20.8607 Z0.0000
G1 X24.5203 Y-20.8615 Z0.0000
G1 X24.5213 Y-20.8623 Z0.0000
G1 X24.5222 Y-20.8631 Z0.0000
G1 X24.5232 Y-20.8639 Z0.0000
G1 X24.5241 Y-20.8648 Z0.0000
G1 X24.5609 Y-20.8971 Z0.0000
G1 X24.5616 Y-20.8977 Z0.0000
G1 X24.5623 Y-20.8983 Z0.0000
G1 X24.5630 Y-20.8989 Z0.0000
G1 X24.5636 Y-20.8995 Z0.0000
G1 X24.5643 Y-20.9001 Z0.0000
G1 X24.5650 Y-20.9007 Z0.0000
G1 X24.5656 Y-20.9013 Z0.0000
G1 X24.5663 Y-20.9019 Z0.0000
G1 X24.5669 Y-20.9025 Z0.0000
G1 X24.5676 Y-20.9032 Z0.0000
G1 X24.5682 Y-20.9038 Z0.0000
G1 X24.5689 Y-20.9044 Z0.0000
G1 X24.5695 Y-20.9050 Z0.0000
G1 X24.5702 Y-20.9057 Z0.0000
G1 X24.5708 Y-20.9063 Z0.0000
G1 X24.6145 Y-20.9496 Z0.0000
G1 X24.6154 Y-20.9505 Z0.0000
G1 X24.6163 Y-20.9514 Z0.0000
G1 X24.6171 Y-20.9523 Z0.0000
G1 X24.6180 Y-20.9532 Z0.0000
G1 X24.6189 Y-20.9541 Z0.0000
G1 X24.6198 Y-20.9550 Z0.0000
G1 X24.6206 Y-20.9560 Z0.0000
G1 X24.6215 Y-20.9569 Z0.0000
G1 X24.6224 Y-20.9578 Z0.0000
G1 X24.6232 Y-20.9588 Z0.0000
G1 X24.6241 Y-20.9597 Z0.0000
G1 X24.6249 Y-20.9607 Z0.0000
G1 X24.6257 Y-20.9616 Z0.0000
G1 X24.6266 Y-20.9626 Z0.0000
G1 X24.6274 Y-20.9636 Z0.0000
G1 X24.6631 Y-21.0056 Z0.0000
G1 X24.6637 Y-21.0063 Z0.0000
G1 X24.6644 Y-21.0071 Z0.0000
G1 X24.6650 Y-21.0078 Z0.0000
G1 X24.6656 Y-21.0086 Z0.0000
G1 X24.6662 Y-21.0093 Z0.0000
G1 X24.6668 Y-21.0101 Z0.0000
G1 X24.6675 Y-21.0109 Z0.0000
G1 X24.6681 Y-21.0116 Z0.0000
G1 X24.6687 Y-21.0124 Z0.0000
G1 X24.6693 Y-21.0132 Z0.0000
G1 X24.6699 Y-21.0140 Z0.0000
G1 X24.6705 Y-21.0147 Z0.0000
G1 X24.6711 Y-21.0155 Z0.0000
G1 X24.6716 Y-21.0163 Z0.0000
G1 X24.6722 Y-21.0171 Z0.0000
G1 X24.7091 Y-21.0668 Z0.0000
G1 X24.7099 Y-21.0678 Z0.0000
G1 X24.7107 Y-21.0689 Z0.0000
G1 X24.7114 Y-21.0699 Z0.0000
G1 X24.7121 Y-21.0710 Z0.0000
G1 X24.7129 Y-21.0720 Z0.0000
G1 X24.7136 Y-21.0730 Z0.0000
G1 X24.7143 Y-21.0741 Z0.0000
G1 X24.7150 Y-21.0752 Z0.0000
G1 X24.7158 Y-21.0762 Z0.0000
G1 X24.7165 Y-21.0773 Z0.0000
G1 X24.7172 Y-21.0784 Z0.0000
G1 X24.7179 Y-21.0794 Z0.0000
G1 X24.7185 Y-21.0805 Z0.0000
G1 X24.7192 Y-21.0816 Z0.0000
G1 X24.7199 Y-21.0827 Z0.0000
G1 X24.7490 Y-21.1298 Z0.0000
G1 X24.7495 Y-21.1307 Z0.0000
G1 X24.7500 Y-21.1315 Z0.0000
G1 X24.7505 Y-21.1323 Z0.0000
G1 X24.7510 Y-21.1332 Z0.0000
G1 X24.7515 Y-21.1340 Z0.0000
G1 X24.7520 Y-21.1349 Z0.0000
G1 X24.7525 Y-21.1357 Z0.0000
G1 X24.7530 Y-21.1366 Z0.0000
G1 X24.7535 Y-21.1374 Z0.0000
G1 X24.7539 Y-21.1383 Z0.0000
G1 X24.7544 Y-21.1391 Z0.0000
G1 X24.7549 Y-21.1400 Z0.0000
G1 X24.7553 Y-21.1408 Z0.0000
G1 X24.7558 Y-21.1417 Z0.0000
G1 X24.7563 Y-21.1426 Z0.0000
G1 X24.7851 Y-21.1971 Z0.0000
G1 X24.7857 Y-21.1982 Z0.0000
G1 X24.7863 Y-21.1994 Z0.0000
G1 X24.7869 Y-21.2005 Z0.0000
G1 X24.7875 Y-21.2017 Z0.0000
G1 X24.7881 Y-21.2028 Z0.0000
G1 X24.7886 Y-21.2040 Z0.0000
G1 X24.7892 Y-21.2051 Z0.0000
G1 X24.7897 Y-21.2063 Z0.0000
G1 X24.7903 Y-21.2075 Z0.0000
G1 X24.7908 Y-21.2086 Z0.0000
G1 X24.7913 Y-21.2098 Z0.0000
G1 X24.7919 Y-21.2110 Z0.0000
G1 X24.7924 Y-21.2121 Z0.0000
G1 X24.7929 Y-21.2133 Z0.0000
G1 X24.7934 Y-21.2145 Z0.0000
G1 X24.8152 Y-21.2660 Z0.0000
G1 X24.8156 Y-21.2669 Z0.0000
G1 X24.8160 Y-21.2679 Z0.0000
G1 X24.8164 Y-21.2688 Z0.0000
G1 X24.8168 Y-21.2698 Z0.0000
G1 X24.8171 Y-21.2707 Z0.0000
G1 X24.8175 Y-21.2716 Z0.0000
G1 X24.8179 Y-21.2726 Z0.0000
G1 X24.8182 Y-21.2735 Z0.0000
G1 X24.8186 Y-21.2745 Z0.0000
G1 X24.8189 Y-21.2754 Z0.0000
G1 X24.8193 Y-21.2764 Z0.0000
G1 X24.8196 Y-21.2773 Z0.0000
G1 X24.8200 Y-21.2782 Z0.0000
G1 X24.8203 Y-21.2792 Z0.0000
G1 X24.8207 Y-21.2802 Z0.0000
G1 X24.8419 Y-21.3417 Z0.0000
G1 X24.8423 Y-21.3429 Z0.0000
G1 X24.8427 Y-21.3441 Z0.0000
G1 X24.8431 Y-21.3453 Z0.0000
G1 X24.8435 Y-21.3466 Z0.0000
G1 X24.8439 Y-21.3478 Z0.0000
G1 X24.8443 Y-21.3490 Z0.0000
G1 X24.8447 Y-21.3502 Z0.0000
G1 X24.8450 Y-21.3514 Z0.0000
G1 X24.8454 Y-21.3527 Z0.0000
G1 X24.8457 Y-21.3539 Z0.0000
G1 X24.8461 Y-21.3551 Z0.0000
G1 X24.8464 Y-21.3563 Z0.0000
G1 X24.8468 Y-21.3576 Z0.0000
G1 X24.8471 Y-21.3588 Z0.0000
G1 X24.8474 Y-21.3600 Z0.0000
G1 X24.8595 Y-21.4082 Z0.0000
G1 X24.8598 Y-21.4091 Z0.0000
G1 X24.8600 Y-21.4100 Z0.0000
G1 X24.8602 Y-21.4109 Z0.0000
G1 X24.8604 Y-21.4118 Z0.0000
G1 X24.8606 Y-21.4127 Z0.0000
G1 X24.8608 Y-21.4136 Z0.0000
G1 X24.8610 Y-21.4145 Z0.0000
G1 X24.8612 Y-21.4154 Z0.0000
G1 X24.8614 Y-21.4163 Z0.0000
G1 X24.8616 Y-21.4172 Z0.0000
G1 X24.8618 Y-21.4181 Z0.0000
G1 X24.8620 Y-21.4190 Z0.0000
G1 X24.8622 Y-21.4199 Z0.0000
G1 X24.8623 Y-21.4208 Z0.0000
G1 X24.8625 Y-21.4217 Z0.0000
G1 X24.8742 Y-21.4841 Z0.0000
G1 X24.8744 Y-21.4853 Z0.0000
G1 X24.8746 Y-21.4865 Z0.0000
G1 X24.8749 Y-21.4877 Z0.0000
G1 X24.8751 Y-21.4890 Z0.0000
G1 X24.8753 Y-21.4902 Z0.0000
G1 X24.8755 Y-21.4914 Z0.0000
G1 X24.8756 Y-21.4926 Z0.0000
G1 X24.8758 Y-21.4939 Z0.0000
G1 X24.8760 Y-21.4951 Z0.0000
G1 X24.8761 Y-21.4963 Z0.0000
G1 X24.8763 Y-21.4976 Z0.0000
G1 X24.8765 Y-21.4988 Z0.0000
G1 X24.8766 Y-21.5000 Z0.0000
G1 X24.8767 Y-21.5013 Z0.0000
G1 X24.8769 Y-21.5025 Z0.0000
G1 X24.8818 Y-21.5507 Z0.0000
G1 X24.8819 Y-21.5515 Z0.0000
G1 X24.8819 Y-21.5523 Z0.0000
G1 X24.8820 Y-21.5532 Z0.0000
G1 X24.8821 Y-21.5540 Z0.0000
G1 X24.8822 Y-21.5548 Z0.0000
G1 X24.8822 Y-21.5557 Z0.0000
G1 X24.8823 Y-21.5565 Z0.0000
G1 X24.8824 Y-21.5573 Z0.0000
G1 X24.8824 Y-21.5582 Z0.0000
G1 X24.8825 Y-21.5590 Z0.0000
G1 X24.8825 Y-21.5598 Z0.0000
G1 X24.8826 Y-21.5607 Z0.0000
G1 X24.8826 Y-21.5615 Z0.0000
G1 X24.8827 Y-21.5623 Z0.0000
G1 X24.8827 Y-21.5632 Z0.0000
G1 X24.8853 Y-21.6204 Z0.0000
G1 X24.8853 Y-21.6210 Z0.0000
G1 X24.8854 Y-21.6217 Z0.0000
G1 X24.8854 Y-21.6224 Z0.0000
G1 X24.8854 Y-21.6231 Z0.0000
G1 X24.8854 Y-21.6238 Z0.0000
G1 X24.8855 Y-21.6245 Z0.0000
G1 X24.8855 Y-21.6252 Z0.0000
G1 X24.8855 Y-21.6258 Z0.0000
G1 X24.8855 Y-21.6265 Z0.0000
G1 X24.8855 Y-21.6272 Z0.0000
G1 X24.8855 Y-21.6279 Z0.0000
G1 X24.8855 Y-21.6286 Z0.0000
G1 X24.8855 Y-21.6293 Z0.0000
G1 X24.8856 Y-21.6300 Z0.0000
G1 X24.8856 Y-21.6306 Z0.0000
G1 X24.8846 Y-23.9987 Z0.0000
G1 X24.8846 Y-24.0001 Z0.0000
G1 X24.8846 Y-24.0014 Z0.0000
G1 X24.8846 Y-24.0027 Z0.0000
G1 X24.8845 Y-24.0041 Z0.0000
G1 X24.8845 Y-24.0054 Z0.0000
G1 X24.8844 Y-24.0067 Z0.0000
G1 X24.8844 Y-24.0081 Z0.0000
G1 X24.8843 Y-24.0094 Z0.0000
G1 X24.8843 Y-24.0107 Z0.0000
G1 X24.8842 Y-24.0121 Z0.0000
G1 X24.8841 Y-24.0134 Z0.0000
G1 X24.8840 Y-24.0147 Z0.0000
G1 X24.8839 Y-24.0160 Z0.0000
G1 X24.8838 Y-24.0174 Z0.0000
G1 X24.8837 Y-24.0187 Z0.0000
G1 X24.8772 Y-24.0904 Z0.0000
G1 X24.8771 Y-24.0918 Z0.0000
G1 X24.8770 Y-24.0931 Z0.0000
G1 X24.8768 Y-24.0944 Z0.0000
G1 X24.8767 Y-24.0958 Z0.0000
G1 X24.8765 Y-24.0971 Z0.0000
G1 X24.8764 Y-24.0984 Z0.0000
G1 X24.8762 Y-24.0998 Z0.0000
G1 X24.8760 Y-24.1011 Z0.0000
G1 X24.8758 Y-24.1024 Z0.0000
G1 X24.8756 Y-24.1037 Z0.0000
G1 X24.8754 Y-24.1051 Z0.0000
G1 X24.8752 Y-24.1064 Z0.0000
G1 X24.8750 Y-24.1077 Z0.0000
G1 X24.8748 Y-24.1090 Z0.0000
G1 X24.8745 Y-24.1104 Z0.0000
G1 X24.8646 Y-24.1647 Z0.0000
G1 X24.8645 Y-24.1657 Z0.0000
G1 X24.8643 Y-24.1667 Z0.0000
G1 X24.8641 Y-24.1676 Z0.0000
G1 X24.8639 Y-24.1686 Z0.0000
G1 X24.8637 Y-24.1696 Z0.0000
G1 X24.8635 Y-24.1706 Z0.0000
G1 X24.8633 Y-24.1715 Z0.0000
G1 X24.8631 Y-24.1725 Z0.0000
G1 X24.8629 Y-24.1735 Z0.0000
G1 X24.8626 Y-24.1745 Z0.0000
G1 X24.8624 Y-24.1754 Z0.0000
G1 X24.8622 Y-24.1764 Z0.0000
G1 X24.8620 Y-24.1774 Z0.0000
G1 X24.8617 Y-24.1783 Z0.0000
G1 X24.8615 Y-24.1793 Z0.0000
G1 X24.8457 Y-24.2420 Z0.0000
G1 X24.8454 Y-24.2432 Z0.0000
G1 X24.8451 Y-24.2445 Z0.0000
G1 X24.8447 Y-24.2457 Z0.0000
G1 X24.8444 Y-24.2469 Z0.0000
G1 X24.8441 Y-24.2481 Z0.0000
G1 X24.8437 Y-24.2493 Z0.0000
G1 X24.8434 Y-24.2505 Z0.0000
G1 X24.8430 Y-24.2517 Z0.0000
G1 X24.8426 Y-24.2529 Z0.0000
G1 X24.8423 Y-24.2541 Z0.0000
G1 X24.8419 Y-24.2553 Z0.0000
G1 X24.8415 Y-24.2565 Z0.0000
G1 X24.8411 Y-24.2577 Z0.0000
G1 X24.8407 Y-24.2589 Z0.0000
G1 X24.8403 Y-24.2601 Z0.0000
G1 X24.8244 Y-24.3064 Z0.0000
G1 X24.8241 Y-24.3073 Z0.0000
G1 X24.8238 Y-24.3081 Z0.0000
G1 X24.8235 Y-24.3090 Z0.0000
G1 X24.8232 Y-24.3098 Z0.0000
G1 X24.8229 Y-24.3107 Z0.0000
G1 X24.8226 Y-24.3115 Z0.0000
G1 X24.8222 Y-24.3124 Z0.0000
G1 X24.8219 Y-24.3132 Z0.0000
G1 X24.8216 Y-24.3141 Z0.0000
G1 X24.8213 Y-24.3149 Z0.0000
G1 X24.8209 Y-24.3157 Z0.0000
G1 X24.8206 Y-24.3166 Z0.0000
G1 X24.8203 Y-24.3174 Z0.0000
G1 X24.8199 Y-24.3183 Z0.0000
G1 X24.8196 Y-24.3191 Z0.0000
G1 X24.7961 Y-24.3759 Z0.0000
G1 X24.7956 Y-24.3771 Z0.0000
G1 X24.7951 Y-24.3782 Z0.0000
G1 X24.7946 Y-24.3794 Z0.0000
G1 X24.7941 Y-24.3806 Z0.0000
G1 X24.7936 Y-24.3817 Z0.0000
G1 X24.7931 Y-24.3829 Z0.0000
G1 X24.7926 Y-24.3840 Z0.0000
G1 X24.7920 Y-24.3852 Z0.0000
G1 X24.7915 Y-24.3863 Z0.0000
G1 X24.7909 Y-24.3875 Z0.0000
G1 X24.7904 Y-24.3886 Z0.0000
G1 X24.7898 Y-24.3898 Z0.0000
G1 X24.7892 Y-24.3909 Z0.0000
G1 X24.7887 Y-24.3920 Z0.0000
G1 X24.7881 Y-24.3932 Z0.0000
G1 X24.7628 Y-24.4421 Z0.0000
G1 X24.7623 Y-24.4430 Z0.0000
G1 X24.7619 Y-24.4439 Z0.0000
G1 X24.7614 Y-24.4447 Z0.0000
G1 X24.7609 Y-24.4456 Z0.0000
G1 X24.7605 Y-24.4465 Z0.0000
G1 X24.7600 Y-24.4473 Z0.0000
G1 X24.7595 Y-24.4482 Z0.0000
G1 X24.7590 Y-24.4490 Z0.0000
G1 X24.7586 Y-24.4499 Z0.0000
G1 X24.7581 Y-24.4507 Z0.0000
G1 X24.7576 Y-24.4516 Z0.0000
G1 X24.7571 Y-24.4524 Z0.0000
G1 X24.7566 Y-24.4533 Z0.0000
G1 X24.7561 Y-24.4541 Z0.0000
G1 X24.7556 Y-24.4550 Z0.0000
G1 X24.7236 Y-24.5080 Z0.0000
G1 X24.7229 Y-24.5091 Z0.0000
G1 X24.7223 Y-24.5102 Z0.0000
G1 X24.7216 Y-24.5113 Z0.0000
G1 X24.7209 Y-24.5123 Z0.0000
G1 X24.7202 Y-24.5134 Z0.0000
G1 X24.7195 Y-24.5145 Z0.0000
G1 X24.7188 Y-24.5156 Z0.0000
G1 X24.7181 Y-24.5166 Z0.0000
G1 X24.7174 Y-24.5177 Z0.0000
G1 X24.7167 Y-24.5187 Z0.0000
G1 X24.7160 Y-24.5198 Z0.0000
G1 X24.7152 Y-24.5208 Z0.0000
G1 X24.7145 Y-24.5219 Z0.0000
G1 X24.7138 Y-24.5229 Z0.0000
G1 X24.7130 Y-24.5240 Z0.0000
G1 X24.6804 Y-24.5688 Z0.0000
G1 X24.6798 Y-24.5695 Z0.0000
G1 X24.6793 Y-24.5703 Z0.0000
G1 X24.6787 Y-24.5711 Z0.0000
G1 X24.6781 Y-24.5719 Z0.0000
G1 X24.6775 Y-24.5727 Z0.0000
G1 X24.6769 Y-24.5735 Z0.0000
G1 X24.6763 Y-24.5742 Z0.0000
G1 X24.6757 Y-24.5750 Z0.0000
G1 X24.6751 Y-24.5758 Z0.0000
G1 X24.6745 Y-24.5765 Z0.0000
G1 X24.6739 Y-24.5773 Z0.0000
G1 X24.6733 Y-24.5781 Z0.0000
G1 X24.6726 Y-24.5788 Z0.0000
G1 X24.6720 Y-24.5796 Z0.0000
G1 X24.6714 Y-24.5803 Z0.0000
G1 X24.6319 Y-24.6278 Z0.0000
G1 X24.6311 Y-24.6287 Z0.0000
G1 X24.6302 Y-24.6297 Z0.0000
G1 X24.6294 Y-24.6307 Z0.0000
G1 X24.6286 Y-24.6317 Z0.0000
G1 X24.6277 Y-24.6326 Z0.0000
G1 X24.6269 Y-24.6336 Z0.0000
G1 X24.6260 Y-24.6345 Z0.0000
G1 X24.6251 Y-24.6355 Z0.0000
G1 X24.6243 Y-24.6364 Z0.0000
G1 X24.6234 Y-24.6374 Z0.0000
G1 X24.6225 Y-24.6383 Z0.0000
G1 X24.6216 Y-24.6392 Z0.0000
G1 X24.6207 Y-24.6402 Z0.0000
G1 X24.6198 Y-24.6411 Z0.0000
G1 X24.6189 Y-24.6420 Z0.0000
G1 X24.5796 Y-24.6817 Z0.0000
G1 X24.5789 Y-24.6825 Z0.0000
G1 X24.5781 Y-24.6832 Z0.0000
G1 X24.5774 Y-24.6839 Z0.0000
G1 X24.5767 Y-24.6846 Z0.0000
G1 X24.5760 Y-24.6853 Z0.0000
G1 X24.5752 Y-24.6860 Z0.0000
G1 X24.5745 Y-24.6867 Z0.0000
G1 X24.5738 Y-24.6874 Z0.0000
G1 X24.5730 Y-24.6881 Z0.0000
G1 X24.5723 Y-24.6888 Z0.0000
G1 X24.5716 Y-24.6894 Z0.0000
G1 X24.5708 Y-24.6901 Z0.0000
G1 X24.5701 Y-24.6908 Z0.0000
G1 X24.5693 Y-24.6915 Z0.0000
G1 X24.5685 Y-24.6921 Z0.0000
G1 X24.5197 Y-24.7352 Z0.0000
G1 X24.5187 Y-24.7360 Z0.0000
G1 X24.5177 Y-24.7369 Z0.0000
G1 X24.5168 Y-24.7377 Z0.0000
G1 X24.5158 Y-24.7385 Z0.0000
G1 X24.5148 Y-24.7393 Z0.0000
G1 X24.5138 Y-24.7401 Z0.0000
G1 X24.5129 Y-24.7409 Z0.0000
G1 X24.5119 Y-24.7417 Z0.0000
G1 X24.5109 Y-24.7425 Z0.0000
G1 X24.5099 Y-24.7433 Z0.0000
G1 X24.5089 Y-24.7441 Z0.0000
G1 X24.5079 Y-24.7449 Z0.0000
G1 X24.5068 Y-24.7457 Z0.0000
G1 X24.5058 Y-24.7464 Z0.0000
G1 X24.5048 Y-24.7472 Z0.0000
G1 X24.4649 Y-24.7767 Z0.0000
G1 X24.4641 Y-24.7773 Z0.0000
G1 X24.4634 Y-24.7778 Z0.0000
G1 X24.4626 Y-24.7783 Z0.0000
G1 X24.4619 Y-24.7789 Z0.0000
G1 X24.4611 Y-24.7794 Z0.0000
G1 X24.4604 Y-24.7799 Z0.0000
G1 X24.4596 Y-24.7805 Z0.0000
G1 X24.4589 Y-24.7810 Z0.0000
G1 X24.4581 Y-24.7815 Z0.0000
G1 X24.4573 Y-24.7820 Z0.0000
G1 X24.4566 Y-24.7826 Z0.0000
G1 X24.4558 Y-24.7831 Z0.0000
G1 X24.4550 Y-24.7836 Z0.0000
G1 X24.4543 Y-24.7841 Z0.0000
G1 X24.4535 Y-24.7846 Z0.0000
G1 X24.4002 Y-24.8191 Z0.0000
G1 X24.3992 Y-24.8197 Z0.0000
G1 X24.3981 Y-24.8204 Z0.0000
G1 X24.3971 Y-24.8211 Z0.0000
G1 X24.3960 Y-24.8217 Z0.0000
G1 X24.3950 Y-24.8224 Z0.0000
G1 X24.3939 Y-24.8230 Z0.0000
G1 X24.3928 Y-24.8237 Z0.0000
G1 X24.3918 Y-24.8243 Z0.0000
G1 X24.3907 Y-24.8249 Z0.0000
G1 X24.3896 Y-24.8255 Z0.0000
G1 X24.3885 Y-24.8261 Z0.0000
G1 X24.3874 Y-24.8268 Z0.0000
G1 X24.3864 Y-24.8274 Z0.0000
G1 X24.3853 Y-24.8279 Z0.0000
G1 X24.3842 Y-24.8285 Z0.0000
G1 X24.3415 Y-24.8514 Z0.0000
G1 X24.3407 Y-24.8518 Z0.0000
G1 X24.3399 Y-24.8522 Z0.0000
G1 X24.3391 Y-24.8526 Z0.0000
G1 X24.3383 Y-24.8530 Z0.0000
G1 X24.3375 Y-24.8534 Z0.0000
G1 X24.3367 Y-24.8539 Z0.0000
G1 X24.3359 Y-24.8543 Z0.0000
G1 X24.3351 Y-24.8547 Z0.0000
G1 X24.3343 Y-24.8551 Z0.0000
G1 X24.3335 Y-24.8555 Z0.0000
G1 X24.3326 Y-24.8558 Z0.0000
G1 X24.3318 Y-24.8562 Z0.0000
G1 X24.3310 Y-24.8566 Z0.0000
G1 X24.3302 Y-24.8570 Z0.0000
G1 X24.3294 Y-24.8574 Z0.0000
G1 X24.2729 Y-24.8833 Z0.0000
G1 X24.2718 Y-24.8838 Z0.0000
G1 X24.2707 Y-24.8843 Z0.0000
G1 X24.2696 Y-24.8848 Z0.0000
G1 X24.2685 Y-24.8853 Z0.0000
G1 X24.2673 Y-24.8858 Z0.0000
G1 X24.2662 Y-24.8863 Z0.0000
G1 X24.2651 Y-24.8867 Z0.0000
G1 X24.2640 Y-24.8872 Z0.0000
G1 X24.2628 Y-24.8876 Z0.0000
G1 X24.2617 Y-24.8881 Z0.0000
G1 X24.2606 Y-24.8885 Z0.0000
G1 X24.2594 Y-24.8890 Z0.0000
G1 X24.2583 Y-24.8894 Z0.0000
G1 X24.2571 Y-24.8898 Z0.0000
G1 X24.2560 Y-24.8903 Z0.0000
G1 X24.2111 Y-24.9066 Z0.0000
G1 X24.2102 Y-24.9069 Z0.0000
G1 X24.2094 Y-24.9072 Z0.0000
G1 X24.2085 Y-24.9075 Z0.0000
G1 X24.2077 Y-24.9078 Z0.0000
G1 X24.2068 Y-24.9081 Z0.0000
G1 X24.2060 Y-24.9084 Z0.0000
G1 X24.2051 Y-24.9086 Z0.0000
G1 X24.2043 Y-24.9089 Z0.0000
G1 X24.2034 Y-24.9092 Z0.0000
G1 X24.2025 Y-24.9095 Z0.0000
G1 X24.2017 Y-24.9098 Z0.0000
G1 X24.2008 Y-24.9100 Z0.0000
G1 X24.2000 Y-24.9103 Z0.0000
G1 X24.1991 Y-24.9105 Z0.0000
G1 X24.1982 Y-24.9108 Z0.0000
G1 X24.1380 Y-24.9286 Z0.0000
G1 X24.1368 Y-24.9290 Z0.0000
G1 X24.1356 Y-24.9293 Z0.0000
G1 X24.1344 Y-24.9297 Z0.0000
G1 X24.1332 Y-24.9300 Z0.0000
G1 X24.1320 Y-24.9303 Z0.0000
G1 X24.1308 Y-24.9306 Z0.0000
G1 X24.1296 Y-24.9309 Z0.0000
G1 X24.1284 Y-24.9312 Z0.0000
G1 X24.1272 Y-24.9315 Z0.0000
G1 X24.1260 Y-24.9318 Z0.0000
G1 X24.1248 Y-24.9321 Z0.0000
G1 X24.1236 Y-24.9324 Z0.0000
G1 X24.1224 Y-24.9327 Z0.0000
G1 X24.1212 Y-24.9329 Z0.0000
G1 X24.1199 Y-24.9332 Z0.0000
G1 X24.0723 Y-24.9430 Z0.0000
G1 X24.0714 Y-24.9432 Z0.0000
G1 X24.0705 Y-24.9434 Z0.0000
G1 X24.0696 Y-24.9436 Z0.0000
G1 X24.0687 Y-24.9438 Z0.0000
G1 X24.0678 Y-24.9439 Z0.0000
G1 X24.0669 Y-24.9441 Z0.0000
G1 X24.0660 Y-24.9443 Z0.0000
G1 X24.0651 Y-24.9444 Z0.0000
G1 X24.0642 Y-24.9446 Z0.0000
G1 X24.0633 Y-24.9447 Z0.0000
G1 X24.0624 Y-24.9449 Z0.0000
G1 X24.0615 Y-24.9450 Z0.0000
G1 X24.0606 Y-24.9452 Z0.0000
G1 X24.0596 Y-24.9453 Z0.0000
G1 X24.0587 Y-24.9454 Z0.0000
G1 X23.9947 Y-24.9546 Z0.0000
G1 X23.9935 Y-24.9548 Z0.0000
G1 X23.9922 Y-24.9550 Z0.0000
G1 X23.9910 Y-24.9551 Z0.0000
G1 X23.9897 Y-24.9553 Z0.0000
G1 X23.9885 Y-24.9554 Z0.0000
G1 X23.9872 Y-24.9556 Z0.0000
G1 X23.9860 Y-24.9557 Z0.0000
G1 X23.9847 Y-24.9558 Z0.0000
G1 X23.9834 Y-24.9560 Z0.0000
G1 X23.9822 Y-24.9561 Z0.0000
G1 X23.9809 Y-24.9562 Z0.0000
G1 X23.9797 Y-24.9563 Z0.0000
G1 X23.9784 Y-24.9564 Z0.0000
G1 X23.9772 Y-24.9564 Z0.0000
G1 X23.9759 Y-24.9565 Z0.0000
G1 X23.9270 Y-24.9594 Z0.0000
G1 X23.9261 Y-24.9594 Z0.0000
G1 X23.9252 Y-24.9595 Z0.0000
G1 X23.9243 Y-24.9595 Z0.0000
G1 X23.9234 Y-24.9595 Z0.0000
G1 X23.9225 Y-24.9596 Z0.0000
G1 X23.9216 Y-24.9596 Z0.0000
G1 X23.9207 Y-24.9596 Z0.0000
G1 X23.9198 Y-24.9597 Z0.0000
G1 X23.9189 Y-24.9597 Z0.0000
G1 X23.9180 Y-24.9597 Z0.0000
G1 X23.9171 Y-24.9597 Z0.0000
G1 X23.9162 Y-24.9597 Z0.0000
G1 X23.9153 Y-24.9597 Z0.0000
G1 X23.9144 Y-24.9597 Z0.0000
G1 X23.9135 Y-24.9597 Z0.0000
G1 X23.8520 Y-24.9596 Z0.0000
G1 X23.8508 Y-24.9596 Z0.0000
G1 X23.8495 Y-24.9596 Z0.0000
G1 X23.8482 Y-24.9595 Z0.0000
G1 X23.8469 Y-24.9595 Z0.0000
G1 X23.8457 Y-24.9595 Z0.0000
G1 X23.8444 Y-24.9594 Z0.0000
G1 X23.8431 Y-24.9594 Z0.0000
G1 X23.8419 Y-24.9593 Z0.0000
G1 X23.8406 Y-24.9593 Z0.0000
G1 X23.8393 Y-24.9592 Z0.0000
G1 X23.8381 Y-24.9591 Z0.0000
G1 X23.8368 Y-24.9590 Z0.0000
G1 X23.8355 Y-24.9589 Z0.0000
G1 X23.8343 Y-24.9588 Z0.0000
G1 X23.8330 Y-24.9587 Z0.0000
G1 X23.7781 Y-24.9539 Z0.0000
G1 X23.7771 Y-24.9538 Z0.0000
G1 X23.7761 Y-24.9537 Z0.0000
G1 X23.7752 Y-24.9536 Z0.0000
G1 X23.7742 Y-24.9535 Z0.0000
G1 X23.7732 Y-24.9534 Z0.0000
G1 X23.7722 Y-24.9533 Z0.0000
G1 X23.7713 Y-24.9532 Z0.0000
G1 X23.7703 Y-24.9531 Z0.0000
G1 X23.7693 Y-24.9529 Z0.0000
G1 X23.7683 Y-24.9528 Z0.0000
G1 X23.7674 Y-24.9527 Z0.0000
G1 X23.7664 Y-24.9525 Z0.0000
G1 X23.7654 Y-24.9524 Z0.0000
G1 X23.7645 Y-24.9523 Z0.0000
G1 X23.7635 Y-24.9521 Z0.0000
G1 X23.7023 Y-24.9426 Z0.0000
G1 X23.7010 Y-24.9424 Z0.0000
G1 X23.6998 Y-24.9422 Z0.0000
G1 X23.6985 Y-24.9420 Z0.0000
G1 X23.6973 Y-24.9418 Z0.0000
G1 X23.6960 Y-24.9416 Z0.0000
G1 X23.6947 Y-24.9413 Z0.0000
G1 X23.6935 Y-24.9411 Z0.0000
G1 X23.6922 Y-24.9408 Z0.0000
G1 X23.6910 Y-24.9406 Z0.0000
G1 X23.6897 Y-24.9403 Z0.0000
G1 X23.6885 Y-24.9400 Z0.0000
G1 X23.6872 Y-24.9398 Z0.0000
G1 X23.6860 Y-24.9395 Z0.0000
G1 X23.6847 Y-24.9392 Z0.0000
G1 X23.6835 Y-24.9389 Z0.0000
G1 X23.6297 Y-24.9257 Z0.0000
G1 X23.6287 Y-24.9255 Z0.0000
G1 X23.6278 Y-24.9253 Z0.0000
G1 X23.6268 Y-24.9250 Z0.0000
G1 X23.6259 Y-24.9248 Z0.0000
G1 X23.6249 Y-24.9245 Z0.0000
G1 X23.6240 Y-24.9243 Z0.0000
G1 X23.6231 Y-24.9240 Z0.0000
G1 X23.6221 Y-24.9238 Z0.0000
G1 X23.6212 Y-24.9235 Z0.0000
G1 X23.6202 Y-24.9232 Z0.0000
G1 X23.6193 Y-24.9229 Z0.0000
G1 X23.6183 Y-24.9227 Z0.0000
G1 X23.6174 Y-24.9224 Z0.0000
G1 X23.6165 Y-24.9221 Z0.0000
G1 X23.6155 Y-24.9218 Z0.0000
G1 X23.5567 Y-24.9032 Z0.0000
G1 X23.5555 Y-24.9029 Z0.0000
G1 X23.5542 Y-24.9025 Z0.0000
G1 X23.5530 Y-24.9021 Z0.0000
G1 X23.5518 Y-24.9016 Z0.0000
G1 X23.5506 Y-24.9012 Z0.0000
G1 X23.5494 Y-24.9008 Z0.0000
G1 X23.5482 Y-24.9004 Z0.0000
G1 X23.5470 Y-24.8999 Z0.0000
G1 X23.5458 Y-24.8995 Z0.0000
G1 X23.5446 Y-24.8990 Z0.0000
G1 X23.5434 Y-24.8986 Z0.0000
G1 X23.5422 Y-24.8981 Z0.0000
G1 X23.5410 Y-24.8976 Z0.0000
G1 X23.5398 Y-24.8972 Z0.0000
G1 X23.5386 Y-24.8967 Z0.0000
G1 X23.4869 Y-24.8753 Z0.0000
G1 X23.4859 Y-24.8749 Z0.0000
G1 X23.4850 Y-24.8745 Z0.0000
G1 X23.4841 Y-24.8741 Z0.0000
G1 X23.4832 Y-24.8737 Z0.0000
G1 X23.4822 Y-24.8733 Z0.0000
G1 X23.4813 Y-24.8729 Z0.0000
G1 X23.4804 Y-24.8725 Z0.0000
G1 X23.4795 Y-24.8721 Z0.0000
G1 X23.4785 Y-24.8717 Z0.0000
G1 X23.4776 Y-24.8713 Z0.0000
G1 X23.4767 Y-24.8708 Z0.0000
G1 X23.4758 Y-24.8704 Z0.0000
G1 X23.4749 Y-24.8700 Z0.0000
G1 X23.4740 Y-24.8695 Z0.0000
G1 X23.4731 Y-24.8691 Z0.0000
G1 X23.4147 Y-24.8402 Z0.0000
G1 X23.4136 Y-24.8396 Z0.0000
G1 X23.4124 Y-24.8391 Z0.0000
G1 X23.4113 Y-24.8385 Z0.0000
G1 X23.4102 Y-24.8379 Z0.0000
G1 X23.4090 Y-24.8373 Z0.0000
G1 X23.4079 Y-24.8367 Z0.0000
G1 X23.4068 Y-24.8361 Z0.0000
G1 X23.4057 Y-24.8355 Z0.0000
G1 X23.4046 Y-24.8348 Z0.0000
G1 X23.4034 Y-24.8342 Z0.0000
G1 X23.4023 Y-24.8336 Z0.0000
G1 X23.4012 Y-24.8329 Z0.0000
G1 X23.4001 Y-24.8323 Z0.0000
G1 X23.3990 Y-24.8317 Z0.0000
G1 X23.3979 Y-24.8310 Z0.0000
G1 X23.3555 Y-24.8052 Z0.0000
G1 X23.3547 Y-24.8048 Z0.0000
G1 X23.3539 Y-24.8043 Z0.0000
G1 X23.3531 Y-24.8038 Z0.0000
G1 X23.3523 Y-24.8033 Z0.0000
G1 X23.3516 Y-24.8028 Z0.0000
G1 X23.3508 Y-24.8023 Z0.0000
G1 X23.3500 Y-24.8018 Z0.0000
G1 X23.3492 Y-24.8013 Z0.0000
G1 X23.3485 Y-24.8008 Z0.0000
G1 X23.3477 Y-24.8003 Z0.0000
G1 X23.3469 Y-24.7998 Z0.0000
G1 X23.3462 Y-24.7993 Z0.0000
G1 X23.3454 Y-24.7988 Z0.0000
G1 X23.3446 Y-24.7982 Z0.0000
G1 X23.3439 Y-24.7977 Z0.0000
G1 X23.2917 Y-24.7615 Z0.0000
G1 X23.2907 Y-24.7608 Z0.0000
G1 X23.2897 Y-24.7601 Z0.0000
G1 X23.2887 Y-24.7594 Z0.0000
G1 X23.2877 Y-24.7586 Z0.0000
G1 X23.2867 Y-24.7579 Z0.0000
G1 X23.2857 Y-24.7572 Z0.0000
G1 X23.2847 Y-24.7564 Z0.0000
G1 X23.2837 Y-24.7557 Z0.0000
G1 X23.2827 Y-24.7549 Z0.0000
G1 X23.2818 Y-24.7542 Z0.0000
G1 X23.2808 Y-24.7534 Z0.0000
G1 X23.2798 Y-24.7526 Z0.0000
G1 X23.2788 Y-24.7518 Z0.0000
G1 X23.2779 Y-24.7511 Z0.0000
G1 X23.2769 Y-24.7503 Z0.0000
G1 X23.2396 Y-24.7195 Z0.0000
G1 X23.2389 Y-24.7189 Z0.0000
G1 X23.2383 Y-24.7183 Z0.0000
G1 X23.2376 Y-24.7178 Z0.0000
G1 X23.2369 Y-24.7172 Z0.0000
G1 X23.2362 Y-24.7166 Z0.0000
G1 X23.2355 Y-24.7160 Z0.0000
G1 X23.2348 Y-24.7154 Z0.0000
G1 X23.2342 Y-24.7148 Z0.0000
G1 X23.2335 Y-24.7142 Z0.0000
G1 X23.2328 Y-24.7136 Z0.0000
G1 X23.2321 Y-24.7130 Z0.0000
G1 X23.2315 Y-24.7124 Z0.0000
G1 X23.2308 Y-24.7118 Z0.0000
G1 X23.2301 Y-24.7112 Z0.0000
G1 X23.2295 Y-24.7106 Z0.0000
G1 X23.1842 Y-24.6684 Z0.0000
G1 X23.1833 Y-24.6675 Z0.0000
G1 X23.1824 Y-24.6666 Z0.0000
G1 X23.1814 Y-24.6657 Z0.0000
G1 X23.1805 Y-24.6648 Z0.0000
G1 X23.1796 Y-24.6639 Z0.0000
G1 X23.1787 Y-24.6630 Z0.0000
G1 X23.1778 Y-24.6621 Z0.0000
G1 X23.1769 Y-24.6612 Z0.0000
G1 X23.1760 Y-24.6602 Z0.0000
G1 X23.1751 Y-24.6593 Z0.0000
G1 X23.1742 Y-24.6584 Z0.0000
G1 X23.1733 Y-24.6574 Z0.0000
G1 X23.1724 Y-24.6565 Z0.0000
G1 X23.1716 Y-24.6556 Z0.0000
G1 X23.1707 Y-24.6546 Z0.0000
G1 X23.1053 Y-24.5821 Z0.0000
G1 X23.1046 Y-24.5813 Z0.0000
G1 X23.1040 Y-24.5806 Z0.0000
G1 X23.1033 Y-24.5798 Z0.0000
G1 X23.1026 Y-24.5790 Z0.0000
G1 X23.1020 Y-24.5783 Z0.0000
G1 X23.1013 Y-24.5775 Z0.0000
G1 X23.1006 Y-24.5767 Z0.0000
G1 X23.1000 Y-24.5759 Z0.0000
G1 X23.0993 Y-24.5752 Z0.0000
G1 X23.0987 Y-24.5744 Z0.0000
G1 X23.0980 Y-24.5736 Z0.0000
G1 X23.0974 Y-24.5728 Z0.0000
G1 X23.0968 Y-24.5720 Z0.0000
G1 X23.0961 Y-24.5712 Z0.0000
G1 X23.0955 Y-24.5704 Z0.0000
G1 X23.0536 Y-24.5170 Z0.0000
G1 X14.3951 Y-24.6433 Z0.0000
G1 X14.3919 Y-24.4200 Z0.0000
G1 X5.6331 Y-24.5477 Z0.0000
G1 X5.6298 Y-24.5478 Z0.0000
G1 X5.5448 Y-24.5437 Z0.0000
G1 X5.4605 Y-24.5316 Z0.0000
G1 X5.3777 Y-24.5116 Z0.0000
G1 X5.2972 Y-24.4839 Z0.0000
G1 X5.2196 Y-24.4487 Z0.0000
G1 X5.1458 Y-24.4063 Z0.0000
G1 X5.0762 Y-24.3572 Z0.0000
G1 X5.0116 Y-24.3017 Z0.0000
G1 X4.9946 Y-24.2846 Z0.0000
G1 X4.9945 Y-24.2846 Z0.0000
G1 X4.9763 Y-24.2663 Z0.0000
G1 X4.9152 Y-24.1944 Z0.0000
G1 X4.8619 Y-24.1165 Z0.0000
G1 X4.8172 Y-24.0333 Z0.0000
G1 X4.7815 Y-23.9460 Z0.0000
G1 X4.7551 Y-23.8553 Z0.0000
G1 X4.7384 Y-23.7624 Z0.0000
G1 X4.7315 Y-23.6683 Z0.0000
G1 X4.7315 Y-23.6680 Z0.0000
G1 X4.7315 Y-23.6677 Z0.0000
G1 X4.7315 Y-23.6673 Z0.0000
G1 X4.7315 Y-23.6670 Z0.0000
G1 X4.7315 Y-23.6667 Z0.0000
G1 X4.7315 Y-23.6664 Z0.0000
G1 X4.7315 Y-23.6660 Z0.0000
G1 X4.7315 Y-23.6657 Z0.0000
G1 X4.7315 Y-23.6654 Z0.0000
G1 X4.7315 Y-23.6651 Z0.0000
G1 X4.7315 Y-23.6648 Z0.0000
G1 X4.7315 Y-23.6644 Z0.0000
G1 X4.7315 Y-23.6641 Z0.0000
G1 X4.7315 Y-23.6638 Z0.0000
G1 X4.7315 Y-23.6635 Z0.0000
G1 X4.7315 Y-21.9494 Z0.0000
G1 X4.7356 Y-21.8636 Z0.0000
G1 X4.7479 Y-21.7785 Z0.0000
G1 X4.7683 Y-21.6950 Z0.0000
G1 X4.7965 Y-21.6139 Z0.0000
G1 X4.8323 Y-21.5357 Z0.0000
G1 X4.8755 Y-21.4614 Z0.0000
G1 X4.9255 Y-21.3915 Z0.0000
G1 X4.9819 Y-21.3267 Z0.0000
G1 X4.9992 Y-21.3096 Z0.0000
G1 X4.9993 Y-21.3096 Z0.0000
G1 X5.0162 Y-21.2929 Z0.0000
G1 X5.0894 Y-21.2314 Z0.0000
G1 X5.1687 Y-21.1781 Z0.0000
G1 X5.2532 Y-21.1335 Z0.0000
G1 X5.3421 Y-21.0981 Z0.0000
G1 X5.4341 Y-21.0724 Z0.0000
G1 X5.5284 Y-21.0566 Z0.0000
G1 X5.6239 Y-21.0510 Z0.0000
G1 X5.6242 Y-21.0510 Z0.0000
G1 X5.6245 Y-21.0510 Z0.0000
G1 X5.6248 Y-21.0510 Z0.0000
G1 X5.6252 Y-21.0510 Z0.0000
G1 X5.6255 Y-21.0510 Z0.0000
G1 X5.6258 Y-21.0510 Z0.0000
G1 X5.6261 Y-21.0510 Z0.0000
G1 X5.6265 Y-21.0510 Z0.0000
G1 X5.6268 Y-21.0510 Z0.0000
G1 X5.6271 Y-21.0510 Z0.0000
G1 X5.6274 Y-21.0510 Z0.0000
G1 X5.6278 Y-21.0510 Z0.0000
G1 X5.6281 Y-21.0510 Z0.0000
G1 X5.6284 Y-21.0510 Z0.0000
G1 X5.6287 Y-21.0510 Z0.0000
G1 X23.0954 Y-21.3058 Z0.0000
G1 X23.1041 Y-21.3038 Z0.0000
G1 X23.1149 Y-21.3007 Z0.0000
G1 X23.1259 Y-21.2969 Z0.0000
G1 X23.1370 Y-21.2924 Z0.0000
G1 X23.1481 Y-21.2872 Z0.0000
G1 X23.1589 Y-21.2814 Z0.0000
G1 X23.1694 Y-21.2751 Z0.0000
G1 X23.1794 Y-21.2682 Z0.0000
G1 X23.1888 Y-21.2611 Z0.0000
G1 X23.1975 Y-21.2536 Z0.0000
G1 X23.2054 Y-21.2461 Z0.0000
G1 X23.2125 Y-21.2386 Z0.0000
G1 X23.2203 Y-21.2294 Z0.0000
G1 X23.2747 Y-21.1598 Z0.0000
G1 X23.2754 Y-21.1588 Z0.0000
G1 X23.2762 Y-21.1578 Z0.0000
G1 X23.2770 Y-21.1569 Z0.0000
G1 X23.2777 Y-21.1559 Z0.0000
G1 X23.2785 Y-21.1550 Z0.0000
G1 X23.2793 Y-21.1541 Z0.0000
G1 X23.2801 Y-21.1531 Z0.0000
G1 X23.2809 Y-21.1522 Z0.0000
G1 X23.2816 Y-21.1513 Z0.0000
G1 X23.2824 Y-21.1504 Z0.0000
G1 X23.2832 Y-21.1494 Z0.0000
G1 X23.2841 Y-21.1485 Z0.0000
G1 X23.2849 Y-21.1476 Z0.0000
G1 X23.2857 Y-21.1467 Z0.0000
G1 X23.2865 Y-21.1458 Z0.0000
G1 X23.3369 Y-21.0911 Z0.0000
G1 X23.3379 Y-21.0901 Z0.0000
G1 X23.3388 Y-21.0890 Z0.0000
G1 X23.3398 Y-21.0880 Z0.0000
G1 X23.3408 Y-21.0870 Z0.0000
G1 X23.3418 Y-21.0860 Z0.0000
G1 X23.3428 Y-21.0850 Z0.0000
G1 X23.3438 Y-21.0840 Z0.0000
G1 X23.3448 Y-21.0830 Z0.0000
G1 X23.3458 Y-21.0820 Z0.0000
G1 X23.3468 Y-21.0810 Z0.0000
G1 X23.3479 Y-21.0800 Z0.0000
G1 X23.3489 Y-21.0791 Z0.0000
G1 X23.3499 Y-21.0781 Z0.0000
G1 X23.3510 Y-21.0771 Z0.0000
G1 X23.3520 Y-21.0762 Z0.0000
G1 X23.3928 Y-21.0396 Z0.0000
G1 X23.3938 Y-21.0387 Z0.0000
G1 X23.3948 Y-21.0379 Z0.0000
G1 X23.3958 Y-21.0370 Z0.0000
G1 X23.3967 Y-21.0362 Z0.0000
G1 X23.3977 Y-21.0353 Z0.0000
G1 X23.3987 Y-21.0345 Z0.0000
G1 X23.3997 Y-21.0337 Z0.0000
G1 X23.4007 Y-21.0328 Z0.0000
G1 X23.4017 Y-21.0320 Z0.0000
G1 X23.4027 Y-21.0312 Z0.0000
G1 X23.4037 Y-21.0304 Z0.0000
G1 X23.4048 Y-21.0296 Z0.0000
G1 X23.4058 Y-21.0288 Z0.0000
G1 X23.4068 Y-21.0280 Z0.0000
G1 X23.4079 Y-21.0273 Z0.0000
G1 X23.4406 Y-21.0027 Z0.0000
G1 X23.4415 Y-21.0020 Z0.0000
G1 X23.4425 Y-21.0013 Z0.0000
G1 X23.4434 Y-21.0006 Z0.0000
G1 X23.4444 Y-20.9999 Z0.0000
G1 X23.4454 Y-20.9992 Z0.0000
G1 X23.4464 Y-20.9985 Z0.0000
G1 X23.4473 Y-20.9978 Z0.0000
G1 X23.4483 Y-20.9971 Z0.0000
G1 X23.4493 Y-20.9964 Z0.0000
G1 X23.4503 Y-20.9958 Z0.0000
G1 X23.4513 Y-20.9951 Z0.0000
G1 X23.4523 Y-20.9945 Z0.0000
G1 X23.4533 Y-20.9938 Z0.0000
G1 X23.4543 Y-20.9932 Z0.0000
G1 X23.4553 Y-20.9925 Z0.0000
G1 X23.4990 Y-20.9649 Z0.0000
G1 X23.5002 Y-20.9641 Z0.0000
G1 X23.5013 Y-20.9634 Z0.0000
G1 X23.5025 Y-20.9627 Z0.0000
G1 X23.5037 Y-20.9620 Z0.0000
G1 X23.5048 Y-20.9613 Z0.0000
G1 X23.5060 Y-20.9606 Z0.0000
G1 X23.5072 Y-20.9600 Z0.0000
G1 X23.5083 Y-20.9593 Z0.0000
G1 X23.5095 Y-20.9586 Z0.0000
G1 X23.5107 Y-20.9580 Z0.0000
G1 X23.5119 Y-20.9573 Z0.0000
G1 X23.5131 Y-20.9567 Z0.0000
G1 X23.5143 Y-20.9561 Z0.0000
G1 X23.5155 Y-20.9554 Z0.0000
G1 X23.5167 Y-20.9548 Z0.0000
G1 X23.5504 Y-20.9376 Z0.0000
G1 X23.5512 Y-20.9372 Z0.0000
G1 X23.5520 Y-20.9367 Z0.0000
G1 X23.5528 Y-20.9363 Z0.0000
G1 X23.5537 Y-20.9359 Z0.0000
G1 X23.5545 Y-20.9355 Z0.0000
G1 X23.5553 Y-20.9351 Z0.0000
G1 X23.5562 Y-20.9347 Z0.0000
G1 X23.5570 Y-20.9343 Z0.0000
G1 X23.5578 Y-20.9339 Z0.0000
G1 X23.5587 Y-20.9335 Z0.0000
G1 X23.5595 Y-20.9332 Z0.0000
G1 X23.5604 Y-20.9328 Z0.0000
G1 X23.5612 Y-20.9324 Z0.0000
G1 X23.5620 Y-20.9320 Z0.0000
G1 X23.5629 Y-20.9317 Z0.0000
G1 X23.6036 Y-20.9139 Z0.0000
G1 X23.6048 Y-20.9134 Z0.0000
G1 X23.6060 Y-20.9129 Z0.0000
G1 X23.6072 Y-20.9124 Z0.0000
G1 X23.6084 Y-20.9119 Z0.0000
G1 X23.6097 Y-20.9114 Z0.0000
G1 X23.6109 Y-20.9109 Z0.0000
G1 X23.6121 Y-20.9104 Z0.0000
G1 X23.6133 Y-20.9100 Z0.0000
G1 X23.6146 Y-20.9095 Z0.0000
G1 X23.6158 Y-20.9090 Z0.0000
G1 X23.6170 Y-20.9086 Z0.0000
G1 X23.6183 Y-20.9081 Z0.0000
G1 X23.6195 Y-20.9077 Z0.0000
G1 X23.6207 Y-20.9073 Z0.0000
G1 X23.6220 Y-20.9069 Z0.0000
G1 X23.6585 Y-20.8947 Z0.0000
G1 X23.6594 Y-20.8944 Z0.0000
G1 X23.6603 Y-20.8941 Z0.0000
G1 X23.6611 Y-20.8938 Z0.0000
G1 X23.6620 Y-20.8935 Z0.0000
G1 X23.6629 Y-20.8932 Z0.0000
G1 X23.6638 Y-20.8929 Z0.0000
G1 X23.6647 Y-20.8927 Z0.0000
G1 X23.6656 Y-20.8924 Z0.0000
G1 X23.6665 Y-20.8921 Z0.0000
G1 X23.6674 Y-20.8919 Z0.0000
G1 X23.6683 Y-20.8916 Z0.0000
G1 X23.6692 Y-20.8914 Z0.0000
G1 X23.6701 Y-20.8911 Z0.0000
G1 X23.6710 Y-20.8909 Z0.0000
G1 X23.6719 Y-20.8906 Z0.0000
G1 X23.7152 Y-20.8791 Z0.0000
G1 X23.7165 Y-20.8788 Z0.0000
G1 X23.7177 Y-20.8785 Z0.0000
G1 X23.7190 Y-20.8781 Z0.0000
G1 X23.7203 Y-20.8778 Z0.0000
G1 X23.7216 Y-20.8775 Z0.0000
G1 X23.7229 Y-20.8772 Z0.0000
G1 X23.7242 Y-20.8769 Z0.0000
G1 X23.7255 Y-20.8767 Z0.0000
G1 X23.7268 Y-20.8764 Z0.0000
G1 X23.7280 Y-20.8761 Z0.0000
G1 X23.7293 Y-20.8759 Z0.0000
G1 X23.7306 Y-20.8756 Z0.0000
G1 X23.7319 Y-20.8754 Z0.0000
G1 X23.7332 Y-20.8751 Z0.0000
G1 X23.7345 Y-20.8749 Z0.0000
G1 X23.7727 Y-20.8683 Z0.0000
G1 X23.7736 Y-20.8681 Z0.0000
G1 X23.7745 Y-20.8680 Z0.0000
G1 X23.7755 Y-20.8678 Z0.0000
G1 X23.7764 Y-20.8677 Z0.0000
G1 X23.7773 Y-20.8676 Z0.0000
G1 X23.7782 Y-20.8674 Z0.0000
G1 X23.7792 Y-20.8673 Z0.0000
G1 X23.7801 Y-20.8672 Z0.0000
G1 X23.7810 Y-20.8670 Z0.0000
G1 X23.7819 Y-20.8669 Z0.0000
G1 X23.7829 Y-20.8668 Z0.0000
G1 X23.7838 Y-20.8667 Z0.0000
G1 X23.7847 Y-20.8666 Z0.0000
G1 X23.7857 Y-20.8665 Z0.0000
G1 X23.7866 Y-20.8664 Z0.0000
G1 X23.8310 Y-20.8615 Z0.0000
G1 X23.8323 Y-20.8614 Z0.0000
G1 X23.8336 Y-20.8613 Z0.0000
G1 X23.8349 Y-20.8611 Z0.0000
G1 X23.8362 Y-20.8610 Z0.0000
G1 X23.8375 Y-20.8609 Z0.0000
G1 X23.8388 Y-20.8608 Z0.0000
G1 X23.8401 Y-20.8607 Z0.0000
G1 X23.8414 Y-20.8606 Z0.0000
G1 X23.8427 Y-20.8606 Z0.0000
G1 X23.8441 Y-20.8605 Z0.0000
G1 X23.8454 Y-20.8604 Z0.0000
G1 X23.8467 Y-20.8604 Z0.0000
G1 X23.8480 Y-20.8603 Z0.0000
G1 X23.8493 Y-20.8603 Z0.0000
G1 X23.8506 Y-20.8603 Z0.0000
G1 X23.8891 Y-20.8595 Z0.0000
G1 X23.8901 Y-20.8595 Z0.0000
G1 X23.8911 Y-20.8595 Z0.0000
G1 X23.8921 Y-20.8595 Z0.0000
G1 X23.8931 Y-20.8595 Z0.0000
G1 X23.8941 Y-20.8595 Z0.0000
G1 X23.8950 Y-20.8595 Z0.0000
G1 X23.8960 Y-20.8595 Z0.0000
G1 X23.8970 Y-20.8595 Z0.0000
G1 X23.8980 Y-20.8595 Z0.0000
G1 X23.8990 Y-20.8595 Z0.0000
G1 X23.9000 Y-20.8596 Z0.0000
G1 X23.9010 Y-20.8596 Z0.0000
G1 X23.9020 Y-20.8596 Z0.0000
G1 X23.9030 Y-20.8597 Z0.0000
G1 X23.9039 Y-20.8597 Z0.0000
G1 X23.9521 Y-20.8620 Z0.0000
G1 X23.9534 Y-20.8620 Z0.0000
G1 X23.9547 Y-20.8621 Z0.0000
G1 X23.9560 Y-20.8622 Z0.0000
G1 X23.9573 Y-20.8623 Z0.0000
G1 X23.9586 Y-20.8624 Z0.0000
G1 X23.9599 Y-20.8625 Z0.0000
G1 X23.9612 Y-20.8626 Z0.0000
G1 X23.9625 Y-20.8627 Z0.0000
G1 X23.9638 Y-20.8628 Z0.0000
G1 X23.9651 Y-20.8630 Z0.0000
G1 X23.9664 Y-20.8631 Z0.0000
G1 X23.9677 Y-20.8632 Z0.0000
G1 X23.9690 Y-20.8634 Z0.0000
G1 X23.9703 Y-20.8636 Z0.0000
G1 X23.9716 Y-20.8637 Z0.0000
G1 X24.0049 Y-20.8682 Z0.0000
G1 X24.0058 Y-20.8684 Z0.0000
G1 X24.0067 Y-20.8685 Z0.0000
G1 X24.0076 Y-20.8686 Z0.0000
G1 X24.0084 Y-20.8687 Z0.0000
G1 X24.0093 Y-20.8689 Z0.0000
G1 X24.0102 Y-20.8690 Z0.0000
G1 X24.0111 Y-20.8692 Z0.0000
G1 X24.0120 Y-20.8693 Z0.0000
G1 X24.0129 Y-20.8695 Z0.0000
G1 X24.0137 Y-20.8696 Z0.0000
G1 X24.0146 Y-20.8698 Z0.0000
G1 X24.0155 Y-20.8699 Z0.0000
G1 X24.0164 Y-20.8701 Z0.0000
G1 X24.0173 Y-20.8703 Z0.0000
G1 X24.0181 Y-20.8704 Z0.0000
G1 X24.0642 Y-20.8795 Z0.0000
G1 X24.0655 Y-20.8798 Z0.0000
G1 X24.0667 Y-20.8800 Z0.0000
G1 X24.0679 Y-20.8803 Z0.0000
G1 X24.0692 Y-20.8805 Z0.0000
G1 X24.0704 Y-20.8808 Z0.0000
G1 X24.0717 Y-20.8811 Z0.0000
G1 X24.0729 Y-20.8814 Z0.0000
G1 X24.0741 Y-20.8817 Z0.0000
G1 X24.0754 Y-20.8820 Z0.0000
G1 X24.0766 Y-20.8823 Z0.0000
G1 X24.0778 Y-20.8826 Z0.0000
G1 X24.0791 Y-20.8830 Z0.0000
G1 X24.0803 Y-20.8833 Z0.0000
G1 X24.0815 Y-20.8836 Z0.0000
G1 X24.0827 Y-20.8840 Z0.0000
G1 X24.1142 Y-20.8930 Z0.0000
G1 X24.1150 Y-20.8933 Z0.0000
G1 X24.1159 Y-20.8935 Z0.0000
G1 X24.1167 Y-20.8938 Z0.0000
G1 X24.1175 Y-20.8940 Z0.0000
G1 X24.1184 Y-20.8943 Z0.0000
G1 X24.1192 Y-20.8945 Z0.0000
G1 X24.1201 Y-20.8948 Z0.0000
G1 X24.1209 Y-20.8951 Z0.0000
G1 X24.1217 Y-20.8953 Z0.0000
G1 X24.1226 Y-20.8956 Z0.0000
G1 X24.1234 Y-20.8959 Z0.0000
G1 X24.1242 Y-20.8962 Z0.0000
G1 X24.1250 Y-20.8964 Z0.0000
G1 X24.1259 Y-20.8967 Z0.0000
G1 X24.1267 Y-20.8970 Z0.0000
G1 X24.1700 Y-20.9123 Z0.0000
G1 X24.1712 Y-20.9127 Z0.0000
G1 X24.1723 Y-20.9131 Z0.0000
G1 X24.1735 Y-20.9135 Z0.0000
G1 X24.1747 Y-20.9140 Z0.0000
G1 X24.1758 Y-20.9144 Z0.0000
G1 X24.1770 Y-20.9149 Z0.0000
G1 X24.1782 Y-20.9153 Z0.0000
G1 X24.1793 Y-20.9158 Z0.0000
G1 X24.1805 Y-20.9163 Z0.0000
G1 X24.1816 Y-20.9167 Z0.0000
G1 X24.1828 Y-20.9172 Z0.0000
G1 X24.1839 Y-20.9177 Z0.0000
G1 X24.1851 Y-20.9182 Z0.0000
G1 X24.1862 Y-20.9187 Z0.0000
G1 X24.1874 Y-20.9192 Z0.0000
G1 X24.2167 Y-20.9324 Z0.0000
G1 X24.2175 Y-20.9328 Z0.0000
G1 X24.2183 Y-20.9331 Z0.0000
G1 X24.2191 Y-20.9335 Z0.0000
G1 X24.2199 Y-20.9339 Z0.0000
G1 X24.2207 Y-20.9342 Z0.0000
G1 X24.2215 Y-20.9346 Z0.0000
G1 X24.2223 Y-20.9350 Z0.0000
G1 X24.2230 Y-20.9354 Z0.0000
G1 X24.2238 Y-20.9358 Z0.0000
G1 X24.2246 Y-20.9361 Z0.0000
G1 X24.2254 Y-20.9365 Z0.0000
G1 X24.2262 Y-20.9369 Z0.0000
G1 X24.2269 Y-20.9373 Z0.0000
G1 X24.2277 Y-20.9377 Z0.0000
G1 X24.2285 Y-20.9381 Z0.0000
G1 X24.2696 Y-20.9596 Z0.0000
G1 X24.2707 Y-20.9602 Z0.0000
G1 X24.2718 Y-20.9608 Z0.0000
G1 X24.2730 Y-20.9614 Z0.0000
G1 X24.2741 Y-20.9620 Z0.0000
G1 X24.2752 Y-20.9626 Z0.0000
G1 X24.2763 Y-20.9632 Z0.0000
G1 X24.2774 Y-20.9638 Z0.0000
G1 X24.2785 Y-20.9645 Z0.0000
G1 X24.2796 Y-20.9651 Z0.0000
G1 X24.2807 Y-20.9658 Z0.0000
G1 X24.2817 Y-20.9664 Z0.0000
G1 X24.2828 Y-20.9671 Z0.0000
G1 X24.2839 Y-20.9677 Z0.0000
G1 X24.2850 Y-20.9684 Z0.0000
G1 X24.2860 Y-20.9691 Z0.0000
G1 X24.3137 Y-20.9866 Z0.0000
G1 X24.3144 Y-20.9871 Z0.0000
G1 X24.3152 Y-20.9876 Z0.0000
G1 X24.3159 Y-20.9881 Z0.0000
G1 X24.3167 Y-20.9886 Z0.0000
G1 X24.3174 Y-20.9891 Z0.0000
G1 X24.3181 Y-20.9896 Z0.0000
G1 X24.3189 Y-20.9901 Z0.0000
G1 X24.3196 Y-20.9906 Z0.0000
G1 X24.3204 Y-20.9911 Z0.0000
G1 X24.3211 Y-20.9916 Z0.0000
G1 X24.3218 Y-20.9921 Z0.0000
G1 X24.3225 Y-20.9926 Z0.0000
G1 X24.3233 Y-20.9931 Z0.0000
G1 X24.3240 Y-20.9936 Z0.0000
G1 X24.3247 Y-20.9941 Z0.0000
G1 X24.3634 Y-21.0221 Z0.0000
G1 X24.3645 Y-21.0229 Z0.0000
G1 X24.3655 Y-21.0237 Z0.0000
G1 X24.3666 Y-21.0244 Z0.0000
G1 X24.3676 Y-21.0252 Z0.0000
G1 X24.3686 Y-21.0260 Z0.0000
G1 X24.3697 Y-21.0268 Z0.0000
G1 X24.3707 Y-21.0276 Z0.0000
G1 X24.3717 Y-21.0284 Z0.0000
G1 X24.3727 Y-21.0292 Z0.0000
G1 X24.3738 Y-21.0301 Z0.0000
G1 X24.3748 Y-21.0309 Z0.0000
G1 X24.3758 Y-21.0317 Z0.0000
G1 X24.3768 Y-21.0326 Z0.0000
G1 X24.3778 Y-21.0334 Z0.0000
G1 X24.3787 Y-21.0343 Z0.0000
G1 X24.4042 Y-21.0563 Z0.0000
G1 X24.4048 Y-21.0568 Z0.0000
G1 X24.4054 Y-21.0574 Z0.0000
G1 X24.4061 Y-21.0580 Z0.0000
G1 X24.4067 Y-21.0585 Z0.0000
G1 X24.4074 Y-21.0591 Z0.0000
G1 X24.4080 Y-21.0597 Z0.0000
G1 X24.4086 Y-21.0602 Z0.0000
G1 X24.4092 Y-21.0608 Z0.0000
G1 X24.4099 Y-21.0614 Z0.0000
G1 X24.4105 Y-21.0620 Z0.0000
G1 X24.4111 Y-21.0625 Z0.0000
G1 X24.4117 Y-21.0631 Z0.0000
G1 X24.4123 Y-21.0637 Z0.0000
G1 X24.4129 Y-21.0643 Z0.0000
G1 X24.4136 Y-21.0649 Z0.0000
G1 X24.4454 Y-21.0958 Z0.0000
G1 X24.4464 Y-21.0967 Z0.0000
G1 X24.4473 Y-21.0977 Z0.0000
G1 X24.4482 Y-21.0986 Z0.0000
G1 X24.4491 Y-21.0995 Z0.0000
G1 X24.4501 Y-21.1005 Z0.0000
G1 X24.4510 Y-21.1014 Z0.0000
G1 X24.4519 Y-21.1024 Z0.0000
G1 X24.4528 Y-21.1033 Z0.0000
G1 X24.4537 Y-21.1043 Z0.0000
G1 X24.4546 Y-21.1052 Z0.0000
G1 X24.4554 Y-21.1062 Z0.0000
G1 X24.4563 Y-21.1072 Z0.0000
G1 X24.4572 Y-21.1082 Z0.0000
G1 X24.4581 Y-21.1092 Z0.0000
G1 X24.4589 Y-21.1101 Z0.0000
G1 X24.4841 Y-21.1393 Z0.0000
G1 X24.4847 Y-21.1400 Z0.0000
G1 X24.4853 Y-21.1407 Z0.0000
G1 X24.4859 Y-21.1414 Z0.0000
G1 X24.4865 Y-21.1421 Z0.0000
G1 X24.4871 Y-21.1429 Z0.0000
G1 X24.4877 Y-21.1436 Z0.0000
G1 X24.4883 Y-21.1443 Z0.0000
G1 X24.4889 Y-21.1450 Z0.0000
G1 X24.4894 Y-21.1458 Z0.0000
G1 X24.4900 Y-21.1465 Z0.0000
G1 X24.4906 Y-21.1472 Z0.0000
G1 X24.4912 Y-21.1480 Z0.0000
G1 X24.4918 Y-21.1487 Z0.0000
G1 X24.4923 Y-21.1494 Z0.0000
G1 X24.4929 Y-21.1502 Z0.0000
G1 X24.5200 Y-21.1858 Z0.0000
G1 X24.5208 Y-21.1869 Z0.0000
G1 X24.5215 Y-21.1880 Z0.0000
G1 X24.5223 Y-21.1890 Z0.0000
G1 X24.5231 Y-21.1901 Z0.0000
G1 X24.5239 Y-21.1912 Z0.0000
G1 X24.5246 Y-21.1922 Z0.0000
G1 X24.5254 Y-21.1933 Z0.0000
G1 X24.5261 Y-21.1944 Z0.0000
G1 X24.5269 Y-21.1955 Z0.0000
G1 X24.5276 Y-21.1966 Z0.0000
G1 X24.5284 Y-21.1977 Z0.0000
G1 X24.5291 Y-21.1988 Z0.0000
G1 X24.5298 Y-21.1999 Z0.0000
G1 X24.5305 Y-21.2010 Z0.0000
G1 X24.5312 Y-21.2021 Z0.0000
G1 X24.5518 Y-21.2349 Z0.0000
G1 X24.5523 Y-21.2357 Z0.0000
G1 X24.5528 Y-21.2365 Z0.0000
G1 X24.5533 Y-21.2373 Z0.0000
G1 X24.5538 Y-21.2381 Z0.0000
G1 X24.5542 Y-21.2389 Z0.0000
G1 X24.5547 Y-21.2397 Z0.0000
G1 X24.5552 Y-21.2405 Z0.0000
G1 X24.5557 Y-21.2413 Z0.0000
G1 X24.5561 Y-21.2422 Z0.0000
G1 X24.5566 Y-21.2430 Z0.0000
G1 X24.5571 Y-21.2438 Z0.0000
G1 X24.5575 Y-21.2446 Z0.0000
G1 X24.5580 Y-21.2454 Z0.0000
G1 X24.5584 Y-21.2462 Z0.0000
G1 X24.5589 Y-21.2471 Z0.0000
G1 X24.5802 Y-21.2863 Z0.0000
G1 X24.5808 Y-21.2874 Z0.0000
G1 X24.5814 Y-21.2886 Z0.0000
G1 X24.5820 Y-21.2898 Z0.0000
G1 X24.5826 Y-21.2909 Z0.0000
G1 X24.5832 Y-21.2921 Z0.0000
G1 X24.5838 Y-21.2933 Z0.0000
G1 X24.5844 Y-21.2945 Z0.0000
G1 X24.5850 Y-21.2956 Z0.0000
G1 X24.5855 Y-21.2968 Z0.0000
G1 X24.5861 Y-21.2980 Z0.0000
G1 X24.5867 Y-21.2992 Z0.0000
G1 X24.5872 Y-21.3004 Z0.0000
G1 X24.5878 Y-21.3016 Z0.0000
G1 X24.5883 Y-21.3028 Z0.0000
G1 X24.5888 Y-21.3040 Z0.0000
G1 X24.6041 Y-21.3393 Z0.0000
G1 X24.6045 Y-21.3402 Z0.0000
G1 X24.6049 Y-21.3411 Z0.0000
G1 X24.6053 Y-21.3420 Z0.0000
G1 X24.6057 Y-21.3430 Z0.0000
G1 X24.6060 Y-21.3439 Z0.0000
G1 X24.6064 Y-21.3448 Z0.0000
G1 X24.6068 Y-21.3457 Z0.0000
G1 X24.6071 Y-21.3466 Z0.0000
G1 X24.6075 Y-21.3475 Z0.0000
G1 X24.6079 Y-21.3485 Z0.0000
G1 X24.6082 Y-21.3494 Z0.0000
G1 X24.6086 Y-21.3503 Z0.0000
G1 X24.6089 Y-21.3513 Z0.0000
G1 X24.6092 Y-21.3522 Z0.0000
G1 X24.6096 Y-21.3531 Z0.0000
G1 X24.6258 Y-21.3985 Z0.0000
G1 X24.6262 Y-21.3997 Z0.0000
G1 X24.6266 Y-21.4009 Z0.0000
G1 X24.6270 Y-21.4022 Z0.0000
G1 X24.6275 Y-21.4034 Z0.0000
G1 X24.6279 Y-21.4047 Z0.0000
G1 X24.6283 Y-21.4059 Z0.0000
G1 X24.6287 Y-21.4072 Z0.0000
G1 X24.6290 Y-21.4084 Z0.0000
G1 X24.6294 Y-21.4097 Z0.0000
G1 X24.6298 Y-21.4109 Z0.0000
G1 X24.6301 Y-21.4122 Z0.0000
G1 X24.6305 Y-21.4134 Z0.0000
G1 X24.6308 Y-21.4147 Z0.0000
G1 X24.6312 Y-21.4159 Z0.0000
G1 X24.6315 Y-21.4172 Z0.0000
G1 X24.6400 Y-21.4497 Z0.0000
G1 X24.6402 Y-21.4506 Z0.0000
G1 X24.6404 Y-21.4515 Z0.0000
G1 X24.6407 Y-21.4523 Z0.0000
G1 X24.6409 Y-21.4532 Z0.0000
G1 X24.6411 Y-21.4541 Z0.0000
G1 X24.6413 Y-21.4550 Z0.0000
G1 X24.6415 Y-21.4558 Z0.0000
G1 X24.6417 Y-21.4567 Z0.0000
G1 X24.6419 Y-21.4576 Z0.0000
G1 X24.6421 Y-21.4585 Z0.0000
G1 X24.6423 Y-21.4593 Z0.0000
G1 X24.6425 Y-21.4602 Z0.0000
G1 X24.6426 Y-21.4611 Z0.0000
G1 X24.6428 Y-21.4620 Z0.0000
G1 X24.6430 Y-21.4628 Z0.0000
G1 X24.6521 Y-21.5089 Z0.0000
G1 X24.6523 Y-21.5101 Z0.0000
G1 X24.6526 Y-21.5114 Z0.0000
G1 X24.6528 Y-21.5126 Z0.0000
G1 X24.6530 Y-21.5139 Z0.0000
G1 X24.6532 Y-21.5151 Z0.0000
G1 X24.6534 Y-21.5164 Z0.0000
G1 X24.6536 Y-21.5177 Z0.0000
G1 X24.6538 Y-21.5189 Z0.0000
G1 X24.6540 Y-21.5202 Z0.0000
G1 X24.6542 Y-21.5214 Z0.0000
G1 X24.6544 Y-21.5227 Z0.0000
G1 X24.6545 Y-21.5239 Z0.0000
G1 X24.6547 Y-21.5252 Z0.0000
G1 X24.6548 Y-21.5265 Z0.0000
G1 X24.6550 Y-21.5277 Z0.0000
G1 X24.6586 Y-21.5603 Z0.0000
G1 X24.6586 Y-21.5611 Z0.0000
G1 X24.6587 Y-21.5620 Z0.0000
G1 X24.6588 Y-21.5629 Z0.0000
G1 X24.6589 Y-21.5637 Z0.0000
G1 X24.6590 Y-21.5646 Z0.0000
G1 X24.6591 Y-21.5655 Z0.0000
G1 X24.6591 Y-21.5664 Z0.0000
G1 X24.6592 Y-21.5672 Z0.0000
G1 X24.6593 Y-21.5681 Z0.0000
G1 X24.6593 Y-21.5690 Z0.0000
G1 X24.6594 Y-21.5699 Z0.0000
G1 X24.6595 Y-21.5707 Z0.0000
G1 X24.6595 Y-21.5716 Z0.0000
G1 X24.6596 Y-21.5725 Z0.0000
G1 X24.6596 Y-21.5734 Z0.0000
G1 X24.6619 Y-21.6192 Z0.0000
G1 X24.6620 Y-21.6199 Z0.0000
G1 X24.6620 Y-21.6207 Z0.0000
G1 X24.6620 Y-21.6215 Z0.0000
G1 X24.6621 Y-21.6222 Z0.0000
G1 X24.6621 Y-21.6230 Z0.0000
G1 X24.6621 Y-21.6237 Z0.0000
G1 X24.6621 Y-21.6245 Z0.0000
G1 X24.6622 Y-21.6252 Z0.0000
G1 X24.6622 Y-21.6260 Z0.0000
G1 X24.6622 Y-21.6268 Z0.0000
G1 X24.6622 Y-21.6275 Z0.0000
G1 X24.6622 Y-21.6283 Z0.0000
G1 X24.6622 Y-21.6290 Z0.0000
G1 X24.6622 Y-21.6298 Z0.0000
G1 X24.6622 Y-21.6305 Z0.0000
G1 X24.6617 Y-23.9840 Z0.0000
G1 X24.6617 Y-23.9852 Z0.0000
G1 X24.6617 Y-23.9864 Z0.0000
G1 X24.6617 Y-23.9877 Z0.0000
G1 X24.6617 Y-23.9889 Z0.0000
G1 X24.6617 Y-23.9901 Z0.0000
G1 X24.6616 Y-23.9913 Z0.0000
G1 X24.6616 Y-23.9926 Z0.0000
G1 X24.6615 Y-23.9938 Z0.0000
G1 X24.6615 Y-23.9950 Z0.0000
G1 X24.6614 Y-23.9962 Z0.0000
G1 X24.6613 Y-23.9974 Z0.0000
G1 X24.6613 Y-23.9987 Z0.0000
G1 X24.6612 Y-23.9999 Z0.0000
G1 X24.6611 Y-24.0011 Z0.0000
G1 X24.6610 Y-24.0023 Z0.0000
G1 X24.6567 Y-24.0545 Z0.0000
G1 X24.6566 Y-24.0558 Z0.0000
G1 X24.6565 Y-24.0571 Z0.0000
G1 X24.6563 Y-24.0585 Z0.0000
G1 X24.6562 Y-24.0598 Z0.0000
G1 X24.6560 Y-24.0611 Z0.0000
G1 X24.6559 Y-24.0624 Z0.0000
G1 X24.6557 Y-24.0638 Z0.0000
G1 X24.6556 Y-24.0651 Z0.0000
G1 X24.6554 Y-24.0664 Z0.0000
G1 X24.6552 Y-24.0677 Z0.0000
G1 X24.6550 Y-24.0691 Z0.0000
G1 X24.6548 Y-24.0704 Z0.0000
G1 X24.6546 Y-24.0717 Z0.0000
G1 X24.6544 Y-24.0730 Z0.0000
G1 X24.6541 Y-24.0744 Z0.0000
G1 X24.6478 Y-24.1106 Z0.0000
G1 X24.6477 Y-24.1116 Z0.0000
G1 X24.6475 Y-24.1125 Z0.0000
G1 X24.6473 Y-24.1135 Z0.0000
G1 X24.6472 Y-24.1144 Z0.0000
G1 X24.6470 Y-24.1154 Z0.0000
G1 X24.6468 Y-24.1163 Z0.0000
G1 X24.6466 Y-24.1172 Z0.0000
G1 X24.6464 Y-24.1182 Z0.0000
G1 X24.6462 Y-24.1191 Z0.0000
G1 X24.6460 Y-24.1201 Z0.0000
G1 X24.6458 Y-24.1210 Z0.0000
G1 X24.6456 Y-24.1219 Z0.0000
G1 X24.6454 Y-24.1229 Z0.0000
G1 X24.6451 Y-24.1238 Z0.0000
G1 X24.6449 Y-24.1248 Z0.0000
G1 X24.6337 Y-24.1712 Z0.0000
G1 X24.6334 Y-24.1724 Z0.0000
G1 X24.6331 Y-24.1737 Z0.0000
G1 X24.6328 Y-24.1750 Z0.0000
G1 X24.6324 Y-24.1762 Z0.0000
G1 X24.6321 Y-24.1775 Z0.0000
G1 X24.6317 Y-24.1787 Z0.0000
G1 X24.6314 Y-24.1800 Z0.0000
G1 X24.6310 Y-24.1813 Z0.0000
G1 X24.6307 Y-24.1825 Z0.0000
G1 X24.6303 Y-24.1837 Z0.0000
G1 X24.6299 Y-24.1850 Z0.0000
G1 X24.6295 Y-24.1862 Z0.0000
G1 X24.6291 Y-24.1875 Z0.0000
G1 X24.6287 Y-24.1887 Z0.0000
G1 X24.6283 Y-24.1900 Z0.0000
G1 X24.6176 Y-24.2218 Z0.0000
G1 X24.6173 Y-24.2226 Z0.0000
G1 X24.6170 Y-24.2234 Z0.0000
G1 X24.6168 Y-24.2242 Z0.0000
G1 X24.6165 Y-24.2250 Z0.0000
G1 X24.6162 Y-24.2258 Z0.0000
G1 X24.6159 Y-24.2266 Z0.0000
G1 X24.6156 Y-24.2274 Z0.0000
G1 X24.6153 Y-24.2282 Z0.0000
G1 X24.6150 Y-24.2290 Z0.0000
G1 X24.6147 Y-24.2298 Z0.0000
G1 X24.6144 Y-24.2306 Z0.0000
G1 X24.6141 Y-24.2314 Z0.0000
G1 X24.6138 Y-24.2322 Z0.0000
G1 X24.6135 Y-24.2330 Z0.0000
G1 X24.6132 Y-24.2338 Z0.0000
G1 X24.5967 Y-24.2750 Z0.0000
G1 X24.5962 Y-24.2762 Z0.0000
G1 X24.5957 Y-24.2774 Z0.0000
G1 X24.5952 Y-24.2786 Z0.0000
G1 X24.5947 Y-24.2799 Z0.0000
G1 X24.5941 Y-24.2811 Z0.0000
G1 X24.5936 Y-24.2823 Z0.0000
G1 X24.5931 Y-24.2835 Z0.0000
G1 X24.5925 Y-24.2847 Z0.0000
G1 X24.5920 Y-24.2859 Z0.0000
G1 X24.5914 Y-24.2870 Z0.0000
G1 X24.5909 Y-24.2882 Z0.0000
G1 X24.5903 Y-24.2894 Z0.0000
G1 X24.5897 Y-24.2906 Z0.0000
G1 X24.5891 Y-24.2918 Z0.0000
G1 X24.5885 Y-24.2929 Z0.0000
G1 X24.5711 Y-24.3273 Z0.0000
G1 X24.5707 Y-24.3281 Z0.0000
G1 X24.5703 Y-24.3289 Z0.0000
G1 X24.5698 Y-24.3298 Z0.0000
G1 X24.5694 Y-24.3306 Z0.0000
G1 X24.5690 Y-24.3314 Z0.0000
G1 X24.5685 Y-24.3322 Z0.0000
G1 X24.5681 Y-24.3331 Z0.0000
G1 X24.5676 Y-24.3339 Z0.0000
G1 X24.5672 Y-24.3347 Z0.0000
G1 X24.5667 Y-24.3355 Z0.0000
G1 X24.5663 Y-24.3363 Z0.0000
G1 X24.5658 Y-24.3371 Z0.0000
G1 X24.5653 Y-24.3380 Z0.0000
G1 X24.5649 Y-24.3388 Z0.0000
G1 X24.5644 Y-24.3396 Z0.0000
G1 X24.5417 Y-24.3781 Z0.0000
G1 X24.5410 Y-24.3793 Z0.0000
G1 X24.5403 Y-24.3804 Z0.0000
G1 X24.5396 Y-24.3815 Z0.0000
G1 X24.5389 Y-24.3827 Z0.0000
G1 X24.5382 Y-24.3838 Z0.0000
G1 X24.5375 Y-24.3849 Z0.0000
G1 X24.5368 Y-24.3860 Z0.0000
G1 X24.5361 Y-24.3871 Z0.0000
G1 X24.5354 Y-24.3882 Z0.0000
G1 X24.5346 Y-24.3893 Z0.0000
G1 X24.5339 Y-24.3904 Z0.0000
G1 X24.5331 Y-24.3915 Z0.0000
G1 X24.5324 Y-24.3926 Z0.0000
G1 X24.5316 Y-24.3937 Z0.0000
G1 X24.5309 Y-24.3948 Z0.0000
G1 X24.5083 Y-24.4262 Z0.0000
G1 X24.5078 Y-24.4270 Z0.0000
G1 X24.5072 Y-24.4278 Z0.0000
G1 X24.5067 Y-24.4285 Z0.0000
G1 X24.5061 Y-24.4293 Z0.0000
G1 X24.5056 Y-24.4300 Z0.0000
G1 X24.5050 Y-24.4308 Z0.0000
G1 X24.5044 Y-24.4315 Z0.0000
G1 X24.5039 Y-24.4323 Z0.0000
G1 X24.5033 Y-24.4330 Z0.0000
G1 X24.5027 Y-24.4337 Z0.0000
G1 X24.5021 Y-24.4345 Z0.0000
G1 X24.5016 Y-24.4352 Z0.0000
G1 X24.5010 Y-24.4359 Z0.0000
G1 X24.5004 Y-24.4367 Z0.0000
G1 X24.4998 Y-24.4374 Z0.0000
G1 X24.4716 Y-24.4720 Z0.0000
G1 X24.4708 Y-24.4730 Z0.0000
G1 X24.4699 Y-24.4740 Z0.0000
G1 X24.4691 Y-24.4750 Z0.0000
G1 X24.4682 Y-24.4760 Z0.0000
G1 X24.4674 Y-24.4770 Z0.0000
G1 X24.4665 Y-24.4780 Z0.0000
G1 X24.4656 Y-24.4790 Z0.0000
G1 X24.4648 Y-24.4800 Z0.0000
G1 X24.4639 Y-24.4809 Z0.0000
G1 X24.4630 Y-24.4819 Z0.0000
G1 X24.4621 Y-24.4829 Z0.0000
G1 X24.4612 Y-24.4838 Z0.0000
G1 X24.4603 Y-24.4848 Z0.0000
G1 X24.4594 Y-24.4857 Z0.0000
G1 X24.4585 Y-24.4867 Z0.0000
G1 X24.4316 Y-24.5143 Z0.0000
G1 X24.4309 Y-24.5150 Z0.0000
G1 X24.4302 Y-24.5157 Z0.0000
G1 X24.4295 Y-24.5164 Z0.0000
G1 X24.4288 Y-24.5171 Z0.0000
G1 X24.4281 Y-24.5178 Z0.0000
G1 X24.4274 Y-24.5185 Z0.0000
G1 X24.4267 Y-24.5191 Z0.0000
G1 X24.4260 Y-24.5198 Z0.0000
G1 X24.4253 Y-24.5205 Z0.0000
G1 X24.4246 Y-24.5212 Z0.0000
G1 X24.4238 Y-24.5219 Z0.0000
G1 X24.4231 Y-24.5225 Z0.0000
G1 X24.4224 Y-24.5232 Z0.0000
G1 X24.4217 Y-24.5239 Z0.0000
G1 X24.4209 Y-24.5245 Z0.0000
G1 X24.3851 Y-24.5567 Z0.0000
G1 X24.3841 Y-24.5576 Z0.0000
G1 X24.3831 Y-24.5585 Z0.0000
G1 X24.3822 Y-24.5593 Z0.0000
G1 X24.3812 Y-24.5602 Z0.0000
G1 X24.3802 Y-24.5610 Z0.0000
G1 X24.3792 Y-24.5619 Z0.0000
G1 X24.3782 Y-24.5627 Z0.0000
G1 X24.3772 Y-24.5635 Z0.0000
G1 X24.3762 Y-24.5644 Z0.0000
G1 X24.3751 Y-24.5652 Z0.0000
G1 X24.3741 Y-24.5660 Z0.0000
G1 X24.3731 Y-24.5668 Z0.0000
G1 X24.3721 Y-24.5676 Z0.0000
G1 X24.3710 Y-24.5684 Z0.0000
G1 X24.3700 Y-24.5692 Z0.0000
G1 X24.3431 Y-24.5894 Z0.0000
G1 X24.3424 Y-24.5899 Z0.0000
G1 X24.3416 Y-24.5904 Z0.0000
G1 X24.3409 Y-24.5910 Z0.0000
G1 X24.3402 Y-24.5915 Z0.0000
G1 X24.3395 Y-24.5920 Z0.0000
G1 X24.3387 Y-24.5925 Z0.0000
G1 X24.3380 Y-24.5931 Z0.0000
G1 X24.3373 Y-24.5936 Z0.0000
G1 X24.3366 Y-24.5941 Z0.0000
G1 X24.3358 Y-24.5946 Z0.0000
G1 X24.3351 Y-24.5951 Z0.0000
G1 X24.3343 Y-24.5956 Z0.0000
G1 X24.3336 Y-24.5961 Z0.0000
G1 X24.3329 Y-24.5966 Z0.0000
G1 X24.3321 Y-24.5971 Z0.0000
G1 X24.2929 Y-24.6230 Z0.0000
G1 X24.2919 Y-24.6237 Z0.0000
G1 X24.2908 Y-24.6244 Z0.0000
G1 X24.2897 Y-24.6251 Z0.0000
G1 X24.2887 Y-24.6258 Z0.0000
G1 X24.2876 Y-24.6264 Z0.0000
G1 X24.2865 Y-24.6271 Z0.0000
G1 X24.2854 Y-24.6278 Z0.0000
G1 X24.2843 Y-24.6284 Z0.0000
G1 X24.2832 Y-24.6291 Z0.0000
G1 X24.2821 Y-24.6297 Z0.0000
G1 X24.2810 Y-24.6303 Z0.0000
G1 X24.2799 Y-24.6310 Z0.0000
G1 X24.2788 Y-24.6316 Z0.0000
G1 X24.2777 Y-24.6322 Z0.0000
G1 X24.2766 Y-24.6328 Z0.0000
G1 X24.2479 Y-24.6485 Z0.0000
G1 X24.2471 Y-24.6489 Z0.0000
G1 X24.2463 Y-24.6493 Z0.0000
G1 X24.2456 Y-24.6497 Z0.0000
G1 X24.2448 Y-24.6501 Z0.0000
G1 X24.2440 Y-24.6505 Z0.0000
G1 X24.2432 Y-24.6509 Z0.0000
G1 X24.2425 Y-24.6513 Z0.0000
G1 X24.2417 Y-24.6517 Z0.0000
G1 X24.2409 Y-24.6521 Z0.0000
G1 X24.2401 Y-24.6525 Z0.0000
G1 X24.2393 Y-24.6529 Z0.0000
G1 X24.2385 Y-24.6533 Z0.0000
G1 X24.2377 Y-24.6537 Z0.0000
G1 X24.2370 Y-24.6541 Z0.0000
G1 X24.2362 Y-24.6544 Z0.0000
G1 X24.1946 Y-24.6740 Z0.0000
G1 X24.1935 Y-24.6745 Z0.0000
G1 X24.1924 Y-24.6750 Z0.0000
G1 X24.1912 Y-24.6755 Z0.0000
G1 X24.1901 Y-24.6761 Z0.0000
G1 X24.1890 Y-24.6766 Z0.0000
G1 X24.1878 Y-24.6771 Z0.0000
G1 X24.1867 Y-24.6775 Z0.0000
G1 X24.1855 Y-24.6780 Z0.0000
G1 X24.1844 Y-24.6785 Z0.0000
G1 X24.1832 Y-24.6790 Z0.0000
G1 X24.1820 Y-24.6794 Z0.0000
G1 X24.1809 Y-24.6799 Z0.0000
G1 X24.1797 Y-24.6803 Z0.0000
G1 X24.1786 Y-24.6808 Z0.0000
G1 X24.1774 Y-24.6812 Z0.0000
G1 X24.1472 Y-24.6925 Z0.0000
G1 X24.1464 Y-24.6928 Z0.0000
G1 X24.1456 Y-24.6931 Z0.0000
G1 X24.1448 Y-24.6934 Z0.0000
G1 X24.1439 Y-24.6936 Z0.0000
G1 X24.1431 Y-24.6939 Z0.0000
G1 X24.1423 Y-24.6942 Z0.0000
G1 X24.1415 Y-24.6945 Z0.0000
G1 X24.1406 Y-24.6948 Z0.0000
G1 X24.1398 Y-24.6951 Z0.0000
G1 X24.1390 Y-24.6953 Z0.0000
G1 X24.1382 Y-24.6956 Z0.0000
G1 X24.1373 Y-24.6959 Z0.0000
G1 X24.1365 Y-24.6961 Z0.0000
G1 X24.1357 Y-24.6964 Z0.0000
G1 X24.1348 Y-24.6967 Z0.0000
G1 X24.0905 Y-24.7103 Z0.0000
G1 X24.0893 Y-24.7106 Z0.0000
G1 X24.0881 Y-24.7110 Z0.0000
G1 X24.0869 Y-24.7113 Z0.0000
G1 X24.0856 Y-24.7117 Z0.0000
G1 X24.0844 Y-24.7120 Z0.0000
G1 X24.0832 Y-24.7124 Z0.0000
G1 X24.0820 Y-24.7127 Z0.0000
G1 X24.0807 Y-24.7130 Z0.0000
G1 X24.0795 Y-24.7133 Z0.0000
G1 X24.0783 Y-24.7136 Z0.0000
G1 X24.0771 Y-24.7139 Z0.0000
G1 X24.0758 Y-24.7142 Z0.0000
G1 X24.0746 Y-24.7145 Z0.0000
G1 X24.0733 Y-24.7148 Z0.0000
G1 X24.0721 Y-24.7150 Z0.0000
G1 X24.0401 Y-24.7219 Z0.0000
G1 X24.0393 Y-24.7221 Z0.0000
G1 X24.0384 Y-24.7223 Z0.0000
G1 X24.0375 Y-24.7225 Z0.0000
G1 X24.0366 Y-24.7227 Z0.0000
G1 X24.0358 Y-24.7228 Z0.0000
G1 X24.0349 Y-24.7230 Z0.0000
G1 X24.0340 Y-24.7232 Z0.0000
G1 X24.0331 Y-24.7233 Z0.0000
G1 X24.0323 Y-24.7235 Z0.0000
G1 X24.0314 Y-24.7236 Z0.0000
G1 X24.0305 Y-24.7238 Z0.0000
G1 X24.0296 Y-24.7239 Z0.0000
G1 X24.0287 Y-24.7241 Z0.0000
G1 X24.0279 Y-24.7242 Z0.0000
G1 X24.0270 Y-24.7244 Z0.0000
G1 X23.9798 Y-24.7316 Z0.0000
G1 X23.9785 Y-24.7318 Z0.0000
G1 X23.9772 Y-24.7320 Z0.0000
G1 X23.9759 Y-24.7322 Z0.0000
G1 X23.9746 Y-24.7324 Z0.0000
G1 X23.9733 Y-24.7325 Z0.0000
G1 X23.9720 Y-24.7327 Z0.0000
G1 X23.9707 Y-24.7328 Z0.0000
G1 X23.9694 Y-24.7330 Z0.0000
G1 X23.9682 Y-24.7331 Z0.0000
G1 X23.9669 Y-24.7332 Z0.0000
G1 X23.9656 Y-24.7333 Z0.0000
G1 X23.9643 Y-24.7335 Z0.0000
G1 X23.9630 Y-24.7336 Z0.0000
G1 X23.9617 Y-24.7337 Z0.0000
G1 X23.9604 Y-24.7337 Z0.0000
G1 X23.9268 Y-24.7359 Z0.0000
G1 X23.9259 Y-24.7360 Z0.0000
G1 X23.9251 Y-24.7360 Z0.0000
G1 X23.9243 Y-24.7361 Z0.0000
G1 X23.9234 Y-24.7361 Z0.0000
G1 X23.9226 Y-24.7362 Z0.0000
G1 X23.9217 Y-24.7362 Z0.0000
G1 X23.9209 Y-24.7362 Z0.0000
G1 X23.9200 Y-24.7363 Z0.0000
G1 X23.9192 Y-24.7363 Z0.0000
G1 X23.9183 Y-24.7363 Z0.0000
G1 X23.9175 Y-24.7363 Z0.0000
G1 X23.9166 Y-24.7364 Z0.0000
G1 X23.9158 Y-24.7364 Z0.0000
G1 X23.9149 Y-24.7364 Z0.0000
G1 X23.9141 Y-24.7364 Z0.0000
G1 X23.8697 Y-24.7368 Z0.0000
G1 X23.8684 Y-24.7368 Z0.0000
G1 X23.8670 Y-24.7368 Z0.0000
G1 X23.8657 Y-24.7368 Z0.0000
G1 X23.8644 Y-24.7367 Z0.0000
G1 X23.8631 Y-24.7367 Z0.0000
G1 X23.8618 Y-24.7367 Z0.0000
G1 X23.8605 Y-24.7366 Z0.0000
G1 X23.8592 Y-24.7366 Z0.0000
G1 X23.8578 Y-24.7365 Z0.0000
G1 X23.8565 Y-24.7365 Z0.0000
G1 X23.8552 Y-24.7364 Z0.0000
G1 X23.8539 Y-24.7363 Z0.0000
G1 X23.8526 Y-24.7362 Z0.0000
G1 X23.8513 Y-24.7361 Z0.0000
G1 X23.8500 Y-24.7360 Z0.0000
G1 X23.8116 Y-24.7330 Z0.0000
G1 X23.8107 Y-24.7329 Z0.0000
G1 X23.8098 Y-24.7328 Z0.0000
G1 X23.8088 Y-24.7327 Z0.0000
G1 X23.8079 Y-24.7326 Z0.0000
G1 X23.8070 Y-24.7325 Z0.0000
G1 X23.8060 Y-24.7324 Z0.0000
G1 X23.8051 Y-24.7323 Z0.0000
G1 X23.8042 Y-24.7322 Z0.0000
G1 X23.8032 Y-24.7321 Z0.0000
G1 X23.8023 Y-24.7320 Z0.0000
G1 X23.8014 Y-24.7319 Z0.0000
G1 X23.8005 Y-24.7318 Z0.0000
G1 X23.7995 Y-24.7317 Z0.0000
G1 X23.7986 Y-24.7315 Z0.0000
G1 X23.7977 Y-24.7314 Z0.0000
G1 X23.7534 Y-24.7250 Z0.0000
G1 X23.7521 Y-24.7248 Z0.0000
G1 X23.7508 Y-24.7246 Z0.0000
G1 X23.7495 Y-24.7244 Z0.0000
G1 X23.7481 Y-24.7242 Z0.0000
G1 X23.7468 Y-24.7240 Z0.0000
G1 X23.7455 Y-24.7238 Z0.0000
G1 X23.7442 Y-24.7235 Z0.0000
G1 X23.7429 Y-24.7233 Z0.0000
G1 X23.7416 Y-24.7230 Z0.0000
G1 X23.7404 Y-24.7228 Z0.0000
G1 X23.7391 Y-24.7225 Z0.0000
G1 X23.7378 Y-24.7222 Z0.0000
G1 X23.7365 Y-24.7219 Z0.0000
G1 X23.7352 Y-24.7216 Z0.0000
G1 X23.7339 Y-24.7213 Z0.0000
G1 X23.6962 Y-24.7124 Z0.0000
G1 X23.6953 Y-24.7122 Z0.0000
G1 X23.6944 Y-24.7120 Z0.0000
G1 X23.6935 Y-24.7118 Z0.0000
G1 X23.6926 Y-24.7115 Z0.0000
G1 X23.6917 Y-24.7113 Z0.0000
G1 X23.6908 Y-24.7111 Z0.0000
G1 X23.6899 Y-24.7108 Z0.0000
G1 X23.6890 Y-24.7106 Z0.0000
G1 X23.6881 Y-24.7104 Z0.0000
G1 X23.6872 Y-24.7101 Z0.0000
G1 X23.6863 Y-24.7098 Z0.0000
G1 X23.6854 Y-24.7096 Z0.0000
G1 X23.6845 Y-24.7093 Z0.0000
G1 X23.6836 Y-24.7091 Z0.0000
G1 X23.6827 Y-24.7088 Z0.0000
G1 X23.6400 Y-24.6958 Z0.0000
G1 X23.6387 Y-24.6954 Z0.0000
