( MOP:  05-profile-s25PT5-nw43-Gibson-McSwain-NFrets22-01 )
( FILE: G:\Shared drives\AlloyProjectFiles\Customer CAD files\Alloy-Standard-Builds-CAM\Fingerboards-in\05-profile-s25PT5-nw43-Gibson-McSwain-NFrets22-01.nc)
G90
(  BEGIN TOOL LIST )
(  TOOL 11 - Downcut PT750 ROUGH - DESC: 0.7500 DIA, 2 FLUTE,  CARBIDE MAT )
(  ENDOF TOOL LIST )
( 05-profile-s25PT5-nw43-Gibson-McSwain-NFrets22-01)
T11
S14000
M3
G0 Z4.0000
G0 X12.2732 Y-20.7964 
G1 X12.2732 Y-20.7964 Z0.3000 F75.
G1 X13.9744 Y-20.8212 Z0.0000 F50.
G1 X13.9744 Y-20.8212 Z0.0000
G1 X13.9744 Y-20.8212 Z0.0000 F150.
G1 X23.5469 Y-20.9617 Z0.0000
G17
G2X24.6040Y-22.0558Z0.0000I-0.0382J-1.0945
G2X24.6033Y-23.5675Z0.0000I-178.9009J-0.6810
G2X23.5249Y-24.6384Z0.0000I-1.0949J0.0242
G1 X4.4237 Y-24.9172 Z0.0000
G1 X4.4235 Y-24.9172 Z0.0000
G2X3.5795Y-24.6063Z0.0000I-0.0170J1.2550
G2X3.5028Y-24.5323Z0.0000I1.1365J1.2550
G2X3.1585Y-23.7664Z0.0000I0.9079J0.8684
G2X3.1556Y-23.6903Z0.0000I1.2892J0.0875
G1 X3.1556 Y-21.9314 Z0.0000
G1 X3.1556 Y-21.9312 Z0.0000
G2X3.4576Y-21.1153Z0.0000I1.2584J-0.0019
G2X3.5537Y-21.0164Z0.0000I1.1761J-1.0463
G2X4.4242Y-20.6817Z0.0000I0.8507J-0.9132
G1 X13.9744 Y-20.8212 Z0.0000
G1 X13.9712 Y-21.0446 Z0.0000
G1 X23.5313 Y-21.1845 Z0.0000
G2X24.3806Y-22.0558Z0.0000I-0.0226J-0.8716
G2X24.3803Y-23.5549Z0.0000I-205.1368J-0.7095
G2X23.5216Y-24.4151Z0.0000I-0.8718J0.0116
G1 X4.4206 Y-24.6939 Z0.0000
G1 X4.4205 Y-24.6939 Z0.0000
G2X3.7267Y-24.4383Z0.0000I-0.0140J1.0317
G2X3.6641Y-24.3778Z0.0000I1.0112J1.1090
G2X3.3798Y-23.7236Z0.0000I0.7439J0.7121
G1 X3.3791 Y-23.6967 Z0.0000
G1 X3.3790 Y-23.6903 Z0.0000
G1 X3.3790 Y-21.9316 Z0.0000
G1 X3.3790 Y-21.9314 Z0.0000
G2X3.6446Y-21.2414Z0.0000I1.0318J-0.0011
G2X3.7059Y-21.1798Z0.0000I1.0949J-1.0281
G2X4.4208Y-20.9050Z0.0000I0.6985J-0.7498
G1 X13.9712 Y-21.0446 Z0.0000
G1 X13.9679 Y-21.2679 Z0.0000
G1 X23.5184 Y-21.4074 Z0.0000
G1 X23.5191 Y-21.4074 Z0.0000
G1 X23.5197 Y-21.4074 Z0.0000
G1 X23.5204 Y-21.4074 Z0.0000
G1 X23.5210 Y-21.4075 Z0.0000
G1 X23.5216 Y-21.4075 Z0.0000
G1 X23.5223 Y-21.4075 Z0.0000
G1 X23.5229 Y-21.4075 Z0.0000
G1 X23.5236 Y-21.4075 Z0.0000
G1 X23.5242 Y-21.4076 Z0.0000
G1 X23.5249 Y-21.4076 Z0.0000
G1 X23.5255 Y-21.4076 Z0.0000
G1 X23.5261 Y-21.4077 Z0.0000
G1 X23.5268 Y-21.4077 Z0.0000
G2X24.1573Y-22.0557Z0.0000I-0.0179J-0.6482
G2X24.1572Y-23.5449Z0.0000I-258.3731J-0.7306
G1 X24.1572 Y-23.5455 Z0.0000
G1 X24.1572 Y-23.5461 Z0.0000
G1 X24.1572 Y-23.5468 Z0.0000
G1 X24.1572 Y-23.5474 Z0.0000
G1 X24.1572 Y-23.5481 Z0.0000
G1 X24.1572 Y-23.5487 Z0.0000
G1 X24.1571 Y-23.5494 Z0.0000
G1 X24.1571 Y-23.5500 Z0.0000
G1 X24.1571 Y-23.5506 Z0.0000
G1 X24.1571 Y-23.5513 Z0.0000
G1 X24.1571 Y-23.5519 Z0.0000
G2X23.5183Y-24.1918Z0.0000I-0.6484J0.0084
G1 X4.4173 Y-24.4705 Z0.0000
G2X3.8581Y-24.2556Z0.0000I-0.0113J0.8055
G1 X3.8254 Y-24.2233 Z0.0000
G2X3.6023Y-23.6903Z0.0000I0.5802J0.5560
G1 X3.6023 Y-21.9316 Z0.0000
G2X3.8254Y-21.3755Z0.0000I0.8056J-0.0004
G1 X3.8581 Y-21.3432 Z0.0000
G2X4.4174Y-21.1283Z0.0000I0.5463J-0.5864
G1 X13.9679 Y-21.2679 Z0.0000
G1 X13.9646 Y-21.4912 Z0.0000
G1 X23.5152 Y-21.6307 Z0.0000
G2X23.9340Y-22.0557Z0.0000I-0.0062J-0.4250
G1 X23.9339 Y-23.5436 Z0.0000
G2X23.5151Y-23.9685Z0.0000I-0.4250J0.0001
G1 X4.4141 Y-24.2472 Z0.0000
G2X3.9985Y-24.0804Z0.0000I-0.0085J0.5799
G2X3.8256Y-23.6673Z0.0000I0.4071J0.4131
G1 X3.8256 Y-21.9316 Z0.0000
G2X3.9985Y-21.5185Z0.0000I0.5800J0.0000
G2X4.4141Y-21.3516Z0.0000I0.4071J-0.4131
G1 X13.9646 Y-21.4912 Z0.0000
G0 Z4.0000
G0 X13.9646 Y-21.4912 
M5
G53 Z
X2Y0
