( MOP:  05-profile-s23-nw41-Fender-S-NFrets21-01 )
( FILE: G:\Shared drives\AlloyProjectFiles\Customer CAD files\Alloy-Standard-Builds-CAM\Fingerboards-in\05-profile-s23-nw41-Fender-S-NFrets21-01.nc)
G90
(  BEGIN TOOL LIST )
(  TOOL 11 - Downcut PT750 ROUGH - DESC: 0.7500 DIA, 2 FLUTE,  CARBIDE MAT )
(  ENDOF TOOL LIST )
( 05-profile-s23-nw41-Fender-S-NFrets21-01)
T11
S14000
M3
G0 Z4.0000
G0 X13.2081 Y-20.7641 
G1 X13.2081 Y-20.7641 Z0.3000 F75.
G1 X14.9093 Y-20.7872 Z0.0000 F50.
G1 X22.9139 Y-20.8958 Z0.0000 F150.
G17
G2X23.0206Y-20.7755Z0.0000I1.2154J-0.9700
G2X24.3175Y-20.4899Z0.0000I0.8688J-0.8580
G2X24.3857Y-20.5179Z0.0000I-0.7877J-2.0185
G2X25.1088Y-21.6007Z0.0000I-0.4968J-1.1146
G1 X25.1089 Y-21.6066 Z0.0000
G1 X25.1089 Y-23.9639 Z0.0000
G1 X25.1089 Y-23.9640 Z0.0000
G2X24.4138Y-25.0659Z0.0000I-1.2223J0.0008
G2X24.3181Y-25.1062Z0.0000I-0.7286J1.5964
G2X23.0653Y-24.8649Z0.0000I-0.4293J1.1438
G2X22.9160Y-24.7031Z0.0000I1.0200J1.0902
G1 X6.7968 Y-24.9219 Z0.0000
G1 X6.7967 Y-24.9219 Z0.0000
G2X5.4867Y-23.9550Z0.0000I-0.0170J1.3479
G2X5.4402Y-23.7266Z0.0000I1.7022J0.4654
G2X5.4188Y-22.0173Z0.0000I6.0690J0.9308
G2X5.4564Y-21.7760Z0.0000I5.6672J-0.7599
G2X6.7787Y-20.6769Z0.0000I1.3223J-0.2459
G1 X6.7818 Y-20.6769 Z0.0000
G1 X14.9093 Y-20.7872 Z0.0000
G1 X14.9063 Y-21.0105 Z0.0000
G1 X23.0130 Y-21.1206 Z0.0000
G3X23.0406Y-21.0968Z0.0000I-0.0127J0.0426
G2X23.1795Y-20.9325Z0.0000I1.1763J-0.8531
G2X24.2392Y-20.6991Z0.0000I0.7099J-0.7010
G2X24.2948Y-20.7218Z0.0000I-0.6260J-1.6058
G2X24.8856Y-21.6066Z0.0000I-0.4059J-0.9107
G1 X24.8856 Y-23.9638 Z0.0000
G1 X24.8856 Y-23.9639 Z0.0000
G2X24.2951Y-24.8744Z0.0000I-0.9978J0.0004
G2X24.2396Y-24.8972Z0.0000I-0.6822J1.5829
G2X23.1976Y-24.6823Z0.0000I-0.3507J0.9334
G2X23.0276Y-24.4849Z0.0000I1.2378J1.2378
G1 X23.0204 Y-24.4783 Z0.0000
G1 X23.0133 Y-24.4782 Z0.0000
G1 X6.7939 Y-24.6986 Z0.0000
G1 X6.7938 Y-24.6986 Z0.0000
G2X5.6940Y-23.8659Z0.0000I-0.0144J1.1237
G2X5.6609Y-23.6927Z0.0000I1.8024J0.4340
G2X5.6499Y-21.9773Z0.0000I5.8268J0.8951
G2X5.6760Y-21.8168Z0.0000I5.4354J-0.7997
G2X6.7787Y-20.9002Z0.0000I1.1027J-0.2051
G1 X6.7818 Y-20.9002 Z0.0000
G1 X14.9063 Y-21.0105 Z0.0000
G1 X14.9032 Y-21.2338 Z0.0000
G1 X23.0123 Y-21.3440 Z0.0000
G1 X23.0762 Y-21.3435 Z0.0000
G3X23.2129Y-21.2391Z0.0000I-0.1153J0.2926
G2X23.3384Y-21.0894Z0.0000I1.0226J-0.7296
G2X24.1609Y-20.9082Z0.0000I0.5510J-0.5441
G1 X24.2039 Y-20.9259 Z0.0000
G2X24.6622Y-21.6325Z0.0000I-0.3143J-0.7058
G1 X24.6622 Y-23.9638 Z0.0000
G2X24.2039Y-24.6705Z0.0000I-0.7744J0.0003
G1 X24.1609 Y-24.6881 Z0.0000
G2X23.3384Y-24.5070Z0.0000I-0.2719J0.7231
G1 X23.3381 Y-24.5067 Z0.0000
G1 X23.3378 Y-24.5063 Z0.0000
G1 X23.3375 Y-24.5060 Z0.0000
G1 X23.3372 Y-24.5057 Z0.0000
G1 X23.3368 Y-24.5054 Z0.0000
G1 X23.3365 Y-24.5051 Z0.0000
G1 X23.3362 Y-24.5048 Z0.0000
G1 X23.3359 Y-24.5044 Z0.0000
G1 X23.3356 Y-24.5041 Z0.0000
G1 X23.3353 Y-24.5038 Z0.0000
G1 X23.3350 Y-24.5035 Z0.0000
G1 X23.3347 Y-24.5032 Z0.0000
G1 X23.3344 Y-24.5028 Z0.0000
G2X23.2004Y-24.3425Z0.0000I1.0251J0.9925
G3X23.0773Y-24.2553Z0.0000I-0.2215J-0.1824
G1 X23.0125 Y-24.2549 Z0.0000
G1 X6.7909 Y-24.4752 Z0.0000
G2X5.9045Y-23.7857Z0.0000I-0.0118J0.8994
G2X5.8817Y-23.6587Z0.0000I1.9321J0.4120
G2X5.8816Y-21.9402Z0.0000I5.5854J0.8595
G2X5.8955Y-21.8577Z0.0000I4.4419J-0.7080
G2X6.7787Y-21.1235Z0.0000I0.8832J-0.1642
G1 X6.7818 Y-21.1236 Z0.0000
G1 X14.9032 Y-21.2338 Z0.0000
G1 X14.9002 Y-21.4571 Z0.0000
G1 X23.0115 Y-21.5673 Z0.0000
G3X23.1369Y-21.5587Z0.0000I0.0338J0.4263
G3X23.3872Y-21.3788Z0.0000I-0.1715J0.5026
G2X23.4974Y-21.2462Z0.0000I0.9156J-0.6487
G2X24.0977Y-21.1237Z0.0000I0.3915J-0.3863
G2X24.4389Y-21.6325Z0.0000I-0.2088J-0.5088
G1 X24.4389 Y-23.9638 Z0.0000
G2X24.0977Y-24.4727Z0.0000I-0.5500J0.0000
G2X23.4974Y-24.3501Z0.0000I-0.2088J0.5089
G2X23.3677Y-24.1944Z0.0000I1.3558J1.2606
G3X23.1144Y-24.0340Z0.0000I-0.3802J-0.3204
G1 X23.0858 Y-24.0320 Z0.0000
G1 X23.0117 Y-24.0315 Z0.0000
G1 X6.7879 Y-24.2519 Z0.0000
G2X6.1178Y-23.7147Z0.0000I-0.0090J0.6753
G1 X6.1024 Y-23.6247 Z0.0000
G2X6.1137Y-21.9062Z0.0000I5.3450J0.8240
G1 X6.1151 Y-21.8985 Z0.0000
G2X6.7787Y-21.3469Z0.0000I0.6636J-0.1234
G1 X14.9002 Y-21.4571 Z0.0000
G0 Z4.0000
G0 X14.9002 Y-21.4571 
M5
G53 Z
X2Y0
