( MOP:  05-profile-s24-nw45-Fender-T-NFrets21-02 )
( FILE: G:\Shared drives\AlloyProjectFiles\Customer CAD files\Alloy-Standard-Builds-CAM\Fingerboards-in\05-profile-s24-nw45-Fender-T-NFrets21-02.nc)
G90
(  BEGIN TOOL LIST )
(  TOOL 5 - Downcut PT375 - DESC: 0.3750 DIA, 2 FLUTE,  CARBIDE MAT )
(  ENDOF TOOL LIST )
( 05-profile-s24-nw45-Fender-T-NFrets21-02)
( Max Depth 1.75)
T05
S12000
M3
G0 Z2.0000
G0 X23.6605 Y-24.5404 
G1 X23.6605 Y-24.5404 Z0.0000 F75.
G17
G3X23.6629Y-24.1868Z0.0000I-0.1756J0.1780 F25.
G2X23.5958Y-24.1079Z0.0000I0.4929J0.4863 F80.
G3X23.2658Y-23.8761Z0.0000I-0.4699J-0.3183
G3X23.1670Y-23.8667Z0.0000I-0.0897J-0.4189
G1 X23.0122 Y-23.8679 Z0.0000
G1 X6.0009 Y-24.0981 Z0.0000
G2X5.5524Y-23.6557Z0.0000I-0.0060J0.4424
G1 X5.5524 Y-21.9432 Z0.0000
G2X6.0009Y-21.5007Z0.0000I0.4425J0.0000
G1 X23.0120 Y-21.7310 Z0.0000
G3X23.2333Y-21.7277Z0.0000I0.0872J1.5738
G3X23.5699Y-21.5224Z0.0000I-0.0928J0.5309
G1 X23.5958 Y-21.4885 Z0.0000
G2X23.6629Y-21.4095Z0.0000I0.5600J-0.4074
G3X23.6605Y-21.0560Z0.0000I-0.1780J0.1756 F75.
G0 Z2.0000
G0 X23.6605 Y-21.0560 
M5
G53 Z
X2Y0
