( MOP:  05-profile-s25PT5-nw43-Fender-T-NFrets22-01 )
( FILE: G:\Shared drives\AlloyProjectFiles\Customer CAD files\Alloy-Standard-Builds-CAM\Fingerboards-in\05-profile-s25PT5-nw43-Fender-T-NFrets22-01.nc)
G90
(  BEGIN TOOL LIST )
(  TOOL 11 - Downcut PT750 ROUGH - DESC: 0.7500 DIA, 2 FLUTE,  CARBIDE MAT )
(  ENDOF TOOL LIST )
( 05-profile-s25PT5-nw43-Fender-T-NFrets22-01)
T11
S14000
M3
G0 Z2.0000
G0 X15.6179 Y-24.7986 
G1 X15.6179 Y-24.7986 Z0.3000 F75.
G1 X13.9167 Y-24.8225 Z0.0000 F50.
G1 X4.6841 Y-24.9523 Z0.0000 F150.
G17
G2X3.3658Y-23.6524Z0.0000I-0.0183J1.2999
G1 X3.3658 Y-23.6520 Z0.0000
G1 X3.3693 Y-21.9439 Z0.0000
G2X4.6874Y-20.6467Z0.0000I1.3000J-0.0026
G1 X22.9672 Y-20.9010 Z0.0000
G2X23.0525Y-20.8073Z0.0000I1.1886J-0.9949
G2X25.0639Y-21.6325Z0.0000I0.8364J-0.8252
G1 X25.0639 Y-23.9638 Z0.0000
G2X23.0525Y-24.7891Z0.0000I-1.1750J0.0000
G2X22.9673Y-24.6953Z0.0000I1.1033J1.0886
G1 X13.9167 Y-24.8225 Z0.0000
G1 X13.9137 Y-24.6142 Z0.0000
G1 X4.6812 Y-24.7440 Z0.0000
G2X3.5742Y-23.6524Z0.0000I-0.0154J1.0916
G1 X3.5742 Y-23.6520 Z0.0000
G1 X3.5776 Y-21.9443 Z0.0000
G2X4.6845Y-20.8550Z0.0000I1.0917J-0.0022
G1 X23.0679 Y-21.1108 Z0.0000
G2X23.2008Y-20.9536Z0.0000I1.0879J-0.7851
G2X24.8556Y-21.6325Z0.0000I0.6881J-0.6789
G1 X24.8556 Y-23.9638 Z0.0000
G2X23.2008Y-24.6428Z0.0000I-0.9667J0.0000
G2X23.0679Y-24.4856Z0.0000I0.9550J0.9423
G1 X13.9137 Y-24.6142 Z0.0000
G1 X13.9108 Y-24.4059 Z0.0000
G1 X4.6782 Y-24.5357 Z0.0000
G2X3.7825Y-23.6524Z0.0000I-0.0124J0.8833
G1 X3.7825 Y-23.6520 Z0.0000
G1 X3.7860 Y-21.9447 Z0.0000
G2X4.6816Y-21.0633Z0.0000I0.8833J-0.0018
G1 X23.1433 Y-21.3202 Z0.0000
G3X23.1941Y-21.2962Z0.0000I0.0009J0.0639
G2X23.3491Y-21.0999Z0.0000I0.9617J-0.5997
G2X24.6472Y-21.6325Z0.0000I0.5398J-0.5326
G1 X24.6472 Y-23.9638 Z0.0000
G2X23.3491Y-24.4964Z0.0000I-0.7583J0.0000
G2X23.1941Y-24.3001Z0.0000I0.8067J0.7959
G3X23.1434Y-24.2762Z0.0000I-0.0499J-0.0400
G1 X13.9108 Y-24.4059 Z0.0000
G1 X13.9079 Y-24.1976 Z0.0000
G1 X4.6753 Y-24.3273 Z0.0000
G2X3.9908Y-23.6524Z0.0000I-0.0095J0.6749
G1 X3.9943 Y-21.9451 Z0.0000
G2X4.6787Y-21.2716Z0.0000I0.6750J-0.0014
G1 X23.1404 Y-21.5285 Z0.0000
G3X23.3670Y-21.4128Z0.0000I0.0038J0.2722
G2X23.4974Y-21.2462Z0.0000I0.7888J-0.4831
G2X24.4389Y-21.6325Z0.0000I0.3915J-0.3863
G1 X24.4389 Y-23.9638 Z0.0000
G2X23.4974Y-24.3501Z0.0000I-0.5500J0.0000
G2X23.3670Y-24.1835Z0.0000I0.6584J0.6496
G3X23.1405Y-24.0678Z0.0000I-0.2228J-0.1566
G1 X13.9079 Y-24.1976 Z0.0000
G0 Z2.0000
G0 X13.9079 Y-24.1976 
M5
G53 Z
X2Y0
