( MOP:  05-profile-s25PT5-nw43-Fender-T-NFrets24-02 )
( FILE: G:\Shared drives\AlloyProjectFiles\Customer CAD files\Alloy-Standard-Builds-CAM\Fingerboards-in\05-profile-s25PT5-nw43-Fender-T-NFrets24-02.nc)
G90
(  BEGIN TOOL LIST )
(  TOOL 5 - Downcut PT375 - DESC: 0.3750 DIA, 2 FLUTE,  CARBIDE MAT )
(  ENDOF TOOL LIST )
( 05-profile-s25PT5-nw43-Fender-T-NFrets24-02)
( Max Depth 1.75)
T05
S12000
M3
G0 Z2.0000
G0 X23.6605 Y-24.5404 
G1 X23.6605 Y-24.5404 Z0.0000 F75.
G17
G3X23.6629Y-24.1868Z0.0000I-0.1756J0.1780 F25.
G2X23.5623Y-24.0573Z0.0000I0.4929J0.4863 F80.
G3X23.1372Y-23.8354Z0.0000I-0.4181J-0.2828
G1 X3.8915 Y-24.1058 Z0.0000
G2X3.4428Y-23.6631Z0.0000I-0.0062J0.4424
G1 X3.4428 Y-21.9359 Z0.0000
G2X3.8914Y-21.4932Z0.0000I0.4425J0.0003
G1 X23.1372 Y-21.7610 Z0.0000
G3X23.5623Y-21.5391Z0.0000I0.0070J0.5047
G2X23.6629Y-21.4095Z0.0000I0.5935J-0.3568
G3X23.6605Y-21.0560Z0.0000I-0.1780J0.1756 F75.
G0 Z2.0000
G0 X23.6605 Y-21.0560 
M5
G53 Z
X2Y0
