( MOP:  05-profile-s21-AnyNutWidth-Gibson-Inglewood-AnyNumFrets-02 )
( FILE: G:\Shared drives\AlloyProjectFiles\Customer CAD files\Alloy-Standard-Builds-CAM\Fingerboards-in\05-profile-s21-AnyNutWidth-Gibson-Inglewood-AnyNumFrets-02.nc)
G90
(  BEGIN TOOL LIST )
(  TOOL 14 - Downcut PT125 COMPRESSION - DESC: 0.1250 DIA, 2 FLUTE,  CARBIDE MAT )
(  ENDOF TOOL LIST )
( 05-profile-s21-AnyNutWidth-Gibson-Inglewood-AnyNumFrets-02)
T14
S12000
M3
G0 Z4.0000
G0 X46.7610 Y-23.4229 
G1 X46.7610 Y-23.4229 Z0.0000 F75.
G1 X46.5110 Y-23.4262 Z0.0000 F25.
G1 X46.2610 Y-23.4294 Z0.0000 F40.
G1 X32.0247 Y-23.6151 Z0.0000 F75.
G17
G2X31.7430Y-23.4518Z0.0000I-0.0042J0.3175
G2X31.6333Y-23.1943Z0.0000I1.1744J0.6524
G2X31.6333Y-22.4046Z0.0000I1.2841J0.3949
G2X31.7430Y-22.1470Z0.0000I1.2841J-0.3948
G2X32.0247Y-21.9837Z0.0000I0.2775J-0.1542
G1 X46.2610 Y-22.1694 Z0.0000
G1 X46.5110 Y-22.1727 Z0.0000
G1 X46.7610 Y-22.1760 Z0.0000
G0 Z4.0000
G0 X46.7610 Y-22.1760 
M5
G53 Z
X2Y0
