( MOP:  05-profile-s24PT75-nw42-Fender-T-NFrets21-02 )
( FILE: G:\Shared drives\AlloyProjectFiles\Customer CAD files\Alloy-Standard-Builds-CAM\Fingerboards-in\05-profile-s24PT75-nw42-Fender-T-NFrets21-02.nc)
G90
(  BEGIN TOOL LIST )
(  TOOL 5 - Downcut PT375 - DESC: 0.3750 DIA, 2 FLUTE,  CARBIDE MAT )
(  ENDOF TOOL LIST )
( 05-profile-s24PT75-nw42-Fender-T-NFrets21-02)
( Max Depth 1.75)
T05
S12000
M3
G0 Z2.0000
G0 X23.6605 Y-24.5404 
G1 X23.6605 Y-24.5404 Z0.0000 F75.
G1 X23.6918 Y-24.5027 Z0.0000 F25.
G1 X23.7152 Y-24.4596 Z0.0000
G1 X23.7298 Y-24.4128 Z0.0000
G1 X23.7349 Y-24.3641 Z0.0000
G1 X23.7304 Y-24.3153 Z0.0000
G1 X23.7165 Y-24.2683 Z0.0000
G1 X23.6937 Y-24.2249 Z0.0000
G1 X23.6629 Y-24.1868 Z0.0000
G1 X23.6386 Y-24.1609 Z0.0000 F80.
G1 X23.6156 Y-24.1337 Z0.0000
G1 X23.5941 Y-24.1054 Z0.0000
G1 X23.5674 Y-24.0662 Z0.0000
G1 X23.5449 Y-24.0365 Z0.0000
G1 X23.5206 Y-24.0077 Z0.0000
G1 X23.4947 Y-23.9803 Z0.0000
G1 X23.4673 Y-23.9542 Z0.0000
G1 X23.4386 Y-23.9298 Z0.0000
G1 X23.4087 Y-23.9071 Z0.0000
G1 X23.3778 Y-23.8863 Z0.0000
G1 X23.3461 Y-23.8676 Z0.0000
G1 X23.3137 Y-23.8509 Z0.0000
G1 X23.2810 Y-23.8364 Z0.0000
G1 X23.2481 Y-23.8241 Z0.0000
G1 X23.2152 Y-23.8140 Z0.0000
G1 X23.1824 Y-23.8061 Z0.0000
G1 X23.1501 Y-23.8003 Z0.0000
G1 X23.1251 Y-23.7974 Z0.0000
G1 X5.6298 Y-24.0919 Z0.0000
G1 X5.5668 Y-24.0874 Z0.0000
G1 X5.5051 Y-24.0740 Z0.0000
G1 X5.4460 Y-24.0519 Z0.0000
G1 X5.3906 Y-24.0217 Z0.0000
G1 X5.3400 Y-23.9838 Z0.0000
G1 X5.2954 Y-23.9392 Z0.0000
G1 X5.2576 Y-23.8887 Z0.0000
G1 X5.2273 Y-23.8333 Z0.0000
G1 X5.2052 Y-23.7741 Z0.0000
G1 X5.1918 Y-23.7124 Z0.0000
G1 X5.1873 Y-23.6494 Z0.0000
G1 X5.1875 Y-21.9408 Z0.0000
G1 X5.1901 Y-21.9008 Z0.0000
G1 X5.1966 Y-21.8599 Z0.0000
G1 X5.2021 Y-21.8366 Z0.0000
G1 X5.2072 Y-21.8187 Z0.0000
G1 X5.2151 Y-21.7954 Z0.0000
G1 X5.2222 Y-21.7777 Z0.0000
G1 X5.2325 Y-21.7549 Z0.0000
G1 X5.2415 Y-21.7376 Z0.0000
G1 X5.2543 Y-21.7156 Z0.0000
G1 X5.2651 Y-21.6991 Z0.0000
G1 X5.2802 Y-21.6784 Z0.0000
G1 X5.2927 Y-21.6630 Z0.0000
G1 X5.3101 Y-21.6438 Z0.0000
G1 X5.3241 Y-21.6297 Z0.0000
G1 X5.3433 Y-21.6124 Z0.0000
G1 X5.3587 Y-21.5999 Z0.0000
G1 X5.3795 Y-21.5847 Z0.0000
G1 X5.3960 Y-21.5739 Z0.0000
G1 X5.4180 Y-21.5611 Z0.0000
G1 X5.4352 Y-21.5522 Z0.0000
G1 X5.4580 Y-21.5418 Z0.0000
G1 X5.4758 Y-21.5347 Z0.0000
G1 X5.4990 Y-21.5268 Z0.0000
G1 X5.5170 Y-21.5217 Z0.0000
G1 X5.5581 Y-21.5129 Z0.0000
G1 X5.5987 Y-21.5081 Z0.0000
G1 X5.6331 Y-21.5070 Z0.0000
G1 X23.1245 Y-21.8015 Z0.0000
G1 X23.1489 Y-21.7985 Z0.0000
G1 X23.1814 Y-21.7924 Z0.0000
G1 X23.2142 Y-21.7843 Z0.0000
G1 X23.2472 Y-21.7740 Z0.0000
G1 X23.2802 Y-21.7615 Z0.0000
G1 X23.3131 Y-21.7468 Z0.0000
G1 X23.3455 Y-21.7299 Z0.0000
G1 X23.3773 Y-21.7110 Z0.0000
G1 X23.4083 Y-21.6900 Z0.0000
G1 X23.4383 Y-21.6672 Z0.0000
G1 X23.4671 Y-21.6426 Z0.0000
G1 X23.4945 Y-21.6164 Z0.0000
G1 X23.5205 Y-21.5888 Z0.0000
G1 X23.5448 Y-21.5600 Z0.0000
G1 X23.5674 Y-21.5302 Z0.0000
G1 X23.5941 Y-21.4909 Z0.0000
G1 X23.6156 Y-21.4626 Z0.0000
G1 X23.6386 Y-21.4355 Z0.0000
G1 X23.6629 Y-21.4095 Z0.0000
G1 X23.6937 Y-21.3714 Z0.0000 F75.
G1 X23.7165 Y-21.3281 Z0.0000
G1 X23.7304 Y-21.2811 Z0.0000
G1 X23.7349 Y-21.2323 Z0.0000
G1 X23.7298 Y-21.1835 Z0.0000
G1 X23.7152 Y-21.1367 Z0.0000
G1 X23.6918 Y-21.0937 Z0.0000
G1 X23.6605 Y-21.0560 Z0.0000
G0 Z2.0000
G0 X23.6605 Y-21.0560 
M5
G53 Z
X2Y0
