( MOP:  05-profile-s25PT5-nw43-Gibson-Square-NFrets24-01 )
( FILE: G:\Shared drives\AlloyProjectFiles\Customer CAD files\Alloy-Standard-Builds-CAM\Fingerboards-in\05-profile-s25PT5-nw43-Gibson-Square-NFrets24-01.nc)
G90
(  BEGIN TOOL LIST )
(  TOOL 11 - Downcut PT750 ROUGH - DESC: 0.7500 DIA, 2 FLUTE,  CARBIDE MAT )
(  ENDOF TOOL LIST )
( 05-profile-s25PT5-nw43-Gibson-Square-NFrets24-01)
T11
S14000
M3
G0 Z4.0000
G0 X15.0412 Y-24.8678 
G1 X15.0412 Y-24.8678 Z0.3000 F75.
G1 X13.3400 Y-24.8949 Z0.0000 F50.
G1 X13.3400 Y-24.8949 Z0.0000
G1 X13.3400 Y-24.8949 Z0.0000 F150.
G1 X3.6302 Y-25.0488 Z0.0000
G17
G2X2.5401Y-23.9541Z0.0000I0.0051J1.0951
G1 X2.5407 Y-21.6223 Z0.0000
G2X3.6526Y-20.5499Z0.0000I1.0949J-0.0226
G1 X23.0494 Y-20.8590 Z0.0000
G2X24.1051Y-21.9531Z0.0000I-0.0395J-1.0945
G2X24.1046Y-23.6697Z0.0000I-203.1935J-0.7928
G2X23.0275Y-24.7408Z0.0000I-1.0950J0.0240
G1 X13.3400 Y-24.8949 Z0.0000
G1 X13.3365 Y-24.6716 Z0.0000
G1 X3.6391 Y-24.8257 Z0.0000
G2X2.7635Y-23.9541Z0.0000I-0.0037J0.8720
G1 X2.7637 Y-21.6349 Z0.0000
G2X3.6490Y-20.7732Z0.0000I0.8719J-0.0101
G1 X23.0336 Y-21.0818 Z0.0000
G2X23.8818Y-21.9530Z0.0000I-0.0238J-0.8716
G2X23.8816Y-23.6572Z0.0000I-233.3129J-0.8227
G2X23.0240Y-24.5174Z0.0000I-0.8718J0.0115
G1 X13.3365 Y-24.6716 Z0.0000
G1 X13.3329 Y-24.4483 Z0.0000
G1 X3.6454 Y-24.6024 Z0.0000
G1 X3.6448 Y-24.6024 Z0.0000
G1 X3.6441 Y-24.6024 Z0.0000
G1 X3.6435 Y-24.6024 Z0.0000
G1 X3.6428 Y-24.6024 Z0.0000
G1 X3.6422 Y-24.6024 Z0.0000
G1 X3.6415 Y-24.6024 Z0.0000
G1 X3.6408 Y-24.6024 Z0.0000
G1 X3.6402 Y-24.6024 Z0.0000
G1 X3.6395 Y-24.6024 Z0.0000
G1 X3.6389 Y-24.6024 Z0.0000
G1 X3.6382 Y-24.6024 Z0.0000
G1 X3.6376 Y-24.6024 Z0.0000
G1 X3.6369 Y-24.6024 Z0.0000
G2X2.9868Y-23.9542Z0.0000I-0.0017J0.6484
G2X2.9868Y-21.6434Z0.0000I393.2062J1.1548
G1 X2.9868 Y-21.6427 Z0.0000
G1 X2.9868 Y-21.6421 Z0.0000
G1 X2.9868 Y-21.6414 Z0.0000
G1 X2.9868 Y-21.6408 Z0.0000
G1 X2.9868 Y-21.6401 Z0.0000
G1 X2.9869 Y-21.6395 Z0.0000
G1 X2.9869 Y-21.6388 Z0.0000
G1 X2.9869 Y-21.6382 Z0.0000
G1 X2.9869 Y-21.6375 Z0.0000
G1 X2.9869 Y-21.6368 Z0.0000
G1 X2.9870 Y-21.6362 Z0.0000
G2X3.6454Y-20.9965Z0.0000I0.6483J-0.0086
G1 X23.0204 Y-21.3047 Z0.0000
G1 X23.0211 Y-21.3047 Z0.0000
G1 X23.0217 Y-21.3048 Z0.0000
G1 X23.0224 Y-21.3048 Z0.0000
G1 X23.0230 Y-21.3048 Z0.0000
G1 X23.0237 Y-21.3048 Z0.0000
G1 X23.0243 Y-21.3048 Z0.0000
G1 X23.0249 Y-21.3048 Z0.0000
G1 X23.0256 Y-21.3049 Z0.0000
G1 X23.0262 Y-21.3049 Z0.0000
G1 X23.0269 Y-21.3049 Z0.0000
G1 X23.0275 Y-21.3050 Z0.0000
G1 X23.0282 Y-21.3050 Z0.0000
G1 X23.0288 Y-21.3050 Z0.0000
G2X23.6585Y-21.9530Z0.0000I-0.0188J-0.6482
G2X23.6585Y-23.6472Z0.0000I-294.1906J-0.8464
G1 X23.6585 Y-23.6478 Z0.0000
G1 X23.6584 Y-23.6485 Z0.0000
G1 X23.6584 Y-23.6491 Z0.0000
G1 X23.6584 Y-23.6498 Z0.0000
G1 X23.6584 Y-23.6504 Z0.0000
G1 X23.6584 Y-23.6510 Z0.0000
G1 X23.6584 Y-23.6517 Z0.0000
G1 X23.6584 Y-23.6523 Z0.0000
G1 X23.6583 Y-23.6530 Z0.0000
G1 X23.6583 Y-23.6536 Z0.0000
G1 X23.6583 Y-23.6543 Z0.0000
G2X23.0204Y-24.2941Z0.0000I-0.6484J0.0085
G1 X13.3329 Y-24.4483 Z0.0000
G1 X13.3294 Y-24.2250 Z0.0000
G1 X3.6419 Y-24.3791 Z0.0000
G2X3.2101Y-23.9542Z0.0000I-0.0068J0.4249
G1 X3.2101 Y-21.6447 Z0.0000
G2X3.6419Y-21.2198Z0.0000I0.4250J0.0000
G1 X23.0169 Y-21.5280 Z0.0000
G2X23.4351Y-21.9530Z0.0000I-0.0068J-0.4250
G1 X23.4351 Y-23.6459 Z0.0000
G2X23.0169Y-24.0708Z0.0000I-0.4250J0.0000
G1 X13.3294 Y-24.2250 Z0.0000
G0 Z4.0000
G0 X13.3294 Y-24.2250 
M5
G53 Z
X2Y0
