( MOP:  05-profile-s24PT625-nw43-Gibson-Square-NFrets22-01 )
( FILE: G:\Shared drives\AlloyProjectFiles\Customer CAD files\Alloy-Standard-Builds-CAM\Fingerboards-in\05-profile-s24PT625-nw43-Gibson-Square-NFrets22-01.nc)
G90
(  BEGIN TOOL LIST )
(  TOOL 11 - Downcut PT750 ROUGH - DESC: 0.7500 DIA, 2 FLUTE,  CARBIDE MAT )
(  ENDOF TOOL LIST )
( 05-profile-s24PT625-nw43-Gibson-Square-NFrets22-01)
T11
S14000
M3
G0 Z4.0000
G0 X12.2805 Y-20.6816 
G1 X12.2805 Y-20.6816 Z0.3000 F75.
G1 X13.9817 Y-20.7096 Z0.0000 F50.
G1 X13.9817 Y-20.7096 Z0.0000
G1 X13.9817 Y-20.7096 Z0.0000 F150.
G1 X23.0500 Y-20.8590 Z0.0000
G17
G2X24.1051Y-21.9531Z0.0000I-0.0401J-1.0945
G2X24.1046Y-23.6697Z0.0000I-203.2328J-0.7928
G2X23.0279Y-24.7407Z0.0000I-1.0950J0.0240
G1 X4.9127 Y-25.0340 Z0.0000
G2X3.8223Y-23.9393Z0.0000I0.0047J1.0952
G1 X3.8228 Y-21.6335 Z0.0000
G2X4.9353Y-20.5610Z0.0000I1.0950J-0.0225
G1 X13.9817 Y-20.7096 Z0.0000
G1 X13.9780 Y-20.9329 Z0.0000
G1 X23.0341 Y-21.0818 Z0.0000
G2X23.8818Y-21.9530Z0.0000I-0.0243J-0.8716
G2X23.8816Y-23.6572Z0.0000I-233.3586J-0.8227
G2X23.0243Y-24.5174Z0.0000I-0.8718J0.0115
G1 X4.9216 Y-24.8108 Z0.0000
G2X4.0456Y-23.9393Z0.0000I-0.0040J0.8719
G1 X4.0458 Y-21.6460 Z0.0000
G2X4.9316Y-20.7843Z0.0000I0.8719J-0.0102
G1 X13.9780 Y-20.9329 Z0.0000
G1 X13.9743 Y-21.1562 Z0.0000
G1 X23.0208 Y-21.3047 Z0.0000
G1 X23.0214 Y-21.3047 Z0.0000
G1 X23.0221 Y-21.3048 Z0.0000
G1 X23.0227 Y-21.3048 Z0.0000
G1 X23.0233 Y-21.3048 Z0.0000
G1 X23.0240 Y-21.3048 Z0.0000
G1 X23.0246 Y-21.3048 Z0.0000
G1 X23.0253 Y-21.3049 Z0.0000
G1 X23.0259 Y-21.3049 Z0.0000
G1 X23.0266 Y-21.3049 Z0.0000
G1 X23.0272 Y-21.3049 Z0.0000
G1 X23.0278 Y-21.3050 Z0.0000
G1 X23.0285 Y-21.3050 Z0.0000
G1 X23.0291 Y-21.3050 Z0.0000
G2X23.6585Y-21.9530Z0.0000I-0.0191J-0.6482
G2X23.6585Y-23.6472Z0.0000I-294.2486J-0.8464
G1 X23.6585 Y-23.6478 Z0.0000
G1 X23.6584 Y-23.6485 Z0.0000
G1 X23.6584 Y-23.6491 Z0.0000
G1 X23.6584 Y-23.6497 Z0.0000
G1 X23.6584 Y-23.6504 Z0.0000
G1 X23.6584 Y-23.6510 Z0.0000
G1 X23.6584 Y-23.6517 Z0.0000
G1 X23.6584 Y-23.6523 Z0.0000
G1 X23.6583 Y-23.6530 Z0.0000
G1 X23.6583 Y-23.6536 Z0.0000
G1 X23.6583 Y-23.6542 Z0.0000
G2X23.0206Y-24.2941Z0.0000I-0.6484J0.0084
G1 X4.9278 Y-24.5876 Z0.0000
G1 X4.9271 Y-24.5876 Z0.0000
G1 X4.9265 Y-24.5876 Z0.0000
G1 X4.9258 Y-24.5876 Z0.0000
G1 X4.9252 Y-24.5876 Z0.0000
G1 X4.9245 Y-24.5876 Z0.0000
G1 X4.9239 Y-24.5876 Z0.0000
G1 X4.9232 Y-24.5876 Z0.0000
G1 X4.9225 Y-24.5876 Z0.0000
G1 X4.9219 Y-24.5876 Z0.0000
G1 X4.9212 Y-24.5876 Z0.0000
G1 X4.9206 Y-24.5876 Z0.0000
G1 X4.9199 Y-24.5876 Z0.0000
G1 X4.9193 Y-24.5876 Z0.0000
G2X4.2689Y-23.9393Z0.0000I-0.0019J0.6485
G2X4.2689Y-21.6546Z0.0000I388.6604J1.1417
G1 X4.2690 Y-21.6539 Z0.0000
G1 X4.2690 Y-21.6532 Z0.0000
G1 X4.2690 Y-21.6526 Z0.0000
G1 X4.2690 Y-21.6519 Z0.0000
G1 X4.2690 Y-21.6513 Z0.0000
G1 X4.2690 Y-21.6506 Z0.0000
G1 X4.2690 Y-21.6500 Z0.0000
G1 X4.2690 Y-21.6493 Z0.0000
G1 X4.2691 Y-21.6486 Z0.0000
G1 X4.2691 Y-21.6480 Z0.0000
G1 X4.2691 Y-21.6473 Z0.0000
G2X4.9279Y-21.0076Z0.0000I0.6484J-0.0086
G1 X13.9743 Y-21.1562 Z0.0000
G1 X13.9707 Y-21.3795 Z0.0000
G1 X23.0171 Y-21.5280 Z0.0000
G2X23.4351Y-21.9530Z0.0000I-0.0070J-0.4250
G1 X23.4351 Y-23.6459 Z0.0000
G2X23.0170Y-24.0708Z0.0000I-0.4250J0.0000
G1 X4.9242 Y-24.3643 Z0.0000
G2X4.4923Y-23.9393Z0.0000I-0.0069J0.4250
G1 X4.4923 Y-21.6559 Z0.0000
G2X4.9243Y-21.2309Z0.0000I0.4250J0.0000
G1 X13.9707 Y-21.3795 Z0.0000
G0 Z4.0000
G0 X13.9707 Y-21.3795 
M5
G53 Z
X2Y0
