( MOP:  05-profile-s25PT5-AnyNutWidth-Gibson-AaronV-NFrets24-01 )
( FILE: G:\Shared drives\AlloyProjectFiles\Customer CAD files\Alloy-Standard-Builds-CAM\Fingerboards-in\05-profile-s25PT5-AnyNutWidth-Gibson-AaronV-NFrets24-01.nc)
G90
(  BEGIN TOOL LIST )
(  TOOL 11 - Downcut PT750 ROUGH - DESC: 0.7500 DIA, 2 FLUTE,  CARBIDE MAT )
(  ENDOF TOOL LIST )
( 05-profile-s25PT5-AnyNutWidth-Gibson-AaronV-NFrets24-01)
T11
S14000
M3
G0 Z4.0000
G0 X23.5268 Y-24.7304 
G1 X23.5268 Y-24.7304 Z0.0000 F75.
G1 X23.0269 Y-24.7381 Z0.0000 F50.
G1 X3.5244 Y-25.0366 Z0.0000 F150.
G17
G2X2.4323Y-23.9418Z0.0000I0.0029J1.0950
G1 X2.4328 Y-21.6373 Z0.0000
G2X3.5441Y-20.5621Z0.0000I1.0948J-0.0197
G1 X23.0269 Y-20.8608 Z0.0000
G1 X23.5269 Y-20.8685 Z0.0000
G1 X23.5269 Y-20.8685 Z4.0000
G0 Z4.0000
G0 X23.5234 Y-24.5071 
G1 X23.5234 Y-24.5071 Z0.0000 F50.
G1 X23.0235 Y-24.5147 Z0.0000
G1 X3.5308 Y-24.8134 Z0.0000 F150.
G2X2.6557Y-23.9419Z0.0000I-0.0034J0.8718
G1 X2.6559 Y-21.6471 Z0.0000
G2X3.5407Y-20.7854Z0.0000I0.8717J-0.0100
G1 X23.0235 Y-21.0841 Z0.0000
G1 X23.5234 Y-21.0918 Z0.0000
G1 X23.5234 Y-21.0918 Z4.0000
G0 Z4.0000
G0 X23.5200 Y-24.2838 
G1 X23.5200 Y-24.2838 Z0.0000 F50.
G1 X23.0201 Y-24.2914 Z0.0000
G1 X3.5373 Y-24.5901 Z0.0000 F150.
G2X2.8790Y-23.9419Z0.0000I-0.0096J0.6485
G1 X2.8790 Y-21.6570 Z0.0000
G2X3.5373Y-21.0087Z0.0000I0.6487J-0.0003
G1 X23.0201 Y-21.3074 Z0.0000
G1 X23.5200 Y-21.3151 Z0.0000
G1 X23.5200 Y-21.3151 Z4.0000
G0 Z4.0000
G0 X23.5166 Y-24.0605 
G1 X23.5166 Y-24.0605 Z0.0000 F50.
G1 X23.0166 Y-24.0681 Z0.0000
G1 X3.5338 Y-24.3668 Z0.0000 F150.
G2X3.1023Y-23.9419Z0.0000I-0.0065J0.4249
G1 X3.1023 Y-21.6570 Z0.0000
G2X3.5338Y-21.2320Z0.0000I0.4250J0.0000
G1 X23.0166 Y-21.5307 Z0.0000
G1 X23.5166 Y-21.5384 Z0.0000
G0 Z4.0000
G0 X23.5166 Y-21.5384 
M5
G53 Z
X2Y0
