( MOP:  05-profile-s25PT5-nw43-FenderShort-S-NFrets22-01 )
( FILE: G:\Shared drives\AlloyProjectFiles\Customer CAD files\Alloy-Standard-Builds-CAM\Fingerboards-in\05-profile-s25PT5-nw43-FenderShort-S-NFrets22-01.nc)
G90
(  BEGIN TOOL LIST )
(  TOOL 11 - Downcut PT750 ROUGH - DESC: 0.7500 DIA, 2 FLUTE,  CARBIDE MAT )
(  ENDOF TOOL LIST )
( 05-profile-s25PT5-nw43-FenderShort-S-NFrets22-01)
T11
S14000
M3
G0 Z4.0000
G0 X21.9487 Y-24.7097 
G1 X21.9487 Y-24.7097 Z0.3000 F75.
G1 X23.6499 Y-24.6857 Z0.0000 F50.
G1 X4.6842 Y-24.9534 Z0.0000 F110.
G17
G2X3.3870Y-23.8872Z0.0000I-0.0184J1.2999
G2X3.3870Y-21.7117Z0.0000I5.9514J1.0877
G2X4.6840Y-20.6455Z0.0000I1.2788J-0.2337
G1 X23.6497 Y-20.9106 Z0.0000
G0 Z4.0000
G0 X23.6497 Y-20.9106 
G0 Z4.0000
G0 X21.9457 Y-24.5014 
G1 X21.9457 Y-24.5014 Z0.3000 F75.
G1 X23.6469 Y-24.4774 Z0.0000 F50.
G1 X4.6812 Y-24.7451 Z0.0000 F110.
G2X3.5919Y-23.8498Z0.0000I-0.0154J1.0916
G2X3.5919Y-21.7491Z0.0000I5.7465J1.0503
G2X4.6811Y-20.8538Z0.0000I1.0739J-0.1963
G1 X23.6468 Y-21.1189 Z0.0000
G0 Z4.0000
G0 X23.6468 Y-21.1189 
G0 Z4.0000
G0 X21.9428 Y-24.2931 
G1 X21.9428 Y-24.2931 Z0.3000 F75.
G1 X23.6440 Y-24.2691 Z0.0000 F50.
G1 X4.6783 Y-24.5368 Z0.0000 F110.
G2X3.7969Y-23.8123Z0.0000I-0.0125J0.8833
G2X3.7969Y-21.7866Z0.0000I5.5415J1.0128
G2X4.6782Y-21.0621Z0.0000I0.8689J-0.1588
G1 X23.6439 Y-21.3272 Z0.0000
G0 Z4.0000
G0 X23.6439 Y-21.3272 
G0 Z4.0000
G0 X21.9398 Y-24.0848 
G1 X21.9398 Y-24.0848 Z0.3000 F75.
G1 X23.6411 Y-24.0608 Z0.0000 F50.
G1 X4.6753 Y-24.3284 Z0.0000 F110.
G2X4.0018Y-23.7749Z0.0000I-0.0095J0.6749
G2X4.0018Y-21.8240Z0.0000I5.3366J0.9754
G2X4.6753Y-21.2705Z0.0000I0.6640J-0.1214
G1 X23.6410 Y-21.5355 Z0.0000
G0 Z4.0000
G0 X23.6410 Y-21.5355 
M5
G53 Z
X2Y0
