( MOP:  05-profile-s27-nw42-Fender-T-NFrets22-01 )
( FILE: G:\Shared drives\AlloyProjectFiles\Customer CAD files\Alloy-Standard-Builds-CAM\Fingerboards-in\05-profile-s27-nw42-Fender-T-NFrets22-01.nc)
G90
(  BEGIN TOOL LIST )
(  TOOL 11 - Downcut PT750 ROUGH - DESC: 0.7500 DIA, 2 FLUTE,  CARBIDE MAT )
(  ENDOF TOOL LIST )
( 05-profile-s27-nw42-Fender-T-NFrets22-01)
T11
S14000
M3
G0 Z4.0000
G0 X14.9133 Y-24.8333 
G1 X14.9133 Y-24.8333 Z0.3000 F75.
G1 X13.2120 Y-24.8570 Z0.0000 F50.
G1 X3.3985 Y-24.9941 Z0.0000 F150.
G1 X3.3983 Y-24.9941 Z0.0000
G17
G2X2.5113Y-24.6775Z0.0000I-0.0171J1.3529
G2X2.4101Y-24.5817Z0.0000I1.1067J1.2704
G2X2.0402Y-23.7812Z0.0000I0.9763J0.9369
G2X2.0348Y-23.6634Z0.0000I1.3846J0.1217
G1 X2.0348 Y-21.9470 Z0.0000
G1 X2.0348 Y-21.9468 Z0.0000
G2X2.3638Y-21.0643Z0.0000I1.3530J-0.0018
G2X2.4613Y-20.9641Z0.0000I1.2633J-1.1322
G2X3.3989Y-20.6022Z0.0000I0.9173J-0.9810
G1 X22.9308 Y-20.8748 Z0.0000
G2X23.0206Y-20.7755Z0.0000I1.2820J-1.0697
G2X24.2873Y-20.4787Z0.0000I0.8694J-0.8590
G2X24.3857Y-20.5179Z0.0000I-0.5601J-1.5499
G2X25.1080Y-21.5696Z0.0000I-0.4977J-1.1157
G1 X25.1088 Y-21.6007 Z0.0000
G1 X25.1089 Y-21.6066 Z0.0000
G1 X25.1089 Y-23.9639 Z0.0000
G1 X25.1089 Y-23.9640 Z0.0000
G2X24.3862Y-25.0783Z0.0000I-1.2211J0.0005
G2X24.3180Y-25.1063Z0.0000I-0.8568J1.9903
G2X23.0463Y-24.8466Z0.0000I-0.4291J1.1425
G2X22.9312Y-24.7216Z0.0000I0.8592J0.9064
G1 X13.2120 Y-24.8570 Z0.0000
G1 X13.2089 Y-24.6337 Z0.0000
G1 X3.3955 Y-24.7708 Z0.0000
G1 X3.3954 Y-24.7708 Z0.0000
G2X2.6351Y-24.4889Z0.0000I-0.0147J1.1266
G2X2.5712Y-24.4270Z0.0000I1.0954J1.1954
G2X2.2604Y-23.7320Z0.0000I0.8122J0.7802
G2X2.2582Y-23.6634Z0.0000I1.2672J0.0757
G1 X2.2582 Y-21.9471 Z0.0000
G1 X2.2582 Y-21.9470 Z0.0000
G2X2.5506Y-21.1907Z0.0000I1.1266J-0.0011
G2X2.6138Y-21.1273Z0.0000I1.1929J-1.1244
G2X3.3957Y-20.8256Z0.0000I0.7648J-0.8178
G1 X23.0159 Y-21.0997 Z0.0000
G1 X23.0393 Y-21.0997 Z0.0000
G2X23.1795Y-20.9325Z0.0000I1.0938J-0.7743
G2X24.2147Y-20.6899Z0.0000I0.7105J-0.7020
G2X24.2948Y-20.7218Z0.0000I-0.4976J-1.3630
G2X24.8856Y-21.6066Z0.0000I-0.4059J-0.9107
G1 X24.8856 Y-23.9638 Z0.0000
G1 X24.8856 Y-23.9639 Z0.0000
G2X24.2951Y-24.8744Z0.0000I-0.9978J0.0004
G2X24.2395Y-24.8972Z0.0000I-0.6813J1.5809
G2X23.2005Y-24.6851Z0.0000I-0.3506J0.9334
G2X23.0396Y-24.4967Z0.0000I0.9539J0.9778
G1 X23.0159 Y-24.4966 Z0.0000
G1 X13.2089 Y-24.6337 Z0.0000
G1 X13.2058 Y-24.4104 Z0.0000
G1 X3.3924 Y-24.5475 Z0.0000
G2X2.7664Y-24.3060Z0.0000I-0.0122J0.9005
G2X2.7322Y-24.2722Z0.0000I57.7485J58.5785
G2X2.4821Y-23.6920Z0.0000I0.6485J0.6235
G1 X2.4815 Y-23.6683 Z0.0000
G1 X2.4815 Y-23.6634 Z0.0000
G1 X2.4815 Y-21.9471 Z0.0000
G2X2.7317Y-21.3245Z0.0000I0.9006J-0.0004
G1 X2.7664 Y-21.2904 Z0.0000
G2X3.3924Y-21.0489Z0.0000I0.6122J-0.6547
G1 X23.0147 Y-21.3231 Z0.0000
G3X23.1364Y-21.3224Z0.0000I0.0547J1.0643
G3X23.1919Y-21.2727Z0.0000I-0.0438J0.1049
G2X23.3384Y-21.0894Z0.0000I0.9316J-0.5940
G2X24.1609Y-20.9082Z0.0000I0.5510J-0.5441
G1 X24.2039 Y-20.9259 Z0.0000
G2X24.6622Y-21.6325Z0.0000I-0.3143J-0.7058
G1 X24.6622 Y-23.9638 Z0.0000
G2X24.2039Y-24.6705Z0.0000I-0.7744J0.0003
G1 X24.1609 Y-24.6881 Z0.0000
G2X23.3547Y-24.5235Z0.0000I-0.2720J0.7243
G2X23.1773Y-24.3049Z0.0000I0.9386J0.9428
G3X23.1241Y-24.2733Z0.0000I-0.0578J-0.0367
G1 X23.0147 Y-24.2733 Z0.0000
G1 X13.2058 Y-24.4104 Z0.0000
G1 X13.2027 Y-24.1870 Z0.0000
G1 X3.3893 Y-24.3242 Z0.0000
G2X2.9059Y-24.1299Z0.0000I-0.0095J0.6750
G2X2.7048Y-23.6634Z0.0000I0.4748J0.4812
G1 X2.7048 Y-21.9471 Z0.0000
G2X2.9059Y-21.4665Z0.0000I0.6750J0.0000
G2X3.3893Y-21.2722Z0.0000I0.4739J-0.4806
G1 X23.0131 Y-21.5464 Z0.0000
G3X23.1649Y-21.5441Z0.0000I0.0574J1.2391
G3X23.3748Y-21.4009Z0.0000I-0.0560J0.3075
G2X23.4974Y-21.2462Z0.0000I0.7594J-0.4755
G2X24.0977Y-21.1237Z0.0000I0.3915J-0.3863
G2X24.4389Y-21.6325Z0.0000I-0.2088J-0.5088
G1 X24.4389 Y-23.9638 Z0.0000
G2X24.0977Y-24.4727Z0.0000I-0.5500J0.0000
G2X23.4974Y-24.3501Z0.0000I-0.2088J0.5089
G2X23.3603Y-24.1757Z0.0000I0.7606J0.7387
G3X23.1279Y-24.0499Z0.0000I-0.2399J-0.1658
G1 X23.0132 Y-24.0499 Z0.0000
G1 X13.2027 Y-24.1870 Z0.0000
G0 Z4.0000
G0 X13.2027 Y-24.1870 
M5
G53 Z
X2Y0
