( MOP:  05-profile-s24PT75-nw43-Gibson-Square-NFrets22-01 )
( FILE: G:\Shared drives\AlloyProjectFiles\Customer CAD files\Alloy-Standard-Builds-CAM\Fingerboards-in\05-profile-s24PT75-nw43-Gibson-Square-NFrets22-01.nc)
G90
(  BEGIN TOOL LIST )
(  TOOL 11 - Downcut PT750 ROUGH - DESC: 0.7500 DIA, 2 FLUTE,  CARBIDE MAT )
(  ENDOF TOOL LIST )
( 05-profile-s24PT75-nw43-Gibson-Square-NFrets22-01)
T11
S14000
M3
G0 Z4.0000
G0 X12.2284 Y-20.6904 
G1 X12.2284 Y-20.6904 Z0.3000 F75.
G1 X13.9296 Y-20.7164 Z0.0000 F50.
G1 X13.9296 Y-20.7164 Z0.0000
G1 X13.9296 Y-20.7164 Z0.0000 F150.
G1 X23.0488 Y-20.8564 Z0.0000
G17
G2X24.1051Y-21.9505Z0.0000I-0.0389J-1.0946
G2X24.1046Y-23.6698Z0.0000I-203.4271J-0.7941
G2X23.0269Y-24.7408Z0.0000I-1.0950J0.0240
G1 X4.8099 Y-25.0188 Z0.0000
G2X3.7205Y-23.9241Z0.0000I0.0058J1.0951
G1 X3.7211 Y-21.6498 Z0.0000
G2X4.8323Y-20.5773Z0.0000I1.0949J-0.0226
G1 X13.9296 Y-20.7164 Z0.0000
G1 X13.9262 Y-20.9397 Z0.0000
G1 X23.0331 Y-21.0792 Z0.0000
G2X23.8818Y-21.9504Z0.0000I-0.0233J-0.8716
G2X23.8816Y-23.6573Z0.0000I-233.5839J-0.8241
G2X23.0234Y-24.5175Z0.0000I-0.8718J0.0116
G1 X4.8190 Y-24.7957 Z0.0000
G2X3.9439Y-23.9241Z0.0000I-0.0032J0.8720
G1 X3.9441 Y-21.6623 Z0.0000
G2X4.8289Y-20.8006Z0.0000I0.8719J-0.0102
G1 X13.9262 Y-20.9397 Z0.0000
G1 X13.9227 Y-21.1630 Z0.0000
G1 X23.0200 Y-21.3021 Z0.0000
G1 X23.0207 Y-21.3021 Z0.0000
G1 X23.0213 Y-21.3022 Z0.0000
G1 X23.0220 Y-21.3022 Z0.0000
G1 X23.0226 Y-21.3022 Z0.0000
G1 X23.0233 Y-21.3022 Z0.0000
G1 X23.0239 Y-21.3022 Z0.0000
G1 X23.0245 Y-21.3022 Z0.0000
G1 X23.0252 Y-21.3023 Z0.0000
G1 X23.0258 Y-21.3023 Z0.0000
G1 X23.0265 Y-21.3023 Z0.0000
G1 X23.0271 Y-21.3024 Z0.0000
G1 X23.0278 Y-21.3024 Z0.0000
G1 X23.0284 Y-21.3024 Z0.0000
G2X23.6585Y-21.9504Z0.0000I-0.0184J-0.6482
G2X23.6585Y-23.6473Z0.0000I-294.5350J-0.8478
G1 X23.6585 Y-23.6479 Z0.0000
G1 X23.6584 Y-23.6485 Z0.0000
G1 X23.6584 Y-23.6492 Z0.0000
G1 X23.6584 Y-23.6498 Z0.0000
G1 X23.6584 Y-23.6505 Z0.0000
G1 X23.6584 Y-23.6511 Z0.0000
G1 X23.6584 Y-23.6518 Z0.0000
G1 X23.6584 Y-23.6524 Z0.0000
G1 X23.6583 Y-23.6530 Z0.0000
G1 X23.6583 Y-23.6537 Z0.0000
G1 X23.6583 Y-23.6543 Z0.0000
G2X23.0200Y-24.2942Z0.0000I-0.6484J0.0084
G1 X4.8254 Y-24.5724 Z0.0000
G1 X4.8248 Y-24.5724 Z0.0000
G1 X4.8241 Y-24.5724 Z0.0000
G1 X4.8235 Y-24.5724 Z0.0000
G1 X4.8228 Y-24.5724 Z0.0000
G1 X4.8222 Y-24.5724 Z0.0000
G1 X4.8215 Y-24.5724 Z0.0000
G1 X4.8208 Y-24.5724 Z0.0000
G1 X4.8202 Y-24.5724 Z0.0000
G1 X4.8195 Y-24.5724 Z0.0000
G1 X4.8189 Y-24.5724 Z0.0000
G1 X4.8182 Y-24.5724 Z0.0000
G1 X4.8176 Y-24.5724 Z0.0000
G1 X4.8169 Y-24.5724 Z0.0000
G2X4.1672Y-23.9242Z0.0000I-0.0013J0.6484
G2X4.1672Y-21.6709Z0.0000I383.5779J1.1260
G1 X4.1672 Y-21.6702 Z0.0000
G1 X4.1672 Y-21.6696 Z0.0000
G1 X4.1672 Y-21.6689 Z0.0000
G1 X4.1672 Y-21.6682 Z0.0000
G1 X4.1672 Y-21.6676 Z0.0000
G1 X4.1673 Y-21.6669 Z0.0000
G1 X4.1673 Y-21.6663 Z0.0000
G1 X4.1673 Y-21.6656 Z0.0000
G1 X4.1673 Y-21.6650 Z0.0000
G1 X4.1673 Y-21.6643 Z0.0000
G1 X4.1674 Y-21.6637 Z0.0000
G2X4.8254Y-21.0239Z0.0000I0.6483J-0.0086
G1 X13.9227 Y-21.1630 Z0.0000
G1 X13.9193 Y-21.3863 Z0.0000
G1 X23.0166 Y-21.5254 Z0.0000
G2X23.4351Y-21.9504Z0.0000I-0.0065J-0.4250
G1 X23.4351 Y-23.6460 Z0.0000
G2X23.0166Y-24.0709Z0.0000I-0.4250J0.0000
G1 X4.8220 Y-24.3491 Z0.0000
G2X4.3905Y-23.9242Z0.0000I-0.0065J0.4249
G1 X4.3905 Y-21.6722 Z0.0000
G2X4.8220Y-21.2472Z0.0000I0.4250J0.0000
G1 X13.9193 Y-21.3863 Z0.0000
G0 Z4.0000
G0 X13.9193 Y-21.3863 
M5
G53 Z
X2Y0
