( MOP:  05-profile-s24PT625-nw43-Gibson-McSwain-NFrets22-01 )
( FILE: G:\Shared drives\AlloyProjectFiles\Customer CAD files\Alloy-Standard-Builds-CAM\Fingerboards-in\05-profile-s24PT625-nw43-Gibson-McSwain-NFrets22-01.nc)
G90
(  BEGIN TOOL LIST )
(  TOOL 11 - Downcut PT750 ROUGH - DESC: 0.7500 DIA, 2 FLUTE,  CARBIDE MAT )
(  ENDOF TOOL LIST )
( 05-profile-s24PT625-nw43-Gibson-McSwain-NFrets22-01)
T11
S14000
M3
G0 Z4.0000
G0 X15.7910 Y-24.7618 
G1 X15.7910 Y-24.7618 Z0.3000 F75.
G1 X14.0898 Y-24.7857 Z0.0000 F50.
G1 X5.1541 Y-24.9116 Z0.0000 F150.
G1 X5.1540 Y-24.9116 Z0.0000
G17
G2X4.2942Y-24.5916Z0.0000I-0.0168J1.2701
G2X4.2234Y-24.5230Z0.0000I1.2548J1.3647
G2X3.8744Y-23.7490Z0.0000I0.9176J0.8795
G2X3.8713Y-23.6703Z0.0000I1.3343J0.0921
G1 X3.8713 Y-21.9522 Z0.0000
G1 X3.8713 Y-21.9521 Z0.0000
G2X4.2246Y-21.0747Z0.0000I1.2674J-0.0006
G2X4.2728Y-21.0272Z0.0000I1.6010J-1.5763
G2X5.1172Y-20.6870Z0.0000I0.8632J-0.9245
G1 X5.1237 Y-20.6870 Z0.0000
G1 X23.0475 Y-20.9399 Z0.0000
G2X24.1051Y-22.0340Z0.0000I-0.0376J-1.0946
G2X24.1046Y-23.5889Z0.0000I-183.9233J-0.7118
G2X23.0255Y-24.6599Z0.0000I-1.0950J0.0241
G1 X14.0898 Y-24.7857 Z0.0000
G1 X14.0867 Y-24.5624 Z0.0000
G1 X5.1509 Y-24.6882 Z0.0000
G2X4.4241Y-24.4074Z0.0000I-0.0142J1.0440
G2X4.3846Y-24.3684Z0.0000I35.0790J35.5957
G2X4.0956Y-23.7055Z0.0000I0.7536J0.7231
G1 X4.0947 Y-23.6771 Z0.0000
G1 X4.0946 Y-23.6703 Z0.0000
G1 X4.0946 Y-21.9522 Z0.0000
G2X4.3856Y-21.2294Z0.0000I1.0441J-0.0005
G2X4.4252Y-21.1904Z0.0000I35.0983J-35.5768
G2X5.1205Y-20.9103Z0.0000I0.7108J-0.7613
G1 X5.1210 Y-20.9103 Z0.0000
G1 X5.1215 Y-20.9103 Z0.0000
G1 X5.1219 Y-20.9103 Z0.0000
G1 X5.1224 Y-20.9103 Z0.0000
G1 X5.1228 Y-20.9103 Z0.0000
G1 X5.1233 Y-20.9103 Z0.0000
G1 X5.1237 Y-20.9103 Z0.0000
G1 X5.1242 Y-20.9103 Z0.0000
G1 X5.1246 Y-20.9103 Z0.0000
G1 X5.1251 Y-20.9103 Z0.0000
G1 X5.1255 Y-20.9103 Z0.0000
G1 X5.1260 Y-20.9103 Z0.0000
G1 X5.1264 Y-20.9103 Z0.0000
G1 X5.1269 Y-20.9103 Z0.0000
G1 X5.1273 Y-20.9103 Z0.0000
G1 X23.0321 Y-21.1627 Z0.0000
G2X23.8818Y-22.0339Z0.0000I-0.0223J-0.8716
G2X23.8816Y-23.5763Z0.0000I-210.9623J-0.7418
G2X23.0224Y-24.4366Z0.0000I-0.8718J0.0115
G1 X14.0867 Y-24.5624 Z0.0000
G1 X14.0835 Y-24.3391 Z0.0000
G1 X5.1478 Y-24.4649 Z0.0000
G2X4.5617Y-24.2294Z0.0000I-0.0115J0.8182
G2X4.3179Y-23.6703Z0.0000I0.5765J0.5841
G1 X4.3179 Y-21.9522 Z0.0000
G2X4.5617Y-21.3695Z0.0000I0.8184J0.0000
G2X5.1242Y-21.1336Z0.0000I0.5759J-0.5847
G1 X23.0193 Y-21.3856 Z0.0000
G1 X23.0199 Y-21.3856 Z0.0000
G1 X23.0205 Y-21.3856 Z0.0000
G1 X23.0212 Y-21.3857 Z0.0000
G1 X23.0218 Y-21.3857 Z0.0000
G1 X23.0225 Y-21.3857 Z0.0000
G1 X23.0231 Y-21.3857 Z0.0000
G1 X23.0238 Y-21.3857 Z0.0000
G1 X23.0244 Y-21.3858 Z0.0000
G1 X23.0250 Y-21.3858 Z0.0000
G1 X23.0257 Y-21.3858 Z0.0000
G1 X23.0263 Y-21.3858 Z0.0000
G1 X23.0270 Y-21.3859 Z0.0000
G1 X23.0276 Y-21.3859 Z0.0000
G2X23.6585Y-22.0339Z0.0000I-0.0176J-0.6482
G2X23.6585Y-23.5663Z0.0000I-265.7785J-0.7655
G1 X23.6585 Y-23.5669 Z0.0000
G1 X23.6584 Y-23.5676 Z0.0000
G1 X23.6584 Y-23.5682 Z0.0000
G1 X23.6584 Y-23.5688 Z0.0000
G1 X23.6584 Y-23.5695 Z0.0000
G1 X23.6584 Y-23.5701 Z0.0000
G1 X23.6584 Y-23.5708 Z0.0000
G1 X23.6584 Y-23.5714 Z0.0000
G1 X23.6583 Y-23.5721 Z0.0000
G1 X23.6583 Y-23.5727 Z0.0000
G1 X23.6583 Y-23.5733 Z0.0000
G2X23.0193Y-24.2132Z0.0000I-0.6484J0.0084
G1 X14.0835 Y-24.3391 Z0.0000
G1 X14.0804 Y-24.1158 Z0.0000
G1 X5.1446 Y-24.2416 Z0.0000
G2X4.5413Y-23.6467Z0.0000I-0.0083J0.5949
G1 X4.5413 Y-21.9522 Z0.0000
G2X5.1446Y-21.3573Z0.0000I0.5950J0.0000
G1 X23.0161 Y-21.6089 Z0.0000
G2X23.4351Y-22.0339Z0.0000I-0.0060J-0.4250
G1 X23.4351 Y-23.5650 Z0.0000
G2X23.0161Y-23.9899Z0.0000I-0.4250J0.0000
G1 X14.0804 Y-24.1158 Z0.0000
G0 Z4.0000
G0 X14.0804 Y-24.1158 
M5
G53 Z
X2Y0
