( MOP:  04-lam-prep-02-drill-pt25 )
( FILE: G:\Shared drives\AlloyProjectFiles\Customer CAD files\Alloy-Standard-Builds-CAM\t-in\04-lam-prep-02-drill-pt25.nc)
G90
(  BEGIN TOOL LIST )
(  TOOL 6 - Downcut PT250 - DESC: 0.2500 DIA, 2 FLUTE,  CARBIDE MAT )
(  ENDOF TOOL LIST )
( 04-lam-prep-02-drill-pt25)
( Max Depth 1.75)
T06
S12000
M3
G0 Z4.0000
G0 X4.7330 Y-12.1897 
G0 Z0.9000
G83 X4.7330 Y-12.1897 Z0.0000 R0.9000 Q0.2 F75.0
G80
G0 Z1.6240
G0 X4.7330 Y-22.4397 
G0 Z0.9000
G83 X4.7330 Y-22.4397 Z0.0000 R0.9000 Q0.2 F75.0
G80
G0 Z1.6240
G0 X16.7330 Y-22.4397 
G0 Z0.9000
G83 X16.7330 Y-22.4397 Z0.0000 R0.9000 Q0.2 F75.0
G80
G0 Z1.6240
G0 X16.7330 Y-12.1897 
G0 Z0.9000
G83 X16.7330 Y-12.1897 Z0.0000 R0.9000 Q0.2 F75.0
G80
G0 Z4.0000
G0 X16.7330 Y-12.1897 
M5
G53 Z
X2Y0
