( MOP:  05-front-prep-02-pt25-drill-lam )
( FILE: G:\Shared drives\AlloyProjectFiles\Customer CAD files\Alloy-Standard-Builds-CAM\t-in\05-front-prep-02-pt25-drill-lam.nc)
G90
(  BEGIN TOOL LIST )
(  TOOL 6 - Downcut PT250 - DESC: 0.2500 DIA, 2 FLUTE,  CARBIDE MAT )
(  ENDOF TOOL LIST )
( 05-front-prep-02-pt25-drill-lam)
( Max Depth 1.75)
T06
S12000
M3
G0 Z4.0000
G0 X16.7330 Y-22.4397 
G0 Z2.0000
G81 X16.7330 Y-22.4397 Z0.9500 R2.0000 F25.0
G80
G0 Z2.1500
G0 X16.7330 Y-12.1897 
G0 Z2.0000
G81 X16.7330 Y-12.1897 Z0.9500 R2.0000 F25.0
G80
G0 Z2.1500
G0 X4.7330 Y-12.1897 
G0 Z2.0000
G81 X4.7330 Y-12.1897 Z0.9500 R2.0000 F25.0
G80
G0 Z2.1500
G0 X4.7330 Y-22.4397 
G0 Z2.0000
G81 X4.7330 Y-22.4397 Z0.9500 R2.0000 F25.0
G80
G0 Z4.0000
G0 X4.7330 Y-22.4397 
M5
G53 Z
X2Y0
