( MOP:  05-front-prep-01-facing-1pt51-lam )
( FILE: G:\Shared drives\AlloyProjectFiles\Customer CAD files\Alloy-Standard-Builds-CAM\t-in\05-front-prep-01-facing-1pt51-lam.nc)
G90
(  BEGIN TOOL LIST )
(  TOOL 1 - Surface 2PT500 - DESC: 2.5000 DIA, 2 FLUTE,  CARBIDE MAT )
(  ENDOF TOOL LIST )
( 05-front-prep-01-facing-1pt51-lam)
T01
S12000
M3
G0 Z4.0000
G0 X4.4732 Y-1.7972 
G1 X4.4732 Y-1.7972 Z1.7767 F75.
G1 X3.7892 Y-3.6766 Z1.7767 F50.
G1 X2.8580 Y-6.2349 Z1.7767 F150.
G1 X2.8580 Y-8.7933 Z1.7767
G1 X4.7203 Y-3.6766 Z1.7767
G1 X5.6515 Y-3.6766 Z1.7767
G1 X2.8580 Y-11.3516 Z1.7767
G1 X2.8580 Y-13.9099 Z1.7767
G1 X6.5826 Y-3.6766 Z1.7767
G1 X7.5138 Y-3.6766 Z1.7767
G1 X2.8580 Y-16.4683 Z1.7767
G1 X2.8580 Y-19.0266 Z1.7767
G1 X8.4449 Y-3.6766 Z1.7767
G1 X9.3761 Y-3.6766 Z1.7767
G1 X2.8580 Y-21.5849 Z1.7767
G1 X2.8580 Y-24.1432 Z1.7767
G1 X10.3072 Y-3.6766 Z1.7767
G1 X11.2384 Y-3.6766 Z1.7767
G1 X3.5040 Y-24.9266 Z1.7767
G1 X4.4352 Y-24.9266 Z1.7767
G1 X12.1696 Y-3.6766 Z1.7767
G1 X13.1007 Y-3.6766 Z1.7767
G1 X5.3663 Y-24.9266 Z1.7767
G1 X6.2975 Y-24.9266 Z1.7767
G1 X14.0319 Y-3.6766 Z1.7767
G1 X14.9630 Y-3.6766 Z1.7767
G1 X7.2287 Y-24.9266 Z1.7767
G1 X8.1598 Y-24.9266 Z1.7767
G1 X15.8942 Y-3.6766 Z1.7767
G1 X16.8253 Y-3.6766 Z1.7767
G1 X9.0910 Y-24.9266 Z1.7767
G1 X10.0221 Y-24.9266 Z1.7767
G1 X17.7565 Y-3.6766 Z1.7767
G1 X18.2330 Y-3.6766 Z1.7767
G1 X18.3301 Y-3.6894 Z1.7767
G1 X18.4205 Y-3.7268 Z1.7767
G1 X18.4982 Y-3.7864 Z1.7767
G1 X18.5578 Y-3.8641 Z1.7767
G1 X18.5906 Y-3.9433 Z1.7767
G1 X10.9533 Y-24.9266 Z1.7767
G1 X11.8844 Y-24.9266 Z1.7767
G1 X18.6080 Y-6.4538 Z1.7767
G1 X18.6080 Y-9.0121 Z1.7767
G1 X12.8156 Y-24.9266 Z1.7767
G1 X13.7467 Y-24.9266 Z1.7767
G1 X18.6080 Y-11.5704 Z1.7767
G1 X18.6080 Y-14.1287 Z1.7767
G1 X14.6779 Y-24.9266 Z1.7767
G1 X15.6091 Y-24.9266 Z1.7767
G1 X18.6080 Y-16.6871 Z1.7767
G1 X18.6080 Y-19.2454 Z1.7767
G1 X16.5402 Y-24.9266 Z1.7767
G1 X17.4714 Y-24.9266 Z1.7767
G1 X18.6080 Y-21.8037 Z1.7767
G1 X18.6080 Y-24.3621 Z1.7767
G1 X18.4209 Y-24.8760 Z1.7767
G0 Z2.0267
G0 X18.4209 Y-24.8760 
G0 Z2.0267
G0 X4.4732 Y-1.7972 
G1 X4.4732 Y-1.7972 Z1.6433 F75.
G1 X3.7892 Y-3.6766 Z1.6433 F50.
G1 X2.8580 Y-6.2349 Z1.6433 F150.
G1 X2.8580 Y-8.7933 Z1.6433
G1 X4.7203 Y-3.6766 Z1.6433
G1 X5.6515 Y-3.6766 Z1.6433
G1 X2.8580 Y-11.3516 Z1.6433
G1 X2.8580 Y-13.9099 Z1.6433
G1 X6.5826 Y-3.6766 Z1.6433
G1 X7.5138 Y-3.6766 Z1.6433
G1 X2.8580 Y-16.4683 Z1.6433
G1 X2.8580 Y-19.0266 Z1.6433
G1 X8.4449 Y-3.6766 Z1.6433
G1 X9.3761 Y-3.6766 Z1.6433
G1 X2.8580 Y-21.5849 Z1.6433
G1 X2.8580 Y-24.1432 Z1.6433
G1 X10.3072 Y-3.6766 Z1.6433
G1 X11.2384 Y-3.6766 Z1.6433
G1 X3.5040 Y-24.9266 Z1.6433
G1 X4.4352 Y-24.9266 Z1.6433
G1 X12.1696 Y-3.6766 Z1.6433
G1 X13.1007 Y-3.6766 Z1.6433
G1 X5.3663 Y-24.9266 Z1.6433
G1 X6.2975 Y-24.9266 Z1.6433
G1 X14.0319 Y-3.6766 Z1.6433
G1 X14.9630 Y-3.6766 Z1.6433
G1 X7.2287 Y-24.9266 Z1.6433
G1 X8.1598 Y-24.9266 Z1.6433
G1 X15.8942 Y-3.6766 Z1.6433
G1 X16.8253 Y-3.6766 Z1.6433
G1 X9.0910 Y-24.9266 Z1.6433
G1 X10.0221 Y-24.9266 Z1.6433
G1 X17.7565 Y-3.6766 Z1.6433
G1 X18.2330 Y-3.6766 Z1.6433
G1 X18.3301 Y-3.6894 Z1.6433
G1 X18.4205 Y-3.7268 Z1.6433
G1 X18.4982 Y-3.7864 Z1.6433
G1 X18.5578 Y-3.8641 Z1.6433
G1 X18.5906 Y-3.9433 Z1.6433
G1 X10.9533 Y-24.9266 Z1.6433
G1 X11.8844 Y-24.9266 Z1.6433
G1 X18.6080 Y-6.4538 Z1.6433
G1 X18.6080 Y-9.0121 Z1.6433
G1 X12.8156 Y-24.9266 Z1.6433
G1 X13.7467 Y-24.9266 Z1.6433
G1 X18.6080 Y-11.5704 Z1.6433
G1 X18.6080 Y-14.1287 Z1.6433
G1 X14.6779 Y-24.9266 Z1.6433
G1 X15.6091 Y-24.9266 Z1.6433
G1 X18.6080 Y-16.6871 Z1.6433
G1 X18.6080 Y-19.2454 Z1.6433
G1 X16.5402 Y-24.9266 Z1.6433
G1 X17.4714 Y-24.9266 Z1.6433
G1 X18.6080 Y-21.8037 Z1.6433
G1 X18.6080 Y-24.3621 Z1.6433
G1 X18.4209 Y-24.8760 Z1.6433
G0 Z1.8933
G0 X18.4209 Y-24.8760 
G0 Z1.8933
G0 X4.4732 Y-1.7972 
G1 X4.4732 Y-1.7972 Z1.5100 F75.
G1 X3.7892 Y-3.6766 Z1.5100 F50.
G1 X2.8580 Y-6.2349 Z1.5100 F150.
G1 X2.8580 Y-8.7933 Z1.5100
G1 X4.7203 Y-3.6766 Z1.5100
G1 X5.6515 Y-3.6766 Z1.5100
G1 X2.8580 Y-11.3516 Z1.5100
G1 X2.8580 Y-13.9099 Z1.5100
G1 X6.5826 Y-3.6766 Z1.5100
G1 X7.5138 Y-3.6766 Z1.5100
G1 X2.8580 Y-16.4683 Z1.5100
G1 X2.8580 Y-19.0266 Z1.5100
G1 X8.4449 Y-3.6766 Z1.5100
G1 X9.3761 Y-3.6766 Z1.5100
G1 X2.8580 Y-21.5849 Z1.5100
G1 X2.8580 Y-24.1432 Z1.5100
G1 X10.3072 Y-3.6766 Z1.5100
G1 X11.2384 Y-3.6766 Z1.5100
G1 X3.5040 Y-24.9266 Z1.5100
G1 X4.4352 Y-24.9266 Z1.5100
G1 X12.1696 Y-3.6766 Z1.5100
G1 X13.1007 Y-3.6766 Z1.5100
G1 X5.3663 Y-24.9266 Z1.5100
G1 X6.2975 Y-24.9266 Z1.5100
G1 X14.0319 Y-3.6766 Z1.5100
G1 X14.9630 Y-3.6766 Z1.5100
G1 X7.2287 Y-24.9266 Z1.5100
G1 X8.1598 Y-24.9266 Z1.5100
G1 X15.8942 Y-3.6766 Z1.5100
G1 X16.8253 Y-3.6766 Z1.5100
G1 X9.0910 Y-24.9266 Z1.5100
G1 X10.0221 Y-24.9266 Z1.5100
G1 X17.7565 Y-3.6766 Z1.5100
G1 X18.2330 Y-3.6766 Z1.5100
G1 X18.3301 Y-3.6894 Z1.5100
G1 X18.4205 Y-3.7268 Z1.5100
G1 X18.4982 Y-3.7864 Z1.5100
G1 X18.5578 Y-3.8641 Z1.5100
G1 X18.5906 Y-3.9433 Z1.5100
G1 X10.9533 Y-24.9266 Z1.5100
G1 X11.8844 Y-24.9266 Z1.5100
G1 X18.6080 Y-6.4538 Z1.5100
G1 X18.6080 Y-9.0121 Z1.5100
G1 X12.8156 Y-24.9266 Z1.5100
G1 X13.7467 Y-24.9266 Z1.5100
G1 X18.6080 Y-11.5704 Z1.5100
G1 X18.6080 Y-14.1287 Z1.5100
G1 X14.6779 Y-24.9266 Z1.5100
G1 X15.6091 Y-24.9266 Z1.5100
G1 X18.6080 Y-16.6871 Z1.5100
G1 X18.6080 Y-19.2454 Z1.5100
G1 X16.5402 Y-24.9266 Z1.5100
G1 X17.4714 Y-24.9266 Z1.5100
G1 X18.6080 Y-21.8037 Z1.5100
G1 X18.6080 Y-24.3621 Z1.5100
G1 X18.4209 Y-24.8760 Z1.5100
G0 Z4.0000
G0 X18.4209 Y-24.8760 
M5
G53 Z
X2Y0
