( MOP:  07-frontside-01-facing-1pt77-start )
( FILE: G:\Shared drives\AlloyProjectFiles\Customer CAD files\Alloy-Standard-Builds-CAM\t-in\07-frontside-01-facing-1pt77-start.nc)
G90
(  BEGIN TOOL LIST )
(  TOOL 1 - Surface 2PT500 - DESC: 2.5000 DIA, 2 FLUTE,  CARBIDE MAT )
(  ENDOF TOOL LIST )
( 07-frontside-01-facing-1pt77-start)
T01
S12000
M3
G0 Z4.0000
G0 X3.2590 Y-4.5130 
G1 X3.2590 Y-4.5130 Z1.8700 F75.
G1 X2.8580 Y-4.9140 Z1.7700 F50.
G1 X4.0954 Y-3.6766 Z1.7700 F150.
G0 Z1.8700
G0 X4.0954 Y-3.6766 
G0 Z1.8700
G0 X3.2590 Y-5.7505 
G1 X2.8580 Y-6.1515 Z1.7700 F50.
G1 X5.3329 Y-3.6766 Z1.7700 F150.
G0 Z2.2450
G0 X5.3329 Y-3.6766 
G0 Z2.2450
G0 X3.2590 Y-6.9879 
G1 X3.2590 Y-6.9879 Z1.8700 F75.
G1 X2.8580 Y-7.3889 Z1.7700 F50.
G1 X6.5703 Y-3.6766 Z1.7700 F150.
G0 Z2.2450
G0 X6.5703 Y-3.6766 
G0 Z2.2450
G0 X3.2590 Y-8.2253 
G1 X3.2590 Y-8.2253 Z1.8700 F75.
G1 X2.8580 Y-8.6264 Z1.7700 F50.
G1 X7.8077 Y-3.6766 Z1.7700 F150.
G0 Z2.2450
G0 X7.8077 Y-3.6766 
G0 Z2.2450
G0 X3.2590 Y-9.4628 
G1 X3.2590 Y-9.4628 Z1.8700 F75.
G1 X2.8580 Y-9.8638 Z1.7700 F50.
G1 X9.0452 Y-3.6766 Z1.7700 F150.
G0 Z2.2450
G0 X9.0452 Y-3.6766 
G0 Z2.2450
G0 X3.2590 Y-10.7002 
G1 X3.2590 Y-10.7002 Z1.8700 F75.
G1 X2.8580 Y-11.1012 Z1.7700 F50.
G1 X10.2826 Y-3.6766 Z1.7700 F150.
G0 Z2.2450
G0 X10.2826 Y-3.6766 
G0 Z2.2450
G0 X3.2590 Y-11.9376 
G1 X3.2590 Y-11.9376 Z1.8700 F75.
G1 X2.8580 Y-12.3387 Z1.7700 F50.
G1 X11.5201 Y-3.6766 Z1.7700 F150.
G0 Z2.2450
G0 X11.5201 Y-3.6766 
G0 Z2.2450
G0 X3.2590 Y-13.1751 
G1 X3.2590 Y-13.1751 Z1.8700 F75.
G1 X2.8580 Y-13.5761 Z1.7700 F50.
G1 X12.7575 Y-3.6766 Z1.7700 F150.
G0 Z2.2450
G0 X12.7575 Y-3.6766 
G0 Z2.2450
G0 X3.2590 Y-14.4125 
G1 X3.2590 Y-14.4125 Z1.8700 F75.
G1 X2.8580 Y-14.8135 Z1.7700 F50.
G1 X13.9949 Y-3.6766 Z1.7700 F150.
G0 Z2.2450
G0 X13.9949 Y-3.6766 
G0 Z2.2450
G0 X3.2590 Y-15.6500 
G1 X3.2590 Y-15.6500 Z1.8700 F75.
G1 X2.8580 Y-16.0510 Z1.7700 F50.
G1 X15.2324 Y-3.6766 Z1.7700 F150.
G0 Z2.2450
G0 X15.2324 Y-3.6766 
G0 Z2.2450
G0 X3.2590 Y-16.8874 
G1 X3.2590 Y-16.8874 Z1.8700 F75.
G1 X2.8580 Y-17.2884 Z1.7700 F50.
G1 X16.4698 Y-3.6766 Z1.7700 F150.
G0 Z2.2450
G0 X16.4698 Y-3.6766 
G0 Z2.2450
G0 X3.2590 Y-18.1248 
G1 X3.2590 Y-18.1248 Z1.8700 F75.
G1 X2.8580 Y-18.5259 Z1.7700 F50.
G1 X17.7072 Y-3.6766 Z1.7700 F150.
G0 Z2.2450
G0 X17.7072 Y-3.6766 
G0 Z2.2450
G0 X3.2590 Y-19.3623 
G1 X3.2590 Y-19.3623 Z1.8700 F75.
G1 X2.8580 Y-19.7633 Z1.7700 F50.
G1 X18.6035 Y-4.0177 Z1.7700 F150.
G0 Z2.2450
G0 X18.6035 Y-4.0177 
G0 Z2.2450
G0 X3.2590 Y-20.5997 
G1 X3.2590 Y-20.5997 Z1.8700 F75.
G1 X2.8580 Y-21.0007 Z1.7700 F50.
G1 X18.6080 Y-5.2507 Z1.7700 F150.
G0 Z2.2450
G0 X18.6080 Y-5.2507 
G0 Z2.2450
G0 X3.2590 Y-21.8371 
G1 X3.2590 Y-21.8371 Z1.8700 F75.
G1 X2.8580 Y-22.2382 Z1.7700 F50.
G1 X18.6080 Y-6.4882 Z1.7700 F150.
G0 Z2.2450
G0 X18.6080 Y-6.4882 
G0 Z2.2450
G0 X3.2590 Y-23.0746 
G1 X3.2590 Y-23.0746 Z1.8700 F75.
G1 X2.8580 Y-23.4756 Z1.7700 F50.
G1 X18.6080 Y-7.7256 Z1.7700 F150.
G0 Z2.2450
G0 X18.6080 Y-7.7256 
G0 Z2.2450
G0 X3.2869 Y-24.2841 
G1 X3.2869 Y-24.2841 Z1.8700 F75.
G1 X2.8859 Y-24.6851 Z1.7700 F50.
G1 X18.6080 Y-8.9630 Z1.7700 F150.
G0 Z2.2450
G0 X18.6080 Y-8.9630 
G0 Z2.2450
G0 X4.2829 Y-24.5256 
G1 X4.2829 Y-24.5256 Z1.8700 F75.
G1 X3.8819 Y-24.9266 Z1.7700 F50.
G1 X18.6080 Y-10.2005 Z1.7700 F150.
G0 Z2.2450
G0 X18.6080 Y-10.2005 
G0 Z2.2450
G0 X5.5203 Y-24.5256 
G1 X5.5203 Y-24.5256 Z1.8700 F75.
G1 X5.1193 Y-24.9266 Z1.7700 F50.
G1 X18.6080 Y-11.4379 Z1.7700 F150.
G0 Z2.2450
G0 X18.6080 Y-11.4379 
G0 Z2.2450
G0 X6.7578 Y-24.5256 
G1 X6.7578 Y-24.5256 Z1.8700 F75.
G1 X6.3567 Y-24.9266 Z1.7700 F50.
G1 X18.6080 Y-12.6753 Z1.7700 F150.
G0 Z2.2450
G0 X18.6080 Y-12.6753 
G0 Z2.2450
G0 X7.9952 Y-24.5256 
G1 X7.9952 Y-24.5256 Z1.8700 F75.
G1 X7.5942 Y-24.9266 Z1.7700 F50.
G1 X18.6080 Y-13.9128 Z1.7700 F150.
G0 Z2.2450
G0 X18.6080 Y-13.9128 
G0 Z2.2450
G0 X9.2326 Y-24.5256 
G1 X9.2326 Y-24.5256 Z1.8700 F75.
G1 X8.8316 Y-24.9266 Z1.7700 F50.
G1 X18.6080 Y-15.1502 Z1.7700 F150.
G0 Z2.2450
G0 X18.6080 Y-15.1502 
G0 Z2.2450
G0 X10.4701 Y-24.5256 
G1 X10.4701 Y-24.5256 Z1.8700 F75.
G1 X10.0690 Y-24.9266 Z1.7700 F50.
G1 X18.6080 Y-16.3877 Z1.7700 F150.
G0 Z2.2450
G0 X18.6080 Y-16.3877 
G0 Z2.2450
G0 X11.7075 Y-24.5256 
G1 X11.7075 Y-24.5256 Z1.8700 F75.
G1 X11.3065 Y-24.9266 Z1.7700 F50.
G1 X18.6080 Y-17.6251 Z1.7700 F150.
G0 Z2.2450
G0 X18.6080 Y-17.6251 
G0 Z2.2450
G0 X12.9449 Y-24.5256 
G1 X12.9449 Y-24.5256 Z1.8700 F75.
G1 X12.5439 Y-24.9266 Z1.7700 F50.
G1 X18.6080 Y-18.8625 Z1.7700 F150.
G0 Z2.2450
G0 X18.6080 Y-18.8625 
G0 Z2.2450
G0 X14.1824 Y-24.5256 
G1 X14.1824 Y-24.5256 Z1.8700 F75.
G1 X13.7814 Y-24.9266 Z1.7700 F50.
G1 X18.6080 Y-20.1000 Z1.7700 F150.
G0 Z2.2450
G0 X18.6080 Y-20.1000 
G0 Z2.2450
G0 X15.4198 Y-24.5256 
G1 X15.4198 Y-24.5256 Z1.8700 F75.
G1 X15.0188 Y-24.9266 Z1.7700 F50.
G1 X18.6080 Y-21.3374 Z1.7700 F150.
G0 Z2.2450
G0 X18.6080 Y-21.3374 
G0 Z2.2450
G0 X16.6573 Y-24.5256 
G1 X16.6573 Y-24.5256 Z1.8700 F75.
G1 X16.2562 Y-24.9266 Z1.7700 F50.
G1 X18.6080 Y-22.5748 Z1.7700 F150.
G0 Z1.8700
G0 X18.6080 Y-22.5748 
G0 Z1.8700
G0 X17.8947 Y-24.5256 
G1 X17.4937 Y-24.9266 Z1.7700 F50.
G1 X18.6080 Y-23.8123 Z1.7700 F150.
G0 Z4.0000
G0 X18.6080 Y-23.8123 
M5
G53 Z
X2Y0
