( MOP:  11-Full-body-StandardT-01-righty )
( FILE: G:\Shared drives\AlloyProjectFiles\Customer CAD files\Alloy-Standard-Builds-CAM\t-in\11-Full-body-StandardT-01-righty-pt01.nc)
G90
(  BEGIN TOOL LIST )
(  TOOL 13 - Straight PT750 - DESC: 0.7500 DIA, 2 FLUTE,  CARBIDE MAT )
(  ENDOF TOOL LIST )
( 11-Full-body-StandardT-01-righty)
T13
S14000
M3
G0 Z4.0000
G0 X3.4930 Y-18.7193 
G1 X3.4930 Y-18.7193 Z0.0000 F75.
G17
G2X4.0237Y-19.1973Z0.0000I0.0311J-0.4990 F30.
G3X4.2175Y-20.2788Z0.0000I3.9584J0.1512 F40.
G3X5.4771Y-22.0739Z0.0000I3.7167J1.2686
G3X6.8443Y-22.8227Z0.0000I2.7914J3.4740
G3X8.1798Y-23.1194Z0.0000I2.0722J6.1735
G3X9.6543Y-23.2038Z0.0000I1.4137J11.7742
G1 X10.5169 Y-23.2041 Z0.0000
G1 X11.6614 Y-23.2068 Z0.0000
G3X13.0307Y-23.1526Z0.0000I0.1211J14.2572
G3X14.4143Y-22.9043Z0.0000I-0.6168J7.4171
G3X15.7296Y-22.3011Z0.0000I-1.2517J4.4653
G3X16.6159Y-21.4611Z0.0000I-1.9511J2.9462
G1 X16.7509 Y-21.2779 Z0.0000
G1 X16.7723 Y-21.2456 Z0.0000
G1 X17.1925 Y-20.4465 Z0.0000
G1 X17.2075 Y-20.4125 Z0.0000
G3X17.4121Y-19.7739Z0.0000I-13.4470J4.6615
G3X17.5139Y-18.8773Z0.0000I-2.8284J0.7752
G3X17.3382Y-17.5713Z0.0000I-6.4205J-0.1989
G3X16.6473Y-15.5642Z0.0000I-10.8555J-2.6143
G3X16.2173Y-14.6298Z0.0000I-66.0104J-29.8116
G2X15.9023Y-13.8944Z0.0000I15.5912J7.1124
G2X15.6986Y-13.2676Z0.0000I4.1516J1.6958
G2X15.7327Y-12.1424Z0.0000I2.1076J0.4993
G2X15.9222Y-11.6021Z0.0000I4.7983J-1.3794
G1 X16.1541 Y-11.0373 Z0.0000
G3X16.4977Y-10.0208Z0.0000I-7.3082J3.0362
G3X16.6373Y-8.5759Z0.0000I-4.5526J1.1692
G3X16.4144Y-7.6160Z0.0000I-2.8800J-0.1629
G3X16.1148Y-7.1619Z0.0000I-1.4129J-0.6064
G3X14.9360Y-6.8643Z0.0000I-0.8343J-0.8213
G3X14.2801Y-7.3847Z0.0000I0.4289J-1.2141
G3X14.0877Y-7.7794Z0.0000I1.4822J-0.9668
G1 X14.0505 Y-7.8902 Z0.0000
G1 X13.9331 Y-8.2893 Z0.0000
G2X13.7435Y-8.7907Z0.0000I-3.1375J0.8999
G2X13.3242Y-9.2782Z0.0000I-1.0817J0.5063
G2X12.8090Y-9.4670Z0.0000I-0.6326J0.9290
G2X12.4715Y-9.3575Z0.0000I-0.0404J0.4506
G2X12.2244Y-8.9205Z0.0000I0.3910J0.5094
G1 X12.2191 Y-8.8773 Z0.0000
G1 X12.2158 Y-8.8399 Z0.0000
G1 X12.2123 Y-7.2958 Z0.0000
G3X11.5773Y-6.6622Z0.0000I-0.6350J-0.0014
G1 X9.8888 Y-6.6622 Z0.0000
G3X9.2538Y-7.2806Z0.0000I-0.0004J-0.6349
G1 X9.2538 Y-7.2974 Z0.0000
G2X9.2398Y-7.3238Z0.0000I-0.0355J0.0019
G2X9.2131Y-7.3306Z0.0000I-0.0213J0.0281
G2X9.0342Y-7.2489Z0.0000I0.2292J0.7385
G2X8.6695Y-7.0154Z0.0000I5.5644J9.0932
G3X7.9978Y-6.6885Z0.0000I-1.7017J-2.6430
G3X6.8132Y-6.5420Z0.0000I-0.9507J-2.8258
G3X5.7830Y-6.9061Z0.0000I0.1673J-2.1130
G3X5.0960Y-7.7730Z0.0000I1.1636J-1.6277
G3X4.8776Y-8.8245Z0.0000I2.6410J-1.0970
G3X4.9685Y-9.8070Z0.0000I4.2543J-0.1018
G3X5.2433Y-10.7330Z0.0000I5.6697J1.1787
G3X5.5157Y-11.4144Z0.0000I22.0012J8.4007
G2X5.7583Y-12.0604Z0.0000I-7.8557J-3.3180
G2X5.7804Y-13.4391Z0.0000I-2.2146J-0.7251
G2X5.6165Y-13.9083Z0.0000I-4.0649J1.1571
G2X5.3333Y-14.5554Z0.0000I-12.6939J5.1699
G1 X4.8805 Y-15.5380 Z0.0000
G3X4.1604Y-17.6612Z0.0000I9.8179J-4.5135
G3X4.0237Y-19.1973Z0.0000I5.9463J-1.3034
G3X4.0746Y-19.6944Z0.0000I4.1755J0.1765
G2X3.6626Y-20.2739Z0.0000I-0.4926J-0.0860
G0 Z4.0000
G0 X3.6626 Y-20.2739 
M5
G53 Z
X2Y0
