( MOP:  07-frontside-01-facing-1pt77-start )
( FILE: G:\Shared drives\AlloyProjectFiles\Customer CAD files\Alloy-Standard-Builds-CAM\s-in\07-frontside-01-facing-1pt77-start.nc)
G90
(  BEGIN TOOL LIST )
(  TOOL 1 - Surface 2PT500 - DESC: 2.5000 DIA, 2 FLUTE,  CARBIDE MAT )
(  ENDOF TOOL LIST )
( 07-frontside-01-facing-1pt77-start)
T01
S12000
M3
G0 Z6.0000
G0 X2.6534 Y-0.6080 
G1 X2.6534 Y-0.6080 Z1.7700 F75.
G1 X1.8082 Y-2.4206 Z1.7700 F50.
G1 X1.7976 Y-2.4433 Z1.7700 F125.
G1 X1.1080 Y-3.9221 Z1.7700 F250.
G1 X1.1080 Y-5.4010 Z1.7700
G1 X2.4872 Y-2.4433 Z1.7700
G1 X3.1768 Y-2.4433 Z1.7700
G1 X1.1080 Y-6.8799 Z1.7700
G1 X1.1080 Y-8.3588 Z1.7700
G1 X3.8664 Y-2.4433 Z1.7700
G1 X4.5561 Y-2.4433 Z1.7700
G1 X1.1080 Y-9.8377 Z1.7700
G1 X1.1080 Y-11.3165 Z1.7700
G1 X5.2457 Y-2.4433 Z1.7700
G1 X5.9353 Y-2.4433 Z1.7700
G1 X1.1080 Y-12.7954 Z1.7700
G1 X1.1080 Y-14.2743 Z1.7700
G1 X6.6249 Y-2.4433 Z1.7700
G1 X7.3145 Y-2.4433 Z1.7700
G1 X1.1080 Y-15.7532 Z1.7700
G1 X1.1080 Y-17.2320 Z1.7700
G1 X8.0041 Y-2.4433 Z1.7700
G1 X8.6937 Y-2.4433 Z1.7700
G1 X1.1080 Y-18.7109 Z1.7700
G1 X1.1080 Y-20.1898 Z1.7700
G1 X9.3833 Y-2.4433 Z1.7700
G1 X10.0729 Y-2.4433 Z1.7700
G1 X1.1080 Y-21.6687 Z1.7700
G1 X1.1080 Y-23.1475 Z1.7700
G1 X10.7626 Y-2.4433 Z1.7700
G1 X11.4522 Y-2.4433 Z1.7700
G1 X1.1080 Y-24.6264 Z1.7700
G1 X1.1080 Y-25.0683 Z1.7700
G1 X1.1200 Y-25.1902 Z1.7700
G1 X1.1556 Y-25.3074 Z1.7700
G1 X1.2133 Y-25.4155 Z1.7700
G1 X1.2911 Y-25.5102 Z1.7700
G1 X1.3594 Y-25.5663 Z1.7700
G1 X12.1418 Y-2.4433 Z1.7700
G1 X12.8314 Y-2.4433 Z1.7700
G1 X1.9897 Y-25.6933 Z1.7700
G1 X2.6793 Y-25.6933 Z1.7700
G1 X13.5210 Y-2.4433 Z1.7700
G1 X14.2106 Y-2.4433 Z1.7700
G1 X3.3690 Y-25.6933 Z1.7700
G1 X4.0586 Y-25.6933 Z1.7700
G1 X14.9002 Y-2.4433 Z1.7700
G1 X15.5898 Y-2.4433 Z1.7700
G1 X4.7482 Y-25.6933 Z1.7700
G1 X5.4378 Y-25.6933 Z1.7700
G1 X16.2794 Y-2.4433 Z1.7700
G1 X16.9691 Y-2.4433 Z1.7700
G1 X6.1274 Y-25.6933 Z1.7700
G1 X6.8170 Y-25.6933 Z1.7700
G1 X17.6587 Y-2.4433 Z1.7700
G1 X17.7330 Y-2.4433 Z1.7700
G1 X17.8549 Y-2.4553 Z1.7700
G1 X17.9722 Y-2.4908 Z1.7700
G1 X18.0802 Y-2.5486 Z1.7700
G1 X18.1749 Y-2.6263 Z1.7700
G1 X18.2310 Y-2.6947 Z1.7700
G1 X7.5066 Y-25.6933 Z1.7700
G1 X8.1962 Y-25.6933 Z1.7700
G1 X18.3580 Y-3.9013 Z1.7700
G1 X18.3580 Y-5.3802 Z1.7700
G1 X8.8858 Y-25.6933 Z1.7700
G1 X9.5755 Y-25.6933 Z1.7700
G1 X18.3580 Y-6.8591 Z1.7700
G1 X18.3580 Y-8.3379 Z1.7700
G1 X10.2651 Y-25.6933 Z1.7700
G1 X10.9547 Y-25.6933 Z1.7700
G1 X18.3580 Y-9.8168 Z1.7700
G1 X18.3580 Y-11.2957 Z1.7700
G1 X11.6443 Y-25.6933 Z1.7700
G1 X12.3339 Y-25.6933 Z1.7700
G1 X18.3580 Y-12.7746 Z1.7700
G1 X18.3580 Y-14.2534 Z1.7700
G1 X13.0235 Y-25.6933 Z1.7700
G1 X13.7131 Y-25.6933 Z1.7700
G1 X18.3580 Y-15.7323 Z1.7700
G1 X18.3580 Y-17.2112 Z1.7700
G1 X14.4027 Y-25.6933 Z1.7700
G1 X15.0923 Y-25.6933 Z1.7700
G1 X18.3580 Y-18.6901 Z1.7700
G1 X18.3580 Y-20.1689 Z1.7700
G1 X15.7820 Y-25.6933 Z1.7700
G1 X16.4716 Y-25.6933 Z1.7700
G1 X18.3580 Y-21.6478 Z1.7700
G1 X18.3580 Y-23.1267 Z1.7700
G1 X17.1612 Y-25.6933 Z1.7700
G1 X17.7330 Y-25.6933 Z1.7700
G1 X17.8549 Y-25.6813 Z1.7700
G1 X17.8566 Y-25.6807 Z1.7700
G1 X18.3580 Y-24.6056 Z1.7700
G1 X18.5014 Y-24.4008 Z1.8700
G1 X18.5587 Y-24.3189 Z1.8700
G0 Z6.0000
G0 X18.5587 Y-24.3189 
M5
G53 Z
X2Y0
