( MOP:  vint-T-8mm-ferrules-back-04 )
( FILE: G:\Shared drives\AlloyProjectFiles\Customer CAD files\Alloy-Standard-Builds-CAM\t-in\Bridges\vint-T-8mm-ferrules-back-04.nc)
G90
(  BEGIN TOOL LIST )
(  TOOL 10 - Drill PT3150 8mm - DESC: 0.3150 DIA, 2 FLUTE,  CARBIDE MAT )
(  ENDOF TOOL LIST )
( vint-T-8mm-ferrules-back-04)
T10
S6000
M3
G0 Z4.0000
G0 X11.7956 Y-17.7392 
G0 Z1.8600
G83 X11.7956 Y-17.7392 Z1.3600 R1.8600 Q0.16 F30.0
G80
G0 Z2.0100
G0 X11.3706 Y-17.7393 
G0 Z1.8600
G83 X11.3706 Y-17.7393 Z1.3600 R1.8600 Q0.16 F30.0
G80
G0 Z2.0100
G0 X10.9456 Y-17.7392 
G0 Z1.8600
G83 X10.9456 Y-17.7392 Z1.3600 R1.8600 Q0.16 F30.0
G80
G0 Z2.0100
G0 X10.5206 Y-17.7393 
G0 Z1.8600
G83 X10.5206 Y-17.7393 Z1.3600 R1.8600 Q0.16 F30.0
G80
G0 Z2.0100
G0 X10.0956 Y-17.7393 
G0 Z1.8600
G83 X10.0956 Y-17.7393 Z1.3600 R1.8600 Q0.16 F30.0
G80
G0 Z2.0100
G0 X9.6706 Y-17.7393 
G0 Z1.8600
G83 X9.6706 Y-17.7393 Z1.3600 R1.8600 Q0.16 F30.0
G80
G0 Z4.0000
G0 X9.6706 Y-17.7393 
M5
G53 Z
X2Y0
