( MOP:  00-Full-body-01 )
( FILE: G:\Shared drives\AlloyProjectFiles\Customer CAD files\Alloy-Standard-Builds-CAM\t-in\00-Full-body-01.nc)
G90
(  BEGIN TOOL LIST )
(  TOOL 2 - Drill PT3937 10mm - DESC: 0.3937 DIA, 2 FLUTE,  CARBIDE MAT )
(  ENDOF TOOL LIST )
( 00-Full-body-01)
T02
S6000
M3
G0 Z4.0000
G0 X5.3116 Y-23.1199 
G0 Z2.2500
G83 X5.3116 Y-23.1199 Z0.9000 R2.2500 Q0.5 F20.0
G80
G0 Z2.2500
G0 X4.1866 Y-21.9949 
G0 Z2.2500
G83 X4.1866 Y-21.9949 Z0.9000 R2.2500 Q0.5 F20.0
G80
G0 Z2.2500
G0 X4.7330 Y-13.1745 
G0 Z2.2500
G83 X4.7330 Y-13.1745 Z0.9000 R2.2500 Q0.5 F20.0
G80
G0 Z2.2500
G0 X4.2330 Y-6.7602 
G0 Z2.2500
G83 X4.2330 Y-6.7602 Z0.9000 R2.2500 Q0.5 F20.0
G80
G0 Z2.2500
G0 X5.4830 Y-5.7602 
G0 Z2.2500
G83 X5.4830 Y-5.7602 Z0.9000 R2.2500 Q0.5 F20.0
G80
G0 Z2.2500
G0 X15.9830 Y-5.7602 
G0 Z2.2500
G83 X15.9830 Y-5.7602 Z0.9000 R2.2500 Q0.5 F20.0
G80
G0 Z2.2500
G0 X17.2330 Y-6.7602 
G0 Z2.2500
G83 X17.2330 Y-6.7602 Z0.9000 R2.2500 Q0.5 F20.0
G80
G0 Z2.2500
G0 X16.7330 Y-13.1745 
G0 Z2.2500
G83 X16.7330 Y-13.1745 Z0.9000 R2.2500 Q0.5 F20.0
G80
G0 Z2.2500
G0 X17.2794 Y-21.9949 
G0 Z2.2500
G83 X17.2794 Y-21.9949 Z0.9000 R2.2500 Q0.5 F20.0
G80
G0 Z2.2500
G0 X16.1544 Y-23.1199 
G0 Z2.2500
G83 X16.1544 Y-23.1199 Z0.9000 R2.2500 Q0.5 F20.0
G80
G0 Z4.0000
G0 X16.1544 Y-23.1199 
M5
G53 Z
X2Y0
