( MOP:  08-Full-body-Adcock-04-end )
( FILE: G:\Shared drives\AlloyProjectFiles\Customer CAD files\Alloy-Standard-Builds-CAM\t-in\FullTele\08-Full-body-Adcock-04-end.nc)
G90
(  BEGIN TOOL LIST )
(  TOOL 11 - Downcut PT750 ROUGH - DESC: 0.7500 DIA, 2 FLUTE,  CARBIDE MAT )
(  ENDOF TOOL LIST )
( 08-Full-body-Adcock-04-end)
T11
S14000
M3
G0 Z6.0000
G0 X4.5457 Y-21.8108 
G1 X4.5457 Y-21.8108 Z1.5000 F75.
G17
G3X4.6694Y-21.2823Z1.5000I-0.1901J0.3232 F50.
G1 X4.6488 Y-21.2473 Z1.5000 F150.
G1 X4.2336 Y-20.4559 Z1.5000
G1 X4.2193 Y-20.4218 Z1.5000
G1 X4.0858 Y-20.0201 Z1.5000
G2X3.9650Y-19.5699Z1.5000I3.9070J1.2897
G1 X3.9395 Y-19.4191 Z1.5000
G1 X3.9215 Y-19.2584 Z1.5000
G2X3.9118Y-18.8891Z1.5000I3.4402J0.2751
G1 X3.9203 Y-18.6888 Z1.5000
G2X4.0980Y-17.5240Z1.5000I6.4833J-0.3927
G2X4.6464Y-15.8608Z1.5000I10.7895J-2.6356
G1 X4.7836 Y-15.5446 Z1.5000
G1 X4.9248 Y-15.2355 Z1.5000
G3X5.3396Y-14.3266Z1.5000I-40.2407J18.9170
G1 X5.4684 Y-14.0241 Z1.5000
G3X5.6817Y-13.4353Z1.5000I-5.7272J2.4076
G1 X5.7210 Y-13.2897 Z1.5000
G3X5.7177Y-12.2437Z1.5000I-2.0299J0.5166
G3X5.6040Y-11.8757Z1.5000I-5.0765J-1.3671
G1 X5.5732 Y-11.7929 Z1.5000
G1 X5.4379 Y-11.4507 Z1.5000
G2X5.1241Y-10.2009Z1.5000I4.7786J1.8643
G2X5.2348Y-8.7371Z1.5000I3.8001J0.4486
G2X5.4008Y-8.2681Z1.5000I3.3148J-0.9095
G1 X5.4334 Y-8.2040 Z1.5000
G1 X5.4992 Y-8.0898 Z1.5000
G1 X5.5819 Y-7.9648 Z1.5000
G2X5.9119Y-7.5869Z1.5000I1.8512J-1.2838
G2X6.2023Y-7.3873Z1.5000I0.8570J-0.9356
G1 X6.2880 Y-7.3510 Z1.5000
G2X6.4227Y-7.3149Z1.5000I0.3179J-0.9169
G1 X6.4936 Y-7.3052 Z1.5000
G2X6.6416Y-7.3084Z1.5000I0.0562J-0.8060
G2X6.9730Y-7.4442Z1.5000I-0.0880J-0.6868
G1 X7.0458 Y-7.5049 Z1.5000
G1 X7.1137 Y-7.5730 Z1.5000
G1 X7.1669 Y-7.6327 Z1.5000
G1 X7.2516 Y-7.7376 Z1.5000
G1 X7.3304 Y-7.8491 Z1.5000
G2X7.4992Y-8.1579Z1.5000I-1.8506J-1.2125
G3X7.6785Y-8.5432Z1.5000I7.1003J3.0691
G3X7.8340Y-8.8194Z1.5000I2.9449J1.4757
G3X7.9805Y-8.9815Z1.5000I0.5138J0.3173
G3X8.2924Y-9.1129Z1.5000I0.4622J0.6611
G3X8.6843Y-9.1075Z1.5000I0.1838J0.8869
G3X9.1431Y-8.8872Z1.5000I-0.2567J1.1222
G3X9.2102Y-8.8180Z1.5000I-0.2613J0.3208
G1 X9.2137 Y-7.2957 Z1.5000
G2X9.8887Y-6.6222Z1.5000I0.6750J-0.0015
G1 X11.5772 Y-6.6222 Z1.5000
G2X12.2522Y-7.2887Z1.5000I0.0000J-0.6751
G3X12.4115Y-7.2144Z1.5000I-0.2265J0.6930
G1 X12.5286 Y-7.1416 Z1.5000
G2X12.9157Y-6.8970Z1.5000I4.7692J-7.1165
G2X13.3265Y-6.6973Z1.5000I1.5468J-2.6601
G1 X13.4750 Y-6.6440 Z1.5000
G1 X13.6259 Y-6.5990 Z1.5000
G1 X13.7814 Y-6.5613 Z1.5000
G1 X13.9383 Y-6.5317 Z1.5000
G1 X14.0979 Y-6.5099 Z1.5000
G1 X14.2590 Y-6.4963 Z1.5000
G1 X14.4192 Y-6.4916 Z1.5000
G2X15.2550Y-6.6364Z1.5000I0.0185J-2.3776
G2X16.2083Y-7.3895Z1.5000I-0.6797J-1.8404
G2X16.4991Y-8.0098Z1.5000I-1.9689J-1.3012
G2X16.6256Y-8.7551Z1.5000I-2.8821J-0.8728
G1 X16.6299 Y-8.9368 Z1.5000
G1 X16.6256 Y-9.1173 Z1.5000
G2X16.5351Y-9.8229Z1.5000I-4.5705J0.2278
G2X16.3505Y-10.4961Z1.5000I-5.4178J1.1239
G1 X16.2938 Y-10.6565 Z1.5000
G1 X16.2341 Y-10.8154 Z1.5000
G1 X16.1134 Y-11.1198 Z1.5000
G1 X15.9920 Y-11.4181 Z1.5000
G1 X15.8738 Y-11.7134 Z1.5000
G3X15.7272Y-12.1352Z1.5000I4.8005J-1.9050
G3X15.6439Y-13.0114Z1.5000I2.1943J-0.6507
G3X15.7029Y-13.3476Z1.5000I2.4417J0.2557
G1 X15.7409 Y-13.4861 Z1.5000
G3X15.9503Y-14.0471Z1.5000I5.2519J1.6413
G1 X16.0122 Y-14.1904 Z1.5000
G1 X16.1433 Y-14.4823 Z1.5000
G1 X16.2775 Y-14.7748 Z1.5000
G1 X16.5509 Y-15.3656 Z1.5000
G2X16.8174Y-15.9761Z1.5000I-12.9212J-6.0033
G2X17.3298Y-17.5847Z1.5000I-9.8485J-4.0229
G2X17.4878Y-18.9636Z1.5000I-6.1461J-1.4031
G2X17.4355Y-19.6750Z1.5000I-4.7352J-0.0092
G1 X17.4035 Y-19.8545 Z1.5000
G1 X17.3627 Y-20.0328 Z1.5000
G1 X17.3131 Y-20.2086 Z1.5000
G1 X17.2550 Y-20.3816 Z1.5000
G1 X17.1886 Y-20.5513 Z1.5000
G1 X17.1143 Y-20.7175 Z1.5000
G1 X17.0322 Y-20.8796 Z1.5000
G1 X16.9428 Y-21.0376 Z1.5000
G1 X16.8462 Y-21.1911 Z1.5000
G1 X16.7428 Y-21.3398 Z1.5000
G1 X16.6329 Y-21.4835 Z1.5000
G1 X16.5167 Y-21.6219 Z1.5000
G2X15.9962Y-22.1193Z1.5000I-3.1100J2.7330
G2X15.4015Y-22.5194Z1.5000I-2.6847J3.3492
G2X14.7567Y-22.8167Z1.5000I-2.2703J4.0756
G2X14.0878Y-23.0183Z1.5000I-1.9398J5.2252
G2X13.0777Y-23.1833Z1.5000I-1.7695J7.6600
G2X12.0728Y-23.2411Z1.5000I-1.1793J11.7280
G1 X11.7454 Y-23.2441 Z1.5000
G1 X11.0986 Y-23.2442 Z1.5000
G1 X9.8009 Y-23.2468 Z1.5000
G2X8.9446Y-23.2282Z1.5000I-0.0482J17.5317
G2X7.7270Y-23.0999Z1.5000I0.4447J10.0651
G2X6.8547Y-22.8853Z1.5000I1.0652J6.2083
G2X6.0129Y-22.5184Z1.5000I1.4783J4.5412
G1 X5.8537 Y-22.4245 Z1.5000
G1 X5.6993 Y-22.3243 Z1.5000
G1 X5.5506 Y-22.2183 Z1.5000
G1 X5.4084 Y-22.1067 Z1.5000
G1 X5.2735 Y-21.9901 Z1.5000
G1 X5.1463 Y-21.8687 Z1.5000
G1 X5.0280 Y-21.7437 Z1.5000
G1 X4.9173 Y-21.6135 Z1.5000
G2X4.6694Y-21.2823Z1.5000I6.3775J5.0314
G1 X4.6488 Y-21.2473 Z1.5000
G1 X4.4354 Y-20.8405 Z1.5000
G3X3.9292Y-20.6828Z1.5000I-0.3320J-0.1744
G0 Z2.5000
G0 X3.9292 Y-20.6828 
G0 Z2.5000
G0 X4.5457 Y-21.8108 
G1 X4.5457 Y-21.8108 Z1.2500 F75.
G3X4.6694Y-21.2823Z1.2500I-0.1901J0.3232 F50.
G1 X4.6488 Y-21.2473 Z1.2500 F150.
G1 X4.2336 Y-20.4559 Z1.2500
G1 X4.2193 Y-20.4218 Z1.2500
G1 X4.0858 Y-20.0201 Z1.2500
G2X3.9650Y-19.5699Z1.2500I3.9070J1.2897
G1 X3.9395 Y-19.4191 Z1.2500
G1 X3.9215 Y-19.2584 Z1.2500
G2X3.9118Y-18.8891Z1.2500I3.4402J0.2751
G1 X3.9203 Y-18.6888 Z1.2500
G2X4.0980Y-17.5240Z1.2500I6.4833J-0.3927
G2X4.6464Y-15.8608Z1.2500I10.7895J-2.6356
G1 X4.7836 Y-15.5446 Z1.2500
G1 X4.9248 Y-15.2355 Z1.2500
G3X5.3396Y-14.3266Z1.2500I-40.2407J18.9170
G1 X5.4684 Y-14.0241 Z1.2500
G3X5.6817Y-13.4353Z1.2500I-5.7272J2.4076
G1 X5.7210 Y-13.2897 Z1.2500
G3X5.7177Y-12.2437Z1.2500I-2.0299J0.5166
G3X5.6040Y-11.8757Z1.2500I-5.0765J-1.3671
G1 X5.5732 Y-11.7929 Z1.2500
G1 X5.4379 Y-11.4507 Z1.2500
G2X5.1241Y-10.2009Z1.2500I4.7786J1.8643
G2X5.2348Y-8.7371Z1.2500I3.8001J0.4486
G2X5.4008Y-8.2681Z1.2500I3.3148J-0.9095
G1 X5.4334 Y-8.2040 Z1.2500
G1 X5.4992 Y-8.0898 Z1.2500
G1 X5.5819 Y-7.9648 Z1.2500
G2X5.9119Y-7.5869Z1.2500I1.8512J-1.2838
G2X6.2023Y-7.3873Z1.2500I0.8570J-0.9356
G1 X6.2880 Y-7.3510 Z1.2500
G2X6.4227Y-7.3149Z1.2500I0.3179J-0.9169
G1 X6.4936 Y-7.3052 Z1.2500
G2X6.6416Y-7.3084Z1.2500I0.0562J-0.8060
G2X6.9730Y-7.4442Z1.2500I-0.0880J-0.6868
G1 X7.0458 Y-7.5049 Z1.2500
G1 X7.1137 Y-7.5730 Z1.2500
G1 X7.1669 Y-7.6327 Z1.2500
G1 X7.2516 Y-7.7376 Z1.2500
G1 X7.3304 Y-7.8491 Z1.2500
G2X7.4992Y-8.1579Z1.2500I-1.8506J-1.2125
G3X7.6785Y-8.5432Z1.2500I7.1003J3.0691
G3X7.8340Y-8.8194Z1.2500I2.9449J1.4757
G3X7.9805Y-8.9815Z1.2500I0.5138J0.3173
G3X8.2924Y-9.1129Z1.2500I0.4622J0.6611
G3X8.6843Y-9.1075Z1.2500I0.1838J0.8869
G3X9.1431Y-8.8872Z1.2500I-0.2567J1.1222
G3X9.2102Y-8.8180Z1.2500I-0.2613J0.3208
G1 X9.2137 Y-7.2957 Z1.2500
G2X9.8887Y-6.6222Z1.2500I0.6750J-0.0015
G1 X11.5772 Y-6.6222 Z1.2500
G2X12.2522Y-7.2887Z1.2500I0.0000J-0.6751
G3X12.4115Y-7.2144Z1.2500I-0.2265J0.6930
G1 X12.5286 Y-7.1416 Z1.2500
G2X12.9157Y-6.8970Z1.2500I4.7692J-7.1165
G2X13.3265Y-6.6973Z1.2500I1.5468J-2.6601
G1 X13.4750 Y-6.6440 Z1.2500
G1 X13.6259 Y-6.5990 Z1.2500
G1 X13.7814 Y-6.5613 Z1.2500
G1 X13.9383 Y-6.5317 Z1.2500
G1 X14.0979 Y-6.5099 Z1.2500
G1 X14.2590 Y-6.4963 Z1.2500
G1 X14.4192 Y-6.4916 Z1.2500
G2X15.2550Y-6.6364Z1.2500I0.0185J-2.3776
G2X16.2083Y-7.3895Z1.2500I-0.6797J-1.8404
G2X16.4991Y-8.0098Z1.2500I-1.9689J-1.3012
G2X16.6256Y-8.7551Z1.2500I-2.8821J-0.8728
G1 X16.6299 Y-8.9368 Z1.2500
G1 X16.6256 Y-9.1173 Z1.2500
G2X16.5351Y-9.8229Z1.2500I-4.5705J0.2278
G2X16.3505Y-10.4961Z1.2500I-5.4178J1.1239
G1 X16.2938 Y-10.6565 Z1.2500
G1 X16.2341 Y-10.8154 Z1.2500
G1 X16.1134 Y-11.1198 Z1.2500
G1 X15.9920 Y-11.4181 Z1.2500
G1 X15.8738 Y-11.7134 Z1.2500
G3X15.7272Y-12.1352Z1.2500I4.8005J-1.9050
G3X15.6439Y-13.0114Z1.2500I2.1943J-0.6507
G3X15.7029Y-13.3476Z1.2500I2.4417J0.2557
G1 X15.7409 Y-13.4861 Z1.2500
G3X15.9503Y-14.0471Z1.2500I5.2519J1.6413
G1 X16.0122 Y-14.1904 Z1.2500
G1 X16.1433 Y-14.4823 Z1.2500
G1 X16.2775 Y-14.7748 Z1.2500
G1 X16.5509 Y-15.3656 Z1.2500
G2X16.8174Y-15.9761Z1.2500I-12.9212J-6.0033
G2X17.3298Y-17.5847Z1.2500I-9.8485J-4.0229
G2X17.4878Y-18.9636Z1.2500I-6.1461J-1.4031
G2X17.4355Y-19.6750Z1.2500I-4.7352J-0.0092
G1 X17.4035 Y-19.8545 Z1.2500
G1 X17.3627 Y-20.0328 Z1.2500
G1 X17.3131 Y-20.2086 Z1.2500
G1 X17.2550 Y-20.3816 Z1.2500
G1 X17.1886 Y-20.5513 Z1.2500
G1 X17.1143 Y-20.7175 Z1.2500
G1 X17.0322 Y-20.8796 Z1.2500
G1 X16.9428 Y-21.0376 Z1.2500
G1 X16.8462 Y-21.1911 Z1.2500
G1 X16.7428 Y-21.3398 Z1.2500
G1 X16.6329 Y-21.4835 Z1.2500
G1 X16.5167 Y-21.6219 Z1.2500
G2X15.9962Y-22.1193Z1.2500I-3.1100J2.7330
G2X15.4015Y-22.5194Z1.2500I-2.6847J3.3492
G2X14.7567Y-22.8167Z1.2500I-2.2703J4.0756
G2X14.0878Y-23.0183Z1.2500I-1.9398J5.2252
G2X13.0777Y-23.1833Z1.2500I-1.7695J7.6600
G2X12.0728Y-23.2411Z1.2500I-1.1793J11.7280
G1 X11.7454 Y-23.2441 Z1.2500
G1 X11.0986 Y-23.2442 Z1.2500
G1 X9.8009 Y-23.2468 Z1.2500
G2X8.9446Y-23.2282Z1.2500I-0.0482J17.5317
G2X7.7270Y-23.0999Z1.2500I0.4447J10.0651
G2X6.8547Y-22.8853Z1.2500I1.0652J6.2083
G2X6.0129Y-22.5184Z1.2500I1.4783J4.5412
G1 X5.8537 Y-22.4245 Z1.2500
G1 X5.6993 Y-22.3243 Z1.2500
G1 X5.5506 Y-22.2183 Z1.2500
G1 X5.4084 Y-22.1067 Z1.2500
G1 X5.2735 Y-21.9901 Z1.2500
G1 X5.1463 Y-21.8687 Z1.2500
G1 X5.0280 Y-21.7437 Z1.2500
G1 X4.9173 Y-21.6135 Z1.2500
G2X4.6694Y-21.2823Z1.2500I6.3775J5.0314
G1 X4.6488 Y-21.2473 Z1.2500
G1 X4.4354 Y-20.8405 Z1.2500
G3X3.9292Y-20.6828Z1.2500I-0.3320J-0.1744
G0 Z6.0000
G0 X3.9292 Y-20.6828 
M5
G53 Z
X2Y0
