( MOP:  08-Full-body-Adcock-05-end )
( FILE: G:\Shared drives\AlloyProjectFiles\Customer CAD files\Alloy-Standard-Builds-CAM\t-in\FullTele\08-Full-body-Adcock-05-end.nc)
G90
(  BEGIN TOOL LIST )
(  TOOL 3 - Downcut PT750 - DESC: 0.7500 DIA, 2 FLUTE,  CARBIDE MAT )
(  ENDOF TOOL LIST )
( 08-Full-body-Adcock-05-end)
T03
S14000
M3
G0 Z6.0000
G0 X4.6134 Y-21.8034 
G1 X4.6134 Y-21.8034 Z1.2500 F75.
G17
G3X4.7157Y-21.2703Z1.2500I-0.2030J0.3154 F50.
G1 X4.6961 Y-21.2398 Z1.2500 F100.
G1 X4.2743 Y-20.4368 Z1.2500
G1 X4.2601 Y-20.4024 Z1.2500
G1 X4.1288 Y-20.0068 Z1.2500
G2X4.0094Y-19.5623Z1.2500I3.8717J1.2787
G1 X3.9840 Y-19.4122 Z1.2500
G1 X3.9664 Y-19.2553 Z1.2500
G2X3.9568Y-18.8910Z1.2500I3.3947J0.2720
G1 X3.9652 Y-18.6922 Z1.2500
G2X4.1416Y-17.5350Z1.2500I6.4379J-0.3893
G2X4.6877Y-15.8787Z1.2500I10.7462J-2.6247
G1 X4.8246 Y-15.5633 Z1.2500
G1 X4.9656 Y-15.2545 Z1.2500
G3X5.3809Y-14.3446Z1.2500I-40.2787J18.9348
G1 X5.5100 Y-14.0413 Z1.2500
G3X5.7249Y-13.4479Z1.2500I-5.7694J2.4251
G1 X5.7647 Y-13.3006 Z1.2500
G3X5.7612Y-12.2323Z1.2500I-2.0736J0.5275
G3X5.6463Y-11.8606Z1.2500I-5.1224J-1.3793
G1 X5.6153 Y-11.7768 Z1.2500
G1 X5.4800 Y-11.4348 Z1.2500
G2X5.1688Y-10.1965Z1.2500I4.7371J1.8486
G2X5.2780Y-8.7498Z1.2500I3.7555J0.4442
G2X5.4411Y-8.2881Z1.2500I3.2816J-0.9000
G1 X5.4725 Y-8.2263 Z1.2500
G1 X5.5380 Y-8.1127 Z1.2500
G1 X5.6183 Y-7.9911 Z1.2500
G2X5.9412Y-7.6210Z1.2500I1.8164J-1.2588
G2X6.2217Y-7.4279Z1.2500I0.8285J-0.9027
G1 X6.3036 Y-7.3932 Z1.2500
G2X6.4292Y-7.3595Z1.2500I0.3038J-0.8793
G1 X6.4977 Y-7.3500 Z1.2500
G2X6.6351Y-7.3530Z1.2500I0.0521J-0.7620
G2X6.9478Y-7.4816Z1.2500I-0.0817J-0.6426
G1 X7.0171 Y-7.5397 Z1.2500
G1 X7.0813 Y-7.6042 Z1.2500
G1 X7.1320 Y-7.6612 Z1.2500
G1 X7.2153 Y-7.7642 Z1.2500
G1 X7.2924 Y-7.8733 Z1.2500
G2X7.4581Y-8.1762Z1.2500I-1.8110J-1.1875
G3X7.6384Y-8.5636Z1.2500I7.1379J3.0857
G3X7.7964Y-8.8443Z1.2500I2.9791J1.4929
G3X7.9537Y-9.0176Z1.2500I0.5509J0.3416
G3X8.2834Y-9.1570Z1.2500I0.4889J0.6969
G3X8.6943Y-9.1514Z1.2500I0.1928J0.9312
G3X9.1716Y-8.9219Z1.2500I-0.2668J1.1661
G3X9.2552Y-8.8315Z1.2500I-0.2674J0.3309
G1 X9.2587 Y-7.2958 Z1.2500
G2X9.8887Y-6.6672Z1.2500I0.6300J-0.0014
G1 X11.5772 Y-6.6672 Z1.2500
G2X12.2072Y-7.2957Z1.2500I0.0000J-0.6300
G3X12.2231Y-7.3277Z1.2500I0.0403J0.0000
G3X12.2541Y-7.3354Z1.2500I0.0245J0.0321
G3X12.4343Y-7.2532Z1.2500I-0.2304J0.7433
G1 X12.5529 Y-7.1796 Z1.2500
G2X12.9375Y-6.9363Z1.2500I4.7656J-7.1105
G2X13.3435Y-6.7390Z1.2500I1.5232J-2.6176
G1 X13.4895 Y-6.6867 Z1.2500
G1 X13.6380 Y-6.6423 Z1.2500
G1 X13.7899 Y-6.6055 Z1.2500
G1 X13.9445 Y-6.5763 Z1.2500
G1 X14.1018 Y-6.5547 Z1.2500
G1 X14.2606 Y-6.5413 Z1.2500
G1 X14.4187 Y-6.5366 Z1.2500
G2X15.2385Y-6.6783Z1.2500I0.0190J-2.3331
G2X16.1705Y-7.4139Z1.2500I-0.6632J-1.7984
G2X16.4559Y-8.0224Z1.2500I-1.9306J-1.2765
G2X16.5806Y-8.7563Z1.2500I-2.8403J-0.8605
G1 X16.5849 Y-8.9358 Z1.2500
G1 X16.5807 Y-9.1143 Z1.2500
G2X16.4911Y-9.8132Z1.2500I-4.5245J0.2246
G2X16.3080Y-10.4811Z1.2500I-5.3725J1.1139
G1 X16.2516 Y-10.6407 Z1.2500
G1 X16.1923 Y-10.7988 Z1.2500
G1 X16.0717 Y-11.1028 Z1.2500
G1 X15.9502 Y-11.4012 Z1.2500
G1 X15.8319 Y-11.6971 Z1.2500
G3X15.6840Y-12.1226Z1.2500I4.8413J-1.9210
G3X15.5991Y-13.0161Z1.2500I2.2375J-0.6633
G3X15.6593Y-13.3587Z1.2500I2.4872J0.2605
G1 X15.6977 Y-13.4989 Z1.2500
G3X15.9089Y-14.0646Z1.2500I5.2944J1.6539
G1 X15.9711 Y-14.2086 Z1.2500
G1 X16.1024 Y-14.5009 Z1.2500
G1 X16.2367 Y-14.7937 Z1.2500
G1 X16.5099 Y-15.3841 Z1.2500
G2X16.7756Y-15.9928Z1.2500I-12.8871J-5.9878
G2X17.2858Y-17.5941Z1.2500I-9.8080J-4.0067
G2X17.4428Y-18.9629Z1.2500I-6.1029J-1.3938
G2X17.3912Y-19.6673Z1.2500I-4.6922J-0.0098
G1 X17.3596 Y-19.8445 Z1.2500
G1 X17.3194 Y-20.0207 Z1.2500
G1 X17.2704 Y-20.1944 Z1.2500
G1 X17.2130 Y-20.3653 Z1.2500
G1 X17.1475 Y-20.5330 Z1.2500
G1 X17.0741 Y-20.6972 Z1.2500
G1 X16.9930 Y-20.8576 Z1.2500
G1 X16.9047 Y-21.0137 Z1.2500
G1 X16.8092 Y-21.1655 Z1.2500
G1 X16.7070 Y-21.3126 Z1.2500
G1 X16.5983 Y-21.4546 Z1.2500
G1 X16.4835 Y-21.5915 Z1.2500
G2X15.9687Y-22.0837Z1.2500I-3.0766J2.7025
G2X15.3803Y-22.4797Z1.2500I-2.6570J3.3134
G2X14.7416Y-22.7743Z1.2500I-2.2488J4.0353
G2X14.0780Y-22.9744Z1.2500I-1.9244J5.1818
G2X13.0735Y-23.1385Z1.2500I-1.7594J7.6148
G2X12.0724Y-23.1961Z1.2500I-1.1751J11.6827
G1 X11.7454 Y-23.1991 Z1.2500
G1 X11.0985 Y-23.1992 Z1.2500
G1 X9.8012 Y-23.2018 Z1.2500
G2X8.9471Y-23.1833Z1.2500I-0.0484J17.4876
G2X7.7352Y-23.0557Z1.2500I0.4425J10.0226
G2X6.8694Y-22.8428Z1.2500I1.0573J6.1657
G2X6.0357Y-22.4796Z1.2500I1.4640J4.4996
G2X5.5783Y-22.1828Z1.2500I2.0608J3.6764
G1 X5.4377 Y-22.0726 Z1.2500
G1 X5.3045 Y-21.9575 Z1.2500
G1 X5.1789 Y-21.8377 Z1.2500
G1 X5.0612 Y-21.7133 Z1.2500
G1 X4.9529 Y-21.5860 Z1.2500
G1 X4.8487 Y-21.4509 Z1.2500
G1 X4.7157 Y-21.2703 Z1.2500
G1 X4.6961 Y-21.2398 Z1.2500
G1 X4.4805 Y-20.8293 Z1.2500
G3X3.9741Y-20.6717Z1.2500I-0.3320J-0.1743
G0 Z6.0000
G0 X3.9741 Y-20.6717 
M5
G53 Z
X2Y0
