( MOP:  10-Full-body-StandardT-04-end )
( FILE: G:\Shared drives\AlloyProjectFiles\Customer CAD files\Alloy-Standard-Builds-CAM\t-in\FullTele\10-Full-body-StandardT-04-end.nc)
G90
(  BEGIN TOOL LIST )
(  TOOL 11 - Downcut PT750 ROUGH - DESC: 0.7500 DIA, 2 FLUTE,  CARBIDE MAT )
(  ENDOF TOOL LIST )
( 10-Full-body-StandardT-04-end)
T11
S14000
M3
G0 Z4.0000
G0 X3.6438 Y-19.5839 
G1 X3.6438 Y-19.5839 Z1.4000 F75.
G17
G3X4.0086Y-19.1955Z1.4000I-0.0100J0.3749 F50.
G2X4.0288Y-18.4170Z1.4000I5.6177J0.2433 F150.
G2X4.1880Y-17.4725Z1.4000I6.5352J-0.6157
G2X4.7913Y-15.7018Z1.4000I10.5921J-2.6208
G1 X4.8669 Y-15.5318 Z1.4000
G1 X5.3196 Y-14.5492 Z1.4000
G1 X5.4667 Y-14.2232 Z1.4000
G3X5.7197Y-13.5868Z1.4000I-6.7763J3.0627
G3X5.8559Y-12.9010Z1.4000I-2.4714J0.8472
G3X5.7660Y-12.1394Z1.4000I-2.3307J0.1111
G1 X5.7440 Y-12.0649 Z1.4000
G1 X5.6914 Y-11.9071 Z1.4000
G1 X5.6328 Y-11.7490 Z1.4000
G1 X5.5018 Y-11.4200 Z1.4000
G2X5.2292Y-10.7382Z1.4000I28.4716J11.7778
G2X5.0462Y-10.1899Z1.4000I6.4701J2.4640
G2X4.9183Y-9.6160Z1.4000I4.9989J1.4157
G1 X4.8911 Y-9.4243 Z1.4000
G2X4.8854Y-8.5173Z1.4000I3.8072J0.4775
G2X5.1172Y-7.6891Z1.4000I2.7063J-0.3109
G2X5.6366Y-7.0009Z1.4000I1.8377J-0.8467
G2X6.3164Y-6.6263Z1.4000I1.2600J-1.4827
G2X7.0649Y-6.5168Z1.4000I0.7143J-2.2685
G1 X7.2254 Y-6.5224 Z1.4000
G1 X7.3866 Y-6.5371 Z1.4000
G1 X7.5442 Y-6.5598 Z1.4000
G1 X7.6998 Y-6.5902 Z1.4000
G1 X7.8529 Y-6.6284 Z1.4000
G1 X8.0016 Y-6.6739 Z1.4000
G1 X8.1476 Y-6.7274 Z1.4000
G1 X8.2876 Y-6.7878 Z1.4000
G1 X8.4224 Y-6.8548 Z1.4000
G2X8.8023Y-7.0827Z1.4000I-2.0864J-3.9088
G1 X8.9239 Y-7.1627 Z1.4000
G1 X9.0418 Y-7.2359 Z1.4000
G3X9.2164Y-7.3159Z1.4000I0.4002J0.6434
G3X9.2307Y-7.3118Z1.4000I0.0021J0.0202
G3X9.2388Y-7.2966Z1.4000I-0.0123J0.0162
G1 X9.2388 Y-7.2806 Z1.4000
G2X9.8888Y-6.6472Z1.4000I0.6497J-0.0165
G1 X11.5773 Y-6.6472 Z1.4000
G2X12.2273Y-7.2957Z1.4000I0.0000J-0.6500
G1 X12.2308 Y-8.8392 Z1.4000
G3X12.2808Y-9.0830Z1.4000I0.8412J0.0456
G3X12.5798Y-9.4095Z1.4000I0.6053J0.2540
G3X12.7781Y-9.4531Z1.4000I0.1835J0.3618
G3X12.9015Y-9.4398Z1.4000I-0.0130J0.6965
G3X13.5758Y-9.0297Z1.4000I-0.2454J1.1630
G3X13.7301Y-8.7840Z1.4000I-1.0769J0.8477
G3X13.8595Y-8.4681Z1.4000I-2.3640J1.1533
G1 X13.9188 Y-8.2849 Z1.4000
G1 X14.0363 Y-7.8854 Z1.4000
G2X14.1679Y-7.5496Z1.4000I2.3379J-0.7230
G1 X14.2288 Y-7.4379 Z1.4000
G2X14.6638Y-6.9788Z1.4000I1.2184J-0.7190
G2X15.3130Y-6.7968Z1.4000I0.6086J-0.9220
G2X16.1748Y-7.2046Z1.4000I-0.0359J-1.1906
G2X16.3721Y-7.4950Z1.4000I-1.1233J-0.9752
G1 X16.4282 Y-7.6101 Z1.4000
G2X16.5854Y-8.0989Z1.4000I-2.3325J-1.0198
G2X16.6586Y-9.0331Z1.4000I-3.6554J-0.7561
G2X16.5121Y-10.0248Z1.4000I-4.9670J0.2267
G1 X16.4547 Y-10.2366 Z1.4000
G2X16.1680Y-11.0430Z1.4000I-8.1288J2.4354
G1 X15.9362 Y-11.6077 Z1.4000
G3X15.7731Y-12.0584Z1.4000I5.6296J-2.2915
G3X15.6642Y-12.5771Z1.4000I2.4405J-0.7830
G3X15.7133Y-13.2642Z1.4000I2.1219J-0.1939
G3X15.7860Y-13.5260Z1.4000I3.1388J0.7315
G3X16.0676Y-14.2540Z1.4000I7.6945J2.5576
G1 X16.2310 Y-14.6236 Z1.4000
G1 X16.4006 Y-14.9928 Z1.4000
G2X16.7459Y-15.7513Z1.4000I-25.2685J-11.9590
G2X17.3529Y-17.5681Z1.4000I-10.1590J-4.4039
G2X17.4618Y-18.1275Z1.4000I-6.4882J-1.5541
G2X17.5303Y-18.9961Z1.4000I-6.1436J-0.9213
G2X17.4265Y-19.7781Z1.4000I-2.8903J-0.0143
G1 X17.3754 Y-19.9525 Z1.4000
G1 X17.3108 Y-20.1518 Z1.4000
G1 X17.2215 Y-20.4178 Z1.4000
G1 X17.2059 Y-20.4532 Z1.4000
G1 X16.7852 Y-21.2532 Z1.4000
G1 X16.7654 Y-21.2835 Z1.4000
G1 X16.6278 Y-21.4703 Z1.4000
G1 X16.5164 Y-21.6136 Z1.4000
G1 X16.4058 Y-21.7421 Z1.4000
G1 X16.2871 Y-21.8659 Z1.4000
G1 X16.1607 Y-21.9852 Z1.4000
G1 X16.0267 Y-22.0997 Z1.4000
G1 X15.8855 Y-22.2094 Z1.4000
G1 X15.7377 Y-22.3137 Z1.4000
G2X15.2632Y-22.5910Z1.4000I-2.3988J3.5612
G2X14.5902Y-22.8659Z1.4000I-2.1622J4.3318
G2X13.8988Y-23.0447Z1.4000I-1.8528J5.7389
G2X12.8592Y-23.1821Z1.4000I-1.6711J8.6412
G2X12.3411Y-23.2108Z1.4000I-0.9647J12.7060
G1 X11.9993 Y-23.2195 Z1.4000
G1 X11.6613 Y-23.2218 Z1.4000
G1 X10.5169 Y-23.2191 Z1.4000
G1 X9.6541 Y-23.2188 Z1.4000
G2X8.7685Y-23.1903Z1.4000I0.0128J14.1531
G1 X8.4750 Y-23.1667 Z1.4000
G2X7.4321Y-23.0052Z1.4000I0.7283J8.1533
G2X6.4044Y-22.6634Z1.4000I1.1684J5.2298
G2X5.4675Y-22.0854Z1.4000I1.8006J3.9666
G2X4.6197Y-21.1454Z1.4000I2.5458J3.1484
G2X4.1555Y-20.1299Z1.4000I3.1857J2.0701
G2X4.0330Y-19.5051Z1.4000I3.6472J1.0394
G1 X4.0181 Y-19.3491 Z1.4000
G1 X4.0086 Y-19.1955 Z1.4000
G2X4.0101Y-18.6957Z1.4000I5.0947J0.2345
G3X3.6522Y-18.3047Z1.4000I-0.3746J0.0164
G0 Z1.6500
G0 X3.6522 Y-18.3047 
G0 Z1.6500
G0 X3.6438 Y-19.5839 
G1 X3.6438 Y-19.5839 Z1.0500 F75.
G3X4.0086Y-19.1955Z1.0500I-0.0100J0.3749 F50.
G2X4.0288Y-18.4170Z1.0500I5.6177J0.2433 F150.
G2X4.1880Y-17.4725Z1.0500I6.5352J-0.6157
G2X4.7913Y-15.7018Z1.0500I10.5921J-2.6208
G1 X4.8669 Y-15.5318 Z1.0500
G1 X5.3196 Y-14.5492 Z1.0500
G1 X5.4667 Y-14.2232 Z1.0500
G3X5.7197Y-13.5868Z1.0500I-6.7763J3.0627
G3X5.8559Y-12.9010Z1.0500I-2.4714J0.8472
G3X5.7660Y-12.1394Z1.0500I-2.3307J0.1111
G1 X5.7440 Y-12.0649 Z1.0500
G1 X5.6914 Y-11.9071 Z1.0500
G1 X5.6328 Y-11.7490 Z1.0500
G1 X5.5018 Y-11.4200 Z1.0500
G2X5.2292Y-10.7382Z1.0500I28.4716J11.7778
G2X5.0462Y-10.1899Z1.0500I6.4701J2.4640
G2X4.9183Y-9.6160Z1.0500I4.9989J1.4157
G1 X4.8911 Y-9.4243 Z1.0500
G2X4.8854Y-8.5173Z1.0500I3.8072J0.4775
G2X5.1172Y-7.6891Z1.0500I2.7063J-0.3109
G2X5.6366Y-7.0009Z1.0500I1.8377J-0.8467
G2X6.3164Y-6.6263Z1.0500I1.2600J-1.4827
G2X7.0649Y-6.5168Z1.0500I0.7143J-2.2685
G1 X7.2254 Y-6.5224 Z1.0500
G1 X7.3866 Y-6.5371 Z1.0500
G1 X7.5442 Y-6.5598 Z1.0500
G1 X7.6998 Y-6.5902 Z1.0500
G1 X7.8529 Y-6.6284 Z1.0500
G1 X8.0016 Y-6.6739 Z1.0500
G1 X8.1476 Y-6.7274 Z1.0500
G1 X8.2876 Y-6.7878 Z1.0500
G1 X8.4224 Y-6.8548 Z1.0500
G2X8.8023Y-7.0827Z1.0500I-2.0864J-3.9088
G1 X8.9239 Y-7.1627 Z1.0500
G1 X9.0418 Y-7.2359 Z1.0500
G3X9.2164Y-7.3159Z1.0500I0.4002J0.6434
G3X9.2307Y-7.3118Z1.0500I0.0021J0.0202
G3X9.2388Y-7.2966Z1.0500I-0.0123J0.0162
G1 X9.2388 Y-7.2806 Z1.0500
G2X9.8888Y-6.6472Z1.0500I0.6497J-0.0165
G1 X11.5773 Y-6.6472 Z1.0500
G2X12.2273Y-7.2957Z1.0500I0.0000J-0.6500
G1 X12.2308 Y-8.8392 Z1.0500
G3X12.2808Y-9.0830Z1.0500I0.8412J0.0456
G3X12.5798Y-9.4095Z1.0500I0.6053J0.2540
G3X12.7781Y-9.4531Z1.0500I0.1835J0.3618
G3X12.9015Y-9.4398Z1.0500I-0.0130J0.6965
G3X13.5758Y-9.0297Z1.0500I-0.2454J1.1630
G3X13.7301Y-8.7840Z1.0500I-1.0769J0.8477
G3X13.8595Y-8.4681Z1.0500I-2.3640J1.1533
G1 X13.9188 Y-8.2849 Z1.0500
G1 X14.0363 Y-7.8854 Z1.0500
G2X14.1679Y-7.5496Z1.0500I2.3379J-0.7230
G1 X14.2288 Y-7.4379 Z1.0500
G2X14.6638Y-6.9788Z1.0500I1.2184J-0.7190
G2X15.3130Y-6.7968Z1.0500I0.6086J-0.9220
G2X16.1748Y-7.2046Z1.0500I-0.0359J-1.1906
G2X16.3721Y-7.4950Z1.0500I-1.1233J-0.9752
G1 X16.4282 Y-7.6101 Z1.0500
G2X16.5854Y-8.0989Z1.0500I-2.3325J-1.0198
G2X16.6586Y-9.0331Z1.0500I-3.6554J-0.7561
G2X16.5121Y-10.0248Z1.0500I-4.9670J0.2267
G1 X16.4547 Y-10.2366 Z1.0500
G2X16.1680Y-11.0430Z1.0500I-8.1288J2.4354
G1 X15.9362 Y-11.6077 Z1.0500
G3X15.7731Y-12.0584Z1.0500I5.6296J-2.2915
G3X15.6642Y-12.5771Z1.0500I2.4405J-0.7830
G3X15.7133Y-13.2642Z1.0500I2.1219J-0.1939
G3X15.7860Y-13.5260Z1.0500I3.1388J0.7315
G3X16.0676Y-14.2540Z1.0500I7.6945J2.5576
G1 X16.2310 Y-14.6236 Z1.0500
G1 X16.4006 Y-14.9928 Z1.0500
G2X16.7459Y-15.7513Z1.0500I-25.2685J-11.9590
G2X17.3529Y-17.5681Z1.0500I-10.1590J-4.4039
G2X17.4618Y-18.1275Z1.0500I-6.4882J-1.5541
G2X17.5303Y-18.9961Z1.0500I-6.1436J-0.9213
G2X17.4265Y-19.7781Z1.0500I-2.8903J-0.0143
G1 X17.3754 Y-19.9525 Z1.0500
G1 X17.3108 Y-20.1518 Z1.0500
G1 X17.2215 Y-20.4178 Z1.0500
G1 X17.2059 Y-20.4532 Z1.0500
G1 X16.7852 Y-21.2532 Z1.0500
G1 X16.7654 Y-21.2835 Z1.0500
G1 X16.6278 Y-21.4703 Z1.0500
G1 X16.5164 Y-21.6136 Z1.0500
G1 X16.4058 Y-21.7421 Z1.0500
G1 X16.2871 Y-21.8659 Z1.0500
G1 X16.1607 Y-21.9852 Z1.0500
G1 X16.0267 Y-22.0997 Z1.0500
G1 X15.8855 Y-22.2094 Z1.0500
G1 X15.7377 Y-22.3137 Z1.0500
G2X15.2632Y-22.5910Z1.0500I-2.3988J3.5612
G2X14.5902Y-22.8659Z1.0500I-2.1622J4.3318
G2X13.8988Y-23.0447Z1.0500I-1.8528J5.7389
G2X12.8592Y-23.1821Z1.0500I-1.6711J8.6412
G2X12.3411Y-23.2108Z1.0500I-0.9647J12.7060
G1 X11.9993 Y-23.2195 Z1.0500
G1 X11.6613 Y-23.2218 Z1.0500
G1 X10.5169 Y-23.2191 Z1.0500
G1 X9.6541 Y-23.2188 Z1.0500
G2X8.7685Y-23.1903Z1.0500I0.0128J14.1531
G1 X8.4750 Y-23.1667 Z1.0500
G2X7.4321Y-23.0052Z1.0500I0.7283J8.1533
G2X6.4044Y-22.6634Z1.0500I1.1684J5.2298
G2X5.4675Y-22.0854Z1.0500I1.8006J3.9666
G2X4.6197Y-21.1454Z1.0500I2.5458J3.1484
G2X4.1555Y-20.1299Z1.0500I3.1857J2.0701
G2X4.0330Y-19.5051Z1.0500I3.6472J1.0394
G1 X4.0181 Y-19.3491 Z1.0500
G1 X4.0086 Y-19.1955 Z1.0500
G2X4.0101Y-18.6957Z1.0500I5.0947J0.2345
G3X3.6522Y-18.3047Z1.0500I-0.3746J0.0164
G0 Z1.3000
G0 X3.6522 Y-18.3047 
G0 Z1.3000
G0 X3.6438 Y-19.5839 
G1 X3.6438 Y-19.5839 Z0.7000 F75.
G3X4.0086Y-19.1955Z0.7000I-0.0100J0.3749 F50.
G2X4.0288Y-18.4170Z0.7000I5.6177J0.2433 F150.
G2X4.1880Y-17.4725Z0.7000I6.5352J-0.6157
G2X4.7913Y-15.7018Z0.7000I10.5921J-2.6208
G1 X4.8669 Y-15.5318 Z0.7000
G1 X5.3196 Y-14.5492 Z0.7000
G1 X5.4667 Y-14.2232 Z0.7000
G3X5.7197Y-13.5868Z0.7000I-6.7763J3.0627
G3X5.8559Y-12.9010Z0.7000I-2.4714J0.8472
G3X5.7660Y-12.1394Z0.7000I-2.3307J0.1111
G1 X5.7440 Y-12.0649 Z0.7000
G1 X5.6914 Y-11.9071 Z0.7000
G1 X5.6328 Y-11.7490 Z0.7000
G1 X5.5018 Y-11.4200 Z0.7000
G2X5.2292Y-10.7382Z0.7000I28.4716J11.7778
G2X5.0462Y-10.1899Z0.7000I6.4701J2.4640
G2X4.9183Y-9.6160Z0.7000I4.9989J1.4157
G1 X4.8911 Y-9.4243 Z0.7000
G2X4.8854Y-8.5173Z0.7000I3.8072J0.4775
G2X5.1172Y-7.6891Z0.7000I2.7063J-0.3109
G2X5.6366Y-7.0009Z0.7000I1.8377J-0.8467
G2X6.3164Y-6.6263Z0.7000I1.2600J-1.4827
G2X7.0649Y-6.5168Z0.7000I0.7143J-2.2685
G1 X7.2254 Y-6.5224 Z0.7000
G1 X7.3866 Y-6.5371 Z0.7000
G1 X7.5442 Y-6.5598 Z0.7000
G1 X7.6998 Y-6.5902 Z0.7000
G1 X7.8529 Y-6.6284 Z0.7000
G1 X8.0016 Y-6.6739 Z0.7000
G1 X8.1476 Y-6.7274 Z0.7000
G1 X8.2876 Y-6.7878 Z0.7000
G1 X8.4224 Y-6.8548 Z0.7000
G2X8.8023Y-7.0827Z0.7000I-2.0864J-3.9088
G1 X8.9239 Y-7.1627 Z0.7000
G1 X9.0418 Y-7.2359 Z0.7000
G3X9.2164Y-7.3159Z0.7000I0.4002J0.6434
G3X9.2307Y-7.3118Z0.7000I0.0021J0.0202
G3X9.2388Y-7.2966Z0.7000I-0.0123J0.0162
G1 X9.2388 Y-7.2806 Z0.7000
G2X9.8888Y-6.6472Z0.7000I0.6497J-0.0165
G1 X11.5773 Y-6.6472 Z0.7000
G2X12.2273Y-7.2957Z0.7000I0.0000J-0.6500
G1 X12.2308 Y-8.8392 Z0.7000
G3X12.2808Y-9.0830Z0.7000I0.8412J0.0456
G3X12.5798Y-9.4095Z0.7000I0.6053J0.2540
G3X12.7781Y-9.4531Z0.7000I0.1835J0.3618
G3X12.9015Y-9.4398Z0.7000I-0.0130J0.6965
G3X13.5758Y-9.0297Z0.7000I-0.2454J1.1630
G3X13.7301Y-8.7840Z0.7000I-1.0769J0.8477
G3X13.8595Y-8.4681Z0.7000I-2.3640J1.1533
G1 X13.9188 Y-8.2849 Z0.7000
G1 X14.0363 Y-7.8854 Z0.7000
G2X14.1679Y-7.5496Z0.7000I2.3379J-0.7230
G1 X14.2288 Y-7.4379 Z0.7000
G2X14.6638Y-6.9788Z0.7000I1.2184J-0.7190
G2X15.3130Y-6.7968Z0.7000I0.6086J-0.9220
G2X16.1748Y-7.2046Z0.7000I-0.0359J-1.1906
G2X16.3721Y-7.4950Z0.7000I-1.1233J-0.9752
G1 X16.4282 Y-7.6101 Z0.7000
G2X16.5854Y-8.0989Z0.7000I-2.3325J-1.0198
G2X16.6586Y-9.0331Z0.7000I-3.6554J-0.7561
G2X16.5121Y-10.0248Z0.7000I-4.9670J0.2267
G1 X16.4547 Y-10.2366 Z0.7000
G2X16.1680Y-11.0430Z0.7000I-8.1288J2.4354
G1 X15.9362 Y-11.6077 Z0.7000
G3X15.7731Y-12.0584Z0.7000I5.6296J-2.2915
G3X15.6642Y-12.5771Z0.7000I2.4405J-0.7830
G3X15.7133Y-13.2642Z0.7000I2.1219J-0.1939
G3X15.7860Y-13.5260Z0.7000I3.1388J0.7315
G3X16.0676Y-14.2540Z0.7000I7.6945J2.5576
G1 X16.2310 Y-14.6236 Z0.7000
G1 X16.4006 Y-14.9928 Z0.7000
G2X16.7459Y-15.7513Z0.7000I-25.2685J-11.9590
G2X17.3529Y-17.5681Z0.7000I-10.1590J-4.4039
G2X17.4618Y-18.1275Z0.7000I-6.4882J-1.5541
G2X17.5303Y-18.9961Z0.7000I-6.1436J-0.9213
G2X17.4265Y-19.7781Z0.7000I-2.8903J-0.0143
G1 X17.3754 Y-19.9525 Z0.7000
G1 X17.3108 Y-20.1518 Z0.7000
G1 X17.2215 Y-20.4178 Z0.7000
G1 X17.2059 Y-20.4532 Z0.7000
G1 X16.7852 Y-21.2532 Z0.7000
G1 X16.7654 Y-21.2835 Z0.7000
G1 X16.6278 Y-21.4703 Z0.7000
G1 X16.5164 Y-21.6136 Z0.7000
G1 X16.4058 Y-21.7421 Z0.7000
G1 X16.2871 Y-21.8659 Z0.7000
G1 X16.1607 Y-21.9852 Z0.7000
G1 X16.0267 Y-22.0997 Z0.7000
G1 X15.8855 Y-22.2094 Z0.7000
G1 X15.7377 Y-22.3137 Z0.7000
G2X15.2632Y-22.5910Z0.7000I-2.3988J3.5612
G2X14.5902Y-22.8659Z0.7000I-2.1622J4.3318
G2X13.8988Y-23.0447Z0.7000I-1.8528J5.7389
G2X12.8592Y-23.1821Z0.7000I-1.6711J8.6412
G2X12.3411Y-23.2108Z0.7000I-0.9647J12.7060
G1 X11.9993 Y-23.2195 Z0.7000
G1 X11.6613 Y-23.2218 Z0.7000
G1 X10.5169 Y-23.2191 Z0.7000
G1 X9.6541 Y-23.2188 Z0.7000
G2X8.7685Y-23.1903Z0.7000I0.0128J14.1531
G1 X8.4750 Y-23.1667 Z0.7000
G2X7.4321Y-23.0052Z0.7000I0.7283J8.1533
G2X6.4044Y-22.6634Z0.7000I1.1684J5.2298
G2X5.4675Y-22.0854Z0.7000I1.8006J3.9666
G2X4.6197Y-21.1454Z0.7000I2.5458J3.1484
G2X4.1555Y-20.1299Z0.7000I3.1857J2.0701
G2X4.0330Y-19.5051Z0.7000I3.6472J1.0394
G1 X4.0181 Y-19.3491 Z0.7000
G1 X4.0086 Y-19.1955 Z0.7000
G2X4.0101Y-18.6957Z0.7000I5.0947J0.2345
G3X3.6522Y-18.3047Z0.7000I-0.3746J0.0164
G0 Z0.9500
G0 X3.6522 Y-18.3047 
G0 Z0.9500
G0 X3.6438 Y-19.5839 
G1 X3.6438 Y-19.5839 Z0.3500 F75.
G3X4.0086Y-19.1955Z0.3500I-0.0100J0.3749 F50.
G2X4.0288Y-18.4170Z0.3500I5.6177J0.2433 F150.
G2X4.1880Y-17.4725Z0.3500I6.5352J-0.6157
G2X4.7913Y-15.7018Z0.3500I10.5921J-2.6208
G1 X4.8669 Y-15.5318 Z0.3500
G1 X5.3196 Y-14.5492 Z0.3500
G1 X5.4667 Y-14.2232 Z0.3500
G3X5.7197Y-13.5868Z0.3500I-6.7763J3.0627
G3X5.8559Y-12.9010Z0.3500I-2.4714J0.8472
G3X5.7660Y-12.1394Z0.3500I-2.3307J0.1111
G1 X5.7440 Y-12.0649 Z0.3500
G1 X5.6914 Y-11.9071 Z0.3500
G1 X5.6328 Y-11.7490 Z0.3500
G1 X5.5018 Y-11.4200 Z0.3500
G2X5.2292Y-10.7382Z0.3500I28.4716J11.7778
G2X5.0462Y-10.1899Z0.3500I6.4701J2.4640
G2X4.9183Y-9.6160Z0.3500I4.9989J1.4157
G1 X4.8911 Y-9.4243 Z0.3500
G2X4.8854Y-8.5173Z0.3500I3.8072J0.4775
G2X5.1172Y-7.6891Z0.3500I2.7063J-0.3109
G2X5.6366Y-7.0009Z0.3500I1.8377J-0.8467
G2X6.3164Y-6.6263Z0.3500I1.2600J-1.4827
G2X7.0649Y-6.5168Z0.3500I0.7143J-2.2685
G1 X7.2254 Y-6.5224 Z0.3500
G1 X7.3866 Y-6.5371 Z0.3500
G1 X7.5442 Y-6.5598 Z0.3500
G1 X7.6998 Y-6.5902 Z0.3500
G1 X7.8529 Y-6.6284 Z0.3500
G1 X8.0016 Y-6.6739 Z0.3500
G1 X8.1476 Y-6.7274 Z0.3500
G1 X8.2876 Y-6.7878 Z0.3500
G1 X8.4224 Y-6.8548 Z0.3500
G2X8.8023Y-7.0827Z0.3500I-2.0864J-3.9088
G1 X8.9239 Y-7.1627 Z0.3500
G1 X9.0418 Y-7.2359 Z0.3500
G3X9.2164Y-7.3159Z0.3500I0.4002J0.6434
G3X9.2307Y-7.3118Z0.3500I0.0021J0.0202
G3X9.2388Y-7.2966Z0.3500I-0.0123J0.0162
G1 X9.2388 Y-7.2806 Z0.3500
G2X9.8888Y-6.6472Z0.3500I0.6497J-0.0165
G1 X11.5773 Y-6.6472 Z0.3500
G2X12.2273Y-7.2957Z0.3500I0.0000J-0.6500
G1 X12.2308 Y-8.8392 Z0.3500
G3X12.2808Y-9.0830Z0.3500I0.8412J0.0456
G3X12.5798Y-9.4095Z0.3500I0.6053J0.2540
G3X12.7781Y-9.4531Z0.3500I0.1835J0.3618
G3X12.9015Y-9.4398Z0.3500I-0.0130J0.6965
G3X13.5758Y-9.0297Z0.3500I-0.2454J1.1630
G3X13.7301Y-8.7840Z0.3500I-1.0769J0.8477
G3X13.8595Y-8.4681Z0.3500I-2.3640J1.1533
G1 X13.9188 Y-8.2849 Z0.3500
G1 X14.0363 Y-7.8854 Z0.3500
G2X14.1679Y-7.5496Z0.3500I2.3379J-0.7230
G1 X14.2288 Y-7.4379 Z0.3500
G2X14.6638Y-6.9788Z0.3500I1.2184J-0.7190
G2X15.3130Y-6.7968Z0.3500I0.6086J-0.9220
G2X16.1748Y-7.2046Z0.3500I-0.0359J-1.1906
G2X16.3721Y-7.4950Z0.3500I-1.1233J-0.9752
G1 X16.4282 Y-7.6101 Z0.3500
G2X16.5854Y-8.0989Z0.3500I-2.3325J-1.0198
G2X16.6586Y-9.0331Z0.3500I-3.6554J-0.7561
G2X16.5121Y-10.0248Z0.3500I-4.9670J0.2267
G1 X16.4547 Y-10.2366 Z0.3500
G2X16.1680Y-11.0430Z0.3500I-8.1288J2.4354
G1 X15.9362 Y-11.6077 Z0.3500
G3X15.7731Y-12.0584Z0.3500I5.6296J-2.2915
G3X15.6642Y-12.5771Z0.3500I2.4405J-0.7830
G3X15.7133Y-13.2642Z0.3500I2.1219J-0.1939
G3X15.7860Y-13.5260Z0.3500I3.1388J0.7315
G3X16.0676Y-14.2540Z0.3500I7.6945J2.5576
G1 X16.2310 Y-14.6236 Z0.3500
G1 X16.4006 Y-14.9928 Z0.3500
G2X16.7459Y-15.7513Z0.3500I-25.2685J-11.9590
G2X17.3529Y-17.5681Z0.3500I-10.1590J-4.4039
G2X17.4618Y-18.1275Z0.3500I-6.4882J-1.5541
G2X17.5303Y-18.9961Z0.3500I-6.1436J-0.9213
G2X17.4265Y-19.7781Z0.3500I-2.8903J-0.0143
G1 X17.3754 Y-19.9525 Z0.3500
G1 X17.3108 Y-20.1518 Z0.3500
G1 X17.2215 Y-20.4178 Z0.3500
G1 X17.2059 Y-20.4532 Z0.3500
G1 X16.7852 Y-21.2532 Z0.3500
G1 X16.7654 Y-21.2835 Z0.3500
G1 X16.6278 Y-21.4703 Z0.3500
G1 X16.5164 Y-21.6136 Z0.3500
G1 X16.4058 Y-21.7421 Z0.3500
G1 X16.2871 Y-21.8659 Z0.3500
G1 X16.1607 Y-21.9852 Z0.3500
G1 X16.0267 Y-22.0997 Z0.3500
G1 X15.8855 Y-22.2094 Z0.3500
G1 X15.7377 Y-22.3137 Z0.3500
G2X15.2632Y-22.5910Z0.3500I-2.3988J3.5612
G2X14.5902Y-22.8659Z0.3500I-2.1622J4.3318
G2X13.8988Y-23.0447Z0.3500I-1.8528J5.7389
G2X12.8592Y-23.1821Z0.3500I-1.6711J8.6412
G2X12.3411Y-23.2108Z0.3500I-0.9647J12.7060
G1 X11.9993 Y-23.2195 Z0.3500
G1 X11.6613 Y-23.2218 Z0.3500
G1 X10.5169 Y-23.2191 Z0.3500
G1 X9.6541 Y-23.2188 Z0.3500
G2X8.7685Y-23.1903Z0.3500I0.0128J14.1531
G1 X8.4750 Y-23.1667 Z0.3500
G2X7.4321Y-23.0052Z0.3500I0.7283J8.1533
G2X6.4044Y-22.6634Z0.3500I1.1684J5.2298
G2X5.4675Y-22.0854Z0.3500I1.8006J3.9666
G2X4.6197Y-21.1454Z0.3500I2.5458J3.1484
G2X4.1555Y-20.1299Z0.3500I3.1857J2.0701
G2X4.0330Y-19.5051Z0.3500I3.6472J1.0394
G1 X4.0181 Y-19.3491 Z0.3500
G1 X4.0086 Y-19.1955 Z0.3500
G2X4.0101Y-18.6957Z0.3500I5.0947J0.2345
G3X3.6522Y-18.3047Z0.3500I-0.3746J0.0164
G0 Z0.6000
G0 X3.6522 Y-18.3047 
G0 Z0.6000
G0 X3.6438 Y-19.5839 
G1 X3.6438 Y-19.5839 Z0.0000 F75.
G3X4.0086Y-19.1955Z-0.0000I-0.0100J0.3749 F50.
G2X4.0288Y-18.4170Z-0.0000I5.6177J0.2433 F150.
G2X4.1880Y-17.4725Z-0.0000I6.5352J-0.6157
G2X4.7913Y-15.7018Z-0.0000I10.5921J-2.6208
G1 X4.8669 Y-15.5318 Z-0.0000
G1 X5.3196 Y-14.5492 Z-0.0000
G1 X5.4667 Y-14.2232 Z-0.0000
G3X5.7197Y-13.5868Z-0.0000I-6.7763J3.0627
G3X5.8559Y-12.9010Z-0.0000I-2.4714J0.8472
G3X5.7660Y-12.1394Z-0.0000I-2.3307J0.1111
G1 X5.7440 Y-12.0649 Z-0.0000
G1 X5.6914 Y-11.9071 Z-0.0000
G1 X5.6328 Y-11.7490 Z-0.0000
G1 X5.5018 Y-11.4200 Z-0.0000
G2X5.2292Y-10.7382Z-0.0000I28.4716J11.7778
G2X5.0462Y-10.1899Z-0.0000I6.4701J2.4640
G2X4.9183Y-9.6160Z-0.0000I4.9989J1.4157
G1 X4.8911 Y-9.4243 Z-0.0000
G2X4.8854Y-8.5173Z-0.0000I3.8072J0.4775
G2X5.1172Y-7.6891Z-0.0000I2.7063J-0.3109
G2X5.6366Y-7.0009Z-0.0000I1.8377J-0.8467
G2X6.3164Y-6.6263Z-0.0000I1.2600J-1.4827
G2X7.0649Y-6.5168Z-0.0000I0.7143J-2.2685
G1 X7.2254 Y-6.5224 Z-0.0000
G1 X7.3866 Y-6.5371 Z-0.0000
G1 X7.5442 Y-6.5598 Z-0.0000
G1 X7.6998 Y-6.5902 Z-0.0000
G1 X7.8529 Y-6.6284 Z-0.0000
G1 X8.0016 Y-6.6739 Z-0.0000
G1 X8.1476 Y-6.7274 Z-0.0000
G1 X8.2876 Y-6.7878 Z-0.0000
G1 X8.4224 Y-6.8548 Z-0.0000
G2X8.8023Y-7.0827Z-0.0000I-2.0864J-3.9088
G1 X8.9239 Y-7.1627 Z-0.0000
G1 X9.0418 Y-7.2359 Z-0.0000
G3X9.2164Y-7.3159Z-0.0000I0.4002J0.6434
G3X9.2307Y-7.3118Z-0.0000I0.0021J0.0202
G3X9.2388Y-7.2966Z-0.0000I-0.0123J0.0162
G1 X9.2388 Y-7.2806 Z-0.0000
G2X9.8888Y-6.6472Z-0.0000I0.6497J-0.0165
G1 X11.5773 Y-6.6472 Z-0.0000
G2X12.2273Y-7.2957Z-0.0000I0.0000J-0.6500
G1 X12.2308 Y-8.8392 Z-0.0000
G3X12.2808Y-9.0830Z-0.0000I0.8412J0.0456
G3X12.5798Y-9.4095Z-0.0000I0.6053J0.2540
G3X12.7781Y-9.4531Z-0.0000I0.1835J0.3618
G3X12.9015Y-9.4398Z-0.0000I-0.0130J0.6965
G3X13.5758Y-9.0297Z-0.0000I-0.2454J1.1630
G3X13.7301Y-8.7840Z-0.0000I-1.0769J0.8477
G3X13.8595Y-8.4681Z-0.0000I-2.3640J1.1533
G1 X13.9188 Y-8.2849 Z-0.0000
G1 X14.0363 Y-7.8854 Z-0.0000
G2X14.1679Y-7.5496Z-0.0000I2.3379J-0.7230
G1 X14.2288 Y-7.4379 Z-0.0000
G2X14.6638Y-6.9788Z-0.0000I1.2184J-0.7190
G2X15.3130Y-6.7968Z-0.0000I0.6086J-0.9220
G2X16.1748Y-7.2046Z-0.0000I-0.0359J-1.1906
G2X16.3721Y-7.4950Z-0.0000I-1.1233J-0.9752
G1 X16.4282 Y-7.6101 Z-0.0000
G2X16.5854Y-8.0989Z-0.0000I-2.3325J-1.0198
G2X16.6586Y-9.0331Z-0.0000I-3.6554J-0.7561
G2X16.5121Y-10.0248Z-0.0000I-4.9670J0.2267
G1 X16.4547 Y-10.2366 Z-0.0000
G2X16.1680Y-11.0430Z-0.0000I-8.1288J2.4354
G1 X15.9362 Y-11.6077 Z-0.0000
G3X15.7731Y-12.0584Z-0.0000I5.6296J-2.2915
G3X15.6642Y-12.5771Z-0.0000I2.4405J-0.7830
G3X15.7133Y-13.2642Z-0.0000I2.1219J-0.1939
G3X15.7860Y-13.5260Z-0.0000I3.1388J0.7315
G3X16.0676Y-14.2540Z-0.0000I7.6945J2.5576
G1 X16.2310 Y-14.6236 Z-0.0000
G1 X16.4006 Y-14.9928 Z-0.0000
G2X16.7459Y-15.7513Z-0.0000I-25.2685J-11.9590
G2X17.3529Y-17.5681Z-0.0000I-10.1590J-4.4039
G2X17.4618Y-18.1275Z-0.0000I-6.4882J-1.5541
G2X17.5303Y-18.9961Z-0.0000I-6.1436J-0.9213
G2X17.4265Y-19.7781Z-0.0000I-2.8903J-0.0143
G1 X17.3754 Y-19.9525 Z-0.0000
G1 X17.3108 Y-20.1518 Z-0.0000
G1 X17.2215 Y-20.4178 Z-0.0000
G1 X17.2059 Y-20.4532 Z-0.0000
G1 X16.7852 Y-21.2532 Z-0.0000
G1 X16.7654 Y-21.2835 Z-0.0000
G1 X16.6278 Y-21.4703 Z-0.0000
G1 X16.5164 Y-21.6136 Z-0.0000
G1 X16.4058 Y-21.7421 Z-0.0000
G1 X16.2871 Y-21.8659 Z-0.0000
G1 X16.1607 Y-21.9852 Z-0.0000
G1 X16.0267 Y-22.0997 Z-0.0000
G1 X15.8855 Y-22.2094 Z-0.0000
G1 X15.7377 Y-22.3137 Z-0.0000
G2X15.2632Y-22.5910Z-0.0000I-2.3988J3.5612
G2X14.5902Y-22.8659Z-0.0000I-2.1622J4.3318
G2X13.8988Y-23.0447Z-0.0000I-1.8528J5.7389
G2X12.8592Y-23.1821Z-0.0000I-1.6711J8.6412
G2X12.3411Y-23.2108Z-0.0000I-0.9647J12.7060
G1 X11.9993 Y-23.2195 Z-0.0000
G1 X11.6613 Y-23.2218 Z-0.0000
G1 X10.5169 Y-23.2191 Z-0.0000
G1 X9.6541 Y-23.2188 Z-0.0000
G2X8.7685Y-23.1903Z-0.0000I0.0128J14.1531
G1 X8.4750 Y-23.1667 Z-0.0000
G2X7.4321Y-23.0052Z-0.0000I0.7283J8.1533
G2X6.4044Y-22.6634Z-0.0000I1.1684J5.2298
G2X5.4675Y-22.0854Z-0.0000I1.8006J3.9666
G2X4.6197Y-21.1454Z-0.0000I2.5458J3.1484
G2X4.1555Y-20.1299Z-0.0000I3.1857J2.0701
G2X4.0330Y-19.5051Z-0.0000I3.6472J1.0394
G1 X4.0181 Y-19.3491 Z-0.0000
G1 X4.0086 Y-19.1955 Z-0.0000
G2X4.0101Y-18.6957Z-0.0000I5.0947J0.2345
G3X3.6522Y-18.3047Z-0.0000I-0.3746J0.0164
G0 Z4.0000
G0 X3.6522 Y-18.3047 
M5
G53 Z
X2Y0
