( MOP:  10-Full-body-DoubleHorn-04-end )
( FILE: G:\Shared drives\AlloyProjectFiles\Customer CAD files\Alloy-Standard-Builds-CAM\t-in\FullTele\10-Full-body-DoubleHorn-04-end.nc)
G90
(  BEGIN TOOL LIST )
(  TOOL 11 - Downcut PT750 ROUGH - DESC: 0.7500 DIA, 2 FLUTE,  CARBIDE MAT )
(  ENDOF TOOL LIST )
( 10-Full-body-DoubleHorn-04-end)
T11
S14000
M3
G0 Z4.0000
G0 X3.5608 Y-19.4065 
G1 X3.5608 Y-19.4065 Z1.4000 F75.
G17
G3X3.9360Y-19.0312Z1.4000I0.0002J0.3750 F50.
G1 X3.9360 Y-18.9302 Z1.4000 F150.
G1 X3.9389 Y-18.8197 Z1.4000
G1 X3.9516 Y-18.5988 Z1.4000
G2X4.0352Y-17.9388Z1.4000I6.5389J-0.4938
G2X4.2138Y-17.1796Z1.4000I8.2888J-1.5488
G2X4.7971Y-15.5758Z1.4000I10.7999J-3.0198
G1 X4.9502 Y-15.2401 Z1.4000
G3X5.4008Y-14.2485Z1.4000I-36.0113J16.9612
G3X5.6561Y-13.5986Z1.4000I-7.8949J3.4768
G3X5.7484Y-13.2826Z1.4000I-3.3983J1.1646
G3X5.7542Y-12.2852Z1.4000I-2.0631J0.5106
G3X5.6910Y-12.0522Z1.4000I-3.0162J-0.6928
G3X5.5131Y-11.5661Z1.4000I-5.5565J-1.7577
G1 X5.3032 Y-11.0559 Z1.4000
G2X5.0400Y-10.3319Z1.4000I8.3306J3.4384
G2X4.8942Y-9.7569Z1.4000I5.2875J1.6462
G2X4.8153Y-9.1697Z1.4000I4.9131J0.9596
G2X4.8540Y-8.2361Z1.4000I3.9303J0.3047
G2X5.0043Y-7.6896Z1.4000I2.6969J-0.4479
G2X5.1383Y-7.4158Z1.4000I1.7874J-0.7051
G2X5.4685Y-7.0381Z1.4000I1.1561J-0.6774
G2X6.4000Y-6.8155Z1.4000I0.7208J-0.9559
G2X6.8219Y-6.9919Z1.4000I-0.2119J-1.0998
G2X7.2465Y-7.4540Z1.4000I-0.8000J-1.1611
G1 X7.3041 Y-7.5619 Z1.4000
G1 X7.3557 Y-7.6780 Z1.4000
G1 X7.3981 Y-7.7902 Z1.4000
G1 X7.4339 Y-7.8989 Z1.4000
G1 X7.5472 Y-8.2849 Z1.4000
G1 X7.6064 Y-8.4681 Z1.4000
G3X7.7717Y-8.8518Z1.4000I2.3336J0.7777
G3X8.0341Y-9.1784Z1.4000I1.0227J0.5528
G3X8.5645Y-9.4398Z1.4000I0.7816J0.9173
G3X8.8157Y-9.4375Z1.4000I0.1206J0.5378
G3X9.0555Y-9.2813Z1.4000I-0.1768J0.5337
G3X9.2204Y-8.9573Z1.4000I-0.4291J0.4223
G3X9.2352Y-8.8392Z1.4000I-1.0254J0.1887
G1 X9.2388 Y-7.2938 Z1.4000
G2X9.8888Y-6.6472Z1.4000I0.6500J-0.0034
G1 X11.5772 Y-6.6472 Z1.4000
G2X12.2272Y-7.2957Z1.4000I0.0000J-0.6500
G1 X12.2308 Y-8.8392 Z1.4000
G3X12.2808Y-9.0830Z1.4000I0.8412J0.0456
G3X12.5798Y-9.4095Z1.4000I0.6053J0.2540
G3X12.7781Y-9.4531Z1.4000I0.1835J0.3618
G3X12.9015Y-9.4398Z1.4000I-0.0130J0.6965
G3X13.5758Y-9.0297Z1.4000I-0.2454J1.1630
G3X13.7301Y-8.7840Z1.4000I-1.0769J0.8477
G3X13.8595Y-8.4681Z1.4000I-2.3640J1.1533
G1 X13.9188 Y-8.2849 Z1.4000
G1 X14.0363 Y-7.8854 Z1.4000
G2X14.1679Y-7.5496Z1.4000I2.3379J-0.7230
G1 X14.2288 Y-7.4379 Z1.4000
G2X14.6638Y-6.9788Z1.4000I1.2184J-0.7190
G2X15.3130Y-6.7968Z1.4000I0.6086J-0.9220
G2X16.1748Y-7.2046Z1.4000I-0.0359J-1.1906
G2X16.3721Y-7.4950Z1.4000I-1.1233J-0.9752
G1 X16.4282 Y-7.6101 Z1.4000
G2X16.5854Y-8.0989Z1.4000I-2.3325J-1.0198
G2X16.6586Y-9.0331Z1.4000I-3.6554J-0.7561
G2X16.5121Y-10.0248Z1.4000I-4.9670J0.2267
G1 X16.4547 Y-10.2366 Z1.4000
G2X16.1680Y-11.0430Z1.4000I-8.1288J2.4354
G1 X15.9362 Y-11.6077 Z1.4000
G3X15.7731Y-12.0584Z1.4000I5.6296J-2.2915
G3X15.6642Y-12.5771Z1.4000I2.4405J-0.7830
G3X15.7133Y-13.2642Z1.4000I2.1219J-0.1939
G3X15.7860Y-13.5260Z1.4000I3.1388J0.7315
G3X16.0676Y-14.2540Z1.4000I7.6945J2.5576
G1 X16.2308 Y-14.6232 Z1.4000
G1 X16.5745 Y-15.3672 Z1.4000
G2X16.9827Y-16.3436Z1.4000I-12.1865J-5.6688
G2X17.3529Y-17.5681Z1.4000I-10.4149J-3.8166
G2X17.4618Y-18.1275Z1.4000I-6.4882J-1.5541
G2X17.5303Y-18.9961Z1.4000I-6.1436J-0.9213
G2X17.4265Y-19.7781Z1.4000I-2.8903J-0.0143
G1 X17.3754 Y-19.9525 Z1.4000
G1 X17.3108 Y-20.1518 Z1.4000
G1 X17.2215 Y-20.4178 Z1.4000
G1 X17.2059 Y-20.4532 Z1.4000
G1 X16.7852 Y-21.2532 Z1.4000
G1 X16.7654 Y-21.2835 Z1.4000
G1 X16.6278 Y-21.4703 Z1.4000
G1 X16.5164 Y-21.6136 Z1.4000
G1 X16.4058 Y-21.7421 Z1.4000
G1 X16.2871 Y-21.8659 Z1.4000
G1 X16.1607 Y-21.9852 Z1.4000
G1 X16.0267 Y-22.0997 Z1.4000
G1 X15.8855 Y-22.2094 Z1.4000
G1 X15.7377 Y-22.3137 Z1.4000
G2X15.2632Y-22.5910Z1.4000I-2.3988J3.5612
G2X14.5902Y-22.8659Z1.4000I-2.1622J4.3318
G2X13.8988Y-23.0447Z1.4000I-1.8528J5.7389
G2X12.8592Y-23.1821Z1.4000I-1.6711J8.6412
G2X12.3411Y-23.2108Z1.4000I-0.9647J12.7060
G1 X11.9993 Y-23.2195 Z1.4000
G1 X11.6611 Y-23.2218 Z1.4000
G1 X10.7330 Y-23.2192 Z1.4000
G1 X9.8010 Y-23.2218 Z1.4000
G2X8.9460Y-23.2032Z1.4000I-0.0482J17.5072
G2X7.7316Y-23.0754Z1.4000I0.4435J10.0414
G2X6.8628Y-22.8617Z1.4000I1.0608J6.1847
G2X6.0256Y-22.4969Z1.4000I1.4704J4.5181
G2X5.5660Y-22.1985Z1.4000I2.0707J3.6934
G1 X5.4247 Y-22.0877 Z1.4000
G1 X5.2907 Y-21.9720 Z1.4000
G1 X5.1644 Y-21.8515 Z1.4000
G1 X5.0460 Y-21.7263 Z1.4000
G1 X4.9371 Y-21.5982 Z1.4000
G1 X4.8325 Y-21.4628 Z1.4000
G1 X4.7042 Y-21.2884 Z1.4000
G2X4.2542Y-20.4480Z1.4000I2.5181J1.8888
G1 X4.1062 Y-20.0016 Z1.4000
G2X3.9850Y-19.5418Z1.4000I3.7460J1.2326
G1 X3.9603 Y-19.3871 Z1.4000
G2X3.9389Y-18.8197Z1.4000I3.3110J0.4090
G1 X3.9516 Y-18.5988 Z1.4000
G1 X3.9578 Y-18.5319 Z1.4000
G3X3.6190Y-18.1241Z1.4000I-0.3734J0.0344
G0 Z1.6500
G0 X3.6190 Y-18.1241 
G0 Z1.6500
G0 X3.5608 Y-19.4065 
G1 X3.5608 Y-19.4065 Z1.0500 F75.
G3X3.9360Y-19.0312Z1.0500I0.0002J0.3750 F50.
G1 X3.9360 Y-18.9302 Z1.0500 F150.
G1 X3.9389 Y-18.8197 Z1.0500
G1 X3.9516 Y-18.5988 Z1.0500
G2X4.0352Y-17.9388Z1.0500I6.5389J-0.4938
G2X4.2138Y-17.1796Z1.0500I8.2888J-1.5488
G2X4.7971Y-15.5758Z1.0500I10.7999J-3.0198
G1 X4.9502 Y-15.2401 Z1.0500
G3X5.4008Y-14.2485Z1.0500I-36.0113J16.9612
G3X5.6561Y-13.5986Z1.0500I-7.8949J3.4768
G3X5.7484Y-13.2826Z1.0500I-3.3983J1.1646
G3X5.7542Y-12.2852Z1.0500I-2.0631J0.5106
G3X5.6910Y-12.0522Z1.0500I-3.0162J-0.6928
G3X5.5131Y-11.5661Z1.0500I-5.5565J-1.7577
G1 X5.3032 Y-11.0559 Z1.0500
G2X5.0400Y-10.3319Z1.0500I8.3306J3.4384
G2X4.8942Y-9.7569Z1.0500I5.2875J1.6462
G2X4.8153Y-9.1697Z1.0500I4.9131J0.9596
G2X4.8540Y-8.2361Z1.0500I3.9303J0.3047
G2X5.0043Y-7.6896Z1.0500I2.6969J-0.4479
G2X5.1383Y-7.4158Z1.0500I1.7874J-0.7051
G2X5.4685Y-7.0381Z1.0500I1.1561J-0.6774
G2X6.4000Y-6.8155Z1.0500I0.7208J-0.9559
G2X6.8219Y-6.9919Z1.0500I-0.2119J-1.0998
G2X7.2465Y-7.4540Z1.0500I-0.8000J-1.1611
G1 X7.3041 Y-7.5619 Z1.0500
G1 X7.3557 Y-7.6780 Z1.0500
G1 X7.3981 Y-7.7902 Z1.0500
G1 X7.4339 Y-7.8989 Z1.0500
G1 X7.5472 Y-8.2849 Z1.0500
G1 X7.6064 Y-8.4681 Z1.0500
G3X7.7717Y-8.8518Z1.0500I2.3336J0.7777
G3X8.0341Y-9.1784Z1.0500I1.0227J0.5528
G3X8.5645Y-9.4398Z1.0500I0.7816J0.9173
G3X8.8157Y-9.4375Z1.0500I0.1206J0.5378
G3X9.0555Y-9.2813Z1.0500I-0.1768J0.5337
G3X9.2204Y-8.9573Z1.0500I-0.4291J0.4223
G3X9.2352Y-8.8392Z1.0500I-1.0254J0.1887
G1 X9.2388 Y-7.2938 Z1.0500
G2X9.8888Y-6.6472Z1.0500I0.6500J-0.0034
G1 X11.5772 Y-6.6472 Z1.0500
G2X12.2272Y-7.2957Z1.0500I0.0000J-0.6500
G1 X12.2308 Y-8.8392 Z1.0500
G3X12.2808Y-9.0830Z1.0500I0.8412J0.0456
G3X12.5798Y-9.4095Z1.0500I0.6053J0.2540
G3X12.7781Y-9.4531Z1.0500I0.1835J0.3618
G3X12.9015Y-9.4398Z1.0500I-0.0130J0.6965
G3X13.5758Y-9.0297Z1.0500I-0.2454J1.1630
G3X13.7301Y-8.7840Z1.0500I-1.0769J0.8477
G3X13.8595Y-8.4681Z1.0500I-2.3640J1.1533
G1 X13.9188 Y-8.2849 Z1.0500
G1 X14.0363 Y-7.8854 Z1.0500
G2X14.1679Y-7.5496Z1.0500I2.3379J-0.7230
G1 X14.2288 Y-7.4379 Z1.0500
G2X14.6638Y-6.9788Z1.0500I1.2184J-0.7190
G2X15.3130Y-6.7968Z1.0500I0.6086J-0.9220
G2X16.1748Y-7.2046Z1.0500I-0.0359J-1.1906
G2X16.3721Y-7.4950Z1.0500I-1.1233J-0.9752
G1 X16.4282 Y-7.6101 Z1.0500
G2X16.5854Y-8.0989Z1.0500I-2.3325J-1.0198
G2X16.6586Y-9.0331Z1.0500I-3.6554J-0.7561
G2X16.5121Y-10.0248Z1.0500I-4.9670J0.2267
G1 X16.4547 Y-10.2366 Z1.0500
G2X16.1680Y-11.0430Z1.0500I-8.1288J2.4354
G1 X15.9362 Y-11.6077 Z1.0500
G3X15.7731Y-12.0584Z1.0500I5.6296J-2.2915
G3X15.6642Y-12.5771Z1.0500I2.4405J-0.7830
G3X15.7133Y-13.2642Z1.0500I2.1219J-0.1939
G3X15.7860Y-13.5260Z1.0500I3.1388J0.7315
G3X16.0676Y-14.2540Z1.0500I7.6945J2.5576
G1 X16.2308 Y-14.6232 Z1.0500
G1 X16.5745 Y-15.3672 Z1.0500
G2X16.9827Y-16.3436Z1.0500I-12.1865J-5.6688
G2X17.3529Y-17.5681Z1.0500I-10.4149J-3.8166
G2X17.4618Y-18.1275Z1.0500I-6.4882J-1.5541
G2X17.5303Y-18.9961Z1.0500I-6.1436J-0.9213
G2X17.4265Y-19.7781Z1.0500I-2.8903J-0.0143
G1 X17.3754 Y-19.9525 Z1.0500
G1 X17.3108 Y-20.1518 Z1.0500
G1 X17.2215 Y-20.4178 Z1.0500
G1 X17.2059 Y-20.4532 Z1.0500
G1 X16.7852 Y-21.2532 Z1.0500
G1 X16.7654 Y-21.2835 Z1.0500
G1 X16.6278 Y-21.4703 Z1.0500
G1 X16.5164 Y-21.6136 Z1.0500
G1 X16.4058 Y-21.7421 Z1.0500
G1 X16.2871 Y-21.8659 Z1.0500
G1 X16.1607 Y-21.9852 Z1.0500
G1 X16.0267 Y-22.0997 Z1.0500
G1 X15.8855 Y-22.2094 Z1.0500
G1 X15.7377 Y-22.3137 Z1.0500
G2X15.2632Y-22.5910Z1.0500I-2.3988J3.5612
G2X14.5902Y-22.8659Z1.0500I-2.1622J4.3318
G2X13.8988Y-23.0447Z1.0500I-1.8528J5.7389
G2X12.8592Y-23.1821Z1.0500I-1.6711J8.6412
G2X12.3411Y-23.2108Z1.0500I-0.9647J12.7060
G1 X11.9993 Y-23.2195 Z1.0500
G1 X11.6611 Y-23.2218 Z1.0500
G1 X10.7330 Y-23.2192 Z1.0500
G1 X9.8010 Y-23.2218 Z1.0500
G2X8.9460Y-23.2032Z1.0500I-0.0482J17.5072
G2X7.7316Y-23.0754Z1.0500I0.4435J10.0414
G2X6.8628Y-22.8617Z1.0500I1.0608J6.1847
G2X6.0256Y-22.4969Z1.0500I1.4704J4.5181
G2X5.5660Y-22.1985Z1.0500I2.0707J3.6934
G1 X5.4247 Y-22.0877 Z1.0500
G1 X5.2907 Y-21.9720 Z1.0500
G1 X5.1644 Y-21.8515 Z1.0500
G1 X5.0460 Y-21.7263 Z1.0500
G1 X4.9371 Y-21.5982 Z1.0500
G1 X4.8325 Y-21.4628 Z1.0500
G1 X4.7042 Y-21.2884 Z1.0500
G2X4.2542Y-20.4480Z1.0500I2.5181J1.8888
G1 X4.1062 Y-20.0016 Z1.0500
G2X3.9850Y-19.5418Z1.0500I3.7460J1.2326
G1 X3.9603 Y-19.3871 Z1.0500
G2X3.9389Y-18.8197Z1.0500I3.3110J0.4090
G1 X3.9516 Y-18.5988 Z1.0500
G1 X3.9578 Y-18.5319 Z1.0500
G3X3.6190Y-18.1241Z1.0500I-0.3734J0.0344
G0 Z1.3000
G0 X3.6190 Y-18.1241 
G0 Z1.3000
G0 X3.5608 Y-19.4065 
G1 X3.5608 Y-19.4065 Z0.7000 F75.
G3X3.9360Y-19.0312Z0.7000I0.0002J0.3750 F50.
G1 X3.9360 Y-18.9302 Z0.7000 F150.
G1 X3.9389 Y-18.8197 Z0.7000
G1 X3.9516 Y-18.5988 Z0.7000
G2X4.0352Y-17.9388Z0.7000I6.5389J-0.4938
G2X4.2138Y-17.1796Z0.7000I8.2888J-1.5488
G2X4.7971Y-15.5758Z0.7000I10.7999J-3.0198
G1 X4.9502 Y-15.2401 Z0.7000
G3X5.4008Y-14.2485Z0.7000I-36.0113J16.9612
G3X5.6561Y-13.5986Z0.7000I-7.8949J3.4768
G3X5.7484Y-13.2826Z0.7000I-3.3983J1.1646
G3X5.7542Y-12.2852Z0.7000I-2.0631J0.5106
G3X5.6910Y-12.0522Z0.7000I-3.0162J-0.6928
G3X5.5131Y-11.5661Z0.7000I-5.5565J-1.7577
G1 X5.3032 Y-11.0559 Z0.7000
G2X5.0400Y-10.3319Z0.7000I8.3306J3.4384
G2X4.8942Y-9.7569Z0.7000I5.2875J1.6462
G2X4.8153Y-9.1697Z0.7000I4.9131J0.9596
G2X4.8540Y-8.2361Z0.7000I3.9303J0.3047
G2X5.0043Y-7.6896Z0.7000I2.6969J-0.4479
G2X5.1383Y-7.4158Z0.7000I1.7874J-0.7051
G2X5.4685Y-7.0381Z0.7000I1.1561J-0.6774
G2X6.4000Y-6.8155Z0.7000I0.7208J-0.9559
G2X6.8219Y-6.9919Z0.7000I-0.2119J-1.0998
G2X7.2465Y-7.4540Z0.7000I-0.8000J-1.1611
G1 X7.3041 Y-7.5619 Z0.7000
G1 X7.3557 Y-7.6780 Z0.7000
G1 X7.3981 Y-7.7902 Z0.7000
G1 X7.4339 Y-7.8989 Z0.7000
G1 X7.5472 Y-8.2849 Z0.7000
G1 X7.6064 Y-8.4681 Z0.7000
G3X7.7717Y-8.8518Z0.7000I2.3336J0.7777
G3X8.0341Y-9.1784Z0.7000I1.0227J0.5528
G3X8.5645Y-9.4398Z0.7000I0.7816J0.9173
G3X8.8157Y-9.4375Z0.7000I0.1206J0.5378
G3X9.0555Y-9.2813Z0.7000I-0.1768J0.5337
G3X9.2204Y-8.9573Z0.7000I-0.4291J0.4223
G3X9.2352Y-8.8392Z0.7000I-1.0254J0.1887
G1 X9.2388 Y-7.2938 Z0.7000
G2X9.8888Y-6.6472Z0.7000I0.6500J-0.0034
G1 X11.5772 Y-6.6472 Z0.7000
G2X12.2272Y-7.2957Z0.7000I0.0000J-0.6500
G1 X12.2308 Y-8.8392 Z0.7000
G3X12.2808Y-9.0830Z0.7000I0.8412J0.0456
G3X12.5798Y-9.4095Z0.7000I0.6053J0.2540
G3X12.7781Y-9.4531Z0.7000I0.1835J0.3618
G3X12.9015Y-9.4398Z0.7000I-0.0130J0.6965
G3X13.5758Y-9.0297Z0.7000I-0.2454J1.1630
G3X13.7301Y-8.7840Z0.7000I-1.0769J0.8477
G3X13.8595Y-8.4681Z0.7000I-2.3640J1.1533
G1 X13.9188 Y-8.2849 Z0.7000
G1 X14.0363 Y-7.8854 Z0.7000
G2X14.1679Y-7.5496Z0.7000I2.3379J-0.7230
G1 X14.2288 Y-7.4379 Z0.7000
G2X14.6638Y-6.9788Z0.7000I1.2184J-0.7190
G2X15.3130Y-6.7968Z0.7000I0.6086J-0.9220
G2X16.1748Y-7.2046Z0.7000I-0.0359J-1.1906
G2X16.3721Y-7.4950Z0.7000I-1.1233J-0.9752
G1 X16.4282 Y-7.6101 Z0.7000
G2X16.5854Y-8.0989Z0.7000I-2.3325J-1.0198
G2X16.6586Y-9.0331Z0.7000I-3.6554J-0.7561
G2X16.5121Y-10.0248Z0.7000I-4.9670J0.2267
G1 X16.4547 Y-10.2366 Z0.7000
G2X16.1680Y-11.0430Z0.7000I-8.1288J2.4354
G1 X15.9362 Y-11.6077 Z0.7000
G3X15.7731Y-12.0584Z0.7000I5.6296J-2.2915
G3X15.6642Y-12.5771Z0.7000I2.4405J-0.7830
G3X15.7133Y-13.2642Z0.7000I2.1219J-0.1939
G3X15.7860Y-13.5260Z0.7000I3.1388J0.7315
G3X16.0676Y-14.2540Z0.7000I7.6945J2.5576
G1 X16.2308 Y-14.6232 Z0.7000
G1 X16.5745 Y-15.3672 Z0.7000
G2X16.9827Y-16.3436Z0.7000I-12.1865J-5.6688
G2X17.3529Y-17.5681Z0.7000I-10.4149J-3.8166
G2X17.4618Y-18.1275Z0.7000I-6.4882J-1.5541
G2X17.5303Y-18.9961Z0.7000I-6.1436J-0.9213
G2X17.4265Y-19.7781Z0.7000I-2.8903J-0.0143
G1 X17.3754 Y-19.9525 Z0.7000
G1 X17.3108 Y-20.1518 Z0.7000
G1 X17.2215 Y-20.4178 Z0.7000
G1 X17.2059 Y-20.4532 Z0.7000
G1 X16.7852 Y-21.2532 Z0.7000
G1 X16.7654 Y-21.2835 Z0.7000
G1 X16.6278 Y-21.4703 Z0.7000
G1 X16.5164 Y-21.6136 Z0.7000
G1 X16.4058 Y-21.7421 Z0.7000
G1 X16.2871 Y-21.8659 Z0.7000
G1 X16.1607 Y-21.9852 Z0.7000
G1 X16.0267 Y-22.0997 Z0.7000
G1 X15.8855 Y-22.2094 Z0.7000
G1 X15.7377 Y-22.3137 Z0.7000
G2X15.2632Y-22.5910Z0.7000I-2.3988J3.5612
G2X14.5902Y-22.8659Z0.7000I-2.1622J4.3318
G2X13.8988Y-23.0447Z0.7000I-1.8528J5.7389
G2X12.8592Y-23.1821Z0.7000I-1.6711J8.6412
G2X12.3411Y-23.2108Z0.7000I-0.9647J12.7060
G1 X11.9993 Y-23.2195 Z0.7000
G1 X11.6611 Y-23.2218 Z0.7000
G1 X10.7330 Y-23.2192 Z0.7000
G1 X9.8010 Y-23.2218 Z0.7000
G2X8.9460Y-23.2032Z0.7000I-0.0482J17.5072
G2X7.7316Y-23.0754Z0.7000I0.4435J10.0414
G2X6.8628Y-22.8617Z0.7000I1.0608J6.1847
G2X6.0256Y-22.4969Z0.7000I1.4704J4.5181
G2X5.5660Y-22.1985Z0.7000I2.0707J3.6934
G1 X5.4247 Y-22.0877 Z0.7000
G1 X5.2907 Y-21.9720 Z0.7000
G1 X5.1644 Y-21.8515 Z0.7000
G1 X5.0460 Y-21.7263 Z0.7000
G1 X4.9371 Y-21.5982 Z0.7000
G1 X4.8325 Y-21.4628 Z0.7000
G1 X4.7042 Y-21.2884 Z0.7000
G2X4.2542Y-20.4480Z0.7000I2.5181J1.8888
G1 X4.1062 Y-20.0016 Z0.7000
G2X3.9850Y-19.5418Z0.7000I3.7460J1.2326
G1 X3.9603 Y-19.3871 Z0.7000
G2X3.9389Y-18.8197Z0.7000I3.3110J0.4090
G1 X3.9516 Y-18.5988 Z0.7000
G1 X3.9578 Y-18.5319 Z0.7000
G3X3.6190Y-18.1241Z0.7000I-0.3734J0.0344
G0 Z0.9500
G0 X3.6190 Y-18.1241 
G0 Z0.9500
G0 X3.5608 Y-19.4065 
G1 X3.5608 Y-19.4065 Z0.3500 F75.
G3X3.9360Y-19.0312Z0.3500I0.0002J0.3750 F50.
G1 X3.9360 Y-18.9302 Z0.3500 F150.
G1 X3.9389 Y-18.8197 Z0.3500
G1 X3.9516 Y-18.5988 Z0.3500
G2X4.0352Y-17.9388Z0.3500I6.5389J-0.4938
G2X4.2138Y-17.1796Z0.3500I8.2888J-1.5488
G2X4.7971Y-15.5758Z0.3500I10.7999J-3.0198
G1 X4.9502 Y-15.2401 Z0.3500
G3X5.4008Y-14.2485Z0.3500I-36.0113J16.9612
G3X5.6561Y-13.5986Z0.3500I-7.8949J3.4768
G3X5.7484Y-13.2826Z0.3500I-3.3983J1.1646
G3X5.7542Y-12.2852Z0.3500I-2.0631J0.5106
G3X5.6910Y-12.0522Z0.3500I-3.0162J-0.6928
G3X5.5131Y-11.5661Z0.3500I-5.5565J-1.7577
G1 X5.3032 Y-11.0559 Z0.3500
G2X5.0400Y-10.3319Z0.3500I8.3306J3.4384
G2X4.8942Y-9.7569Z0.3500I5.2875J1.6462
G2X4.8153Y-9.1697Z0.3500I4.9131J0.9596
G2X4.8540Y-8.2361Z0.3500I3.9303J0.3047
G2X5.0043Y-7.6896Z0.3500I2.6969J-0.4479
G2X5.1383Y-7.4158Z0.3500I1.7874J-0.7051
G2X5.4685Y-7.0381Z0.3500I1.1561J-0.6774
G2X6.4000Y-6.8155Z0.3500I0.7208J-0.9559
G2X6.8219Y-6.9919Z0.3500I-0.2119J-1.0998
G2X7.2465Y-7.4540Z0.3500I-0.8000J-1.1611
G1 X7.3041 Y-7.5619 Z0.3500
G1 X7.3557 Y-7.6780 Z0.3500
G1 X7.3981 Y-7.7902 Z0.3500
G1 X7.4339 Y-7.8989 Z0.3500
G1 X7.5472 Y-8.2849 Z0.3500
G1 X7.6064 Y-8.4681 Z0.3500
G3X7.7717Y-8.8518Z0.3500I2.3336J0.7777
G3X8.0341Y-9.1784Z0.3500I1.0227J0.5528
G3X8.5645Y-9.4398Z0.3500I0.7816J0.9173
G3X8.8157Y-9.4375Z0.3500I0.1206J0.5378
G3X9.0555Y-9.2813Z0.3500I-0.1768J0.5337
G3X9.2204Y-8.9573Z0.3500I-0.4291J0.4223
G3X9.2352Y-8.8392Z0.3500I-1.0254J0.1887
G1 X9.2388 Y-7.2938 Z0.3500
G2X9.8888Y-6.6472Z0.3500I0.6500J-0.0034
G1 X11.5772 Y-6.6472 Z0.3500
G2X12.2272Y-7.2957Z0.3500I0.0000J-0.6500
G1 X12.2308 Y-8.8392 Z0.3500
G3X12.2808Y-9.0830Z0.3500I0.8412J0.0456
G3X12.5798Y-9.4095Z0.3500I0.6053J0.2540
G3X12.7781Y-9.4531Z0.3500I0.1835J0.3618
G3X12.9015Y-9.4398Z0.3500I-0.0130J0.6965
G3X13.5758Y-9.0297Z0.3500I-0.2454J1.1630
G3X13.7301Y-8.7840Z0.3500I-1.0769J0.8477
G3X13.8595Y-8.4681Z0.3500I-2.3640J1.1533
G1 X13.9188 Y-8.2849 Z0.3500
G1 X14.0363 Y-7.8854 Z0.3500
G2X14.1679Y-7.5496Z0.3500I2.3379J-0.7230
G1 X14.2288 Y-7.4379 Z0.3500
G2X14.6638Y-6.9788Z0.3500I1.2184J-0.7190
G2X15.3130Y-6.7968Z0.3500I0.6086J-0.9220
G2X16.1748Y-7.2046Z0.3500I-0.0359J-1.1906
G2X16.3721Y-7.4950Z0.3500I-1.1233J-0.9752
G1 X16.4282 Y-7.6101 Z0.3500
G2X16.5854Y-8.0989Z0.3500I-2.3325J-1.0198
G2X16.6586Y-9.0331Z0.3500I-3.6554J-0.7561
G2X16.5121Y-10.0248Z0.3500I-4.9670J0.2267
G1 X16.4547 Y-10.2366 Z0.3500
G2X16.1680Y-11.0430Z0.3500I-8.1288J2.4354
G1 X15.9362 Y-11.6077 Z0.3500
G3X15.7731Y-12.0584Z0.3500I5.6296J-2.2915
G3X15.6642Y-12.5771Z0.3500I2.4405J-0.7830
G3X15.7133Y-13.2642Z0.3500I2.1219J-0.1939
G3X15.7860Y-13.5260Z0.3500I3.1388J0.7315
G3X16.0676Y-14.2540Z0.3500I7.6945J2.5576
G1 X16.2308 Y-14.6232 Z0.3500
G1 X16.5745 Y-15.3672 Z0.3500
G2X16.9827Y-16.3436Z0.3500I-12.1865J-5.6688
G2X17.3529Y-17.5681Z0.3500I-10.4149J-3.8166
G2X17.4618Y-18.1275Z0.3500I-6.4882J-1.5541
G2X17.5303Y-18.9961Z0.3500I-6.1436J-0.9213
G2X17.4265Y-19.7781Z0.3500I-2.8903J-0.0143
G1 X17.3754 Y-19.9525 Z0.3500
G1 X17.3108 Y-20.1518 Z0.3500
G1 X17.2215 Y-20.4178 Z0.3500
G1 X17.2059 Y-20.4532 Z0.3500
G1 X16.7852 Y-21.2532 Z0.3500
G1 X16.7654 Y-21.2835 Z0.3500
G1 X16.6278 Y-21.4703 Z0.3500
G1 X16.5164 Y-21.6136 Z0.3500
G1 X16.4058 Y-21.7421 Z0.3500
G1 X16.2871 Y-21.8659 Z0.3500
G1 X16.1607 Y-21.9852 Z0.3500
G1 X16.0267 Y-22.0997 Z0.3500
G1 X15.8855 Y-22.2094 Z0.3500
G1 X15.7377 Y-22.3137 Z0.3500
G2X15.2632Y-22.5910Z0.3500I-2.3988J3.5612
G2X14.5902Y-22.8659Z0.3500I-2.1622J4.3318
G2X13.8988Y-23.0447Z0.3500I-1.8528J5.7389
G2X12.8592Y-23.1821Z0.3500I-1.6711J8.6412
G2X12.3411Y-23.2108Z0.3500I-0.9647J12.7060
G1 X11.9993 Y-23.2195 Z0.3500
G1 X11.6611 Y-23.2218 Z0.3500
G1 X10.7330 Y-23.2192 Z0.3500
G1 X9.8010 Y-23.2218 Z0.3500
G2X8.9460Y-23.2032Z0.3500I-0.0482J17.5072
G2X7.7316Y-23.0754Z0.3500I0.4435J10.0414
G2X6.8628Y-22.8617Z0.3500I1.0608J6.1847
G2X6.0256Y-22.4969Z0.3500I1.4704J4.5181
G2X5.5660Y-22.1985Z0.3500I2.0707J3.6934
G1 X5.4247 Y-22.0877 Z0.3500
G1 X5.2907 Y-21.9720 Z0.3500
G1 X5.1644 Y-21.8515 Z0.3500
G1 X5.0460 Y-21.7263 Z0.3500
G1 X4.9371 Y-21.5982 Z0.3500
G1 X4.8325 Y-21.4628 Z0.3500
G1 X4.7042 Y-21.2884 Z0.3500
G2X4.2542Y-20.4480Z0.3500I2.5181J1.8888
G1 X4.1062 Y-20.0016 Z0.3500
G2X3.9850Y-19.5418Z0.3500I3.7460J1.2326
G1 X3.9603 Y-19.3871 Z0.3500
G2X3.9389Y-18.8197Z0.3500I3.3110J0.4090
G1 X3.9516 Y-18.5988 Z0.3500
G1 X3.9578 Y-18.5319 Z0.3500
G3X3.6190Y-18.1241Z0.3500I-0.3734J0.0344
G0 Z0.6000
G0 X3.6190 Y-18.1241 
G0 Z0.6000
G0 X3.5608 Y-19.4065 
G1 X3.5608 Y-19.4065 Z0.0000 F75.
G3X3.9360Y-19.0312Z-0.0000I0.0002J0.3750 F50.
G1 X3.9360 Y-18.9302 Z-0.0000 F150.
G1 X3.9389 Y-18.8197 Z-0.0000
G1 X3.9516 Y-18.5988 Z-0.0000
G2X4.0352Y-17.9388Z-0.0000I6.5389J-0.4938
G2X4.2138Y-17.1796Z-0.0000I8.2888J-1.5488
G2X4.7971Y-15.5758Z-0.0000I10.7999J-3.0198
G1 X4.9502 Y-15.2401 Z-0.0000
G3X5.4008Y-14.2485Z-0.0000I-36.0113J16.9612
G3X5.6561Y-13.5986Z-0.0000I-7.8949J3.4768
G3X5.7484Y-13.2826Z-0.0000I-3.3983J1.1646
G3X5.7542Y-12.2852Z-0.0000I-2.0631J0.5106
G3X5.6910Y-12.0522Z-0.0000I-3.0162J-0.6928
G3X5.5131Y-11.5661Z-0.0000I-5.5565J-1.7577
G1 X5.3032 Y-11.0559 Z-0.0000
G2X5.0400Y-10.3319Z-0.0000I8.3306J3.4384
G2X4.8942Y-9.7569Z-0.0000I5.2875J1.6462
G2X4.8153Y-9.1697Z-0.0000I4.9131J0.9596
G2X4.8540Y-8.2361Z-0.0000I3.9303J0.3047
G2X5.0043Y-7.6896Z-0.0000I2.6969J-0.4479
G2X5.1383Y-7.4158Z-0.0000I1.7874J-0.7051
G2X5.4685Y-7.0381Z-0.0000I1.1561J-0.6774
G2X6.4000Y-6.8155Z-0.0000I0.7208J-0.9559
G2X6.8219Y-6.9919Z-0.0000I-0.2119J-1.0998
G2X7.2465Y-7.4540Z-0.0000I-0.8000J-1.1611
G1 X7.3041 Y-7.5619 Z-0.0000
G1 X7.3557 Y-7.6780 Z-0.0000
G1 X7.3981 Y-7.7902 Z-0.0000
G1 X7.4339 Y-7.8989 Z-0.0000
G1 X7.5472 Y-8.2849 Z-0.0000
G1 X7.6064 Y-8.4681 Z-0.0000
G3X7.7717Y-8.8518Z-0.0000I2.3336J0.7777
G3X8.0341Y-9.1784Z-0.0000I1.0227J0.5528
G3X8.5645Y-9.4398Z-0.0000I0.7816J0.9173
G3X8.8157Y-9.4375Z-0.0000I0.1206J0.5378
G3X9.0555Y-9.2813Z-0.0000I-0.1768J0.5337
G3X9.2204Y-8.9573Z-0.0000I-0.4291J0.4223
G3X9.2352Y-8.8392Z-0.0000I-1.0254J0.1887
G1 X9.2388 Y-7.2938 Z-0.0000
G2X9.8888Y-6.6472Z-0.0000I0.6500J-0.0034
G1 X11.5772 Y-6.6472 Z-0.0000
G2X12.2272Y-7.2957Z-0.0000I0.0000J-0.6500
G1 X12.2308 Y-8.8392 Z-0.0000
G3X12.2808Y-9.0830Z-0.0000I0.8412J0.0456
G3X12.5798Y-9.4095Z-0.0000I0.6053J0.2540
G3X12.7781Y-9.4531Z-0.0000I0.1835J0.3618
G3X12.9015Y-9.4398Z-0.0000I-0.0130J0.6965
G3X13.5758Y-9.0297Z-0.0000I-0.2454J1.1630
G3X13.7301Y-8.7840Z-0.0000I-1.0769J0.8477
G3X13.8595Y-8.4681Z-0.0000I-2.3640J1.1533
G1 X13.9188 Y-8.2849 Z-0.0000
G1 X14.0363 Y-7.8854 Z-0.0000
G2X14.1679Y-7.5496Z-0.0000I2.3379J-0.7230
G1 X14.2288 Y-7.4379 Z-0.0000
G2X14.6638Y-6.9788Z-0.0000I1.2184J-0.7190
G2X15.3130Y-6.7968Z-0.0000I0.6086J-0.9220
G2X16.1748Y-7.2046Z-0.0000I-0.0359J-1.1906
G2X16.3721Y-7.4950Z-0.0000I-1.1233J-0.9752
G1 X16.4282 Y-7.6101 Z-0.0000
G2X16.5854Y-8.0989Z-0.0000I-2.3325J-1.0198
G2X16.6586Y-9.0331Z-0.0000I-3.6554J-0.7561
G2X16.5121Y-10.0248Z-0.0000I-4.9670J0.2267
G1 X16.4547 Y-10.2366 Z-0.0000
G2X16.1680Y-11.0430Z-0.0000I-8.1288J2.4354
G1 X15.9362 Y-11.6077 Z-0.0000
G3X15.7731Y-12.0584Z-0.0000I5.6296J-2.2915
G3X15.6642Y-12.5771Z-0.0000I2.4405J-0.7830
G3X15.7133Y-13.2642Z-0.0000I2.1219J-0.1939
G3X15.7860Y-13.5260Z-0.0000I3.1388J0.7315
G3X16.0676Y-14.2540Z-0.0000I7.6945J2.5576
G1 X16.2308 Y-14.6232 Z-0.0000
G1 X16.5745 Y-15.3672 Z-0.0000
G2X16.9827Y-16.3436Z-0.0000I-12.1865J-5.6688
G2X17.3529Y-17.5681Z-0.0000I-10.4149J-3.8166
G2X17.4618Y-18.1275Z-0.0000I-6.4882J-1.5541
G2X17.5303Y-18.9961Z-0.0000I-6.1436J-0.9213
G2X17.4265Y-19.7781Z-0.0000I-2.8903J-0.0143
G1 X17.3754 Y-19.9525 Z-0.0000
G1 X17.3108 Y-20.1518 Z-0.0000
G1 X17.2215 Y-20.4178 Z-0.0000
G1 X17.2059 Y-20.4532 Z-0.0000
G1 X16.7852 Y-21.2532 Z-0.0000
G1 X16.7654 Y-21.2835 Z-0.0000
G1 X16.6278 Y-21.4703 Z-0.0000
G1 X16.5164 Y-21.6136 Z-0.0000
G1 X16.4058 Y-21.7421 Z-0.0000
G1 X16.2871 Y-21.8659 Z-0.0000
G1 X16.1607 Y-21.9852 Z-0.0000
G1 X16.0267 Y-22.0997 Z-0.0000
G1 X15.8855 Y-22.2094 Z-0.0000
G1 X15.7377 Y-22.3137 Z-0.0000
G2X15.2632Y-22.5910Z-0.0000I-2.3988J3.5612
G2X14.5902Y-22.8659Z-0.0000I-2.1622J4.3318
G2X13.8988Y-23.0447Z-0.0000I-1.8528J5.7389
G2X12.8592Y-23.1821Z-0.0000I-1.6711J8.6412
G2X12.3411Y-23.2108Z-0.0000I-0.9647J12.7060
G1 X11.9993 Y-23.2195 Z-0.0000
G1 X11.6611 Y-23.2218 Z-0.0000
G1 X10.7330 Y-23.2192 Z-0.0000
G1 X9.8010 Y-23.2218 Z-0.0000
G2X8.9460Y-23.2032Z-0.0000I-0.0482J17.5072
G2X7.7316Y-23.0754Z-0.0000I0.4435J10.0414
G2X6.8628Y-22.8617Z-0.0000I1.0608J6.1847
G2X6.0256Y-22.4969Z-0.0000I1.4704J4.5181
G2X5.5660Y-22.1985Z-0.0000I2.0707J3.6934
G1 X5.4247 Y-22.0877 Z-0.0000
G1 X5.2907 Y-21.9720 Z-0.0000
G1 X5.1644 Y-21.8515 Z-0.0000
G1 X5.0460 Y-21.7263 Z-0.0000
G1 X4.9371 Y-21.5982 Z-0.0000
G1 X4.8325 Y-21.4628 Z-0.0000
G1 X4.7042 Y-21.2884 Z-0.0000
G2X4.2542Y-20.4480Z-0.0000I2.5181J1.8888
G1 X4.1062 Y-20.0016 Z-0.0000
G2X3.9850Y-19.5418Z-0.0000I3.7460J1.2326
G1 X3.9603 Y-19.3871 Z-0.0000
G2X3.9389Y-18.8197Z-0.0000I3.3110J0.4090
G1 X3.9516 Y-18.5988 Z-0.0000
G1 X3.9578 Y-18.5319 Z-0.0000
G3X3.6190Y-18.1241Z-0.0000I-0.3734J0.0344
G0 Z4.0000
G0 X3.6190 Y-18.1241 
M5
G53 Z
X2Y0
