( MOP:  11-Full-body-DoubleHorn-01-lefty )
( FILE: G:\Shared drives\AlloyProjectFiles\Customer CAD files\Alloy-Standard-Builds-CAM\t-in\FullTele\11-Full-body-DoubleHorn-01-lefty.nc)
G90
(  BEGIN TOOL LIST )
(  TOOL 13 - Straight PT750 - DESC: 0.7500 DIA, 2 FLUTE,  CARBIDE MAT )
(  ENDOF TOOL LIST )
( 11-Full-body-DoubleHorn-01-lefty)
T13
S14000
M3
G0 Z4.0000
G0 X3.4598 Y-19.5316 
G1 X3.4598 Y-19.5316 Z0.0000 F75.
G17
G3X3.9600Y-19.0312Z0.0000I0.0002J0.5000 F30.
G2X3.9964Y-18.3756Z0.0000I5.3632J0.0308 F40.
G2X4.2369Y-17.1862Z0.0000I7.1496J-0.8265
G2X4.8189Y-15.5858Z0.0000I10.7767J-3.0132
G2X5.2771Y-14.5887Z0.0000I117.2832J-53.2896
G3X5.6788Y-13.6063Z0.0000I-10.5767J4.8986
G3X5.8246Y-12.9784Z0.0000I-2.6335J0.9422
G3X5.7370Y-12.1226Z0.0000I-2.1922J0.2081
G3X5.5354Y-11.5571Z0.0000I-5.2927J-1.5689
G2X5.1878Y-10.6923Z0.0000I21.4281J9.1143
G2X4.8838Y-9.5581Z0.0000I5.4107J2.0578
G2X4.8484Y-8.4537Z0.0000I4.2149J0.6879
G2X5.0728Y-7.5912Z0.0000I2.7347J-0.2510
G2X5.4828Y-7.0574Z0.0000I1.2892J-0.5658
G2X6.5427Y-6.8780Z0.0000I0.7018J-0.9259
G2X7.1878Y-7.4040Z0.0000I-0.4483J-1.2085
G2X7.3753Y-7.7978Z0.0000I-1.5146J-0.9627
G1 X7.4109 Y-7.9057 Z0.0000
G1 X7.5243 Y-8.2920 Z0.0000
G3X7.7144Y-8.7947Z0.0000I3.1459J0.9025
G3X8.1368Y-9.2857Z0.0000I1.0897J0.5102
G3X8.6565Y-9.4760Z0.0000I0.6375J0.9364
G3X9.0001Y-9.3645Z0.0000I0.0409J0.4595
G3X9.2505Y-8.9218Z0.0000I-0.3966J0.5164
G1 X9.2559 Y-8.8783 Z0.0000
G1 X9.2592 Y-8.8403 Z0.0000
G1 X9.2628 Y-7.2940 Z0.0000
G2X9.8888Y-6.6712Z0.0000I0.6260J-0.0032
G1 X11.5772 Y-6.6712 Z0.0000
G2X12.2032Y-7.2958Z0.0000I0.0000J-0.6260
G1 X12.2068 Y-8.8403 Z0.0000
G3X12.3129Y-9.1968Z0.0000I0.7188J0.0199
G3X12.6437Y-9.4605Z0.0000I0.5424J0.3408
G3X12.9064Y-9.4633Z0.0000I0.1370J0.5388
G3X13.7516Y-8.7947Z0.0000I-0.2453J1.1786
G3X13.8823Y-8.4759Z0.0000I-2.3857J1.1641
G1 X13.9417 Y-8.2920 Z0.0000
G1 X14.0590 Y-7.8930 Z0.0000
G2X14.2875Y-7.3898Z0.0000I1.9109J-0.5641
G2X14.9386Y-6.8729Z0.0000I1.0775J-0.6887
G2X16.2422Y-7.3287Z0.0000I0.3418J-1.1144
G2X16.4563Y-7.7421Z0.0000I-1.4272J-1.0013
G2X16.6349Y-8.6918Z0.0000I-2.9083J-1.0385
G2X16.4318Y-10.2295Z0.0000I-4.8095J-0.1470
G2X16.1458Y-11.0339Z0.0000I-8.1042J2.4277
G1 X15.9139 Y-11.5988 Z0.0000
G3X15.7008Y-12.2281Z0.0000I4.3434J-1.8214
G3X15.7116Y-13.3573Z0.0000I2.0983J-0.5446
G3X15.8940Y-13.8977Z0.0000I4.6160J1.2570
G3X16.2089Y-14.6331Z0.0000I13.8517J5.4970
G2X16.7238Y-15.7606Z0.0000I-43.1827J-20.3993
G2X17.3774Y-17.7894Z0.0000I-9.9886J-4.3380
G2X17.5042Y-19.1082Z0.0000I-5.9010J-1.2327
G2X17.4035Y-19.7714Z0.0000I-2.8270J0.0901
G2X17.1991Y-20.4093Z0.0000I-9.4264J2.6691
G1 X17.1845 Y-20.4425 Z0.0000
G1 X16.7645 Y-21.2410 Z0.0000
G1 X16.7437 Y-21.2726 Z0.0000
G2X16.3884Y-21.7255Z0.0000I-4.7286J3.3435
G2X15.5720Y-22.3918Z0.0000I-2.7533J2.5401
G2X14.4119Y-22.8956Z0.0000I-2.4274J4.0018
G2X13.0299Y-23.1436Z0.0000I-1.9979J7.1598
G2X11.6612Y-23.1978Z0.0000I-1.2474J14.1942
G1 X10.7330 Y-23.1952 Z0.0000
G1 X9.8012 Y-23.1978 Z0.0000
G2X8.4298Y-23.1430Z0.0000I-0.1194J14.2061
G2X7.0426Y-22.8923Z0.0000I0.6173J7.3778
G2X5.7277Y-22.2844Z0.0000I1.2550J4.4408
G2X4.8519Y-21.4486Z0.0000I1.9536J2.9239
G1 X4.7234 Y-21.2741 Z0.0000
G2X4.2770Y-20.4404Z0.0000I2.4991J1.8746
G1 X4.1291 Y-19.9946 Z0.0000
G2X3.9747Y-19.3014Z0.0000I3.0833J1.0508
G2X3.9629Y-18.8210Z0.0000I3.3837J0.3232
G2X3.9819Y-18.5319Z0.0000I4.0606J-0.1215
G3X3.5303Y-17.9883Z0.0000I-0.4979J0.0458
G0 Z4.0000
G0 X3.5303 Y-17.9883 
M5
G53 Z
X2Y0
