( MOP:  11-Full-body-Adcock-01-lefty )
( FILE: G:\Shared drives\AlloyProjectFiles\Customer CAD files\Alloy-Standard-Builds-CAM\t-in\FullTele\11-Full-body-Adcock-01-lefty.nc)
G90
(  BEGIN TOOL LIST )
(  TOOL 3 - Downcut PT750 - DESC: 0.7500 DIA, 2 FLUTE,  CARBIDE MAT )
(  ENDOF TOOL LIST )
( 11-Full-body-Adcock-01-lefty)
T03
S14000
M3
G0 Z5.8682
G0 X3.5059 Y-19.2571 
G1 X3.5059 Y-19.2571 Z0.4750 F75.
G17
G3X4.0301Y-18.7769Z0.4750I0.0246J0.4994 F50.
G2X4.2522Y-17.3160Z0.4750I6.5242J-0.2445 F100.
G2X4.8549Y-15.6171Z0.4750I10.6985J-2.8394
G1 X5.0004 Y-15.2977 Z0.4750
G3X5.5060Y-14.1932Z0.4750I-61.5650J28.8553
G3X5.7711Y-13.5037Z0.4750I-5.9913J2.6988
G3X5.8167Y-12.2385Z0.4750I-2.2307J0.7138
G3X5.6728Y-11.7865Z0.4750I-3.4498J-0.8494
G1 X5.6124 Y-11.6308 Z0.4750
G2X5.2206Y-10.6463Z0.4750I29.6173J12.3542
G2X4.9093Y-9.3712Z0.4750I5.0300J1.9038
G2X4.9643Y-8.2073Z0.4750I3.4727J0.4191
G2X5.4112Y-7.2649Z0.4750I2.2475J-0.4887
G2X6.4041Y-6.6252Z0.4750I1.4874J-1.2181
G2X7.2234Y-6.5464Z0.4750I0.6400J-2.3553
G2X8.5388Y-6.9469Z0.4750I-0.1751J-2.9352
G2X8.9110Y-7.1829Z0.4750I-3.4506J-5.8525
G3X9.1283Y-7.3085Z0.4750I0.9886J1.4597
G1 X9.1705 Y-7.3262 Z0.4750
G1 X9.2109 Y-7.3393 Z0.4750
G3X9.2453Y-7.3309Z0.4750I0.0076J0.0436
G3X9.2628Y-7.2978Z0.4750I-0.0270J0.0354
G1 X9.2628 Y-7.2807 Z0.4750
G2X9.8888Y-6.6712Z0.4750I0.6256J-0.0164
G1 X11.5773 Y-6.6712 Z0.4750
G2X12.2033Y-7.2958Z0.4750I0.0000J-0.6260
G1 X12.2068 Y-8.8327 Z0.4750
G3X12.3448Y-8.9660Z0.4750I0.4078J0.2842
G3X13.0272Y-9.1800Z0.4750I0.6673J0.9324
G3X13.5147Y-9.0208Z0.4750I-0.0279J0.9114
G3X13.6989Y-8.8055Z0.4750I-0.4266J0.5513
G3X14.0161Y-8.1679Z0.4750I-4.5192J2.6461
G2X14.4584Y-7.5365Z0.4750I1.8610J-0.8329
G2X14.8510Y-7.3546Z0.4750I0.4611J-0.4806
G2X15.2470Y-7.4336Z0.4750I0.0588J-0.7370
G2X15.6526Y-7.7536Z0.4750I-0.6616J-1.2557
G2X16.0296Y-8.3078Z0.4750I-1.7576J-1.6010
G2X16.2767Y-10.3249Z0.4750I-3.4683J-1.4485
G2X15.9798Y-11.4396Z0.4750I-5.0876J0.7579
G1 X15.8470 Y-11.7753 Z0.4750
G3X15.6680Y-12.3783Z0.4750I3.7574J-1.4436
G3X15.6974Y-13.3016Z0.4750I2.1070J-0.3948
G3X15.9523Y-14.0428Z0.4750I4.9949J1.3031
G3X16.4980Y-15.2587Z0.4750I27.1523J11.4539
G2X16.9683Y-16.3742Z0.4750I-12.0785J-5.7501
G2X17.3994Y-17.9011Z0.4750I-9.8341J-3.6007
G2X17.5047Y-19.0920Z0.4750I-5.9432J-1.1257
G2X17.3778Y-19.8621Z0.4750I-2.8838J0.0798
G1 X17.3310 Y-20.0129 Z0.4750
G1 X17.1993 Y-20.4087 Z0.4750
G1 X17.1845 Y-20.4424 Z0.4750
G1 X16.7645 Y-21.2410 Z0.4750
G1 X16.7437 Y-21.2726 Z0.4750
G2X16.3884Y-21.7255Z0.4750I-4.7286J3.3435
G2X15.5720Y-22.3918Z0.4750I-2.7533J2.5401
G2X14.4119Y-22.8956Z0.4750I-2.4274J4.0018
G2X13.0299Y-23.1436Z0.4750I-1.9979J7.1598
G2X11.6614Y-23.1978Z0.4750I-1.2474J14.1937
G1 X10.4682 Y-23.1951 Z0.4750
G2X9.2605Y-23.1892Z0.4750I-0.3158J58.9884
G2X7.8742Y-23.0666Z0.4750I0.2314J10.5132
G2X6.4940Y-22.6771Z0.4750I0.8805J5.7602
G2X4.8227Y-21.3910Z0.4750I1.6485J3.8710
G2X4.0480Y-19.4166Z0.4750I2.9671J2.3035
G2X4.0681Y-18.2785Z0.4750I5.4626J0.4729
G3X3.6261Y-17.7269Z0.4750I-0.4970J0.0547
G0 Z5.8682
G0 X3.6261 Y-17.7269 
M5
G53 Z
X2Y0
