( MOP:  11-Full-body-StandardT-01-lefty )
( FILE: G:\Shared drives\AlloyProjectFiles\Customer CAD files\Alloy-Standard-Builds-CAM\t-in\FullTele\11-Full-body-StandardT-01-lefty.nc)
G90
(  BEGIN TOOL LIST )
(  TOOL 13 - Straight PT750 - DESC: 0.7500 DIA, 2 FLUTE,  CARBIDE MAT )
(  ENDOF TOOL LIST )
( 11-Full-body-StandardT-01-lefty)
T13
S14000
M3
G0 Z4.0000
G0 X3.5461 Y-19.7101 
G1 X3.5461 Y-19.7101 Z0.0000 F75.
G17
G3X4.0325Y-19.1936Z0.0000I-0.0133J0.4998 F30.
G2X4.2113Y-17.4784Z0.0000I6.1373J0.2273 F40.
G2X4.8887Y-15.5418Z0.0000I10.6571J-2.6409
G1 X5.3415 Y-14.5591 Z0.0000
G3X5.6865Y-13.7531Z0.0000I-10.7982J5.0991
G3X5.8744Y-12.9794Z0.0000I-2.6709J1.0583
G3X5.7669Y-12.0577Z0.0000I-2.3594J0.1918
G1 X5.7140 Y-11.8991 Z0.0000
G1 X5.6552 Y-11.7404 Z0.0000
G3X5.3193Y-10.9047Z0.0000I-76.8143J-30.3883
G2X5.0200Y-9.9958Z0.0000I6.5145J2.6490
G2X4.8861Y-9.0255Z0.0000I4.4015J1.1016
G2X5.0438Y-7.9327Z0.0000I3.0914J0.1117
G2X5.6519Y-7.0194Z0.0000I1.9743J-0.6554
G2X6.5673Y-6.5864Z0.0000I1.2809J-1.5238
G2X7.2234Y-6.5464Z0.0000I0.4796J-2.4638
G2X8.5388Y-6.9469Z0.0000I-0.1751J-2.9352
G2X8.9110Y-7.1829Z0.0000I-3.4506J-5.8525
G3X9.1283Y-7.3085Z0.0000I0.9886J1.4597
G1 X9.1705 Y-7.3262 Z0.0000
G1 X9.2109 Y-7.3393 Z0.0000
G3X9.2453Y-7.3309Z0.0000I0.0076J0.0436
G3X9.2628Y-7.2978Z0.0000I-0.0270J0.0354
G1 X9.2628 Y-7.2807 Z0.0000
G2X9.8888Y-6.6712Z0.0000I0.6256J-0.0164
G1 X11.5773 Y-6.6712 Z0.0000
G2X12.2033Y-7.2958Z0.0000I0.0000J-0.6260
G1 X12.2068 Y-8.8403 Z0.0000
G3X12.3129Y-9.1968Z0.0000I0.7188J0.0199
G3X12.6437Y-9.4605Z0.0000I0.5424J0.3408
G3X12.9064Y-9.4633Z0.0000I0.1370J0.5388
G3X13.7516Y-8.7947Z0.0000I-0.2453J1.1786
G3X13.8823Y-8.4759Z0.0000I-2.3857J1.1641
G1 X13.9417 Y-8.2920 Z0.0000
G1 X14.0590 Y-7.8930 Z0.0000
G2X14.2875Y-7.3898Z0.0000I1.9109J-0.5641
G2X14.9386Y-6.8729Z0.0000I1.0775J-0.6887
G2X16.2422Y-7.3287Z0.0000I0.3418J-1.1144
G2X16.4563Y-7.7421Z0.0000I-1.4272J-1.0013
G2X16.6349Y-8.6918Z0.0000I-2.9083J-1.0385
G2X16.4318Y-10.2295Z0.0000I-4.8095J-0.1470
G2X16.1458Y-11.0339Z0.0000I-8.1042J2.4277
G1 X15.9139 Y-11.5988 Z0.0000
G3X15.7008Y-12.2281Z0.0000I4.3434J-1.8214
G3X15.7116Y-13.3573Z0.0000I2.0983J-0.5446
G3X15.8940Y-13.8977Z0.0000I4.6160J1.2570
G3X16.3789Y-15.0029Z0.0000I18.2518J7.3488
G2X16.8850Y-16.1529Z0.0000I-16.8207J-8.0898
G2X17.3774Y-17.7894Z0.0000I-10.0580J-3.9186
G2X17.5042Y-19.1082Z0.0000I-5.9010J-1.2327
G2X17.4035Y-19.7714Z0.0000I-2.8270J0.0901
G2X17.1991Y-20.4093Z0.0000I-9.4264J2.6691
G1 X17.1845 Y-20.4425 Z0.0000
G1 X16.7645 Y-21.2410 Z0.0000
G1 X16.7437 Y-21.2726 Z0.0000
G2X16.3884Y-21.7255Z0.0000I-4.7286J3.3435
G2X15.5720Y-22.3918Z0.0000I-2.7533J2.5401
G2X14.4119Y-22.8956Z0.0000I-2.4274J4.0018
G2X13.0299Y-23.1436Z0.0000I-1.9979J7.1598
G2X11.6614Y-23.1978Z0.0000I-1.2474J14.1938
G1 X10.5169 Y-23.1951 Z0.0000
G1 X9.6544 Y-23.1948 Z0.0000
G2X8.1810Y-23.1105Z0.0000I-0.0609J11.8498
G2X6.8474Y-22.8143Z0.0000I0.7658J6.5974
G2X5.3626Y-21.9655Z0.0000I1.4118J4.1931
G2X4.1787Y-20.1237Z0.0000I2.5431J2.9361
G2X4.0325Y-19.1936Z0.0000I3.8604J1.0831
G2X4.0342Y-18.6938Z0.0000I4.7000J0.2342
G3X3.5570Y-18.1725Z0.0000I-0.4995J0.0218
G0 Z4.0000
G0 X3.5570 Y-18.1725 
M5
G53 Z
X2Y0
