( MOP:  11-Full-body-StandardT-01-righty )
( FILE: G:\Shared drives\AlloyProjectFiles\Customer CAD files\Alloy-Standard-Builds-CAM\t-in\FullTele\11-Full-body-StandardT-01-righty.nc)
G90
(  BEGIN TOOL LIST )
(  TOOL 13 - Straight PT750 - DESC: 0.7500 DIA, 2 FLUTE,  CARBIDE MAT )
(  ENDOF TOOL LIST )
( 11-Full-body-StandardT-01-righty)
T13
S14000
M3
G0 Z4.0000
G0 X3.5019 Y-18.7113 
G1 X3.5019 Y-18.7113 Z0.0000 F75.
G17
G2X4.0325Y-19.1936Z0.0000I0.0309J-0.4990 F30.
G3X4.2261Y-20.2761Z0.0000I3.9494J0.1475 F40.
G3X5.4829Y-22.0670Z0.0000I3.7081J1.2659
G3X6.8474Y-22.8143Z0.0000I2.7857J3.4671
G3X8.1810Y-23.1105Z0.0000I2.0692J6.1654
G3X9.6544Y-23.1948Z0.0000I1.4125J11.7655
G1 X10.5169 Y-23.1951 Z0.0000
G1 X11.6614 Y-23.1978 Z0.0000
G3X13.0299Y-23.1436Z0.0000I0.1211J14.2480
G3X14.4119Y-22.8956Z0.0000I-0.6159J7.4078
G3X15.7247Y-22.2936Z0.0000I-1.2493J4.4565
G3X16.6088Y-21.4556Z0.0000I-1.9461J2.9386
G1 X16.7437 Y-21.2726 Z0.0000
G1 X16.7645 Y-21.2410 Z0.0000
G1 X17.1845 Y-20.4425 Z0.0000
G1 X17.1991 Y-20.4093 Z0.0000
G3X17.4035Y-19.7714Z0.0000I-13.4469J4.6609
G3X17.5049Y-18.8775Z0.0000I-2.8199J0.7727
G3X17.3294Y-17.5733Z0.0000I-6.4117J-0.1988
G3X16.6391Y-15.5678Z0.0000I-10.8468J-2.6124
G3X16.2091Y-14.6335Z0.0000I-66.0306J-29.8210
G2X15.8940Y-13.8977Z0.0000I15.5996J7.1162
G2X15.6899Y-13.2696Z0.0000I4.1597J1.6991
G2X15.7241Y-12.1400Z0.0000I2.1162J0.5013
G2X15.9139Y-11.5988Z0.0000I4.8066J-1.3817
G1 X16.1458 Y-11.0339 Z0.0000
G3X16.4890Y-10.0185Z0.0000I-7.2994J3.0326
G3X16.6283Y-8.5764Z0.0000I-4.5439J1.1669
G3X16.4062Y-7.6195Z0.0000I-2.8708J-0.1624
G3X16.1083Y-7.1681Z0.0000I-1.4046J-0.6028
G3X14.9386Y-6.8729Z0.0000I-0.8278J-0.8150
G3X14.2875Y-7.3898Z0.0000I0.4264J-1.2056
G3X14.0961Y-7.7826Z0.0000I1.4753J-0.9619
G1 X14.0590 Y-7.8930 Z0.0000
G1 X13.9417 Y-8.2920 Z0.0000
G2X13.7516Y-8.7947Z0.0000I-3.1459J0.9025
G2X13.3291Y-9.2857Z0.0000I-1.0897J0.5102
G2X12.8095Y-9.4760Z0.0000I-0.6374J0.9364
G2X12.4659Y-9.3645Z0.0000I-0.0409J0.4595
G2X12.2155Y-8.9218Z0.0000I0.3966J0.5164
G1 X12.2101 Y-8.8783 Z0.0000
G1 X12.2068 Y-8.8403 Z0.0000
G1 X12.2033 Y-7.2958 Z0.0000
G3X11.5773Y-6.6712Z0.0000I-0.6260J-0.0014
G1 X9.8888 Y-6.6712 Z0.0000
G3X9.2628Y-7.2807Z0.0000I-0.0004J-0.6259
G1 X9.2628 Y-7.2978 Z0.0000
G2X9.2453Y-7.3309Z0.0000I-0.0445J0.0023
G2X9.2109Y-7.3393Z0.0000I-0.0268J0.0352
G2X9.0296Y-7.2566Z0.0000I0.2314J0.7473
G2X8.6647Y-7.0230Z0.0000I5.5681J9.0994
G3X7.9947Y-6.6969Z0.0000I-1.6967J-2.6350
G3X6.8139Y-6.5510Z0.0000I-0.9476J-2.8173
G3X5.7880Y-6.9136Z0.0000I0.1666J-2.1039
G3X5.1043Y-7.7767Z0.0000I1.1587J-1.6203
G3X4.8866Y-8.8249Z0.0000I2.6328J-1.0934
G3X4.9774Y-9.8054Z0.0000I4.2455J-0.1014
G3X5.2518Y-10.7299Z0.0000I5.6612J1.1772
G3X5.5241Y-11.4111Z0.0000I22.0005J8.4007
G2X5.7669Y-12.0577Z0.0000I-7.8633J-3.3211
G2X5.7891Y-13.4415Z0.0000I-2.2232J-0.7278
G2X5.6248Y-13.9117Z0.0000I-4.0733J1.1594
G2X5.3415Y-14.5591Z0.0000I-12.7021J5.1732
G1 X4.8887 Y-15.5418 Z0.0000
G3X4.1692Y-17.6632Z0.0000I9.8096J-4.5097
G3X4.0325Y-19.1936Z0.0000I5.9373J-1.3014
G3X4.0831Y-19.6908Z0.0000I4.1719J0.1731
G2X3.6708Y-20.2703Z0.0000I-0.4926J-0.0860
G0 Z4.0000
G0 X3.6708 Y-20.2703 
M5
G53 Z
X2Y0
