( MOP:  11-Full-body-Adcock-01-righty )
( FILE: G:\Shared drives\AlloyProjectFiles\Customer CAD files\Alloy-Standard-Builds-CAM\t-in\FullTele\11-Full-body-Adcock-01-righty.nc)
G90
(  BEGIN TOOL LIST )
(  TOOL 3 - Downcut PT750 - DESC: 0.7500 DIA, 2 FLUTE,  CARBIDE MAT )
(  ENDOF TOOL LIST )
( 11-Full-body-Adcock-01-righty)
T03
S14000
M3
G0 Z5.8682
G0 X3.5357 Y-18.2576 
G1 X3.5357 Y-18.2576 Z0.4750 F75.
G17
G2X4.0261Y-18.7767Z0.4750I-0.0092J-0.4999 F50.
G3X4.1188Y-19.9036Z0.4750I4.6549J-0.1842 F100.
G3X5.0313Y-21.6462Z0.4750I3.7216J0.8386
G3X6.4915Y-22.6804Z0.4750I3.1245J2.8637
G3X7.7184Y-23.0437Z0.4750I2.1989J5.1725
G3X8.9522Y-23.1812Z0.4750I1.6619J9.3048
G3X9.8705Y-23.1993Z0.4750I0.7707J15.8125
G1 X10.4682 Y-23.1991 Z0.4750
G1 X11.6614 Y-23.2018 Z0.4750
G3X13.0302Y-23.1476Z0.4750I0.1211J14.2520
G3X14.4130Y-22.8995Z0.4750I-0.6162J7.4119
G3X15.7269Y-22.2969Z0.4750I-1.2504J4.4605
G3X16.6120Y-21.4580Z0.4750I-1.9484J2.9420
G1 X16.7469 Y-21.2749 Z0.4750
G1 X16.7680 Y-21.2431 Z0.4750
G1 X17.1881 Y-20.4442 Z0.4750
G1 X17.2030 Y-20.4101 Z0.4750
G1 X17.3348 Y-20.0142 Z0.4750
G3X17.4981Y-19.2716Z0.4750I-3.1318J1.0778
G3X17.5016Y-18.7055Z0.4750I-3.6252J0.3054
G3X17.2832Y-17.3713Z0.4750I-6.5647J-0.3893
G3X16.6444Y-15.5699Z0.4750I-10.8334J-2.8280
G3X16.2197Y-14.6473Z0.4750I-94.0304J-42.7198
G2X15.8396Y-13.7431Z0.4750I11.6775J5.4414
G2X15.6711Y-13.1600Z0.4750I3.4083J1.3006
G2X15.7344Y-12.1268Z0.4750I2.1027J0.3898
G2X15.8507Y-11.7768Z0.4750I4.0812J-1.1623
G3X16.0591Y-11.2338Z0.4750I-9.8095J4.0761
G3X16.3217Y-9.8479Z0.4750I-4.4487J1.5607
G3X16.0333Y-8.3063Z0.4750I-3.7242J0.1011
G3X15.4751Y-7.5783Z0.4750I-2.0397J-0.9860
G3X15.1569Y-7.3912Z0.4750I-0.6959J-0.8194
G3X14.5743Y-7.4434Z0.4750I-0.2374J-0.6285
G3X14.3462Y-7.6470Z0.4750I0.5457J-0.8411
G3X14.0125Y-8.1662Z0.4750I1.5671J-1.3739
G2X13.6695Y-8.8443Z0.4750I-4.5428J1.8720
G2X13.3324Y-9.1136Z0.4750I-0.5413J0.3319
G2X12.6469Y-9.1154Z0.4750I-0.3451J0.9099
G2X12.2556Y-8.8864Z0.4750I0.3327J1.0175
G2X12.2108Y-8.8315Z0.4750I0.2278J0.2315
G1 X12.2073 Y-7.2958 Z0.4750
G3X11.5773Y-6.6672Z0.4750I-0.6300J-0.0014
G1 X9.8888 Y-6.6672 Z0.4750
G3X9.2588Y-7.2806Z0.4750I-0.0004J-0.6299
G1 X9.2588 Y-7.2976 Z0.4750
G2X9.2429Y-7.3277Z0.4750I-0.0405J0.0021
G2X9.2119Y-7.3354Z0.4750I-0.0244J0.0320
G2X9.0317Y-7.2532Z0.4750I0.2304J0.7433
G2X8.6668Y-7.0196Z0.4750I5.5664J9.0966
G3X7.9961Y-6.6932Z0.4750I-1.6989J-2.6386
G3X6.8136Y-6.5470Z0.4750I-0.9490J-2.8211
G3X5.7858Y-6.9102Z0.4750I0.1669J-2.1080
G3X5.1006Y-7.7750Z0.4750I1.1608J-1.6236
G3X4.8812Y-8.8951Z0.4750I2.6891J-1.1083
G3X4.9620Y-9.7480Z0.4750I4.2373J-0.0292
G3X5.2812Y-10.8182Z0.4750I5.8781J1.1708
G1 X5.3471 Y-10.9855 Z0.4750
G1 X5.6086 Y-11.6322 Z0.4750
G2X5.8128Y-12.2394Z0.4750I-4.1717J-1.7404
G2X5.7886Y-13.4282Z0.4750I-2.2464J-0.5490
G2X5.6327Y-13.8813Z0.4750I-3.9289J1.0987
G2X5.2892Y-14.6635Z0.4750I-14.8556J6.0565
G3X4.7791Y-15.7804Z0.4750I50.8094J-23.8812
G3X4.1635Y-17.6704Z0.4750I9.7714J-4.2277
G3X4.0334Y-19.2765Z0.4750I5.8070J-1.2790
G2X3.5726Y-19.8135Z0.4750I-0.4986J-0.0384
G0 Z5.8682
G0 X3.5726 Y-19.8135 
M5
G53 Z
X2Y0
