( MOP:  04-Chambered-01 )
( FILE: G:\Shared drives\AlloyProjectFiles\Customer CAD files\Alloy-Standard-Builds-CAM\s-in\Chambering\04-Chambered-01.nc)
G90
(  BEGIN TOOL LIST )
(  TOOL 11 - Downcut PT750 ROUGH - DESC: 0.7500 DIA, 2 FLUTE,  CARBIDE MAT )
(  ENDOF TOOL LIST )
( 04-Chambered-01)
T11
S14000
M3
G0 Z6.0000
G0 X13.8540 Y-18.8541 
G1 X13.8540 Y-18.8541 Z1.4600 F75.
G1 X13.8540 Y-18.8541 Z1.4350 F50.
G1 X13.8137 Y-18.9978 Z1.4087
G1 X13.7843 Y-19.0798 Z1.3933
G1 X13.7649 Y-19.1228 Z1.3850
G1 X13.7455 Y-19.1658 Z1.3850 F150.
G1 X13.6096 Y-19.4202 Z1.3850
G1 X14.0090 Y-19.4205 Z1.3850
G17
G3X14.0050Y-18.5281Z1.3850I-1.9265J0.4375
G1 X13.9556 Y-18.4986 Z1.3850
G1 X13.9331 Y-18.4842 Z1.3850
G2X13.7649Y-19.1228Z1.3850I-2.0148J0.1891
G1 X13.5946 Y-19.0449 Z1.3850
G3X13.7616Y-18.1203Z1.3850I-1.9424J0.8281
G3X14.1728Y-18.4071Z1.3850I1.3736J1.5314
G2X14.1584Y-19.5908Z1.3850I-2.3522J-0.5633
G1 X14.1510 Y-19.6081 Z1.3850
G1 X13.4123 Y-19.6076 Z1.3850
G1 X13.4123 Y-19.3883 Z1.3850
G3X13.5946Y-19.0449Z1.3850I-2.6094J1.6053
G1 X13.4239 Y-18.9679 Z1.3850
G2X13.2249Y-19.3316Z1.3850I-1.9185J0.8135
G1 X13.2248 Y-19.7949 Z1.3850
G1 X14.2743 Y-19.7957 Z1.3850
G3X14.4246Y-18.8580Z1.3850I-1.6414J0.7441
G1 X14.3896 Y-18.5434 Z1.3850
G1 X14.3391 Y-18.2779 Z1.3850
G2X13.5399Y-17.5472Z1.3850I0.7671J1.6415
G2X13.3513Y-17.0647Z1.3850I2.0879J1.0942
G2X13.4730Y-15.8154Z1.3850I1.8501J0.4504
G1 X13.4869 Y-15.7906 Z1.3850
G1 X13.4712 Y-15.7585 Z1.3850
G1 X13.2250 Y-15.2868 Z1.3850
G1 X13.2250 Y-17.0977 Z1.3850
G2X13.4239Y-18.9679Z1.3850I-1.6058J-1.1165
G1 X13.2538 Y-18.8896 Z1.3850
G1 X13.2615 Y-18.8729 Z1.3850
G3X13.0375Y-17.1609Z1.3850I-1.6359J0.6566
G1 X13.0375 Y-15.1727 Z1.3850
G1 X13.2694 Y-14.9317 Z1.3850
G1 X13.3632 Y-15.1464 Z1.3850
G1 X13.6385 Y-15.6739 Z1.3850
G1 X13.6985 Y-15.7965 Z1.3850
G3X13.5334Y-17.0197Z1.3850I1.4648J-0.8205
G3X13.6558Y-17.3583Z1.3850I2.2332J0.6162
G3X14.5024Y-18.1412Z1.3850I1.4440J0.7123
G2X14.5834Y-19.4468Z1.3850I-3.4849J-0.8714
G2X14.3964Y-19.9833Z1.3850I-1.7935J0.3243
G1 X13.0373 Y-19.9823 Z1.3850
G1 X13.0374 Y-19.2685 Z1.3850
G3X13.2538Y-18.8896Z1.3850I-1.1328J0.8984
G1 X13.0831 Y-18.8125 Z1.3850
G2X12.8499Y-19.2039Z1.3850I-1.3809J0.5577
G1 X12.8498 Y-20.1696 Z1.3850
G1 X14.5039 Y-20.1709 Z1.3850
G3X14.8030Y-19.1676Z1.3850I-1.7240J1.0603
G3X14.6594Y-17.9956Z1.3850I-4.2002J0.0800
G2X13.8233Y-17.2740Z1.3850I0.4540J1.3711
G2X13.7153Y-16.9742Z1.3850I1.8566J0.8384
G2X13.9140Y-15.8102Z1.3850I1.4238J0.3559
G1 X13.8058 Y-15.5893 Z1.3850
G1 X13.5350 Y-15.0714 Z1.3850
G1 X13.3289 Y-14.5995 Z1.3850
G1 X12.8500 Y-15.0972 Z1.3850
G1 X12.8500 Y-17.2245 Z1.3850
G2X13.0831Y-18.8125Z1.3850I-1.2213J-0.9904
G1 X12.9112 Y-18.7382 Z1.3850
G3X12.6625Y-17.2881Z1.3850I-1.2929J0.5246
G1 X12.6625 Y-15.0216 Z1.3850
G1 X13.4034 Y-14.2517 Z1.3850
G3X13.7068Y-14.9963Z1.3850I4.2567J1.3004
G1 X13.9731 Y-15.5046 Z1.3850
G1 X14.1339 Y-15.8331 Z1.3850
G3X13.8970Y-16.9282Z1.3850I0.9839J-0.7860
G1 X13.9580 Y-17.1112 Z1.3850
G3X14.8142Y-17.8414Z1.3850I1.1570J0.4895
G2X14.9906Y-19.1769Z1.3850I-4.3693J-1.2567
G2X14.6114Y-20.3584Z1.3850I-2.2658J0.0756
G1 X12.6623 Y-20.3570 Z1.3850
G1 X12.6624 Y-19.1392 Z1.3850
G3X12.9112Y-18.7382Z1.3850I-1.0428J0.9249
G1 X12.7419 Y-18.6585 Z1.3850
G1 X12.6174 Y-18.8925 Z1.3850
G1 X12.4803 Y-19.0675 Z1.3850
G1 X12.4749 Y-19.0946 Z1.3850
G1 X12.4748 Y-20.4683 Z1.3850
G1 X12.4817 Y-20.5444 Z1.3850
G1 X14.7190 Y-20.5460 Z1.3850
G3X15.1742Y-18.8124Z1.3850I-2.1311J1.4861
G3X14.9661Y-17.6758Z1.3850I-5.4999J-0.4194
G2X14.1046Y-16.9582Z1.3850I0.1497J1.0558
G2X14.3189Y-15.9068Z1.3850I1.0216J0.3392
G1 X14.3595 Y-15.8675 Z1.3850
G1 X14.1404 Y-15.4197 Z1.3850
G2X13.4837Y-13.8978Z1.3850I6.2504J3.5995
G1 X12.4947 Y-14.9255 Z1.3850
G1 X12.4801 Y-14.9481 Z1.3850
G1 X12.4750 Y-14.9744 Z1.3850
G1 X12.4749 Y-17.3319 Z1.3850
G1 X12.4804 Y-17.3590 Z1.3850
G2X12.7419Y-18.6585Z1.3850I-0.8804J-0.8532
G0 Z3.3850
G0 X12.7419 Y-18.6585 
G0 Z3.3850
G0 X13.7649 Y-19.1228 
G1 X13.7649 Y-19.1228 Z1.0100 F75.
G1 X13.7455 Y-19.1658 Z1.0100 F150.
G1 X13.6096 Y-19.4202 Z1.0100
G1 X14.0090 Y-19.4205 Z1.0100
G3X14.0050Y-18.5281Z1.0100I-1.9265J0.4375
G1 X13.9556 Y-18.4986 Z1.0100
G1 X13.9331 Y-18.4842 Z1.0100
G2X13.7649Y-19.1228Z1.0100I-2.0148J0.1891
G1 X13.5946 Y-19.0449 Z1.0100
G3X13.7616Y-18.1203Z1.0100I-1.9424J0.8281
G3X14.1728Y-18.4071Z1.0100I1.3736J1.5314
G2X14.1584Y-19.5908Z1.0100I-2.3522J-0.5633
G1 X14.1510 Y-19.6081 Z1.0100
G1 X13.4123 Y-19.6076 Z1.0100
G1 X13.4123 Y-19.3883 Z1.0100
G3X13.5946Y-19.0449Z1.0100I-2.6094J1.6053
G1 X13.4239 Y-18.9679 Z1.0100
G2X13.2249Y-19.3316Z1.0100I-1.9185J0.8135
G1 X13.2248 Y-19.7949 Z1.0100
G1 X14.2743 Y-19.7957 Z1.0100
G3X14.4246Y-18.8580Z1.0100I-1.6414J0.7441
G1 X14.3896 Y-18.5434 Z1.0100
G1 X14.3391 Y-18.2779 Z1.0100
G2X13.5399Y-17.5472Z1.0100I0.7671J1.6415
G2X13.3513Y-17.0647Z1.0100I2.0879J1.0942
G2X13.4730Y-15.8154Z1.0100I1.8501J0.4504
G1 X13.4869 Y-15.7906 Z1.0100
G1 X13.4712 Y-15.7585 Z1.0100
G1 X13.2250 Y-15.2868 Z1.0100
G1 X13.2250 Y-17.0977 Z1.0100
G2X13.4239Y-18.9679Z1.0100I-1.6058J-1.1165
G1 X13.2538 Y-18.8896 Z1.0100
G1 X13.2615 Y-18.8729 Z1.0100
G3X13.0375Y-17.1609Z1.0100I-1.6359J0.6566
G1 X13.0375 Y-15.1727 Z1.0100
G1 X13.2694 Y-14.9317 Z1.0100
G1 X13.3632 Y-15.1464 Z1.0100
G1 X13.6385 Y-15.6739 Z1.0100
G1 X13.6985 Y-15.7965 Z1.0100
G3X13.5334Y-17.0197Z1.0100I1.4648J-0.8205
G3X13.6558Y-17.3583Z1.0100I2.2332J0.6162
G3X14.5024Y-18.1412Z1.0100I1.4440J0.7123
G2X14.5834Y-19.4468Z1.0100I-3.4849J-0.8714
G2X14.3964Y-19.9833Z1.0100I-1.7935J0.3243
G1 X13.0373 Y-19.9823 Z1.0100
G1 X13.0374 Y-19.2685 Z1.0100
G3X13.2538Y-18.8896Z1.0100I-1.1328J0.8984
G1 X13.0831 Y-18.8125 Z1.0100
G2X12.8499Y-19.2039Z1.0100I-1.3809J0.5577
G1 X12.8498 Y-20.1696 Z1.0100
G1 X14.5039 Y-20.1709 Z1.0100
G3X14.8030Y-19.1676Z1.0100I-1.7240J1.0603
G3X14.6594Y-17.9956Z1.0100I-4.2002J0.0800
G2X13.8233Y-17.2740Z1.0100I0.4540J1.3711
G2X13.7153Y-16.9742Z1.0100I1.8566J0.8384
G2X13.9140Y-15.8102Z1.0100I1.4238J0.3559
G1 X13.8058 Y-15.5893 Z1.0100
G1 X13.5350 Y-15.0714 Z1.0100
G1 X13.3289 Y-14.5995 Z1.0100
G1 X12.8500 Y-15.0972 Z1.0100
G1 X12.8500 Y-17.2245 Z1.0100
G2X13.0831Y-18.8125Z1.0100I-1.2213J-0.9904
G1 X12.9112 Y-18.7382 Z1.0100
G3X12.6625Y-17.2881Z1.0100I-1.2929J0.5246
G1 X12.6625 Y-15.0216 Z1.0100
G1 X13.4034 Y-14.2517 Z1.0100
G3X13.7068Y-14.9963Z1.0100I4.2567J1.3004
G1 X13.9731 Y-15.5046 Z1.0100
G1 X14.1339 Y-15.8331 Z1.0100
G3X13.8970Y-16.9282Z1.0100I0.9839J-0.7860
G1 X13.9580 Y-17.1112 Z1.0100
G3X14.8142Y-17.8414Z1.0100I1.1570J0.4895
G2X14.9906Y-19.1769Z1.0100I-4.3693J-1.2567
G2X14.6114Y-20.3584Z1.0100I-2.2658J0.0756
G1 X12.6623 Y-20.3570 Z1.0100
G1 X12.6624 Y-19.1392 Z1.0100
G3X12.9112Y-18.7382Z1.0100I-1.0428J0.9249
G1 X12.7419 Y-18.6585 Z1.0100
G1 X12.6174 Y-18.8925 Z1.0100
G1 X12.4803 Y-19.0675 Z1.0100
G1 X12.4749 Y-19.0946 Z1.0100
G1 X12.4748 Y-20.4683 Z1.0100
G1 X12.4817 Y-20.5444 Z1.0100
G1 X14.7190 Y-20.5460 Z1.0100
G3X15.1742Y-18.8124Z1.0100I-2.1311J1.4861
G3X14.9661Y-17.6758Z1.0100I-5.4999J-0.4194
G2X14.1046Y-16.9582Z1.0100I0.1497J1.0558
G2X14.3189Y-15.9068Z1.0100I1.0216J0.3392
G1 X14.3595 Y-15.8675 Z1.0100
G1 X14.1404 Y-15.4197 Z1.0100
G2X13.4837Y-13.8978Z1.0100I6.2504J3.5995
G1 X12.4947 Y-14.9255 Z1.0100
G1 X12.4801 Y-14.9481 Z1.0100
G1 X12.4750 Y-14.9744 Z1.0100
G1 X12.4749 Y-17.3319 Z1.0100
G1 X12.4804 Y-17.3590 Z1.0100
G2X12.7419Y-18.6585Z1.0100I-0.8804J-0.8532
G0 Z3.0100
G0 X12.7419 Y-18.6585 
G0 Z3.0100
G0 X13.7649 Y-19.1228 
G1 X13.7649 Y-19.1228 Z0.6350 F75.
G1 X13.7455 Y-19.1658 Z0.6350 F150.
G1 X13.6096 Y-19.4202 Z0.6350
G1 X14.0090 Y-19.4205 Z0.6350
G3X14.0050Y-18.5281Z0.6350I-1.9265J0.4375
G1 X13.9556 Y-18.4986 Z0.6350
G1 X13.9331 Y-18.4842 Z0.6350
G2X13.7649Y-19.1228Z0.6350I-2.0148J0.1891
G1 X13.5946 Y-19.0449 Z0.6350
G3X13.7616Y-18.1203Z0.6350I-1.9424J0.8281
G3X14.1728Y-18.4071Z0.6350I1.3736J1.5314
G2X14.1584Y-19.5908Z0.6350I-2.3522J-0.5633
G1 X14.1510 Y-19.6081 Z0.6350
G1 X13.4123 Y-19.6076 Z0.6350
G1 X13.4123 Y-19.3883 Z0.6350
G3X13.5946Y-19.0449Z0.6350I-2.6094J1.6053
G1 X13.4239 Y-18.9679 Z0.6350
G2X13.2249Y-19.3316Z0.6350I-1.9185J0.8135
G1 X13.2248 Y-19.7949 Z0.6350
G1 X14.2743 Y-19.7957 Z0.6350
G3X14.4246Y-18.8580Z0.6350I-1.6414J0.7441
G1 X14.3896 Y-18.5434 Z0.6350
G1 X14.3391 Y-18.2779 Z0.6350
G2X13.5399Y-17.5472Z0.6350I0.7671J1.6415
G2X13.3513Y-17.0647Z0.6350I2.0879J1.0942
G2X13.4730Y-15.8154Z0.6350I1.8501J0.4504
G1 X13.4869 Y-15.7906 Z0.6350
G1 X13.4712 Y-15.7585 Z0.6350
G1 X13.2250 Y-15.2868 Z0.6350
G1 X13.2250 Y-17.0977 Z0.6350
G2X13.4239Y-18.9679Z0.6350I-1.6058J-1.1165
G1 X13.2538 Y-18.8896 Z0.6350
G1 X13.2615 Y-18.8729 Z0.6350
G3X13.0375Y-17.1609Z0.6350I-1.6359J0.6566
G1 X13.0375 Y-15.1727 Z0.6350
G1 X13.2694 Y-14.9317 Z0.6350
G1 X13.3632 Y-15.1464 Z0.6350
G1 X13.6385 Y-15.6739 Z0.6350
G1 X13.6985 Y-15.7965 Z0.6350
G3X13.5334Y-17.0197Z0.6350I1.4648J-0.8205
G3X13.6558Y-17.3583Z0.6350I2.2332J0.6162
G3X14.5024Y-18.1412Z0.6350I1.4440J0.7123
G2X14.5834Y-19.4468Z0.6350I-3.4849J-0.8714
G2X14.3964Y-19.9833Z0.6350I-1.7935J0.3243
G1 X13.0373 Y-19.9823 Z0.6350
G1 X13.0374 Y-19.2685 Z0.6350
G3X13.2538Y-18.8896Z0.6350I-1.1328J0.8984
G1 X13.0831 Y-18.8125 Z0.6350
G2X12.8499Y-19.2039Z0.6350I-1.3809J0.5577
G1 X12.8498 Y-20.1696 Z0.6350
G1 X14.5039 Y-20.1709 Z0.6350
G3X14.8030Y-19.1676Z0.6350I-1.7240J1.0603
G3X14.6594Y-17.9956Z0.6350I-4.2002J0.0800
G2X13.8233Y-17.2740Z0.6350I0.4540J1.3711
G2X13.7153Y-16.9742Z0.6350I1.8566J0.8384
G2X13.9140Y-15.8102Z0.6350I1.4238J0.3559
G1 X13.8058 Y-15.5893 Z0.6350
G1 X13.5350 Y-15.0714 Z0.6350
G1 X13.3289 Y-14.5995 Z0.6350
G1 X12.8500 Y-15.0972 Z0.6350
G1 X12.8500 Y-17.2245 Z0.6350
G2X13.0831Y-18.8125Z0.6350I-1.2213J-0.9904
G1 X12.9112 Y-18.7382 Z0.6350
G3X12.6625Y-17.2881Z0.6350I-1.2929J0.5246
G1 X12.6625 Y-15.0216 Z0.6350
G1 X13.4034 Y-14.2517 Z0.6350
G3X13.7068Y-14.9963Z0.6350I4.2567J1.3004
G1 X13.9731 Y-15.5046 Z0.6350
G1 X14.1339 Y-15.8331 Z0.6350
G3X13.8970Y-16.9282Z0.6350I0.9839J-0.7860
G1 X13.9580 Y-17.1112 Z0.6350
G3X14.8142Y-17.8414Z0.6350I1.1570J0.4895
G2X14.9906Y-19.1769Z0.6350I-4.3693J-1.2567
G2X14.6114Y-20.3584Z0.6350I-2.2658J0.0756
G1 X12.6623 Y-20.3570 Z0.6350
G1 X12.6624 Y-19.1392 Z0.6350
G3X12.9112Y-18.7382Z0.6350I-1.0428J0.9249
G1 X12.7419 Y-18.6585 Z0.6350
G1 X12.6174 Y-18.8925 Z0.6350
G1 X12.4803 Y-19.0675 Z0.6350
G1 X12.4749 Y-19.0946 Z0.6350
G1 X12.4748 Y-20.4683 Z0.6350
G1 X12.4817 Y-20.5444 Z0.6350
G1 X14.7190 Y-20.5460 Z0.6350
G3X15.1742Y-18.8124Z0.6350I-2.1311J1.4861
G3X14.9661Y-17.6758Z0.6350I-5.4999J-0.4194
G2X14.1046Y-16.9582Z0.6350I0.1497J1.0558
G2X14.3189Y-15.9068Z0.6350I1.0216J0.3392
G1 X14.3595 Y-15.8675 Z0.6350
G1 X14.1404 Y-15.4197 Z0.6350
G2X13.4837Y-13.8978Z0.6350I6.2504J3.5995
G1 X12.4947 Y-14.9255 Z0.6350
G1 X12.4801 Y-14.9481 Z0.6350
G1 X12.4750 Y-14.9744 Z0.6350
G1 X12.4749 Y-17.3319 Z0.6350
G1 X12.4804 Y-17.3590 Z0.6350
G2X12.7419Y-18.6585Z0.6350I-0.8804J-0.8532
G0 Z2.6350
G0 X12.7419 Y-18.6585 
G0 Z2.6350
G0 X13.7649 Y-19.1228 
G1 X13.7649 Y-19.1228 Z0.2600 F75.
G1 X13.7455 Y-19.1658 Z0.2600 F150.
G1 X13.6096 Y-19.4202 Z0.2600
G1 X14.0090 Y-19.4205 Z0.2600
G3X14.0050Y-18.5281Z0.2600I-1.9265J0.4375
G1 X13.9556 Y-18.4986 Z0.2600
G1 X13.9331 Y-18.4842 Z0.2600
G2X13.7649Y-19.1228Z0.2600I-2.0148J0.1891
G1 X13.5946 Y-19.0449 Z0.2600
G3X13.7616Y-18.1203Z0.2600I-1.9424J0.8281
G3X14.1728Y-18.4071Z0.2600I1.3736J1.5314
G2X14.1584Y-19.5908Z0.2600I-2.3522J-0.5633
G1 X14.1510 Y-19.6081 Z0.2600
G1 X13.4123 Y-19.6076 Z0.2600
G1 X13.4123 Y-19.3883 Z0.2600
G3X13.5946Y-19.0449Z0.2600I-2.6094J1.6053
G1 X13.4239 Y-18.9679 Z0.2600
G2X13.2249Y-19.3316Z0.2600I-1.9185J0.8135
G1 X13.2248 Y-19.7949 Z0.2600
G1 X14.2743 Y-19.7957 Z0.2600
G3X14.4246Y-18.8580Z0.2600I-1.6414J0.7441
G1 X14.3896 Y-18.5434 Z0.2600
G1 X14.3391 Y-18.2779 Z0.2600
G2X13.5399Y-17.5472Z0.2600I0.7671J1.6415
G2X13.3513Y-17.0647Z0.2600I2.0879J1.0942
G2X13.4730Y-15.8154Z0.2600I1.8501J0.4504
G1 X13.4869 Y-15.7906 Z0.2600
G1 X13.4712 Y-15.7585 Z0.2600
G1 X13.2250 Y-15.2868 Z0.2600
G1 X13.2250 Y-17.0977 Z0.2600
G2X13.4239Y-18.9679Z0.2600I-1.6058J-1.1165
G1 X13.2538 Y-18.8896 Z0.2600
G1 X13.2615 Y-18.8729 Z0.2600
G3X13.0375Y-17.1609Z0.2600I-1.6359J0.6566
G1 X13.0375 Y-15.1727 Z0.2600
G1 X13.2694 Y-14.9317 Z0.2600
G1 X13.3632 Y-15.1464 Z0.2600
G1 X13.6385 Y-15.6739 Z0.2600
G1 X13.6985 Y-15.7965 Z0.2600
G3X13.5334Y-17.0197Z0.2600I1.4648J-0.8205
G3X13.6558Y-17.3583Z0.2600I2.2332J0.6162
G3X14.5024Y-18.1412Z0.2600I1.4440J0.7123
G2X14.5834Y-19.4468Z0.2600I-3.4849J-0.8714
G2X14.3964Y-19.9833Z0.2600I-1.7935J0.3243
G1 X13.0373 Y-19.9823 Z0.2600
G1 X13.0374 Y-19.2685 Z0.2600
G3X13.2538Y-18.8896Z0.2600I-1.1328J0.8984
G1 X13.0831 Y-18.8125 Z0.2600
G2X12.8499Y-19.2039Z0.2600I-1.3809J0.5577
G1 X12.8498 Y-20.1696 Z0.2600
G1 X14.5039 Y-20.1709 Z0.2600
G3X14.8030Y-19.1676Z0.2600I-1.7240J1.0603
G3X14.6594Y-17.9956Z0.2600I-4.2002J0.0800
G2X13.8233Y-17.2740Z0.2600I0.4540J1.3711
G2X13.7153Y-16.9742Z0.2600I1.8566J0.8384
G2X13.9140Y-15.8102Z0.2600I1.4238J0.3559
G1 X13.8058 Y-15.5893 Z0.2600
G1 X13.5350 Y-15.0714 Z0.2600
G1 X13.3289 Y-14.5995 Z0.2600
G1 X12.8500 Y-15.0972 Z0.2600
G1 X12.8500 Y-17.2245 Z0.2600
G2X13.0831Y-18.8125Z0.2600I-1.2213J-0.9904
G1 X12.9112 Y-18.7382 Z0.2600
G3X12.6625Y-17.2881Z0.2600I-1.2929J0.5246
G1 X12.6625 Y-15.0216 Z0.2600
G1 X13.4034 Y-14.2517 Z0.2600
G3X13.7068Y-14.9963Z0.2600I4.2567J1.3004
G1 X13.9731 Y-15.5046 Z0.2600
G1 X14.1339 Y-15.8331 Z0.2600
G3X13.8970Y-16.9282Z0.2600I0.9839J-0.7860
G1 X13.9580 Y-17.1112 Z0.2600
G3X14.8142Y-17.8414Z0.2600I1.1570J0.4895
G2X14.9906Y-19.1769Z0.2600I-4.3693J-1.2567
G2X14.6114Y-20.3584Z0.2600I-2.2658J0.0756
G1 X12.6623 Y-20.3570 Z0.2600
G1 X12.6624 Y-19.1392 Z0.2600
G3X12.9112Y-18.7382Z0.2600I-1.0428J0.9249
G1 X12.7419 Y-18.6585 Z0.2600
G1 X12.6174 Y-18.8925 Z0.2600
G1 X12.4803 Y-19.0675 Z0.2600
G1 X12.4749 Y-19.0946 Z0.2600
G1 X12.4748 Y-20.4683 Z0.2600
G1 X12.4817 Y-20.5444 Z0.2600
G1 X14.7190 Y-20.5460 Z0.2600
G3X15.1742Y-18.8124Z0.2600I-2.1311J1.4861
G3X14.9661Y-17.6758Z0.2600I-5.4999J-0.4194
G2X14.1046Y-16.9582Z0.2600I0.1497J1.0558
G2X14.3189Y-15.9068Z0.2600I1.0216J0.3392
G1 X14.3595 Y-15.8675 Z0.2600
G1 X14.1404 Y-15.4197 Z0.2600
G2X13.4837Y-13.8978Z0.2600I6.2504J3.5995
G1 X12.4947 Y-14.9255 Z0.2600
G1 X12.4801 Y-14.9481 Z0.2600
G1 X12.4750 Y-14.9744 Z0.2600
G1 X12.4749 Y-17.3319 Z0.2600
G1 X12.4804 Y-17.3590 Z0.2600
G2X12.7419Y-18.6585Z0.2600I-0.8804J-0.8532
G1 X12.7845 Y-18.6702 Z0.3042
G1 X12.7845 Y-18.6702 Z0.3292
G0 Z3.4600
G0 X12.7845 Y-18.6702 
G0 Z3.4600
G0 X9.2247 Y-20.4929 
G1 X9.2247 Y-20.4929 Z1.4600 F75.
G1 X9.2247 Y-20.4929 Z1.4350 F50.
G1 X9.0412 Y-20.4929 Z1.4026
G1 X9.0412 Y-20.5929 Z1.3850
G1 X9.0412 Y-20.6929 Z1.3850 F150.
G1 X10.4248 Y-20.6929 Z1.3850
G1 X10.4248 Y-20.4929 Z1.3850
G1 X9.0412 Y-20.4929 Z1.3850
G1 X9.0412 Y-20.5929 Z1.3850
G1 X8.8537 Y-20.5929 Z1.3850
G1 X8.8537 Y-20.3054 Z1.3850
G1 X10.6123 Y-20.3054 Z1.3850
G1 X10.6123 Y-20.8804 Z1.3850
G1 X8.8537 Y-20.8804 Z1.3850
G1 X8.8537 Y-20.5929 Z1.3850
G1 X8.6662 Y-20.5929 Z1.3850
G1 X8.6662 Y-21.0679 Z1.3850
G1 X10.7998 Y-21.0679 Z1.3850
G1 X10.7998 Y-20.1179 Z1.3850
G1 X8.6662 Y-20.1179 Z1.3850
G1 X8.6662 Y-20.5929 Z1.3850
G1 X8.4787 Y-20.5929 Z1.3850
G1 X8.4787 Y-19.9304 Z1.3850
G1 X10.9873 Y-19.9304 Z1.3850
G1 X10.9873 Y-21.2554 Z1.3850
G1 X8.4787 Y-21.2554 Z1.3850
G1 X8.4787 Y-20.5929 Z1.3850
G1 X8.2912 Y-20.5929 Z1.3850
G1 X8.2912 Y-21.4429 Z1.3850
G1 X11.1748 Y-21.4429 Z1.3850
G1 X11.1748 Y-19.7429 Z1.3850
G1 X8.2912 Y-19.7429 Z1.3850
G1 X8.2912 Y-20.5929 Z1.3850
G0 Z3.3850
G0 X8.2912 Y-20.5929 
G0 Z3.3850
G0 X9.0412 Y-20.5929 
G1 X9.0412 Y-20.5929 Z1.0100 F75.
G1 X9.0412 Y-20.6929 Z1.0100 F150.
G1 X10.4248 Y-20.6929 Z1.0100
G1 X10.4248 Y-20.4929 Z1.0100
G1 X9.0412 Y-20.4929 Z1.0100
G1 X9.0412 Y-20.5929 Z1.0100
G1 X8.8537 Y-20.5929 Z1.0100
G1 X8.8537 Y-20.3054 Z1.0100
G1 X10.6123 Y-20.3054 Z1.0100
G1 X10.6123 Y-20.8804 Z1.0100
G1 X8.8537 Y-20.8804 Z1.0100
G1 X8.8537 Y-20.5929 Z1.0100
G1 X8.6662 Y-20.5929 Z1.0100
G1 X8.6662 Y-21.0679 Z1.0100
G1 X10.7998 Y-21.0679 Z1.0100
G1 X10.7998 Y-20.1179 Z1.0100
G1 X8.6662 Y-20.1179 Z1.0100
G1 X8.6662 Y-20.5929 Z1.0100
G1 X8.4787 Y-20.5929 Z1.0100
G1 X8.4787 Y-19.9304 Z1.0100
G1 X10.9873 Y-19.9304 Z1.0100
G1 X10.9873 Y-21.2554 Z1.0100
G1 X8.4787 Y-21.2554 Z1.0100
G1 X8.4787 Y-20.5929 Z1.0100
G1 X8.2912 Y-20.5929 Z1.0100
G1 X8.2912 Y-21.4429 Z1.0100
G1 X11.1748 Y-21.4429 Z1.0100
G1 X11.1748 Y-19.7429 Z1.0100
G1 X8.2912 Y-19.7429 Z1.0100
G1 X8.2912 Y-20.5929 Z1.0100
G0 Z3.0100
G0 X8.2912 Y-20.5929 
G0 Z3.0100
G0 X9.0412 Y-20.5929 
G1 X9.0412 Y-20.5929 Z0.6350 F75.
G1 X9.0412 Y-20.6929 Z0.6350 F150.
G1 X10.4248 Y-20.6929 Z0.6350
G1 X10.4248 Y-20.4929 Z0.6350
G1 X9.0412 Y-20.4929 Z0.6350
G1 X9.0412 Y-20.5929 Z0.6350
G1 X8.8537 Y-20.5929 Z0.6350
G1 X8.8537 Y-20.3054 Z0.6350
G1 X10.6123 Y-20.3054 Z0.6350
G1 X10.6123 Y-20.8804 Z0.6350
G1 X8.8537 Y-20.8804 Z0.6350
G1 X8.8537 Y-20.5929 Z0.6350
G1 X8.6662 Y-20.5929 Z0.6350
G1 X8.6662 Y-21.0679 Z0.6350
G1 X10.7998 Y-21.0679 Z0.6350
G1 X10.7998 Y-20.1179 Z0.6350
G1 X8.6662 Y-20.1179 Z0.6350
G1 X8.6662 Y-20.5929 Z0.6350
G1 X8.4787 Y-20.5929 Z0.6350
G1 X8.4787 Y-19.9304 Z0.6350
G1 X10.9873 Y-19.9304 Z0.6350
G1 X10.9873 Y-21.2554 Z0.6350
G1 X8.4787 Y-21.2554 Z0.6350
G1 X8.4787 Y-20.5929 Z0.6350
G1 X8.2912 Y-20.5929 Z0.6350
G1 X8.2912 Y-21.4429 Z0.6350
G1 X11.1748 Y-21.4429 Z0.6350
G1 X11.1748 Y-19.7429 Z0.6350
G1 X8.2912 Y-19.7429 Z0.6350
G1 X8.2912 Y-20.5929 Z0.6350
G0 Z2.6350
G0 X8.2912 Y-20.5929 
G0 Z2.6350
G0 X9.0412 Y-20.5929 
G1 X9.0412 Y-20.5929 Z0.2600 F75.
G1 X9.0412 Y-20.6929 Z0.2600 F150.
G1 X10.4248 Y-20.6929 Z0.2600
G1 X10.4248 Y-20.4929 Z0.2600
G1 X9.0412 Y-20.4929 Z0.2600
G1 X9.0412 Y-20.5929 Z0.2600
G1 X8.8537 Y-20.5929 Z0.2600
G1 X8.8537 Y-20.3054 Z0.2600
G1 X10.6123 Y-20.3054 Z0.2600
G1 X10.6123 Y-20.8804 Z0.2600
G1 X8.8537 Y-20.8804 Z0.2600
G1 X8.8537 Y-20.5929 Z0.2600
G1 X8.6662 Y-20.5929 Z0.2600
G1 X8.6662 Y-21.0679 Z0.2600
G1 X10.7998 Y-21.0679 Z0.2600
G1 X10.7998 Y-20.1179 Z0.2600
G1 X8.6662 Y-20.1179 Z0.2600
G1 X8.6662 Y-20.5929 Z0.2600
G1 X8.4787 Y-20.5929 Z0.2600
G1 X8.4787 Y-19.9304 Z0.2600
G1 X10.9873 Y-19.9304 Z0.2600
G1 X10.9873 Y-21.2554 Z0.2600
G1 X8.4787 Y-21.2554 Z0.2600
G1 X8.4787 Y-20.5929 Z0.2600
G1 X8.2912 Y-20.5929 Z0.2600
G1 X8.2912 Y-21.4429 Z0.2600
G1 X11.1748 Y-21.4429 Z0.2600
G1 X11.1748 Y-19.7429 Z0.2600
G1 X8.2912 Y-19.7429 Z0.2600
G1 X8.2912 Y-20.5929 Z0.2600
G1 X8.3354 Y-20.5929 Z0.3042
G1 X8.3354 Y-20.5929 Z0.3292
G0 Z6.0000
G0 X8.3354 Y-20.5929 
M5
G53 Z
X2Y0
