( MOP:  S-PUP-Middle-front-02 )
( FILE: G:\Shared drives\AlloyProjectFiles\Customer CAD files\Alloy-Standard-Builds-CAM\s-in\PUPs\S-PUP-Middle-front-02.nc)
G90
(  BEGIN TOOL LIST )
(  TOOL 4 - Downcut PT500 - DESC: 0.5000 DIA, 2 FLUTE,  CARBIDE MAT )
(  ENDOF TOOL LIST )
( S-PUP-Middle-front-02)
T04
S12000
M3
G0 Z4.0000
G0 X9.9830 Y-13.3229 
G1 X9.9830 Y-13.3229 Z1.1350 F75.
G17
G3X9.7330Y-13.0729Z1.1350I-0.2500J0.0000 F20.
G1 X8.4389 Y-13.0729 Z1.1350 F40.
G3X8.3916Y-13.4318Z1.1350I0.0000J-0.1826
G1 X9.4973 Y-13.7281 Z1.1350
G1 X9.9687 Y-13.7281 Z1.1350
G1 X11.0744 Y-13.4318 Z1.1350
G3X11.0271Y-13.0729Z1.1350I-0.0473J0.1763
G1 X9.7330 Y-13.0729 Z1.1350
G1 X9.4830 Y-13.0729 Z1.1350
G3X9.2330Y-13.3229Z1.1350I0.0000J-0.2500
G0 Z4.0000
G0 X9.2330 Y-13.3229 
M5
G53 Z
X2Y0
