( MOP:  top-control-front-02 )
( FILE: G:\Shared drives\AlloyProjectFiles\Customer CAD files\Alloy-Standard-Builds-CAM\t-in\Control\top-control-front-02.nc)
G90
(  BEGIN TOOL LIST )
(  TOOL 3 - Downcut PT750 - DESC: 0.7500 DIA, 2 FLUTE,  CARBIDE MAT )
(  ENDOF TOOL LIST )
( top-control-front-02)
T03
S14000
M3
G0 Z4.0000
G0 X14.3558 Y-17.5108 
G1 X14.3558 Y-17.5108 Z0.2600 F75.
G17
G2X14.2308Y-17.3858Z0.2600I0.0000J0.1250 F30.
G1 X14.2308 Y-15.1006 Z0.2600 F40.
G2X14.4808Y-15.1005Z0.2600I0.1250J0.0001
G1 X14.4807 Y-19.6709 Z0.2600
G2X14.2307Y-19.6709Z0.2600I-0.1250J0.0000
G1 X14.2308 Y-17.3858 Z0.2600
G1 X14.2308 Y-17.1358 Z0.2600
G2X14.3558Y-17.0108Z0.2600I0.1250J0.0000
G0 Z4.0000
G0 X14.3558 Y-17.0108 
M5
G53 Z
X2Y0
