( MOP:  top-control-front-01 )
( FILE: G:\Shared drives\AlloyProjectFiles\Customer CAD files\Alloy-Standard-Builds-CAM\t-in\Control\top-control-front-01.nc)
G90
(  BEGIN TOOL LIST )
(  TOOL 11 - Downcut PT750 ROUGH - DESC: 0.7500 DIA, 2 FLUTE,  CARBIDE MAT )
(  ENDOF TOOL LIST )
( top-control-front-01)
T11
S14000
M3
G0 Z4.0000
G0 X14.4308 Y-16.1308 
G1 X14.4308 Y-16.1308 Z1.7600 F75.
G1 X14.4308 Y-15.1005 Z1.3850 F50.
G17
G3X14.2808Y-15.1005Z1.3850I-0.0750J0.0000 F150.
G1 X14.2807 Y-19.6709 Z1.3850
G3X14.4307Y-19.6709Z1.3850I0.0750J0.0000
G1 X14.4308 Y-15.1005 Z1.3850
G0 Z1.6350
G0 X14.4308 Y-15.1005 
G0 Z1.6350
G0 X14.4308 Y-16.1308 
G1 X14.4308 Y-16.1308 Z1.3850 F75.
G1 X14.4308 Y-15.1005 Z1.0100 F50.
G3X14.2808Y-15.1005Z1.0100I-0.0750J0.0000 F150.
G1 X14.2807 Y-19.6709 Z1.0100
G3X14.4307Y-19.6709Z1.0100I0.0750J0.0000
G1 X14.4308 Y-15.1005 Z1.0100
G0 Z1.2600
G0 X14.4308 Y-15.1005 
G0 Z1.2600
G0 X14.4308 Y-16.1308 
G1 X14.4308 Y-16.1308 Z1.0100 F75.
G1 X14.4308 Y-15.1005 Z0.6350 F50.
G3X14.2808Y-15.1005Z0.6350I-0.0750J0.0000 F150.
G1 X14.2807 Y-19.6709 Z0.6350
G3X14.4307Y-19.6709Z0.6350I0.0750J0.0000
G1 X14.4308 Y-15.1005 Z0.6350
G0 Z0.8850
G0 X14.4308 Y-15.1005 
G0 Z0.8850
G0 X14.4308 Y-16.1308 
G1 X14.4308 Y-16.1308 Z0.6350 F75.
G1 X14.4308 Y-15.1005 Z0.2600 F50.
G3X14.2808Y-15.1005Z0.2600I-0.0750J0.0000 F150.
G1 X14.2807 Y-19.6709 Z0.2600
G3X14.4307Y-19.6709Z0.2600I0.0750J0.0000
G1 X14.4308 Y-15.1005 Z0.2600
G0 Z4.0000
G0 X14.4308 Y-15.1005 
M5
G53 Z
X2Y0
