( MOP:  Rear-control-BladeSwitch-back-end-01 )
( FILE: G:\Shared drives\AlloyProjectFiles\Customer CAD files\Alloy-Standard-Builds-CAM\s-in\Control\Rear-control-BladeSwitch-back-end-01.nc)
G90
(  BEGIN TOOL LIST )
(  TOOL 5 - Downcut PT375 - DESC: 0.3750 DIA, 2 FLUTE,  CARBIDE MAT )
(  ENDOF TOOL LIST )
( Rear-control-BladeSwitch-back-end-01)
( Max Depth 1.75)
T05
S12000
M3
G0 Z4.0000
G0 X5.8867 Y-15.2407 
G1 X5.8867 Y-15.2407 Z0.2250 F75.
G1 X5.8867 Y-15.2407 Z0.2000 F25.
G1 X6.0676 Y-15.0223 Z0.1500
G1 X6.5060 Y-14.4929 Z0.1500 F80.
G1 X6.4806 Y-14.4667 Z0.1500
G1 X5.5993 Y-15.5103 Z0.1500
G1 X5.6191 Y-15.5418 Z0.1500
G1 X5.6291 Y-15.5517 Z0.1500
G1 X6.0676 Y-15.0223 Z0.1500
G1 X6.1629 Y-15.1013 Z0.1500
G1 X5.6380 Y-15.7350 Z0.1500
G17
G2X5.4480Y-15.4976Z0.1500I0.3822J0.5005
G1 X6.4745 Y-14.2821 Z0.1500
G1 X6.6719 Y-14.4866 Z0.1500
G1 X6.1629 Y-15.1013 Z0.1500
G1 X6.2582 Y-15.1802 Z0.1500
G1 X6.8378 Y-14.4803 Z0.1500
G1 X6.5401 Y-14.1719 Z0.1500
G3X6.4014Y-14.1769Z0.1500I-0.0675J-0.0531
G1 X5.3103 Y-15.4689 Z0.1500
G1 X5.3370 Y-15.5585 Z0.1500
G1 X5.4248 Y-15.6976 Z0.1500
G1 X5.6469 Y-15.9184 Z0.1500
G1 X6.2582 Y-15.1802 Z0.1500
G1 X6.2241 Y-15.1520 Z0.1942 F75.
G1 X6.2241 Y-15.1520 Z0.2192
G0 Z4.0000
G0 X6.2241 Y-15.1520 
M5
G53 Z
X2Y0
