( MOP:  Rear-control-pot1-front )
( FILE: G:\Shared drives\AlloyProjectFiles\Customer CAD files\Alloy-Standard-Builds-CAM\s-in\Control\Rear-control-pot1-front.nc)
G90
(  BEGIN TOOL LIST )
(  TOOL 7 - Downcut PT125 - DESC: 0.1250 DIA, 2 FLUTE,  CARBIDE MAT )
(  ENDOF TOOL LIST )
( Rear-control-pot1-front)
T07
S12000
M3
G0 Z4.0000
G0 X12.0174 Y-15.9411 
G1 X12.0174 Y-15.9411 Z1.8000 F75.
G1 X12.0174 Y-15.9411 Z1.7750 F25.
G1 X12.0188 Y-15.9420 Z1.7744 F75.
G1 X12.0281 Y-15.9472 Z1.7711
G1 X12.0378 Y-15.9516 Z1.7677
G1 X12.0478 Y-15.9551 Z1.7643
G1 X12.0581 Y-15.9578 Z1.7609
G1 X12.0685 Y-15.9596 Z1.7575
G1 X12.0791 Y-15.9605 Z1.7542
G1 X12.0897 Y-15.9605 Z1.7508
G1 X12.1003 Y-15.9596 Z1.7474
G1 X12.1107 Y-15.9578 Z1.7440
G1 X12.1210 Y-15.9551 Z1.7407
G1 X12.1310 Y-15.9516 Z1.7373
G1 X12.1407 Y-15.9472 Z1.7339
G1 X12.1499 Y-15.9420 Z1.7305
G1 X12.1587 Y-15.9361 Z1.7272
G1 X12.1670 Y-15.9294 Z1.7238
G1 X12.1746 Y-15.9221 Z1.7204
G1 X12.1816 Y-15.9141 Z1.7170
G1 X12.1879 Y-15.9056 Z1.7136
G1 X12.1935 Y-15.8966 Z1.7103
G1 X12.1983 Y-15.8871 Z1.7069
G1 X12.2022 Y-15.8773 Z1.7035
G1 X12.2054 Y-15.8671 Z1.7001
G1 X12.2076 Y-15.8567 Z1.6968
G1 X12.2089 Y-15.8462 Z1.6934
G1 X12.2094 Y-15.8356 Z1.6900
G17
G3X11.9594Y-15.8356Z1.6900I-0.1250J0.0000
G3X12.2094Y-15.8356Z1.6900I0.1250J0.0000
G1 X12.0922 Y-15.9603 Z1.6900
G1 X12.1003 Y-15.9596 Z1.6874
G1 X12.1107 Y-15.9578 Z1.6840
G1 X12.1210 Y-15.9551 Z1.6807
G1 X12.1310 Y-15.9516 Z1.6773
G1 X12.1407 Y-15.9472 Z1.6739
G1 X12.1499 Y-15.9420 Z1.6705
G1 X12.1587 Y-15.9361 Z1.6672
G1 X12.1670 Y-15.9294 Z1.6638
G1 X12.1746 Y-15.9221 Z1.6604
G1 X12.1816 Y-15.9141 Z1.6570
G1 X12.1879 Y-15.9056 Z1.6536
G1 X12.1935 Y-15.8966 Z1.6503
G1 X12.1983 Y-15.8871 Z1.6469
G1 X12.2022 Y-15.8773 Z1.6435
G1 X12.2054 Y-15.8671 Z1.6401
G1 X12.2076 Y-15.8567 Z1.6368
G1 X12.2089 Y-15.8462 Z1.6334
G1 X12.2094 Y-15.8356 Z1.6300
G3X11.9594Y-15.8356Z1.6300I-0.1250J0.0000
G3X12.2094Y-15.8356Z1.6300I0.1250J0.0000
G1 X12.0922 Y-15.9603 Z1.6300
G1 X12.1003 Y-15.9596 Z1.6274
G1 X12.1107 Y-15.9578 Z1.6240
G1 X12.1210 Y-15.9551 Z1.6207
G1 X12.1310 Y-15.9516 Z1.6173
G1 X12.1407 Y-15.9472 Z1.6139
G1 X12.1499 Y-15.9420 Z1.6105
G1 X12.1587 Y-15.9361 Z1.6072
G1 X12.1670 Y-15.9294 Z1.6038
G1 X12.1746 Y-15.9221 Z1.6004
G1 X12.1816 Y-15.9141 Z1.5970
G1 X12.1879 Y-15.9056 Z1.5936
G1 X12.1935 Y-15.8966 Z1.5903
G1 X12.1983 Y-15.8871 Z1.5869
G1 X12.2022 Y-15.8773 Z1.5835
G1 X12.2054 Y-15.8671 Z1.5801
G1 X12.2076 Y-15.8567 Z1.5768
G1 X12.2089 Y-15.8462 Z1.5734
G1 X12.2094 Y-15.8356 Z1.5700
G3X11.9594Y-15.8356Z1.5700I-0.1250J0.0000
G3X12.2094Y-15.8356Z1.5700I0.1250J0.0000
G1 X12.0922 Y-15.9603 Z1.5700
G1 X12.1003 Y-15.9596 Z1.5674
G1 X12.1107 Y-15.9578 Z1.5640
G1 X12.1210 Y-15.9551 Z1.5607
G1 X12.1310 Y-15.9516 Z1.5573
G1 X12.1407 Y-15.9472 Z1.5539
G1 X12.1499 Y-15.9420 Z1.5505
G1 X12.1587 Y-15.9361 Z1.5472
G1 X12.1670 Y-15.9294 Z1.5438
G1 X12.1746 Y-15.9221 Z1.5404
G1 X12.1816 Y-15.9141 Z1.5370
G1 X12.1879 Y-15.9056 Z1.5336
G1 X12.1935 Y-15.8966 Z1.5303
G1 X12.1983 Y-15.8871 Z1.5269
G1 X12.2022 Y-15.8773 Z1.5235
G1 X12.2054 Y-15.8671 Z1.5201
G1 X12.2076 Y-15.8567 Z1.5168
G1 X12.2089 Y-15.8462 Z1.5134
G1 X12.2094 Y-15.8356 Z1.5100
G3X11.9594Y-15.8356Z1.5100I-0.1250J0.0000
G3X12.2094Y-15.8356Z1.5100I0.1250J0.0000
G1 X12.0922 Y-15.9603 Z1.5100
G1 X12.1003 Y-15.9596 Z1.5074
G1 X12.1107 Y-15.9578 Z1.5040
G1 X12.1210 Y-15.9551 Z1.5007
G1 X12.1310 Y-15.9516 Z1.4973
G1 X12.1407 Y-15.9472 Z1.4939
G1 X12.1499 Y-15.9420 Z1.4905
G1 X12.1587 Y-15.9361 Z1.4872
G1 X12.1670 Y-15.9294 Z1.4838
G1 X12.1746 Y-15.9221 Z1.4804
G1 X12.1816 Y-15.9141 Z1.4770
G1 X12.1879 Y-15.9056 Z1.4736
G1 X12.1935 Y-15.8966 Z1.4703
G1 X12.1983 Y-15.8871 Z1.4669
G1 X12.2022 Y-15.8773 Z1.4635
G1 X12.2054 Y-15.8671 Z1.4601
G1 X12.2076 Y-15.8567 Z1.4568
G1 X12.2089 Y-15.8462 Z1.4534
G1 X12.2094 Y-15.8356 Z1.4500
G3X11.9594Y-15.8356Z1.4500I-0.1250J0.0000
G3X12.2094Y-15.8356Z1.4500I0.1250J0.0000
G1 X12.0844 Y-15.8356 Z1.4500
G0 Z4.0000
G0 X12.0844 Y-15.8356 
M5
G53 Z
X2Y0
