( MOP:  Rear-control-pot3-front )
( FILE: G:\Shared drives\AlloyProjectFiles\Customer CAD files\Alloy-Standard-Builds-CAM\s-in\Control\Rear-control-pot3-front.nc)
G90
(  BEGIN TOOL LIST )
(  TOOL 7 - Downcut PT125 - DESC: 0.1250 DIA, 2 FLUTE,  CARBIDE MAT )
(  ENDOF TOOL LIST )
( Rear-control-pot3-front)
T07
S12000
M3
G0 Z4.0000
G0 X14.6735 Y-17.9155 
G1 X14.6735 Y-17.9155 Z1.8000 F75.
G1 X14.6735 Y-17.9155 Z1.7750 F25.
G1 X14.6750 Y-17.9165 Z1.7744 F75.
G1 X14.6843 Y-17.9217 Z1.7711
G1 X14.6939 Y-17.9261 Z1.7677
G1 X14.7039 Y-17.9296 Z1.7643
G1 X14.7142 Y-17.9323 Z1.7609
G1 X14.7246 Y-17.9341 Z1.7575
G1 X14.7352 Y-17.9350 Z1.7542
G1 X14.7458 Y-17.9350 Z1.7508
G1 X14.7564 Y-17.9341 Z1.7474
G1 X14.7669 Y-17.9323 Z1.7440
G1 X14.7771 Y-17.9296 Z1.7407
G1 X14.7871 Y-17.9261 Z1.7373
G1 X14.7968 Y-17.9217 Z1.7339
G1 X14.8061 Y-17.9165 Z1.7305
G1 X14.8149 Y-17.9106 Z1.7272
G1 X14.8231 Y-17.9039 Z1.7238
G1 X14.8308 Y-17.8966 Z1.7204
G1 X14.8378 Y-17.8886 Z1.7170
G1 X14.8441 Y-17.8801 Z1.7136
G1 X14.8497 Y-17.8710 Z1.7103
G1 X14.8544 Y-17.8616 Z1.7069
G1 X14.8584 Y-17.8517 Z1.7035
G1 X14.8615 Y-17.8416 Z1.7001
G1 X14.8637 Y-17.8312 Z1.6968
G1 X14.8651 Y-17.8207 Z1.6934
G1 X14.8655 Y-17.8101 Z1.6900
G17
G3X14.6155Y-17.8101Z1.6900I-0.1250J0.0000
G3X14.8655Y-17.8101Z1.6900I0.1250J0.0000
G1 X14.7483 Y-17.9348 Z1.6900
G1 X14.7564 Y-17.9341 Z1.6874
G1 X14.7669 Y-17.9323 Z1.6840
G1 X14.7771 Y-17.9296 Z1.6807
G1 X14.7871 Y-17.9261 Z1.6773
G1 X14.7968 Y-17.9217 Z1.6739
G1 X14.8061 Y-17.9165 Z1.6705
G1 X14.8149 Y-17.9106 Z1.6672
G1 X14.8231 Y-17.9039 Z1.6638
G1 X14.8308 Y-17.8966 Z1.6604
G1 X14.8378 Y-17.8886 Z1.6570
G1 X14.8441 Y-17.8801 Z1.6536
G1 X14.8497 Y-17.8710 Z1.6503
G1 X14.8544 Y-17.8616 Z1.6469
G1 X14.8584 Y-17.8517 Z1.6435
G1 X14.8615 Y-17.8416 Z1.6401
G1 X14.8637 Y-17.8312 Z1.6368
G1 X14.8651 Y-17.8207 Z1.6334
G1 X14.8655 Y-17.8101 Z1.6300
G3X14.6155Y-17.8101Z1.6300I-0.1250J0.0000
G3X14.8655Y-17.8101Z1.6300I0.1250J0.0000
G1 X14.7483 Y-17.9348 Z1.6300
G1 X14.7564 Y-17.9341 Z1.6274
G1 X14.7669 Y-17.9323 Z1.6240
G1 X14.7771 Y-17.9296 Z1.6207
G1 X14.7871 Y-17.9261 Z1.6173
G1 X14.7968 Y-17.9217 Z1.6139
G1 X14.8061 Y-17.9165 Z1.6105
G1 X14.8149 Y-17.9106 Z1.6072
G1 X14.8231 Y-17.9039 Z1.6038
G1 X14.8308 Y-17.8966 Z1.6004
G1 X14.8378 Y-17.8886 Z1.5970
G1 X14.8441 Y-17.8801 Z1.5936
G1 X14.8497 Y-17.8710 Z1.5903
G1 X14.8544 Y-17.8616 Z1.5869
G1 X14.8584 Y-17.8517 Z1.5835
G1 X14.8615 Y-17.8416 Z1.5801
G1 X14.8637 Y-17.8312 Z1.5768
G1 X14.8651 Y-17.8207 Z1.5734
G1 X14.8655 Y-17.8101 Z1.5700
G3X14.6155Y-17.8101Z1.5700I-0.1250J0.0000
G3X14.8655Y-17.8101Z1.5700I0.1250J0.0000
G1 X14.7483 Y-17.9348 Z1.5700
G1 X14.7564 Y-17.9341 Z1.5674
G1 X14.7669 Y-17.9323 Z1.5640
G1 X14.7771 Y-17.9296 Z1.5607
G1 X14.7871 Y-17.9261 Z1.5573
G1 X14.7968 Y-17.9217 Z1.5539
G1 X14.8061 Y-17.9165 Z1.5505
G1 X14.8149 Y-17.9106 Z1.5472
G1 X14.8231 Y-17.9039 Z1.5438
G1 X14.8308 Y-17.8966 Z1.5404
G1 X14.8378 Y-17.8886 Z1.5370
G1 X14.8441 Y-17.8801 Z1.5336
G1 X14.8497 Y-17.8710 Z1.5303
G1 X14.8544 Y-17.8616 Z1.5269
G1 X14.8584 Y-17.8517 Z1.5235
G1 X14.8615 Y-17.8416 Z1.5201
G1 X14.8637 Y-17.8312 Z1.5168
G1 X14.8651 Y-17.8207 Z1.5134
G1 X14.8655 Y-17.8101 Z1.5100
G3X14.6155Y-17.8101Z1.5100I-0.1250J0.0000
G3X14.8655Y-17.8101Z1.5100I0.1250J0.0000
G1 X14.7483 Y-17.9348 Z1.5100
G1 X14.7564 Y-17.9341 Z1.5074
G1 X14.7669 Y-17.9323 Z1.5040
G1 X14.7771 Y-17.9296 Z1.5007
G1 X14.7871 Y-17.9261 Z1.4973
G1 X14.7968 Y-17.9217 Z1.4939
G1 X14.8061 Y-17.9165 Z1.4905
G1 X14.8149 Y-17.9106 Z1.4872
G1 X14.8231 Y-17.9039 Z1.4838
G1 X14.8308 Y-17.8966 Z1.4804
G1 X14.8378 Y-17.8886 Z1.4770
G1 X14.8441 Y-17.8801 Z1.4736
G1 X14.8497 Y-17.8710 Z1.4703
G1 X14.8544 Y-17.8616 Z1.4669
G1 X14.8584 Y-17.8517 Z1.4635
G1 X14.8615 Y-17.8416 Z1.4601
G1 X14.8637 Y-17.8312 Z1.4568
G1 X14.8651 Y-17.8207 Z1.4534
G1 X14.8655 Y-17.8101 Z1.4500
G3X14.6155Y-17.8101Z1.4500I-0.1250J0.0000
G3X14.8655Y-17.8101Z1.4500I0.1250J0.0000
G1 X14.7405 Y-17.8101 Z1.4500
G0 Z4.0000
G0 X14.7405 Y-17.8101 
M5
G53 Z
X2Y0
