( MOP:  Rear-control-back-02 )
( FILE: G:\Shared drives\AlloyProjectFiles\Customer CAD files\Alloy-Standard-Builds-CAM\s-in\Control\Rear-control-back-02.nc)
G90
(  BEGIN TOOL LIST )
(  TOOL 3 - Downcut PT750 - DESC: 0.7500 DIA, 2 FLUTE,  CARBIDE MAT )
(  ENDOF TOOL LIST )
( Rear-control-back-02)
T03
S14000
M3
G0 Z4.0000
G0 X6.1535 Y-19.8532 
G1 X6.1535 Y-19.8532 Z1.7250 F30.
G1 X6.1535 Y-19.8532 Z1.7000
G1 X6.1535 Y-19.9198 Z1.6883
G1 X6.0690 Y-19.8482 Z1.6687
G1 X5.9987 Y-19.7685 Z1.6500
G1 X5.9284 Y-19.6889 Z1.6500 F110.
G1 X5.7985 Y-19.4981 Z1.6500
G1 X5.6891 Y-19.2877 Z1.6500
G1 X5.6039 Y-19.0638 Z1.6500
G1 X5.5443 Y-18.8291 Z1.6500
G1 X5.5107 Y-18.5845 Z1.6500
G1 X5.5035 Y-18.3274 Z1.6500
G1 X5.5224 Y-18.0546 Z1.6500
G1 X5.5669 Y-17.7679 Z1.6500
G1 X5.6354 Y-17.4726 Z1.6500
G1 X5.7261 Y-17.1728 Z1.6500
G1 X5.8330 Y-16.8826 Z1.6500
G1 X6.1234 Y-16.2404 Z1.6500
G1 X6.1535 Y-16.1839 Z1.6500
G1 X6.1535 Y-19.9198 Z1.6500
G1 X6.0690 Y-19.8482 Z1.6500
G1 X5.9987 Y-19.7685 Z1.6500
G1 X5.7456 Y-19.9918 Z1.6500
G1 X5.8321 Y-20.0898 Z1.6500
G1 X6.0105 Y-20.2410 Z1.6500
G1 X6.1991 Y-20.3521 Z1.6500
G1 X6.4080 Y-20.4306 Z1.6500
G1 X6.4510 Y-20.4392 Z1.6500
G1 X6.4902 Y-20.4416 Z1.6500
G1 X6.4910 Y-20.4339 Z1.6500
G1 X6.4910 Y-14.9820 Z1.6500
G1 X6.4874 Y-14.9853 Z1.6500
G1 X6.3274 Y-15.1890 Z1.6500
G1 X6.1631 Y-15.4494 Z1.6500
G1 X5.8204 Y-16.0912 Z1.6500
G1 X5.5205 Y-16.7546 Z1.6500
G1 X5.4059 Y-17.0655 Z1.6500
G1 X5.3091 Y-17.3856 Z1.6500
G1 X5.2353 Y-17.7038 Z1.6500
G1 X5.1867 Y-18.0169 Z1.6500
G1 X5.1656 Y-18.3204 Z1.6500
G1 X5.1739 Y-18.6122 Z1.6500
G1 X5.2125 Y-18.8938 Z1.6500
G1 X5.2816 Y-19.1657 Z1.6500
G1 X5.3806 Y-19.4261 Z1.6500
G1 X5.5083 Y-19.6716 Z1.6500
G1 X5.6614 Y-19.8964 Z1.6500
G1 X5.7456 Y-19.9918 Z1.6500
G1 X5.4926 Y-20.2151 Z1.6500
G1 X5.3944 Y-20.1038 Z1.6500
G1 X5.2181 Y-19.8450 Z1.6500
G1 X5.0721 Y-19.5644 Z1.6500
G1 X4.9592 Y-19.2676 Z1.6500
G1 X4.8807 Y-18.9584 Z1.6500
G1 X4.8370 Y-18.6400 Z1.6500
G1 X4.8278 Y-18.3135 Z1.6500
G1 X4.8510 Y-17.9793 Z1.6500
G1 X4.9037 Y-17.6397 Z1.6500
G1 X4.9828 Y-17.2985 Z1.6500
G1 X5.0858 Y-16.9582 Z1.6500
G1 X5.2080 Y-16.6265 Z1.6500
G1 X5.5174 Y-15.9421 Z1.6500
G1 X5.8711 Y-15.2797 Z1.6500
G1 X6.0513 Y-14.9942 Z1.6500
G1 X6.2392 Y-14.7549 Z1.6500
G1 X6.4452 Y-14.5668 Z1.6500
G1 X6.5193 Y-14.5196 Z1.6500
G1 X6.6035 Y-14.4814 Z1.6500
G1 X6.6789 Y-14.4608 Z1.6500
G1 X6.7393 Y-14.4557 Z1.6500
G1 X6.7749 Y-14.4601 Z1.6500
G17
G2X6.8209Y-14.4909Z1.6500I-0.0183J-0.0772
G1 X6.8220 Y-14.4932 Z1.6500
G1 X6.8285 Y-14.5369 Z1.6500
G1 X6.8285 Y-20.4507 Z1.6500
G1 X6.8193 Y-20.5434 Z1.6500
G1 X6.8023 Y-20.5984 Z1.6500
G1 X6.7748 Y-20.6491 Z1.6500
G1 X6.7382 Y-20.6929 Z1.6500
G1 X6.6947 Y-20.7276 Z1.6500
G1 X6.6419 Y-20.7545 Z1.6500
G1 X6.5783 Y-20.7729 Z1.6500
G1 X6.5017 Y-20.7805 Z1.6500
G1 X6.4073 Y-20.7746 Z1.6500
G1 X6.3150 Y-20.7562 Z1.6500
G1 X6.0530 Y-20.6578 Z1.6500
G1 X5.8143 Y-20.5171 Z1.6500
G1 X5.5953 Y-20.3315 Z1.6500
G1 X5.4926 Y-20.2151 Z1.6500
G1 X5.2395 Y-20.4384 Z1.6500
G1 X5.3584 Y-20.5732 Z1.6500
G1 X5.6182 Y-20.7932 Z1.6500
G1 X5.9068 Y-20.9634 Z1.6500
G1 X6.2220 Y-21.0818 Z1.6500
G1 X6.3636 Y-21.1101 Z1.6500
G1 X6.5079 Y-21.1190 Z1.6500
G1 X6.6422 Y-21.1058 Z1.6500
G1 X6.7666 Y-21.0698 Z1.6500
G1 X6.8786 Y-21.0126 Z1.6500
G1 X6.9754 Y-20.9354 Z1.6500
G1 X7.0553 Y-20.8397 Z1.6500
G1 X7.1150 Y-20.7298 Z1.6500
G1 X7.1517 Y-20.6104 Z1.6500
G1 X7.1660 Y-20.4675 Z1.6500
G1 X7.1660 Y-14.5117 Z1.6500
G1 X7.1485 Y-14.3953 Z1.6500
G1 X7.1084 Y-14.3085 Z1.6500
G1 X7.0425 Y-14.2300 Z1.6500
G1 X6.9568 Y-14.1687 Z1.6500
G1 X6.8583 Y-14.1305 Z1.6500
G1 X6.7460 Y-14.1164 Z1.6500
G1 X6.6197 Y-14.1272 Z1.6500
G1 X6.4886 Y-14.1629 Z1.6500
G1 X6.3580 Y-14.2221 Z1.6500
G1 X6.2392 Y-14.2978 Z1.6500
G1 X5.9910 Y-14.5244 Z1.6500
G1 X5.7751 Y-14.7994 Z1.6500
G1 X5.5792 Y-15.1099 Z1.6500
G1 X5.2145 Y-15.7929 Z1.6500
G1 X4.8955 Y-16.4985 Z1.6500
G1 X4.7656 Y-16.8509 Z1.6500
G1 X4.6566 Y-17.2114 Z1.6500
G1 X4.5721 Y-17.5756 Z1.6500
G1 X4.5153 Y-17.9416 Z1.6500
G1 X4.4900 Y-18.3066 Z1.6500
G1 X4.5002 Y-18.6678 Z1.6500
G1 X4.5489 Y-19.0231 Z1.6500
G1 X4.6369 Y-19.3694 Z1.6500
G1 X4.7637 Y-19.7027 Z1.6500
G1 X4.9279 Y-20.0185 Z1.6500
G1 X5.1273 Y-20.3113 Z1.6500
G1 X5.2395 Y-20.4384 Z1.6500
G1 X5.2726 Y-20.4092 Z1.6942 F30.
G1 X5.2726 Y-20.4092 Z1.7192
G0 Z4.0000
G0 X5.2726 Y-20.4092 
M5
G53 Z
X2Y0
