( MOP:  Rear-control-back-03 )
( FILE: G:\Shared drives\AlloyProjectFiles\Customer CAD files\Alloy-Standard-Builds-CAM\s-in\Control\Rear-control-back-03.nc)
G90
(  BEGIN TOOL LIST )
(  TOOL 5 - Downcut PT375 - DESC: 0.3750 DIA, 2 FLUTE,  CARBIDE MAT )
(  ENDOF TOOL LIST )
( Rear-control-back-03)
( Max Depth 1.75)
T05
S12000
M3
G0 Z4.0000
G0 X6.7035 Y-16.4162 
G1 X6.7035 Y-16.4162 Z0.2000 F75.
G1 X6.9535 Y-16.4162 Z0.2000 F25.
G17
G3X7.2035Y-16.1662Z0.2000I0.0000J0.2500 F40.
G1 X7.2035 Y-14.8606 Z0.2000
G1 X6.8313 Y-14.4731 Z0.2000
G1 X6.5265 Y-14.1578 Z0.2000
G3X6.4695Y-14.1350Z0.2000I-0.0544J-0.0532
G3X6.4140Y-14.1619Z0.2000I0.0026J-0.0760
G1 X5.2449 Y-15.5463 Z0.2000
G3X5.1879Y-15.6469Z0.2000I0.2388J-0.2016
G1 X5.0316 Y-16.1048 Z0.2000
G2X5.1526Y-16.9115Z0.2000I-0.6817J-0.5147
G2X4.5602Y-17.4475Z0.2000I-0.8031J0.2922
G3X4.4611Y-18.6561Z0.2000I4.0603J-0.9411
G3X5.2212Y-20.4841Z0.2000I3.1054J0.2192
G3X5.5091Y-20.7585Z0.2000I1.6706J1.4646
G1 X7.1452 Y-20.7585 Z0.2000
G3X7.2037Y-20.4830Z0.2000I-0.6137J0.2744
G1 X7.2036 Y-18.9721 Z0.2000
G1 X7.1780 Y-18.9500 Z0.2000
G1 X7.1422 Y-18.9163 Z0.2000
G2X6.8538Y-18.1342Z0.2000I0.6989J0.7019
G2X7.2035Y-17.4538Z0.2000I0.9921J-0.0799
G1 X7.2035 Y-16.1662 Z0.2000
G3X6.9535Y-15.9162Z0.2000I-0.2500J0.0000
G1 X6.7035 Y-15.9162 Z0.2000 F75.
G0 Z4.0000
G0 X6.7035 Y-15.9162 
M5
G53 Z
X2Y0
