( MOP:  top-jack-pocket-front-02 )
( FILE: G:\Shared drives\AlloyProjectFiles\Customer CAD files\Alloy-Standard-Builds-CAM\s-in\Control\top-jack-pocket-front-02.nc)
G90
(  BEGIN TOOL LIST )
(  TOOL 4 - Downcut PT500 - DESC: 0.5000 DIA, 2 FLUTE,  CARBIDE MAT )
(  ENDOF TOOL LIST )
( top-jack-pocket-front-02)
T04
S12000
M3
G0 Z4.0000
G0 X13.5273 Y-19.5291 
G1 X13.5273 Y-19.5291 Z0.2500 F75.
G17
G2X13.1778Y-19.5825Z0.2500I-0.2014J0.1481 F40.
G2X12.5970Y-19.0069Z0.2500I1.6557J2.2519 F80.
G2X12.7963Y-18.7471Z0.2500I0.1360J0.1020
G2X14.1741Y-19.9397Z0.2500I-1.0403J-2.5943
G2X14.1698Y-20.0074Z0.2500I-0.0527J-0.0306
G2X14.1055Y-20.0292Z0.2500I-0.0484J0.0371
G2X13.1778Y-19.5825Z0.2500I0.7280J2.6986
G2X12.9833Y-19.4255Z0.2500I1.6425J2.2345
G2X12.9615Y-19.0725Z0.2500I0.1655J0.1874
G0 Z4.0000
G0 X12.9615 Y-19.0725 
M5
G53 Z
X2Y0
