( MOP:  05-Adcock-binding-no-elbow-PT10xPT375-01 )
( FILE: G:\Shared drives\AlloyProjectFiles\Customer CAD files\Alloy-Standard-Builds-CAM\s-in\FullAdcock-Specific\05-Adcock-binding-no-elbow-PT10xPT375.nc)
G90
(  BEGIN TOOL LIST )
(  TOOL 6 - Downcut PT250 - DESC: 0.2500 DIA, 2 FLUTE,  CARBIDE MAT )
(  ENDOF TOOL LIST )
( 05-Adcock-binding-no-elbow-PT10xPT375-01)
( Max Depth 1.75)
T06
S12000
M3
G0 Z6.0000
G0 X3.0471 Y-18.9063 
G1 X3.0471 Y-18.9063 Z1.5725 F75.
G17
G3X3.3135Y-18.6739Z1.5725I0.0170J0.2494 F25.
G2X3.5512Y-17.1640Z1.5725I8.7249J-0.5997 F75.
G2X4.2988Y-14.8924Z1.5725I14.9246J-3.6529
G2X4.7588Y-13.8271Z1.5725I43.5305J-18.1666
G3X5.0406Y-13.1345Z1.5725I-14.6518J6.3642
G3X5.2069Y-12.5275Z1.5725I-2.9220J1.1266
G3X5.2082Y-11.7210Z1.5725I-2.7867J0.4078
G3X5.0701Y-11.0320Z1.5725I-5.4878J-0.7413
G3X4.8441Y-10.2552Z1.5725I-14.9043J-3.9154
G2X4.3093Y-8.4158Z1.5725I37.1864J11.8089
G1 X4.2961 Y-8.3559 Z1.5725
G1 X4.2816 Y-8.2642 Z1.5725
G2X4.2110Y-6.9962Z1.5725I11.7667J1.2911
G2X4.4122Y-5.6141Z1.5725I5.2363J-0.0565
G2X5.2778Y-4.1686Z1.5725I4.6991J-1.8319
G2X5.5034Y-3.9379Z1.5725I2.1980J-1.9238
G2X5.7985Y-3.9236Z1.5725I0.1562J-0.1722
G2X5.8749Y-4.1988Z1.5725I-0.1396J-0.1870
G3X5.6668Y-6.7221Z1.5725I3.2169J-1.5356
G3X6.0215Y-7.5677Z1.5725I3.5944J1.0105
G3X6.9699Y-8.2617Z1.5725I1.2750J0.7475
G3X7.6221Y-8.2783Z1.5725I0.3678J1.6308
G3X8.4851Y-7.6743Z1.5725I-0.2276J1.2436
G3X8.6025Y-7.3231Z1.5725I-1.0657J0.5516
G1 X8.6297 Y-7.1684 Z1.5725
G2X8.8570Y-6.9849Z1.5725I0.2268J-0.0483
G1 X10.6468 Y-6.9851 Z1.5725
G2X10.8752Y-7.2146Z1.5725I-0.0039J-0.2323
G1 X10.8772 Y-8.9837 Z1.5725
G3X11.0766Y-9.5370Z1.5725I0.9126J0.0163
G3X11.4555Y-9.8797Z1.5725I1.1468J0.8872
G3X12.8448Y-10.1330Z1.5725I1.0030J1.5647
G3X13.9363Y-9.5355Z1.5725I-0.4134J2.0507
G3X14.3510Y-8.8335Z1.5725I-1.4193J1.3120
G3X14.4919Y-7.5918Z1.5725I-2.9495J0.9637
G3X14.3582Y-6.8763Z1.5725I-3.5182J-0.2875
G2X14.4669Y-6.6428Z1.5725I0.1871J0.0550
G2X14.7126Y-6.7212Z1.5725I0.0784J-0.1785
G2X15.0402Y-7.4865Z1.5725I-3.2848J-1.8590
G2X15.2669Y-8.9117Z1.5725I-4.2624J-1.4086
G2X15.2670Y-9.3842Z1.5725I-7.8223J-0.2385
G2X15.1140Y-10.1672Z1.5725I-2.7896J0.1389
G2X14.8919Y-10.7139Z1.5725I-4.9180J1.6792
G3X14.5748Y-11.3848Z1.5725I31.6123J-15.3532
G3X14.3076Y-12.2078Z1.5725I3.3861J-1.5539
G3X14.3180Y-13.3305Z1.5725I2.9046J-0.5346
G3X14.5798Y-14.1798Z1.5725I4.2740J0.8527
G3X14.8195Y-14.6884Z1.5725I5.7229J2.3855
G1 X15.0364 Y-15.0914 Z1.5725
G2X15.4193Y-15.9763Z1.5725I-6.2615J-3.2350
G2X15.9295Y-17.6237Z1.5725I-18.3380J-6.5821
G2X16.1157Y-18.7206Z1.5725I-6.1543J-1.6088
G2X15.9988Y-20.0233Z1.5725I-3.7958J-0.3162
G2X15.6621Y-20.8132Z1.5725I-3.2830J0.9330
G2X15.3944Y-21.2343Z1.5725I-4.3189J2.4490
G2X15.0115Y-21.6357Z1.5725I-2.0237J1.5474
G2X13.3586Y-22.5549Z1.5725I-3.1126J3.6513
G2X12.4888Y-22.7370Z1.5725I-1.4473J4.7449
G2X11.5657Y-22.8051Z1.5725I-1.2017J9.9992
G2X10.7330Y-22.8173Z1.5725I-0.7652J23.7670
G2X8.3459Y-22.8128Z1.5725I-0.7178J250.1248
G2X7.3293Y-22.7651Z1.5725I0.0445J11.8017
G2X5.4577Y-22.2859Z1.5725I0.6358J6.3789
G2X3.9526Y-21.0825Z1.5725I1.4450J3.3501
G2X3.3221Y-19.4040Z1.5725I2.6744J1.9623
G2X3.3135Y-18.6739Z1.5725I4.9138J0.4226
G1 X3.3135 Y-18.6739 Z1.3850
G2X3.5512Y-17.1640Z1.3850I8.7249J-0.5997
G2X4.2988Y-14.8924Z1.3850I14.9246J-3.6529
G2X4.7588Y-13.8271Z1.3850I43.5305J-18.1666
G3X5.0406Y-13.1345Z1.3850I-14.6518J6.3642
G3X5.2069Y-12.5275Z1.3850I-2.9220J1.1266
G3X5.2082Y-11.7210Z1.3850I-2.7867J0.4078
G3X5.0701Y-11.0320Z1.3850I-5.4878J-0.7413
G3X4.8441Y-10.2552Z1.3850I-14.9043J-3.9154
G2X4.3093Y-8.4158Z1.3850I37.1864J11.8089
G1 X4.2961 Y-8.3559 Z1.3850
G1 X4.2816 Y-8.2642 Z1.3850
G2X4.2110Y-6.9962Z1.3850I11.7667J1.2911
G2X4.4122Y-5.6141Z1.3850I5.2363J-0.0565
G2X5.2778Y-4.1686Z1.3850I4.6991J-1.8319
G2X5.5034Y-3.9379Z1.3850I2.1980J-1.9238
G2X5.7985Y-3.9236Z1.3850I0.1562J-0.1722
G2X5.8749Y-4.1988Z1.3850I-0.1396J-0.1870
G3X5.6668Y-6.7221Z1.3850I3.2169J-1.5356
G3X6.0215Y-7.5677Z1.3850I3.5944J1.0105
G3X6.9699Y-8.2617Z1.3850I1.2750J0.7475
G3X7.6221Y-8.2783Z1.3850I0.3678J1.6308
G3X8.4851Y-7.6743Z1.3850I-0.2276J1.2436
G3X8.6025Y-7.3231Z1.3850I-1.0657J0.5516
G1 X8.6297 Y-7.1684 Z1.3850
G2X8.8570Y-6.9849Z1.3850I0.2268J-0.0483
G1 X10.6468 Y-6.9851 Z1.3850
G2X10.8752Y-7.2146Z1.3850I-0.0039J-0.2323
G1 X10.8772 Y-8.9837 Z1.3850
G3X11.0766Y-9.5370Z1.3850I0.9126J0.0163
G3X11.4555Y-9.8797Z1.3850I1.1468J0.8872
G3X12.8448Y-10.1330Z1.3850I1.0030J1.5647
G3X13.9363Y-9.5355Z1.3850I-0.4134J2.0507
G3X14.3510Y-8.8335Z1.3850I-1.4193J1.3120
G3X14.4919Y-7.5918Z1.3850I-2.9495J0.9637
G3X14.3582Y-6.8763Z1.3850I-3.5182J-0.2875
G2X14.4669Y-6.6428Z1.3850I0.1871J0.0550
G2X14.7126Y-6.7212Z1.3850I0.0784J-0.1785
G2X15.0402Y-7.4865Z1.3850I-3.2848J-1.8590
G2X15.2669Y-8.9117Z1.3850I-4.2624J-1.4086
G2X15.2670Y-9.3842Z1.3850I-7.8223J-0.2385
G2X15.1140Y-10.1672Z1.3850I-2.7896J0.1389
G2X14.8919Y-10.7139Z1.3850I-4.9180J1.6792
G3X14.5748Y-11.3848Z1.3850I31.6123J-15.3532
G3X14.3076Y-12.2078Z1.3850I3.3861J-1.5539
G3X14.3180Y-13.3305Z1.3850I2.9046J-0.5346
G3X14.5798Y-14.1798Z1.3850I4.2740J0.8527
G3X14.8195Y-14.6884Z1.3850I5.7229J2.3855
G1 X15.0364 Y-15.0914 Z1.3850
G2X15.4193Y-15.9763Z1.3850I-6.2615J-3.2350
G2X15.9295Y-17.6237Z1.3850I-18.3380J-6.5821
G2X16.1157Y-18.7206Z1.3850I-6.1543J-1.6088
G2X15.9988Y-20.0233Z1.3850I-3.7958J-0.3162
G2X15.6621Y-20.8132Z1.3850I-3.2830J0.9330
G2X15.3944Y-21.2343Z1.3850I-4.3189J2.4490
G2X15.0115Y-21.6357Z1.3850I-2.0237J1.5474
G2X13.3586Y-22.5549Z1.3850I-3.1126J3.6513
G2X12.4888Y-22.7370Z1.3850I-1.4473J4.7449
G2X11.5657Y-22.8051Z1.3850I-1.2017J9.9992
G2X10.7330Y-22.8173Z1.3850I-0.7652J23.7670
G2X8.3459Y-22.8128Z1.3850I-0.7178J250.1248
G2X7.3293Y-22.7651Z1.3850I0.0445J11.8017
G2X5.4577Y-22.2859Z1.3850I0.6358J6.3789
G2X3.9526Y-21.0825Z1.3850I1.4450J3.3501
G2X3.3221Y-19.4040Z1.3850I2.6744J1.9623
G2X3.3135Y-18.6739Z1.3850I4.9138J0.4226
G3X3.0775Y-18.4072Z1.3850I-0.2494J0.0170
G0 Z6.0000
G0 X3.0775 Y-18.4072 
( 05-Adcock-binding-no-elbow-PT10xPT375-02)
( Max Depth 1.75)
G0 Z6.0000
G0 X3.0974 Y-18.4087 
G1 X3.0974 Y-18.4087 Z1.3850 F75.
G2X3.3335Y-18.6753Z1.3850I-0.0134J-0.2497 F25.
G3X3.3947Y-19.7667Z1.3850I4.3832J-0.3015 F75.
G3X4.1014Y-21.2427Z1.3850I3.2528J0.6503
G3X5.4660Y-22.2678Z1.3850I2.8054J2.3136
G3X7.5645Y-22.7647Z1.3850I2.5058J5.9019
G3X8.3463Y-22.7928Z1.3850I0.8633J13.1566
G3X11.3032Y-22.7921Z1.3850I1.4332J195.1192
G3X12.4866Y-22.7171Z1.3850I-0.1455J11.6737
G3X13.4424Y-22.5070Z1.3850I-0.5635J4.8415
G3X14.9987Y-21.6203Z1.3850I-1.5581J4.5440
G3X15.4506Y-21.1194Z1.3850I-1.5577J1.8593
G3X15.8181Y-20.4630Z1.3850I-3.9391J2.6369
G3X16.1063Y-19.1416Z1.3850I-3.0806J1.3639
G3X16.0326Y-18.2053Z1.3850I-4.8745J0.0871
G3X15.8641Y-17.4512Z1.3850I-8.0648J-1.4061
G3X15.2926Y-15.6995Z1.3850I-17.2057J-4.6438
G3X15.0185Y-15.1005Z1.3850I-5.6646J-2.2297
G1 X14.8017 Y-14.6976 Z1.3850
G2X14.3586Y-13.5963Z1.3850I4.7732J2.5604
G2X14.2441Y-12.5625Z1.3850I3.1371J0.8707
G2X14.4084Y-11.7514Z1.3850I3.0016J-0.1859
G2X14.7040Y-11.0599Z1.3850I5.4954J-1.9407
G3X15.0030Y-10.4092Z1.3850I-9.1164J4.5827
G3X15.2140Y-9.6960Z1.3850I-3.1917J1.3321
G3X15.2504Y-9.1969Z1.3850I-2.7040J0.4479
G3X15.2346Y-8.5627Z1.3850I-13.7589J-0.0262
G3X14.9180Y-7.2010Z1.3850I-4.7080J-0.3769
G3X14.6954Y-6.7315Z1.3850I-2.9948J-1.1320
G3X14.4750Y-6.6611Z1.3850I-0.1501J-0.0898
G3X14.3774Y-6.8708Z1.3850I0.0703J-0.1602
G2X14.4544Y-8.5363Z1.3850I-3.2755J-0.9860
G2X14.0841Y-9.3902Z1.3850I-2.1761J0.4366
G2X13.2564Y-10.0259Z1.3850I-1.5913J1.2151
G2X12.1182Y-10.1625Z1.3850I-0.7980J1.8389
G2X11.1981Y-9.7031Z1.3850I0.3229J1.7980
G2X10.8813Y-9.1848Z1.3850I0.7485J0.8135
G2X10.8572Y-8.9840Z1.3850I0.7719J0.1944
G1 X10.8552 Y-7.2147 Z1.3850
G3X10.6450Y-7.0050Z1.3850I-0.2126J-0.0029
G1 X8.8570 Y-7.0049 Z1.3850
G3X8.6491Y-7.1735Z1.3850I-0.0006J-0.2118
G2X8.5630Y-7.5476Z1.3850I-1.9468J0.2510
G2X8.4118Y-7.8201Z1.3850I-0.8619J0.3002
G2X7.5305Y-8.3130Z1.3850I-1.0261J0.8002
G2X7.1456Y-8.3101Z1.3850I-0.1810J1.4986
G2X6.0540Y-7.6554Z1.3850I0.1446J1.4787
G2X5.7465Y-7.0296Z1.3850I2.7156J1.7226
G2X5.7279Y-4.4928Z1.3850I3.3891J1.2932
G2X5.8569Y-4.1902Z1.3850I3.2665J-1.2129
G3X5.7866Y-3.9397Z1.3850I-0.1981J0.0796
G3X5.5168Y-3.9527Z1.3850I-0.1270J-0.1704
G3X5.0718Y-4.4565Z1.3850I2.2958J-2.4763
G3X4.4308Y-5.6215Z1.3850I4.1761J-3.0567
G3X4.2313Y-7.1502Z1.3850I5.0341J-1.4343
G3X4.3015Y-8.2620Z1.3850I12.3851J0.2237
G1 X4.3158 Y-8.3528 Z1.3850
G1 X4.3288 Y-8.4114 Z1.3850
G3X4.8632Y-10.2493Z1.3850I36.2924J9.5556
G2X5.0895Y-11.0270Z1.3850I-17.0425J-5.3806
G2X5.2454Y-11.8849Z1.3850I-5.0475J-1.3605
G2X5.1111Y-12.9927Z1.3850I-2.6023J-0.2466
G1 X5.0594 Y-13.1414 Z1.3850
G2X4.7772Y-13.8350Z1.3850I-11.7021J4.3563
G3X4.1988Y-15.1942Z1.3850I33.0627J-14.8722
G3X3.5706Y-17.1689Z1.3850I14.1061J-5.5749
G3X3.3335Y-18.6753Z1.3850I8.4671J-2.1046
G2X3.0670Y-18.9078Z1.3850I-0.2495J0.0169
G0 Z6.0000
G0 X3.0670 Y-18.9078 
M5
G53 Z
X2Y0
