( MOP:  05-Adcock-binding-with-elbow-PT10xPT375-02 )
( FILE: G:\Shared drives\AlloyProjectFiles\Customer CAD files\Alloy-Standard-Builds-CAM\s-in\FullAdcock-Specific\05-Adcock-binding-with-elbow-PT10xPT375-02.nc)
G90
(  BEGIN TOOL LIST )
(  TOOL 6 - Downcut PT250 - DESC: 0.2500 DIA, 2 FLUTE,  CARBIDE MAT )
(  ENDOF TOOL LIST )
( 05-Adcock-binding-with-elbow-PT10xPT375-02)
( Max Depth 1.75)
T06
S12000
M3
G0 Z6.0000
G0 X12.8196 Y-22.6840 
G1 X12.8196 Y-22.6840 Z1.8383 F75.
G1 X13.1593 Y-22.5907 Z1.7100 F25.
G17
G3X14.6034Y-21.9235Z1.7100I-1.1918J4.4759 F75.
G1 X14.7092 Y-21.8491 Z1.7100
G1 X14.8103 Y-21.7738 Z1.7100
G1 X14.9064 Y-21.6980 Z1.7100
G1 X14.9971 Y-21.6219 Z1.7100
G1 X15.0820 Y-21.5461 Z1.7100
G1 X15.1606 Y-21.4708 Z1.7100
G1 X15.2327 Y-21.3966 Z1.7100
G1 X15.2977 Y-21.3237 Z1.7100
G1 X15.3422 Y-21.2696 Z1.7100
G1 X15.3839 Y-21.2150 Z1.7100
G1 X15.4240 Y-21.1586 Z1.7100
G1 X15.4640 Y-21.0990 Z1.7100
G1 X15.5286 Y-20.9976 Z1.7100
G1 X15.5910 Y-20.8948 Z1.7100
G1 X15.6517 Y-20.7910 Z1.7100
G1 X15.7101 Y-20.6859 Z1.7100
G1 X15.7643 Y-20.5786 Z1.7100
G1 X15.8151 Y-20.4696 Z1.7100
G1 X15.8625 Y-20.3591 Z1.7100
G1 X15.9059 Y-20.2469 Z1.7100
G1 X15.9449 Y-20.1332 Z1.7100
G1 X15.9795 Y-20.0180 Z1.7100
G1 X16.0098 Y-19.9017 Z1.7100
G1 X16.0359 Y-19.7843 Z1.7100
G1 X16.0577 Y-19.6660 Z1.7100
G1 X16.0754 Y-19.5471 Z1.7100
G3X16.0549Y-18.3484Z1.7100I-4.3554J0.5252
G1 X16.0366 Y-18.2296 Z1.7100
G1 X16.0159 Y-18.1112 Z1.7100
G1 X15.9682 Y-17.8755 Z1.7100
G1 X15.9133 Y-17.6413 Z1.7100
G1 X15.8525 Y-17.4086 Z1.7100
G3X15.5294Y-16.3531Z1.7100I-10.1169J-2.5204
G1 X15.4594 Y-16.1484 Z1.7100
G1 X15.3865 Y-15.9448 Z1.7100
G1 X15.3097 Y-15.7427 Z1.7100
G1 X15.2280 Y-15.5424 Z1.7100
G1 X15.1399 Y-15.3449 Z1.7100
G1 X15.0447 Y-15.1508 Z1.7100
G1 X14.9432 Y-14.9598 Z1.7100
G1 X14.8399 Y-14.7698 Z1.7100
G1 X14.6904 Y-14.4470 Z1.7100
G1 X14.6200 Y-14.2885 Z1.7100
G1 X14.5533 Y-14.1315 Z1.7100
G1 X14.4912 Y-13.9761 Z1.7100
G1 X14.4342 Y-13.8220 Z1.7100
G1 X14.3830 Y-13.6690 Z1.7100
G1 X14.3383 Y-13.5170 Z1.7100
G1 X14.3052 Y-13.3693 Z1.7100
G1 X14.2783 Y-13.2204 Z1.7100
G1 X14.2581 Y-13.0703 Z1.7100
G2X14.3691Y-11.8730Z1.7100I2.9027J0.3346
G1 X14.4161 Y-11.7291 Z1.7100
G1 X14.4686 Y-11.5871 Z1.7100
G1 X14.5259 Y-11.4470 Z1.7100
G1 X14.5870 Y-11.3085 Z1.7100
G1 X14.6508 Y-11.1712 Z1.7100
G1 X14.7821 Y-10.8985 Z1.7100
G1 X14.9106 Y-10.6243 Z1.7100
G1 X14.9713 Y-10.4856 Z1.7100
G1 X15.0282 Y-10.3454 Z1.7100
G1 X15.0806 Y-10.2034 Z1.7100
G1 X15.1276 Y-10.0595 Z1.7100
G1 X15.1681 Y-9.9136 Z1.7100
G1 X15.2013 Y-9.7660 Z1.7100
G1 X15.2149 Y-9.6915 Z1.7100
G1 X15.2262 Y-9.6167 Z1.7100
G1 X15.2354 Y-9.5415 Z1.7100
G1 X15.2422 Y-9.4662 Z1.7100
G1 X15.2495 Y-9.3150 Z1.7100
G1 X15.2502 Y-9.1636 Z1.7100
G1 X15.2461 Y-8.8609 Z1.7100
G1 X15.2427 Y-8.7220 Z1.7100
G1 X15.2359 Y-8.5834 Z1.7100
G1 X15.2247 Y-8.4450 Z1.7100
G1 X15.2086 Y-8.3070 Z1.7100
G1 X15.1878 Y-8.1698 Z1.7100
G1 X15.1625 Y-8.0332 Z1.7100
G1 X15.1331 Y-7.8975 Z1.7100
G1 X15.0998 Y-7.7627 Z1.7100
G1 X15.0628 Y-7.6289 Z1.7100
G1 X15.0222 Y-7.4961 Z1.7100
G1 X14.9783 Y-7.3644 Z1.7100
G1 X14.9307 Y-7.2339 Z1.7100
G1 X14.8792 Y-7.1049 Z1.7100
G1 X14.8235 Y-6.9778 Z1.7100
G1 X14.7628 Y-6.8529 Z1.7100
G1 X14.7300 Y-6.7916 Z1.7100
G1 X14.6954 Y-6.7315 Z1.7100
G3X14.4750Y-6.6611Z1.7100I-0.1501J-0.0898
G3X14.3774Y-6.8709Z1.7100I0.0703J-0.1602
G2X14.4562Y-8.5276Z1.7100I-3.2762J-0.9859
G1 X14.4324 Y-8.6296 Z1.7100
G1 X14.4048 Y-8.7306 Z1.7100
G1 X14.3730 Y-8.8304 Z1.7100
G1 X14.3370 Y-8.9286 Z1.7100
G1 X14.2965 Y-9.0251 Z1.7100
G1 X14.2514 Y-9.1195 Z1.7100
G1 X14.2014 Y-9.2115 Z1.7100
G1 X14.1465 Y-9.3007 Z1.7100
G2X13.3636Y-9.9769Z1.7100I-1.6206J1.0852
G2X12.2456Y-10.1814Z1.7100I-0.9137J1.8367
G1 X12.1419 Y-10.1669 Z1.7100
G1 X12.0392 Y-10.1466 Z1.7100
G2X11.2125Y-9.7167Z1.7100I0.4038J1.7864
G1 X11.1387 Y-9.6423 Z1.7100
G1 X11.1040 Y-9.6031 Z1.7100
G1 X11.0710 Y-9.5626 Z1.7100
G1 X11.0398 Y-9.5206 Z1.7100
G1 X11.0104 Y-9.4773 Z1.7100
G1 X10.9831 Y-9.4326 Z1.7100
G1 X10.9581 Y-9.3866 Z1.7100
G1 X10.9353 Y-9.3394 Z1.7100
G1 X10.9151 Y-9.2911 Z1.7100
G1 X10.8976 Y-9.2418 Z1.7100
G1 X10.8829 Y-9.1915 Z1.7100
G1 X10.8714 Y-9.1405 Z1.7100
G1 X10.8632 Y-9.0888 Z1.7100
G1 X10.8586 Y-9.0367 Z1.7100
G1 X10.8572 Y-8.9843 Z1.7100
G1 X10.8564 Y-8.0980 Z1.7100
G1 X10.8552 Y-7.2145 Z1.7100
G1 X10.8506 Y-7.1735 Z1.7100
G1 X10.8382 Y-7.1341 Z1.7100
G1 X10.8184 Y-7.0979 Z1.7100
G1 X10.7920 Y-7.0661 Z1.7100
G1 X10.7599 Y-7.0402 Z1.7100
G1 X10.7234 Y-7.0208 Z1.7100
G1 X10.6839 Y-7.0090 Z1.7100
G1 X10.6428 Y-7.0049 Z1.7100
G1 X8.8570 Y-7.0049 Z1.7100
G1 X8.8206 Y-7.0082 Z1.7100
G3X8.6486Y-7.1760Z1.7100I0.0347J-0.2076
G2X8.5574Y-7.5618Z1.7100I-1.9892J0.2663
G1 X8.5325 Y-7.6231 Z1.7100
G1 X8.5034 Y-7.6825 Z1.7100
G1 X8.4696 Y-7.7393 Z1.7100
G1 X8.4318 Y-7.7937 Z1.7100
G1 X8.3912 Y-7.8459 Z1.7100
G1 X8.3480 Y-7.8960 Z1.7100
G1 X8.3023 Y-7.9439 Z1.7100
G1 X8.2542 Y-7.9893 Z1.7100
G1 X8.2038 Y-8.0322 Z1.7100
G1 X8.1512 Y-8.0724 Z1.7100
G1 X8.0967 Y-8.1098 Z1.7100
G1 X8.0402 Y-8.1444 Z1.7100
G1 X7.9821 Y-8.1760 Z1.7100
G1 X7.9225 Y-8.2046 Z1.7100
G1 X7.8614 Y-8.2301 Z1.7100
G1 X7.7992 Y-8.2526 Z1.7100
G1 X7.7359 Y-8.2720 Z1.7100
G1 X7.6717 Y-8.2883 Z1.7100
G1 X7.6069 Y-8.3015 Z1.7100
G1 X7.5415 Y-8.3116 Z1.7100
G1 X7.4758 Y-8.3187 Z1.7100
G1 X7.4097 Y-8.3227 Z1.7100
G1 X7.3436 Y-8.3239 Z1.7100
G1 X7.2774 Y-8.3221 Z1.7100
G1 X7.2114 Y-8.3175 Z1.7100
G1 X7.1456 Y-8.3101 Z1.7100
G1 X7.0693 Y-8.3006 Z1.7100
G1 X6.9936 Y-8.2872 Z1.7100
G1 X6.9187 Y-8.2700 Z1.7100
G1 X6.8447 Y-8.2489 Z1.7100
G1 X6.7720 Y-8.2239 Z1.7100
G1 X6.7006 Y-8.1953 Z1.7100
G1 X6.6309 Y-8.1629 Z1.7100
G1 X6.5629 Y-8.1270 Z1.7100
G1 X6.4969 Y-8.0875 Z1.7100
G1 X6.4331 Y-8.0447 Z1.7100
G1 X6.3715 Y-7.9985 Z1.7100
G1 X6.3125 Y-7.9493 Z1.7100
G1 X6.2561 Y-7.8970 Z1.7100
G1 X6.2024 Y-7.8420 Z1.7100
G1 X6.1514 Y-7.7844 Z1.7100
G1 X6.1033 Y-7.7244 Z1.7100
G1 X6.0583 Y-7.6620 Z1.7100
G1 X6.0166 Y-7.5975 Z1.7100
G1 X5.9775 Y-7.5313 Z1.7100
G1 X5.9406 Y-7.4638 Z1.7100
G1 X5.8717 Y-7.3263 Z1.7100
G1 X5.8090 Y-7.1859 Z1.7100
G1 X5.7519 Y-7.0430 Z1.7100
G1 X5.7002 Y-6.8982 Z1.7100
G1 X5.6543 Y-6.7515 Z1.7100
G1 X5.6146 Y-6.6029 Z1.7100
G1 X5.5811 Y-6.4528 Z1.7100
G1 X5.5539 Y-6.3014 Z1.7100
G1 X5.5329 Y-6.1490 Z1.7100
G2X5.8513Y-4.2018Z1.7100I3.5242J0.4234
G3X5.5168Y-3.9527Z1.7100I-0.1917J0.0917
G3X4.8962Y-4.7115Z1.7100I2.7204J-2.8583
G1 X4.8310 Y-4.8156 Z1.7100
G1 X4.7684 Y-4.9213 Z1.7100
G1 X4.7082 Y-5.0284 Z1.7100
G1 X4.6506 Y-5.1369 Z1.7100
G1 X4.5955 Y-5.2467 Z1.7100
G1 X4.5430 Y-5.3578 Z1.7100
G1 X4.4930 Y-5.4700 Z1.7100
G1 X4.4455 Y-5.5833 Z1.7100
G1 X4.4231 Y-5.6450 Z1.7100
G1 X4.4055 Y-5.7082 Z1.7100
G1 X4.3743 Y-5.8356 Z1.7100
G1 X4.3461 Y-5.9638 Z1.7100
G1 X4.3204 Y-6.0925 Z1.7100
G1 X4.2976 Y-6.2217 Z1.7100
G1 X4.2778 Y-6.3515 Z1.7100
G1 X4.2614 Y-6.4816 Z1.7100
G1 X4.2485 Y-6.6122 Z1.7100
G1 X4.2393 Y-6.7432 Z1.7100
G1 X4.2336 Y-6.8743 Z1.7100
G1 X4.2311 Y-7.0055 Z1.7100
G1 X4.2312 Y-7.1367 Z1.7100
G1 X4.2380 Y-7.3991 Z1.7100
G1 X4.2511 Y-7.6612 Z1.7100
G1 X4.2640 Y-7.8609 Z1.7100
G1 X4.2800 Y-8.0603 Z1.7100
G1 X4.3012 Y-8.2592 Z1.7100
G1 X4.3168 Y-8.3580 Z1.7100
G1 X4.3402 Y-8.4552 Z1.7100
G1 X4.4782 Y-8.9619 Z1.7100
G1 X4.6240 Y-9.4664 Z1.7100
G1 X4.7766 Y-9.9689 Z1.7100
G1 X4.9310 Y-10.4708 Z1.7100
G1 X5.0057 Y-10.7225 Z1.7100
G1 X5.0760 Y-10.9755 Z1.7100
G1 X5.1087 Y-11.1027 Z1.7100
G2X5.2531Y-12.0086Z1.7100I-4.5598J-1.1915
G1 X5.2560 Y-12.1399 Z1.7100
G2X5.1162Y-12.9772Z1.7100I-2.5494J-0.0048
G1 X5.0797 Y-13.0849 Z1.7100
G1 X5.0410 Y-13.1910 Z1.7100
G1 X4.9599 Y-13.3982 Z1.7100
G1 X4.8799 Y-13.5930 Z1.7100
G1 X4.8000 Y-13.7820 Z1.7100
G1 X4.6398 Y-14.1503 Z1.7100
G1 X4.4784 Y-14.5198 Z1.7100
G1 X4.3145 Y-14.9067 Z1.7100
G1 X4.2262 Y-15.1247 Z1.7100
G3X3.5836Y-17.1149Z1.7100I14.3617J-5.7361
G1 X3.5425 Y-17.2890 Z1.6869
G1 X3.5043 Y-17.4634 Z1.6615
G1 X3.4690 Y-17.6380 Z1.6330
G1 X3.4370 Y-17.8126 Z1.6011
G1 X3.4084 Y-17.9871 Z1.5659
G1 X3.3832 Y-18.1615 Z1.5272
G1 X3.3620 Y-18.3356 Z1.4852
G1 X3.3450 Y-18.5095 Z1.4405
G1 X3.3328 Y-18.6832 Z1.3936
G1 X3.3257 Y-18.8567 Z1.3449
G1 X3.3241 Y-19.0300 Z1.2950
G1 X3.3286 Y-19.2030 Z1.2444
G1 X3.3397 Y-19.3757 Z1.1935
G1 X3.3584 Y-19.5477 Z1.1428
G1 X3.3708 Y-19.6334 Z1.1176
G1 X3.3854 Y-19.7189 Z1.0927
G1 X3.4022 Y-19.8040 Z1.0681
G1 X3.4213 Y-19.8887 Z1.0439
G1 X3.4426 Y-19.9731 Z1.0202
G1 X3.4661 Y-20.0570 Z0.9971
G1 X3.4920 Y-20.1404 Z0.9747
G1 X3.5201 Y-20.2233 Z0.9529
G1 X3.5505 Y-20.3055 Z0.9318
G1 X3.5832 Y-20.3871 Z0.9115
G1 X3.6181 Y-20.4679 Z0.8919
G1 X3.6553 Y-20.5479 Z0.8732
G1 X3.6947 Y-20.6270 Z0.8553
G1 X3.7363 Y-20.7052 Z0.8384
G1 X3.7800 Y-20.7824 Z0.8223
G1 X3.8259 Y-20.8585 Z0.8073
G1 X3.8739 Y-20.9336 Z0.7933
G1 X3.9238 Y-21.0075 Z0.7803
G1 X3.9758 Y-21.0803 Z0.7683
G1 X4.0295 Y-21.1519 Z0.7573
G1 X4.0850 Y-21.2223 Z0.7472
G1 X4.1422 Y-21.2914 Z0.7382
G1 X4.2012 Y-21.3591 Z0.7302
G1 X4.2619 Y-21.4253 Z0.7233
G1 X4.3244 Y-21.4901 Z0.7175
G1 X4.3886 Y-21.5532 Z0.7129
G1 X4.4545 Y-21.6147 Z0.7094
G1 X4.5219 Y-21.6746 Z0.7071
G1 X4.5909 Y-21.7327 Z0.7059
G1 X4.6613 Y-21.7891 Z0.7058
G1 X4.7330 Y-21.8437 Z0.7068
G1 X4.8061 Y-21.8965 Z0.7089
G1 X4.8804 Y-21.9474 Z0.7121
G1 X4.9559 Y-21.9965 Z0.7164
G1 X5.0325 Y-22.0437 Z0.7218
G1 X5.1102 Y-22.0890 Z0.7282
G1 X5.1889 Y-22.1324 Z0.7357
G1 X5.2686 Y-22.1739 Z0.7441
G1 X5.3490 Y-22.2136 Z0.7535
G1 X5.4302 Y-22.2515 Z0.7637
G1 X5.5945 Y-22.3223 Z0.7867
G1 X5.7609 Y-22.3867 Z0.8125
G1 X5.9290 Y-22.4454 Z0.8408
G1 X6.0986 Y-22.4990 Z0.8711
G1 X6.2692 Y-22.5479 Z0.9032
G1 X6.4407 Y-22.5922 Z0.9368
G1 X6.6131 Y-22.6321 Z0.9716
G1 X6.7863 Y-22.6673 Z1.0078
G1 X6.9601 Y-22.6975 Z1.0452
G1 X7.1345 Y-22.7227 Z1.0836
G1 X7.3093 Y-22.7429 Z1.1230
G1 X7.4845 Y-22.7587 Z1.1630
G1 X7.6599 Y-22.7708 Z1.2031
G1 X7.8355 Y-22.7797 Z1.2431
G1 X8.0114 Y-22.7860 Z1.2827
G1 X8.1874 Y-22.7903 Z1.3216
G1 X8.5402 Y-22.7947 Z1.3965
G1 X8.8941 Y-22.7964 Z1.4666
G1 X9.2491 Y-22.7974 Z1.5305
G1 X9.6053 Y-22.7981 Z1.5872
G1 X9.7838 Y-22.7984 Z1.6125
G1 X9.9627 Y-22.7984 Z1.6357
G1 X10.3211 Y-22.7980 Z1.6762
G1 X10.6802 Y-22.7974 Z1.7100
G3X10.7330Y-22.7973Z1.7100I-21.0752J16132.6031
G1 X11.1123 Y-22.7951 Z1.7100
G1 X11.4647 Y-22.7882 Z1.7100
G1 X11.7927 Y-22.7756 Z1.7100
G1 X11.9484 Y-22.7669 Z1.7100
G1 X12.0990 Y-22.7563 Z1.7100
G3X13.1593Y-22.5907Z1.7100I-0.4012J6.0469
G1 X13.3875 Y-22.5348 Z1.7955
G0 Z2.7213
G0 X13.3875 Y-22.5348 
G0 Z2.7213
G0 X13.1593 Y-22.5907 
G1 X13.1593 Y-22.5907 Z1.5475 F75.
G3X14.6034Y-21.9235Z1.5475I-1.1918J4.4759
G1 X14.7092 Y-21.8491 Z1.5475
G1 X14.8103 Y-21.7738 Z1.5475
G1 X14.9064 Y-21.6980 Z1.5475
G1 X14.9971 Y-21.6219 Z1.5475
G1 X15.0820 Y-21.5461 Z1.5475
G1 X15.1606 Y-21.4708 Z1.5475
G1 X15.2327 Y-21.3966 Z1.5475
G1 X15.2977 Y-21.3237 Z1.5475
G1 X15.3422 Y-21.2696 Z1.5475
G1 X15.3839 Y-21.2150 Z1.5475
G1 X15.4240 Y-21.1586 Z1.5475
G1 X15.4640 Y-21.0990 Z1.5475
G1 X15.5286 Y-20.9976 Z1.5475
G1 X15.5910 Y-20.8948 Z1.5475
G1 X15.6517 Y-20.7910 Z1.5475
G1 X15.7101 Y-20.6859 Z1.5475
G1 X15.7643 Y-20.5786 Z1.5475
G1 X15.8151 Y-20.4696 Z1.5475
G1 X15.8625 Y-20.3591 Z1.5475
G1 X15.9059 Y-20.2469 Z1.5475
G1 X15.9449 Y-20.1332 Z1.5475
G1 X15.9795 Y-20.0180 Z1.5475
G1 X16.0098 Y-19.9017 Z1.5475
G1 X16.0359 Y-19.7843 Z1.5475
G1 X16.0577 Y-19.6660 Z1.5475
G1 X16.0754 Y-19.5471 Z1.5475
G3X16.0549Y-18.3484Z1.5475I-4.3554J0.5252
G1 X16.0366 Y-18.2296 Z1.5475
G1 X16.0159 Y-18.1112 Z1.5475
G1 X15.9682 Y-17.8755 Z1.5475
G1 X15.9133 Y-17.6413 Z1.5475
G1 X15.8525 Y-17.4086 Z1.5475
G3X15.5294Y-16.3531Z1.5475I-10.1169J-2.5204
G1 X15.4594 Y-16.1484 Z1.5475
G1 X15.3865 Y-15.9448 Z1.5475
G1 X15.3097 Y-15.7427 Z1.5475
G1 X15.2280 Y-15.5424 Z1.5475
G1 X15.1399 Y-15.3449 Z1.5475
G1 X15.0447 Y-15.1508 Z1.5475
G1 X14.9432 Y-14.9598 Z1.5475
G1 X14.8399 Y-14.7698 Z1.5475
G1 X14.6904 Y-14.4470 Z1.5475
G1 X14.6200 Y-14.2885 Z1.5475
G1 X14.5533 Y-14.1315 Z1.5475
G1 X14.4912 Y-13.9761 Z1.5475
G1 X14.4342 Y-13.8220 Z1.5475
G1 X14.3830 Y-13.6690 Z1.5475
G1 X14.3383 Y-13.5170 Z1.5475
G1 X14.3052 Y-13.3693 Z1.5475
G1 X14.2783 Y-13.2204 Z1.5475
G1 X14.2581 Y-13.0703 Z1.5475
G2X14.3691Y-11.8730Z1.5475I2.9027J0.3346
G1 X14.4161 Y-11.7291 Z1.5475
G1 X14.4686 Y-11.5871 Z1.5475
G1 X14.5259 Y-11.4470 Z1.5475
G1 X14.5870 Y-11.3085 Z1.5475
G1 X14.6508 Y-11.1712 Z1.5475
G1 X14.7821 Y-10.8985 Z1.5475
G1 X14.9106 Y-10.6243 Z1.5475
G1 X14.9713 Y-10.4856 Z1.5475
G1 X15.0282 Y-10.3454 Z1.5475
G1 X15.0806 Y-10.2034 Z1.5475
G1 X15.1276 Y-10.0595 Z1.5475
G1 X15.1681 Y-9.9136 Z1.5475
G1 X15.2013 Y-9.7660 Z1.5475
G1 X15.2149 Y-9.6915 Z1.5475
G1 X15.2262 Y-9.6167 Z1.5475
G1 X15.2354 Y-9.5415 Z1.5475
G1 X15.2422 Y-9.4662 Z1.5475
G1 X15.2495 Y-9.3150 Z1.5475
G1 X15.2502 Y-9.1636 Z1.5475
G1 X15.2461 Y-8.8609 Z1.5475
G1 X15.2427 Y-8.7220 Z1.5475
G1 X15.2359 Y-8.5834 Z1.5475
G1 X15.2247 Y-8.4450 Z1.5475
G1 X15.2086 Y-8.3070 Z1.5475
G1 X15.1878 Y-8.1698 Z1.5475
G1 X15.1625 Y-8.0332 Z1.5475
G1 X15.1331 Y-7.8975 Z1.5475
G1 X15.0998 Y-7.7627 Z1.5475
G1 X15.0628 Y-7.6289 Z1.5475
G1 X15.0222 Y-7.4961 Z1.5475
G1 X14.9783 Y-7.3644 Z1.5475
G1 X14.9307 Y-7.2339 Z1.5475
G1 X14.8792 Y-7.1049 Z1.5475
G1 X14.8235 Y-6.9778 Z1.5475
G1 X14.7628 Y-6.8529 Z1.5475
G1 X14.7300 Y-6.7916 Z1.5475
G1 X14.6954 Y-6.7315 Z1.5475
G3X14.4750Y-6.6611Z1.5475I-0.1501J-0.0898
G3X14.3774Y-6.8709Z1.5475I0.0703J-0.1602
G2X14.4562Y-8.5276Z1.5475I-3.2762J-0.9859
G1 X14.4324 Y-8.6296 Z1.5475
G1 X14.4048 Y-8.7306 Z1.5475
G1 X14.3730 Y-8.8304 Z1.5475
G1 X14.3370 Y-8.9286 Z1.5475
G1 X14.2965 Y-9.0251 Z1.5475
G1 X14.2514 Y-9.1195 Z1.5475
G1 X14.2014 Y-9.2115 Z1.5475
G1 X14.1465 Y-9.3007 Z1.5475
G2X13.3636Y-9.9769Z1.5475I-1.6206J1.0852
G2X12.2456Y-10.1814Z1.5475I-0.9137J1.8367
G1 X12.1419 Y-10.1669 Z1.5475
G1 X12.0392 Y-10.1466 Z1.5475
G2X11.2125Y-9.7167Z1.5475I0.4038J1.7864
G1 X11.1387 Y-9.6423 Z1.5475
G1 X11.1040 Y-9.6031 Z1.5475
G1 X11.0710 Y-9.5626 Z1.5475
G1 X11.0398 Y-9.5206 Z1.5475
G1 X11.0104 Y-9.4773 Z1.5475
G1 X10.9831 Y-9.4326 Z1.5475
G1 X10.9581 Y-9.3866 Z1.5475
G1 X10.9353 Y-9.3394 Z1.5475
G1 X10.9151 Y-9.2911 Z1.5475
G1 X10.8976 Y-9.2418 Z1.5475
G1 X10.8829 Y-9.1915 Z1.5475
G1 X10.8714 Y-9.1405 Z1.5475
G1 X10.8632 Y-9.0888 Z1.5475
G1 X10.8586 Y-9.0367 Z1.5475
G1 X10.8572 Y-8.9843 Z1.5475
G1 X10.8564 Y-8.0980 Z1.5475
G1 X10.8552 Y-7.2145 Z1.5475
G1 X10.8506 Y-7.1735 Z1.5475
G1 X10.8382 Y-7.1341 Z1.5475
G1 X10.8184 Y-7.0979 Z1.5475
G1 X10.7920 Y-7.0661 Z1.5475
G1 X10.7599 Y-7.0402 Z1.5475
G1 X10.7234 Y-7.0208 Z1.5475
G1 X10.6839 Y-7.0090 Z1.5475
G1 X10.6428 Y-7.0049 Z1.5475
G1 X8.8570 Y-7.0049 Z1.5475
G1 X8.8206 Y-7.0082 Z1.5475
G3X8.6486Y-7.1760Z1.5475I0.0347J-0.2076
G2X8.5574Y-7.5618Z1.5475I-1.9892J0.2663
G1 X8.5325 Y-7.6231 Z1.5475
G1 X8.5034 Y-7.6825 Z1.5475
G1 X8.4696 Y-7.7393 Z1.5475
G1 X8.4318 Y-7.7937 Z1.5475
G1 X8.3912 Y-7.8459 Z1.5475
G1 X8.3480 Y-7.8960 Z1.5475
G1 X8.3023 Y-7.9439 Z1.5475
G1 X8.2542 Y-7.9893 Z1.5475
G1 X8.2038 Y-8.0322 Z1.5475
G1 X8.1512 Y-8.0724 Z1.5475
G1 X8.0967 Y-8.1098 Z1.5475
G1 X8.0402 Y-8.1444 Z1.5475
G1 X7.9821 Y-8.1760 Z1.5475
G1 X7.9225 Y-8.2046 Z1.5475
G1 X7.8614 Y-8.2301 Z1.5475
G1 X7.7992 Y-8.2526 Z1.5475
G1 X7.7359 Y-8.2720 Z1.5475
G1 X7.6717 Y-8.2883 Z1.5475
G1 X7.6069 Y-8.3015 Z1.5475
G1 X7.5415 Y-8.3116 Z1.5475
G1 X7.4758 Y-8.3187 Z1.5475
G1 X7.4097 Y-8.3227 Z1.5475
G1 X7.3436 Y-8.3239 Z1.5475
G1 X7.2774 Y-8.3221 Z1.5475
G1 X7.2114 Y-8.3175 Z1.5475
G1 X7.1456 Y-8.3101 Z1.5475
G1 X7.0693 Y-8.3006 Z1.5475
G1 X6.9936 Y-8.2872 Z1.5475
G1 X6.9187 Y-8.2700 Z1.5475
G1 X6.8447 Y-8.2489 Z1.5475
G1 X6.7720 Y-8.2239 Z1.5475
G1 X6.7006 Y-8.1953 Z1.5475
G1 X6.6309 Y-8.1629 Z1.5475
G1 X6.5629 Y-8.1270 Z1.5475
G1 X6.4969 Y-8.0875 Z1.5475
G1 X6.4331 Y-8.0447 Z1.5475
G1 X6.3715 Y-7.9985 Z1.5475
G1 X6.3125 Y-7.9493 Z1.5475
G1 X6.2561 Y-7.8970 Z1.5475
G1 X6.2024 Y-7.8420 Z1.5475
G1 X6.1514 Y-7.7844 Z1.5475
G1 X6.1033 Y-7.7244 Z1.5475
G1 X6.0583 Y-7.6620 Z1.5475
G1 X6.0166 Y-7.5975 Z1.5475
G1 X5.9775 Y-7.5313 Z1.5475
G1 X5.9406 Y-7.4638 Z1.5475
G1 X5.8717 Y-7.3263 Z1.5475
G1 X5.8090 Y-7.1859 Z1.5475
G1 X5.7519 Y-7.0430 Z1.5475
G1 X5.7002 Y-6.8982 Z1.5475
G1 X5.6543 Y-6.7515 Z1.5475
G1 X5.6146 Y-6.6029 Z1.5475
G1 X5.5811 Y-6.4528 Z1.5475
G1 X5.5539 Y-6.3014 Z1.5475
G1 X5.5329 Y-6.1490 Z1.5475
G2X5.8513Y-4.2018Z1.5475I3.5242J0.4234
G3X5.5168Y-3.9527Z1.5475I-0.1917J0.0917
G3X4.8962Y-4.7115Z1.5475I2.7204J-2.8583
G1 X4.8310 Y-4.8156 Z1.5475
G1 X4.7684 Y-4.9213 Z1.5475
G1 X4.7082 Y-5.0284 Z1.5475
G1 X4.6506 Y-5.1369 Z1.5475
G1 X4.5955 Y-5.2467 Z1.5475
G1 X4.5430 Y-5.3578 Z1.5475
G1 X4.4930 Y-5.4700 Z1.5475
G1 X4.4455 Y-5.5833 Z1.5475
G1 X4.4231 Y-5.6450 Z1.5475
G1 X4.4055 Y-5.7082 Z1.5475
G1 X4.3743 Y-5.8356 Z1.5475
G1 X4.3461 Y-5.9638 Z1.5475
G1 X4.3204 Y-6.0925 Z1.5475
G1 X4.2976 Y-6.2217 Z1.5475
G1 X4.2778 Y-6.3515 Z1.5475
G1 X4.2614 Y-6.4816 Z1.5475
G1 X4.2485 Y-6.6122 Z1.5475
G1 X4.2393 Y-6.7432 Z1.5475
G1 X4.2336 Y-6.8743 Z1.5475
G1 X4.2311 Y-7.0055 Z1.5475
G1 X4.2312 Y-7.1367 Z1.5475
G1 X4.2380 Y-7.3991 Z1.5475
G1 X4.2511 Y-7.6612 Z1.5475
G1 X4.2640 Y-7.8609 Z1.5475
G1 X4.2800 Y-8.0603 Z1.5475
G1 X4.3012 Y-8.2592 Z1.5475
G1 X4.3168 Y-8.3580 Z1.5475
G1 X4.3402 Y-8.4552 Z1.5475
G1 X4.4782 Y-8.9619 Z1.5475
G1 X4.6240 Y-9.4664 Z1.5475
G1 X4.7766 Y-9.9689 Z1.5475
G1 X4.9310 Y-10.4708 Z1.5475
G1 X5.0057 Y-10.7225 Z1.5475
G1 X5.0760 Y-10.9755 Z1.5475
G1 X5.1087 Y-11.1027 Z1.5475
G2X5.2531Y-12.0086Z1.5475I-4.5598J-1.1915
G1 X5.2560 Y-12.1399 Z1.5475
G2X5.1162Y-12.9772Z1.5475I-2.5494J-0.0048
G1 X5.0797 Y-13.0849 Z1.5475
G1 X5.0410 Y-13.1910 Z1.5475
G1 X4.9599 Y-13.3982 Z1.5475
G1 X4.8799 Y-13.5930 Z1.5475
G1 X4.8000 Y-13.7820 Z1.5475
G1 X4.6398 Y-14.1503 Z1.5475
G1 X4.4784 Y-14.5198 Z1.5475
G1 X4.3145 Y-14.9067 Z1.5475
G1 X4.2262 Y-15.1247 Z1.5475
G3X3.5836Y-17.1149Z1.5475I14.3617J-5.7361
G1 X3.5425 Y-17.2890 Z1.5244
G1 X3.5043 Y-17.4634 Z1.4990
G1 X3.4690 Y-17.6380 Z1.4705
G1 X3.4370 Y-17.8126 Z1.4386
G1 X3.4084 Y-17.9871 Z1.4034
G1 X3.3832 Y-18.1615 Z1.3647
G1 X3.3620 Y-18.3356 Z1.3227
G1 X3.3450 Y-18.5095 Z1.2780
G1 X3.3328 Y-18.6832 Z1.2311
G1 X3.3257 Y-18.8567 Z1.1824
G1 X3.3241 Y-19.0300 Z1.1325
G1 X3.3286 Y-19.2030 Z1.0819
G1 X3.3397 Y-19.3757 Z1.0310
G1 X3.3584 Y-19.5477 Z0.9803
G1 X3.3708 Y-19.6334 Z0.9551
G1 X3.3854 Y-19.7189 Z0.9302
G1 X3.4022 Y-19.8040 Z0.9056
G1 X3.4213 Y-19.8887 Z0.8814
G1 X3.4426 Y-19.9731 Z0.8577
G1 X3.4661 Y-20.0570 Z0.8346
G1 X3.4920 Y-20.1404 Z0.8122
G1 X3.5201 Y-20.2233 Z0.7904
G1 X3.5505 Y-20.3055 Z0.7693
G1 X3.5832 Y-20.3871 Z0.7490
G1 X3.6181 Y-20.4679 Z0.7294
G1 X3.6553 Y-20.5479 Z0.7107
G1 X3.6947 Y-20.6270 Z0.6928
G1 X3.7363 Y-20.7052 Z0.6759
G1 X3.7800 Y-20.7824 Z0.6598
G1 X3.8259 Y-20.8585 Z0.6448
G1 X3.8739 Y-20.9336 Z0.6308
G1 X3.9238 Y-21.0075 Z0.6178
G1 X3.9758 Y-21.0803 Z0.6058
G1 X4.0295 Y-21.1519 Z0.5948
G1 X4.0850 Y-21.2223 Z0.5847
G1 X4.1422 Y-21.2914 Z0.5757
G1 X4.2012 Y-21.3591 Z0.5677
G1 X4.2619 Y-21.4253 Z0.5608
G1 X4.3244 Y-21.4901 Z0.5550
G1 X4.3886 Y-21.5532 Z0.5504
G1 X4.4545 Y-21.6147 Z0.5469
G1 X4.5219 Y-21.6746 Z0.5446
G1 X4.5909 Y-21.7327 Z0.5434
G1 X4.6613 Y-21.7891 Z0.5433
G1 X4.7330 Y-21.8437 Z0.5443
G1 X4.8061 Y-21.8965 Z0.5464
G1 X4.8804 Y-21.9474 Z0.5496
G1 X4.9559 Y-21.9965 Z0.5539
G1 X5.0325 Y-22.0437 Z0.5593
G1 X5.1102 Y-22.0890 Z0.5657
G1 X5.1889 Y-22.1324 Z0.5732
G1 X5.2686 Y-22.1739 Z0.5816
G1 X5.3490 Y-22.2136 Z0.5910
G1 X5.4302 Y-22.2515 Z0.6012
G1 X5.5945 Y-22.3223 Z0.6242
G1 X5.7609 Y-22.3867 Z0.6500
G1 X5.9290 Y-22.4454 Z0.6783
G1 X6.0986 Y-22.4990 Z0.7086
G1 X6.2692 Y-22.5479 Z0.7407
G1 X6.4407 Y-22.5922 Z0.7743
G1 X6.6131 Y-22.6321 Z0.8091
G1 X6.7863 Y-22.6673 Z0.8453
G1 X6.9601 Y-22.6975 Z0.8827
G1 X7.1345 Y-22.7227 Z0.9211
G1 X7.3093 Y-22.7429 Z0.9605
G1 X7.4845 Y-22.7587 Z1.0005
G1 X7.6599 Y-22.7708 Z1.0406
G1 X7.8355 Y-22.7797 Z1.0806
G1 X8.0114 Y-22.7860 Z1.1202
G1 X8.1874 Y-22.7903 Z1.1591
G1 X8.5402 Y-22.7947 Z1.2340
G1 X8.8941 Y-22.7964 Z1.3041
G1 X9.2491 Y-22.7974 Z1.3680
G1 X9.6053 Y-22.7981 Z1.4247
G1 X9.7838 Y-22.7984 Z1.4500
G1 X9.9627 Y-22.7984 Z1.4732
G1 X10.3211 Y-22.7980 Z1.5137
G1 X10.6802 Y-22.7974 Z1.5475
G3X10.7330Y-22.7973Z1.5475I-21.0752J16132.6031
G1 X11.1123 Y-22.7951 Z1.5475
G1 X11.4647 Y-22.7882 Z1.5475
G1 X11.7927 Y-22.7756 Z1.5475
G1 X11.9484 Y-22.7669 Z1.5475
G1 X12.0990 Y-22.7563 Z1.5475
G3X13.1593Y-22.5907Z1.5475I-0.4012J6.0469
G1 X13.1593 Y-22.5907 Z2.7213
G0 Z2.7213
G0 X13.1593 Y-22.5907 
G1 X13.1593 Y-22.5907 Z1.3850 F75.
G3X14.6034Y-21.9235Z1.3850I-1.1918J4.4759
G1 X14.7092 Y-21.8491 Z1.3850
G1 X14.8103 Y-21.7738 Z1.3850
G1 X14.9064 Y-21.6980 Z1.3850
G1 X14.9971 Y-21.6219 Z1.3850
G1 X15.0820 Y-21.5461 Z1.3850
G1 X15.1606 Y-21.4708 Z1.3850
G1 X15.2327 Y-21.3966 Z1.3850
G1 X15.2977 Y-21.3237 Z1.3850
G1 X15.3422 Y-21.2696 Z1.3850
G1 X15.3839 Y-21.2150 Z1.3850
G1 X15.4240 Y-21.1586 Z1.3850
G1 X15.4640 Y-21.0990 Z1.3850
G1 X15.5286 Y-20.9976 Z1.3850
G1 X15.5910 Y-20.8948 Z1.3850
G1 X15.6517 Y-20.7910 Z1.3850
G1 X15.7101 Y-20.6859 Z1.3850
G1 X15.7643 Y-20.5786 Z1.3850
G1 X15.8151 Y-20.4696 Z1.3850
G1 X15.8625 Y-20.3591 Z1.3850
G1 X15.9059 Y-20.2469 Z1.3850
G1 X15.9449 Y-20.1332 Z1.3850
G1 X15.9795 Y-20.0180 Z1.3850
G1 X16.0098 Y-19.9017 Z1.3850
G1 X16.0359 Y-19.7843 Z1.3850
G1 X16.0577 Y-19.6660 Z1.3850
G1 X16.0754 Y-19.5471 Z1.3850
G3X16.0549Y-18.3484Z1.3850I-4.3554J0.5252
G1 X16.0366 Y-18.2296 Z1.3850
G1 X16.0159 Y-18.1112 Z1.3850
G1 X15.9682 Y-17.8755 Z1.3850
G1 X15.9133 Y-17.6413 Z1.3850
G1 X15.8525 Y-17.4086 Z1.3850
G3X15.5294Y-16.3531Z1.3850I-10.1169J-2.5204
G1 X15.4594 Y-16.1484 Z1.3850
G1 X15.3865 Y-15.9448 Z1.3850
G1 X15.3097 Y-15.7427 Z1.3850
G1 X15.2280 Y-15.5424 Z1.3850
G1 X15.1399 Y-15.3449 Z1.3850
G1 X15.0447 Y-15.1508 Z1.3850
G1 X14.9432 Y-14.9598 Z1.3850
G1 X14.8399 Y-14.7698 Z1.3850
G1 X14.6904 Y-14.4470 Z1.3850
G1 X14.6200 Y-14.2885 Z1.3850
G1 X14.5533 Y-14.1315 Z1.3850
G1 X14.4912 Y-13.9761 Z1.3850
G1 X14.4342 Y-13.8220 Z1.3850
G1 X14.3830 Y-13.6690 Z1.3850
G1 X14.3383 Y-13.5170 Z1.3850
G1 X14.3052 Y-13.3693 Z1.3850
G1 X14.2783 Y-13.2204 Z1.3850
G1 X14.2581 Y-13.0703 Z1.3850
G2X14.3691Y-11.8730Z1.3850I2.9027J0.3346
G1 X14.4161 Y-11.7291 Z1.3850
G1 X14.4686 Y-11.5871 Z1.3850
G1 X14.5259 Y-11.4470 Z1.3850
G1 X14.5870 Y-11.3085 Z1.3850
G1 X14.6508 Y-11.1712 Z1.3850
G1 X14.7821 Y-10.8985 Z1.3850
G1 X14.9106 Y-10.6243 Z1.3850
G1 X14.9713 Y-10.4856 Z1.3850
G1 X15.0282 Y-10.3454 Z1.3850
G1 X15.0806 Y-10.2034 Z1.3850
G1 X15.1276 Y-10.0595 Z1.3850
G1 X15.1681 Y-9.9136 Z1.3850
G1 X15.2013 Y-9.7660 Z1.3850
G1 X15.2149 Y-9.6915 Z1.3850
G1 X15.2262 Y-9.6167 Z1.3850
G1 X15.2354 Y-9.5415 Z1.3850
G1 X15.2422 Y-9.4662 Z1.3850
G1 X15.2495 Y-9.3150 Z1.3850
G1 X15.2502 Y-9.1636 Z1.3850
G1 X15.2461 Y-8.8609 Z1.3850
G1 X15.2427 Y-8.7220 Z1.3850
G1 X15.2359 Y-8.5834 Z1.3850
G1 X15.2247 Y-8.4450 Z1.3850
G1 X15.2086 Y-8.3070 Z1.3850
G1 X15.1878 Y-8.1698 Z1.3850
G1 X15.1625 Y-8.0332 Z1.3850
G1 X15.1331 Y-7.8975 Z1.3850
G1 X15.0998 Y-7.7627 Z1.3850
G1 X15.0628 Y-7.6289 Z1.3850
G1 X15.0222 Y-7.4961 Z1.3850
G1 X14.9783 Y-7.3644 Z1.3850
G1 X14.9307 Y-7.2339 Z1.3850
G1 X14.8792 Y-7.1049 Z1.3850
G1 X14.8235 Y-6.9778 Z1.3850
G1 X14.7628 Y-6.8529 Z1.3850
G1 X14.7300 Y-6.7916 Z1.3850
G1 X14.6954 Y-6.7315 Z1.3850
G3X14.4750Y-6.6611Z1.3850I-0.1501J-0.0898
G3X14.3774Y-6.8709Z1.3850I0.0703J-0.1602
G2X14.4562Y-8.5276Z1.3850I-3.2762J-0.9859
G1 X14.4324 Y-8.6296 Z1.3850
G1 X14.4048 Y-8.7306 Z1.3850
G1 X14.3730 Y-8.8304 Z1.3850
G1 X14.3370 Y-8.9286 Z1.3850
G1 X14.2965 Y-9.0251 Z1.3850
G1 X14.2514 Y-9.1195 Z1.3850
G1 X14.2014 Y-9.2115 Z1.3850
G1 X14.1465 Y-9.3007 Z1.3850
G2X13.3636Y-9.9769Z1.3850I-1.6206J1.0852
G2X12.2456Y-10.1814Z1.3850I-0.9137J1.8367
G1 X12.1419 Y-10.1669 Z1.3850
G1 X12.0392 Y-10.1466 Z1.3850
G2X11.2125Y-9.7167Z1.3850I0.4038J1.7864
G1 X11.1387 Y-9.6423 Z1.3850
G1 X11.1040 Y-9.6031 Z1.3850
G1 X11.0710 Y-9.5626 Z1.3850
G1 X11.0398 Y-9.5206 Z1.3850
G1 X11.0104 Y-9.4773 Z1.3850
G1 X10.9831 Y-9.4326 Z1.3850
G1 X10.9581 Y-9.3866 Z1.3850
G1 X10.9353 Y-9.3394 Z1.3850
G1 X10.9151 Y-9.2911 Z1.3850
G1 X10.8976 Y-9.2418 Z1.3850
G1 X10.8829 Y-9.1915 Z1.3850
G1 X10.8714 Y-9.1405 Z1.3850
G1 X10.8632 Y-9.0888 Z1.3850
G1 X10.8586 Y-9.0367 Z1.3850
G1 X10.8572 Y-8.9843 Z1.3850
G1 X10.8564 Y-8.0980 Z1.3850
G1 X10.8552 Y-7.2145 Z1.3850
G1 X10.8506 Y-7.1735 Z1.3850
G1 X10.8382 Y-7.1341 Z1.3850
G1 X10.8184 Y-7.0979 Z1.3850
G1 X10.7920 Y-7.0661 Z1.3850
G1 X10.7599 Y-7.0402 Z1.3850
G1 X10.7234 Y-7.0208 Z1.3850
G1 X10.6839 Y-7.0090 Z1.3850
G1 X10.6428 Y-7.0049 Z1.3850
G1 X8.8570 Y-7.0049 Z1.3850
G1 X8.8206 Y-7.0082 Z1.3850
G3X8.6486Y-7.1760Z1.3850I0.0347J-0.2076
G2X8.5574Y-7.5618Z1.3850I-1.9892J0.2663
G1 X8.5325 Y-7.6231 Z1.3850
G1 X8.5034 Y-7.6825 Z1.3850
G1 X8.4696 Y-7.7393 Z1.3850
G1 X8.4318 Y-7.7937 Z1.3850
G1 X8.3912 Y-7.8459 Z1.3850
G1 X8.3480 Y-7.8960 Z1.3850
G1 X8.3023 Y-7.9439 Z1.3850
G1 X8.2542 Y-7.9893 Z1.3850
G1 X8.2038 Y-8.0322 Z1.3850
G1 X8.1512 Y-8.0724 Z1.3850
G1 X8.0967 Y-8.1098 Z1.3850
G1 X8.0402 Y-8.1444 Z1.3850
G1 X7.9821 Y-8.1760 Z1.3850
G1 X7.9225 Y-8.2046 Z1.3850
G1 X7.8614 Y-8.2301 Z1.3850
G1 X7.7992 Y-8.2526 Z1.3850
G1 X7.7359 Y-8.2720 Z1.3850
G1 X7.6717 Y-8.2883 Z1.3850
G1 X7.6069 Y-8.3015 Z1.3850
G1 X7.5415 Y-8.3116 Z1.3850
G1 X7.4758 Y-8.3187 Z1.3850
G1 X7.4097 Y-8.3227 Z1.3850
G1 X7.3436 Y-8.3239 Z1.3850
G1 X7.2774 Y-8.3221 Z1.3850
G1 X7.2114 Y-8.3175 Z1.3850
G1 X7.1456 Y-8.3101 Z1.3850
G1 X7.0693 Y-8.3006 Z1.3850
G1 X6.9936 Y-8.2872 Z1.3850
G1 X6.9187 Y-8.2700 Z1.3850
G1 X6.8447 Y-8.2489 Z1.3850
G1 X6.7720 Y-8.2239 Z1.3850
G1 X6.7006 Y-8.1953 Z1.3850
G1 X6.6309 Y-8.1629 Z1.3850
G1 X6.5629 Y-8.1270 Z1.3850
G1 X6.4969 Y-8.0875 Z1.3850
G1 X6.4331 Y-8.0447 Z1.3850
G1 X6.3715 Y-7.9985 Z1.3850
G1 X6.3125 Y-7.9493 Z1.3850
G1 X6.2561 Y-7.8970 Z1.3850
G1 X6.2024 Y-7.8420 Z1.3850
G1 X6.1514 Y-7.7844 Z1.3850
G1 X6.1033 Y-7.7244 Z1.3850
G1 X6.0583 Y-7.6620 Z1.3850
G1 X6.0166 Y-7.5975 Z1.3850
G1 X5.9775 Y-7.5313 Z1.3850
G1 X5.9406 Y-7.4638 Z1.3850
G1 X5.8717 Y-7.3263 Z1.3850
G1 X5.8090 Y-7.1859 Z1.3850
G1 X5.7519 Y-7.0430 Z1.3850
G1 X5.7002 Y-6.8982 Z1.3850
G1 X5.6543 Y-6.7515 Z1.3850
G1 X5.6146 Y-6.6029 Z1.3850
G1 X5.5811 Y-6.4528 Z1.3850
G1 X5.5539 Y-6.3014 Z1.3850
G1 X5.5329 Y-6.1490 Z1.3850
G2X5.8513Y-4.2018Z1.3850I3.5242J0.4234
G3X5.5168Y-3.9527Z1.3850I-0.1917J0.0917
G3X4.8962Y-4.7115Z1.3850I2.7204J-2.8583
G1 X4.8310 Y-4.8156 Z1.3850
G1 X4.7684 Y-4.9213 Z1.3850
G1 X4.7082 Y-5.0284 Z1.3850
G1 X4.6506 Y-5.1369 Z1.3850
G1 X4.5955 Y-5.2467 Z1.3850
G1 X4.5430 Y-5.3578 Z1.3850
G1 X4.4930 Y-5.4700 Z1.3850
G1 X4.4455 Y-5.5833 Z1.3850
G1 X4.4231 Y-5.6450 Z1.3850
G1 X4.4055 Y-5.7082 Z1.3850
G1 X4.3743 Y-5.8356 Z1.3850
G1 X4.3461 Y-5.9638 Z1.3850
G1 X4.3204 Y-6.0925 Z1.3850
G1 X4.2976 Y-6.2217 Z1.3850
G1 X4.2778 Y-6.3515 Z1.3850
G1 X4.2614 Y-6.4816 Z1.3850
G1 X4.2485 Y-6.6122 Z1.3850
G1 X4.2393 Y-6.7432 Z1.3850
G1 X4.2336 Y-6.8743 Z1.3850
G1 X4.2311 Y-7.0055 Z1.3850
G1 X4.2312 Y-7.1367 Z1.3850
G1 X4.2380 Y-7.3991 Z1.3850
G1 X4.2511 Y-7.6612 Z1.3850
G1 X4.2640 Y-7.8609 Z1.3850
G1 X4.2800 Y-8.0603 Z1.3850
G1 X4.3012 Y-8.2592 Z1.3850
G1 X4.3168 Y-8.3580 Z1.3850
G1 X4.3402 Y-8.4552 Z1.3850
G1 X4.4782 Y-8.9619 Z1.3850
G1 X4.6240 Y-9.4664 Z1.3850
G1 X4.7766 Y-9.9689 Z1.3850
G1 X4.9310 Y-10.4708 Z1.3850
G1 X5.0057 Y-10.7225 Z1.3850
G1 X5.0760 Y-10.9755 Z1.3850
G1 X5.1087 Y-11.1027 Z1.3850
G2X5.2531Y-12.0086Z1.3850I-4.5598J-1.1915
G1 X5.2560 Y-12.1399 Z1.3850
G2X5.1162Y-12.9772Z1.3850I-2.5494J-0.0048
G1 X5.0797 Y-13.0849 Z1.3850
G1 X5.0410 Y-13.1910 Z1.3850
G1 X4.9599 Y-13.3982 Z1.3850
G1 X4.8799 Y-13.5930 Z1.3850
G1 X4.8000 Y-13.7820 Z1.3850
G1 X4.6398 Y-14.1503 Z1.3850
G1 X4.4784 Y-14.5198 Z1.3850
G1 X4.3145 Y-14.9067 Z1.3850
G1 X4.2262 Y-15.1247 Z1.3850
G3X3.5836Y-17.1149Z1.3850I14.3617J-5.7361
G1 X3.5425 Y-17.2890 Z1.3619
G1 X3.5043 Y-17.4634 Z1.3365
G1 X3.4690 Y-17.6380 Z1.3080
G1 X3.4370 Y-17.8126 Z1.2761
G1 X3.4084 Y-17.9871 Z1.2409
G1 X3.3832 Y-18.1615 Z1.2022
G1 X3.3620 Y-18.3356 Z1.1602
G1 X3.3450 Y-18.5095 Z1.1155
G1 X3.3328 Y-18.6832 Z1.0686
G1 X3.3257 Y-18.8567 Z1.0199
G1 X3.3241 Y-19.0300 Z0.9700
G1 X3.3286 Y-19.2030 Z0.9194
G1 X3.3397 Y-19.3757 Z0.8685
G1 X3.3584 Y-19.5477 Z0.8178
G1 X3.3708 Y-19.6334 Z0.7926
G1 X3.3854 Y-19.7189 Z0.7677
G1 X3.4022 Y-19.8040 Z0.7431
G1 X3.4213 Y-19.8887 Z0.7189
G1 X3.4426 Y-19.9731 Z0.6952
G1 X3.4661 Y-20.0570 Z0.6721
G1 X3.4920 Y-20.1404 Z0.6497
G1 X3.5201 Y-20.2233 Z0.6279
G1 X3.5505 Y-20.3055 Z0.6068
G1 X3.5832 Y-20.3871 Z0.5865
G1 X3.6181 Y-20.4679 Z0.5669
G1 X3.6553 Y-20.5479 Z0.5482
G1 X3.6947 Y-20.6270 Z0.5303
G1 X3.7363 Y-20.7052 Z0.5134
G1 X3.7800 Y-20.7824 Z0.4973
G1 X3.8259 Y-20.8585 Z0.4823
G1 X3.8739 Y-20.9336 Z0.4683
G1 X3.9238 Y-21.0075 Z0.4553
G1 X3.9758 Y-21.0803 Z0.4433
G1 X4.0295 Y-21.1519 Z0.4323
G1 X4.0850 Y-21.2223 Z0.4222
G1 X4.1422 Y-21.2914 Z0.4132
G1 X4.2012 Y-21.3591 Z0.4052
G1 X4.2619 Y-21.4253 Z0.3983
G1 X4.3244 Y-21.4901 Z0.3925
G1 X4.3886 Y-21.5532 Z0.3879
G1 X4.4545 Y-21.6147 Z0.3844
G1 X4.5219 Y-21.6746 Z0.3821
G1 X4.5909 Y-21.7327 Z0.3809
G1 X4.6613 Y-21.7891 Z0.3808
G1 X4.7330 Y-21.8437 Z0.3818
G1 X4.8061 Y-21.8965 Z0.3839
G1 X4.8804 Y-21.9474 Z0.3871
G1 X4.9559 Y-21.9965 Z0.3914
G1 X5.0325 Y-22.0437 Z0.3968
G1 X5.1102 Y-22.0890 Z0.4032
G1 X5.1889 Y-22.1324 Z0.4107
G1 X5.2686 Y-22.1739 Z0.4191
G1 X5.3490 Y-22.2136 Z0.4285
G1 X5.4302 Y-22.2515 Z0.4387
G1 X5.5945 Y-22.3223 Z0.4617
G1 X5.7609 Y-22.3867 Z0.4875
G1 X5.9290 Y-22.4454 Z0.5158
G1 X6.0986 Y-22.4990 Z0.5461
G1 X6.2692 Y-22.5479 Z0.5782
G1 X6.4407 Y-22.5922 Z0.6118
G1 X6.6131 Y-22.6321 Z0.6466
G1 X6.7863 Y-22.6673 Z0.6828
G1 X6.9601 Y-22.6975 Z0.7202
G1 X7.1345 Y-22.7227 Z0.7586
G1 X7.3093 Y-22.7429 Z0.7980
G1 X7.4845 Y-22.7587 Z0.8380
G1 X7.6599 Y-22.7708 Z0.8781
G1 X7.8355 Y-22.7797 Z0.9181
G1 X8.0114 Y-22.7860 Z0.9577
G1 X8.1874 Y-22.7903 Z0.9966
G1 X8.5402 Y-22.7947 Z1.0715
G1 X8.8941 Y-22.7964 Z1.1416
G1 X9.2491 Y-22.7974 Z1.2055
G1 X9.6053 Y-22.7981 Z1.2622
G1 X9.7838 Y-22.7984 Z1.2875
G1 X9.9627 Y-22.7984 Z1.3107
G1 X10.3211 Y-22.7980 Z1.3512
G1 X10.6802 Y-22.7974 Z1.3850
G3X10.7330Y-22.7973Z1.3850I-21.0752J16132.6031
G1 X11.1123 Y-22.7951 Z1.3850
G1 X11.4647 Y-22.7882 Z1.3850
G1 X11.7927 Y-22.7756 Z1.3850
G1 X11.9484 Y-22.7669 Z1.3850
G1 X12.0990 Y-22.7563 Z1.3850
G3X13.1593Y-22.5907Z1.3850I-0.4012J6.0469
G1 X13.3875 Y-22.5348 Z1.4705
G0 Z6.0000
G0 X13.3875 Y-22.5348 
M5
G53 Z
X2Y0
