( MOP:  10-FullBody-Adcock-01 )
( FILE: G:\Shared drives\AlloyProjectFiles\Customer CAD files\Alloy-Standard-Builds-CAM\s-in\FullAdcock-Specific\10-FullBody-Adcock-01.nc)
G90
(  BEGIN TOOL LIST )
(  TOOL 13 - Straight PT750 - DESC: 0.7500 DIA, 2 FLUTE,  CARBIDE MAT )
(  ENDOF TOOL LIST )
( 10-FullBody-Adcock-01)
T13
S14000
M3
G0 Z4.0000
G0 X2.5516 Y-18.0799 
G1 X2.5516 Y-18.0799 Z0.2500 F75.
G17
G2X3.0168Y-18.6248Z0.2500I-0.0326J-0.4989 F30.
G1 X3.0036 Y-18.8268 Z0.2500
G3X3.0320Y-19.5807Z0.2500I4.4129J-0.2110
G1 X3.0585 Y-19.7557 Z0.2500
G1 X3.0921 Y-19.9248 Z0.2500
G3X3.2257Y-20.3805Z0.2500I3.4806J0.7735
G1 X3.2760 Y-20.5092 Z0.2500
G1 X3.3251 Y-20.6230 Z0.2500
G1 X3.4097 Y-20.8000 Z0.2500
G1 X3.4669 Y-20.9078 Z0.2500
G3X3.7293Y-21.3390Z0.2500I5.7834J3.2238
G3X4.0381Y-21.7125Z0.2500I2.0248J1.3597
G3X4.4628Y-22.0791Z0.2500I2.8499J2.8720
G3X5.7140Y-22.7781Z0.2500I3.1778J4.2190
G3X6.3501Y-22.9719Z0.2500I1.6763J4.3621
G3X7.0417Y-23.0871Z0.2500I1.3492J5.9641
G3X7.8219Y-23.1425Z0.2500I1.1433J10.5838
G1 X8.0355 Y-23.1493 Z0.2500
G1 X8.2578 Y-23.1538 Z0.2500
G1 X8.7302 Y-23.1573 Z0.2500
G3X11.1216Y-23.1528Z0.2500I0.7104J256.2583
G3X11.9211Y-23.1242Z0.2500I-0.1503J15.4106
G1 X12.1637 Y-23.1040 Z0.2500
G1 X12.4015 Y-23.0765 Z0.2500
G3X13.8900Y-22.7018Z0.2500I-0.9317J6.8452
G3X14.7201Y-22.2895Z0.2500I-1.5627J4.1878
G3X16.1510Y-20.6706Z0.2500I-2.1038J3.3014
G3X16.4656Y-19.5863Z0.2500I-3.2992J1.5450
G3X16.5020Y-19.0005Z0.2500I-4.5142J0.5749
G3X16.4142Y-17.9363Z0.2500I-7.0147J-0.0428
G1 X16.3693 Y-17.6699 Z0.2500
G3X16.1222Y-16.6095Z0.2500I-11.8468J-2.2017
G3X15.4136Y-14.6001Z0.2500I-15.9499J-4.4953
G1 X15.2608 Y-14.2453 Z0.2500
G2X14.8910Y-13.3884Z0.2500I46.4208J20.5443
G2X14.7169Y-12.9395Z0.2500I8.4923J3.5515
G2X14.5987Y-12.4965Z0.2500I2.6836J0.9534
G2X14.5724Y-12.0284Z0.2500I2.1805J0.3570
G2X14.6257Y-11.5644Z0.2500I3.4752J-0.1641
G2X14.7786Y-10.9192Z0.2500I6.4925J-1.1977
G1 X14.8633 Y-10.6291 Z0.2500
G1 X15.0668 Y-9.9665 Z0.2500
G3X15.4555Y-8.6164Z0.2500I-35.4139J10.9259
G1 X15.4953 Y-8.4606 Z0.2500
G1 X15.5103 Y-8.3832 Z0.2500
G1 X15.5244 Y-8.2850 Z0.2500
G3X15.5816Y-7.5466Z0.2500I-11.1311J1.2335
G3X15.5940Y-6.9282Z0.2500I-9.2188J0.4931
G3X15.5137Y-6.1050Z0.2500I-5.2296J-0.0942
G3X15.4047Y-5.6017Z0.2500I-6.4155J-1.1265
G1 X15.3763 Y-5.5064 Z0.2500
G3X14.5779Y-4.1046Z0.2500I-5.0978J-1.9754
G3X14.1910Y-3.6861Z0.2500I-2.8315J-2.2290
G3X13.4644Y-3.6510Z0.2500I-0.3846J-0.4240
G3X13.2887Y-4.3547Z0.2500I0.3420J-0.4591
G2X13.5812Y-6.0555Z0.2500I-2.8737J-1.3698
G2X13.1535Y-7.3917Z0.2500I-3.3834J0.3466
G2X12.8119Y-7.7597Z0.2500I-1.0235J0.6074
G2X12.2789Y-7.9524Z0.2500I-0.6360J0.9257
G2X11.8390Y-7.9284Z0.2500I-0.1601J1.1044
G2X11.3388Y-7.5992Z0.2500I0.2342J0.9007
G2X11.2600Y-7.4713Z0.2500I0.4650J0.3743
G2X11.1971Y-7.2575Z0.2500I0.9599J0.3986
G1 X11.1691 Y-7.0987 Z0.2500
G1 X11.1515 Y-7.0323 Z0.2500
G1 X11.1393 Y-6.9995 Z0.2500
G3X11.0545Y-6.8571Z0.2500I-0.5208J-0.2138
G1 X11.0306 Y-6.8293 Z0.2500
G3X10.9017Y-6.7256Z0.2500I-0.4308J-0.4031
G3X10.6272Y-6.6454Z0.2500I-0.2917J-0.4887
G1 X8.8093 Y-6.6452 Z0.2500
G3X8.6493Y-6.6726Z0.2500I0.0155J-0.5712
G1 X8.6253 Y-6.6803 Z0.2500
G1 X8.5927 Y-6.6937 Z0.2500
G1 X8.5276 Y-6.7273 Z0.2500
G1 X8.4971 Y-6.7471 Z0.2500
G3X8.4051Y-6.8267Z0.2500I0.3895J-0.5429
G1 X8.3577 Y-6.8845 Z0.2500
G1 X8.3375 Y-6.9146 Z0.2500
G3X8.2857Y-7.0211Z0.2500I0.5771J-0.3469
G1 X8.2656 Y-7.0884 Z0.2500
G1 X8.2583 Y-7.1261 Z0.2500
G1 X8.2512 Y-7.1955 Z0.2500
G1 X8.2488 Y-8.9791 Z0.2500
G2X8.1911Y-9.2151Z0.2500I-0.4987J-0.0031
G2X8.0738Y-9.3859Z0.2500I-0.7018J0.3563
G2X7.8262Y-9.5938Z0.2500I-0.8906J0.8090
G2X6.7753Y-9.8150Z0.2500I-0.8166J1.2728
G2X5.8369Y-9.3620Z0.2500I0.2663J1.7502
G2X5.5386Y-8.9619Z0.2500I1.0069J1.0620
G2X5.3635Y-8.4604Z0.2500I1.8076J0.9121
G2X5.3484Y-7.3391Z0.2500I2.9352J0.6003
G2X5.4372Y-6.9614Z0.2500I3.1899J-0.5504
G3X5.1356Y-6.3314Z0.2500I-0.5167J0.1398
G3X4.4617Y-6.5466Z0.2500I-0.2149J-0.4899
G3X4.2158Y-7.0620Z0.2500I3.0589J-1.7753
G3X3.9146Y-8.1628Z0.2500I5.0248J-1.9667
G3X3.8665Y-8.6374Z0.2500I4.3458J-0.6801
G3X3.8575Y-9.3508Z0.2500I14.7190J-0.5414
G1 X3.8635 Y-9.4718 Z0.2500
G1 X3.8761 Y-9.6090 Z0.2500
G1 X3.8994 Y-9.7692 Z0.2500
G3X4.0380Y-10.2998Z0.2500I3.3512J0.5921
G3X4.2060Y-10.7255Z0.2500I4.8240J1.6583
G1 X4.2839 Y-10.8960 Z0.2500
G1 X4.4564 Y-11.2553 Z0.2500
G2X4.6451Y-11.6756Z0.2500I-6.4756J-3.1592
G2X4.8200Y-12.2489Z0.2500I-2.9408J-1.2107
G2X4.8390Y-13.1170Z0.2500I-2.5231J-0.4894
G2X4.6980Y-13.7106Z0.2500I-3.4131J0.4970
G2X4.4632Y-14.2943Z0.2500I-4.7319J1.5645
G1 X4.3829 Y-14.4579 Z0.2500
G1 X4.2913 Y-14.6321 Z0.2500
G3X4.0528Y-15.0824Z0.2500I11.5995J-6.4339
G1 X3.9733 Y-15.2503 Z0.2500
G3X3.7186Y-15.8839Z0.2500I7.9174J-3.5511
G3X3.2436Y-17.3977Z0.2500I19.3171J-6.8916
G3X3.0721Y-18.1840Z0.2500I8.0063J-2.1586
G1 X3.0408 Y-18.3995 Z0.2500
G3X2.9986Y-19.0387Z0.2500I5.1269J-0.6601
G1 X3.0002 Y-19.1243 Z0.2500
G2X2.5100Y-19.6345Z0.2500I-0.4999J-0.0103
G0 Z4.0000
G0 X2.5100 Y-19.6345 
M5
G53 Z
X2Y0
