( MOP:  FrontRoundover-Adcock-PT125-02-front )
( FILE: G:\Shared drives\AlloyProjectFiles\Customer CAD files\Alloy-Standard-Builds-CAM\s-in\FullAdcock-Specific\FrontRoundover-Adcock-PT125-02-front.nc)
G90
(  BEGIN TOOL LIST )
(  TOOL 15 - Roundover PT125 Accusize - DESC: 0.2625 DIA, 2 FLUTE,  CARBIDE MAT )
(  ENDOF TOOL LIST )
( FrontRoundover-Adcock-PT125-02-front)
( Accusize 1011-0018 Depth .1822 diameter .2625 but added .001 since there was a line in test cuts)
T15
S9000
M3
G0 Z4.0000
G0 X3.4339 Y-17.2668 
G1 X3.4339 Y-17.2668 Z1.9100 F75.
G1 X3.4168 Y-17.3413 Z1.8965 F25.
G1 X3.3746 Y-17.5413 Z1.8605
G1 X3.3364 Y-17.7416 Z1.8245
G1 X3.3026 Y-17.9418 Z1.7887
G1 X3.2736 Y-18.1413 Z1.7532
G1 X3.2498 Y-18.3397 Z1.7180
G1 X3.2315 Y-18.5364 Z1.6831
G1 X3.2225 Y-18.6672 Z1.6600
G17
G3X3.2207Y-19.2739Z1.6600I5.2649J-0.3190 F80.
G3X3.3720Y-20.1303Z1.6600I3.5979J0.1940
G3X3.8779Y-21.1350Z1.6600I3.2668J1.0154
G3X5.0822Y-22.2008Z1.6600I2.9863J2.1610
G3X5.7809Y-22.5121Z1.6600I2.1789J3.9511
G3X7.0897Y-22.8289Z1.6600I2.2255J6.3310
G1 X7.3187 Y-22.8557 Z1.6600
G1 X7.5552 Y-22.8756 Z1.6600
G1 X7.8020 Y-22.8895 Z1.6600
G1 X8.0636 Y-22.8986 Z1.6600
G1 X8.3442 Y-22.9040 Z1.6600
G1 X8.9802 Y-22.9079 Z1.6600
G3X11.0267Y-22.9073Z1.6600I0.9263J296.9556
G3X12.0557Y-22.8711Z1.6600I-0.0598J16.3523
G3X12.7070Y-22.7979Z1.6600I-0.5456J7.7916
G1 X12.9075 Y-22.7621 Z1.6600
G1 X13.1017 Y-22.7197 Z1.6600
G1 X13.2905 Y-22.6703 Z1.6600
G3X13.6577Y-22.5479Z1.6600I-1.1808J4.1556
G1 X13.8351 Y-22.4753 Z1.6600
G3X14.9429Y-21.8112Z1.6600I-2.0241J4.6322
G3X15.2914Y-21.4963Z1.6600I-2.2380J2.8277
G1 X15.3844 Y-21.3934 Z1.6600
G1 X15.4659 Y-21.2910 Z1.6600
G1 X15.5417 Y-21.1832 Z1.6600
G1 X15.6166 Y-21.0665 Z1.6600
G1 X15.7403 Y-20.8601 Z1.6600
G3X16.0863Y-20.0492Z1.6600I-3.0965J1.8005
G3X16.2187Y-19.0383Z1.6600I-3.5734J0.9820
G3X16.1739Y-18.3956Z1.6600I-4.9104J-0.0196
G3X16.0182Y-17.6024Z1.6600I-7.1193J-0.9851
G1 X15.9717 Y-17.4233 Z1.6600
G3X15.5052Y-15.9456Z1.6600I-19.5459J-5.3585
G3X15.1856Y-15.1832Z1.6600I-7.2950J-2.6101
G1 X15.1176 Y-15.0500 Z1.6600
G1 X14.9004 Y-14.6461 Z1.6600
G2X14.6032Y-13.9913Z1.6600I5.2439J2.7743
G2X14.4076Y-13.3133Z1.6600I3.8785J1.4861
G2X14.3551Y-12.5690Z1.6600I2.9474J0.5819
G2X14.4306Y-12.0702Z1.6600I2.7826J-0.1658
G2X14.6089Y-11.5369Z1.6600I3.5315J-0.8840
G1 X14.6583 Y-11.4215 Z1.6600
G1 X14.7077 Y-11.3123 Z1.6600
G1 X14.8045 Y-11.1078 Z1.6600
G1 X14.9742 Y-10.7533 Z1.6600
G3X15.2000Y-10.1975Z1.6600I-4.7847J2.2679
G3X15.3503Y-9.5074Z1.6600I-2.8222J0.9759
G3X15.3616Y-9.1974Z1.6600I-3.2185J0.2731
G1 X15.3581 Y-8.9106 Z1.6600
G1 X15.3521 Y-8.6722 Z1.6600
G3X15.2189Y-7.7790Z1.6600I-4.3163J-0.1873
G3X14.9088Y-6.8974Z1.6600I-4.8777J-1.2201
G3X14.7909Y-6.6743Z1.6600I-2.4545J-1.1548
G3X14.4303Y-6.5592Z1.6600I-0.2456J-0.1470
G3X14.2705Y-6.9015Z1.6600I0.1150J-0.2621
G2X14.3652Y-8.4130Z1.6600I-3.1979J-0.9592
G2X14.1486Y-9.0760Z1.6600I-2.3247J0.3928
G2X13.7268Y-9.6086Z1.6600I-1.5290J0.7775
G2X12.5294Y-10.0802Z1.6600I-1.3000J1.5450
G2X11.3472Y-9.6873Z1.6600I-0.0760J1.7465
G2X11.1784Y-9.5187Z1.6600I0.8365J1.0061
G2X10.9893Y-9.1578Z1.6600I0.7172J0.6059
G2X10.9684Y-8.9825Z1.6600I0.6692J0.1683
G1 X10.9665 Y-7.2145 Z1.6600
G3X10.9468Y-7.1072Z1.6600I-0.3711J-0.0127
G1 X10.9420 Y-7.0938 Z1.6600
G3X10.8794Y-6.9971Z1.6600I-0.3107J-0.1324
G1 X10.8693 Y-6.9862 Z1.6600
G3X10.7734Y-6.9216Z1.6600I-0.2343J-0.2448
G1 X10.7604 Y-6.9158 Z1.6600
G3X10.6543Y-6.8942Z1.6600I-0.1204J-0.3195
G1 X8.8570 Y-6.8937 Z1.6600
G3X8.7504Y-6.9117Z1.6600I0.0000J-0.3238
G1 X8.7024 Y-6.9329 Z1.6600
G1 X8.6561 Y-6.9631 Z1.6600
G1 X8.6220 Y-6.9944 Z1.6600
G1 X8.6119 Y-7.0050 Z1.6600
G1 X8.5794 Y-7.0491 Z1.6600
G3X8.5415Y-7.1451Z1.6600I0.2699J-0.1619
G1 X8.5130 Y-7.3055 Z1.6600
G2X8.4336Y-7.5721Z1.6600I-1.2668J0.2323
G1 X8.4049 Y-7.6305 Z1.6600
G1 X8.3715 Y-7.6859 Z1.6600
G2X7.7755Y-8.1431Z1.6600I-0.9739J0.6524
G2X7.3387Y-8.2126Z1.6600I-0.4192J1.2281
G1 X7.2494 Y-8.2089 Z1.6600
G1 X7.1584 Y-8.1996 Z1.6600
G2X6.2517Y-7.7304Z1.6600I0.1299J1.3618
G2X6.0571Y-7.4459Z1.6600I1.1771J1.0141
G2X5.6236Y-5.5523Z1.6600I3.1985J1.7287
G2X5.9572Y-4.2382Z1.6600I3.3998J-0.1639
G3X5.8530Y-3.8505Z1.6600I-0.2981J0.1278
G3X5.4421Y-3.8703Z1.6600I-0.1934J-0.2596
G3X5.2101Y-4.1074Z1.6600I2.0340J-2.2222
G1 X5.0960 Y-4.2429 Z1.6600
G1 X4.9837 Y-4.3886 Z1.6600
G3X4.4280Y-5.3419Z1.6600I4.2309J-3.1049
G1 X4.3604 Y-5.4979 Z1.6600
G1 X4.3271 Y-5.5812 Z1.6600
G1 X4.2972 Y-5.6826 Z1.6600
G3X4.1311Y-6.6895Z1.6600I5.5313J-1.4296
G3X4.1236Y-7.3086Z1.6600I6.3099J-0.3863
G3X4.1742Y-8.1246Z1.6600I14.1465J0.4686
G1 X4.1910 Y-8.2744 Z1.6600
G1 X4.2060 Y-8.3702 Z1.6600
G1 X4.2202 Y-8.4356 Z1.6600
G3X4.4583Y-9.2971Z1.6600I31.0108J8.1068
G1 X4.6164 Y-9.8262 Z1.6600
G1 X4.7568 Y-10.2818 Z1.6600
G1 X4.8791 Y-10.6859 Z1.6600
G2X5.0624Y-11.4012Z1.6600I-8.2986J-2.5072
G2X5.1345Y-11.8945Z1.6600I-4.2066J-0.8672
G2X5.1036Y-12.5881Z1.6600I-2.5675J-0.2331
G2X5.0506Y-12.8102Z1.6600I-2.6007J0.5031
G2X4.9006Y-13.2462Z1.6600I-4.2894J1.2322
G1 X4.7879 Y-13.5245 Z1.6600
G1 X4.6750 Y-13.7910 Z1.6600
G3X4.2147Y-14.8570Z1.6600I66.0317J-29.1478
G3X3.7323Y-16.1768Z1.6600I15.3238J-6.3482
G3X3.3746Y-17.5413Z1.6600I12.5854J-4.0286
G3X3.2315Y-18.5364Z1.6600I8.3932J-1.7153
G3X3.2161Y-19.1669Z1.6600I5.3708J-0.4466
G2X2.9772Y-19.4277Z1.6600I-0.2498J-0.0110 F75.
G0 Z2.0700
G0 X2.9772 Y-19.4277 
G0 Z2.0700
G0 X3.4339 Y-17.2668 
G1 X3.4339 Y-17.2668 Z1.8200 F75.
G1 X3.4168 Y-17.3413 Z1.8065 F25.
G1 X3.3746 Y-17.5413 Z1.7705
G1 X3.3364 Y-17.7416 Z1.7345
G1 X3.3026 Y-17.9418 Z1.6987
G1 X3.2736 Y-18.1413 Z1.6632
G1 X3.2498 Y-18.3397 Z1.6280
G1 X3.2315 Y-18.5364 Z1.5931
G1 X3.2225 Y-18.6672 Z1.5700
G3X3.2207Y-19.2739Z1.5700I5.2649J-0.3190 F80.
G3X3.3720Y-20.1303Z1.5700I3.5979J0.1940
G3X3.8779Y-21.1350Z1.5700I3.2668J1.0154
G3X5.0822Y-22.2008Z1.5700I2.9863J2.1610
G3X5.7809Y-22.5121Z1.5700I2.1789J3.9511
G3X7.0897Y-22.8289Z1.5700I2.2255J6.3310
G1 X7.3187 Y-22.8557 Z1.5700
G1 X7.5552 Y-22.8756 Z1.5700
G1 X7.8020 Y-22.8895 Z1.5700
G1 X8.0636 Y-22.8986 Z1.5700
G1 X8.3442 Y-22.9040 Z1.5700
G1 X8.9802 Y-22.9079 Z1.5700
G3X11.0267Y-22.9073Z1.5700I0.9263J296.9556
G3X12.0557Y-22.8711Z1.5700I-0.0598J16.3523
G3X12.7070Y-22.7979Z1.5700I-0.5456J7.7916
G1 X12.9075 Y-22.7621 Z1.5700
G1 X13.1017 Y-22.7197 Z1.5700
G1 X13.2905 Y-22.6703 Z1.5700
G3X13.6577Y-22.5479Z1.5700I-1.1808J4.1556
G1 X13.8351 Y-22.4753 Z1.5700
G3X14.9429Y-21.8112Z1.5700I-2.0241J4.6322
G3X15.2914Y-21.4963Z1.5700I-2.2380J2.8277
G1 X15.3844 Y-21.3934 Z1.5700
G1 X15.4659 Y-21.2910 Z1.5700
G1 X15.5417 Y-21.1832 Z1.5700
G1 X15.6166 Y-21.0665 Z1.5700
G1 X15.7403 Y-20.8601 Z1.5700
G3X16.0863Y-20.0492Z1.5700I-3.0965J1.8005
G3X16.2187Y-19.0383Z1.5700I-3.5734J0.9820
G3X16.1739Y-18.3956Z1.5700I-4.9104J-0.0196
G3X16.0182Y-17.6024Z1.5700I-7.1193J-0.9851
G1 X15.9717 Y-17.4233 Z1.5700
G3X15.5052Y-15.9456Z1.5700I-19.5459J-5.3585
G3X15.1856Y-15.1832Z1.5700I-7.2950J-2.6101
G1 X15.1176 Y-15.0500 Z1.5700
G1 X14.9004 Y-14.6461 Z1.5700
G2X14.6032Y-13.9913Z1.5700I5.2439J2.7743
G2X14.4076Y-13.3133Z1.5700I3.8785J1.4861
G2X14.3551Y-12.5690Z1.5700I2.9474J0.5819
G2X14.4306Y-12.0702Z1.5700I2.7826J-0.1658
G2X14.6089Y-11.5369Z1.5700I3.5315J-0.8840
G1 X14.6583 Y-11.4215 Z1.5700
G1 X14.7077 Y-11.3123 Z1.5700
G1 X14.8045 Y-11.1078 Z1.5700
G1 X14.9742 Y-10.7533 Z1.5700
G3X15.2000Y-10.1975Z1.5700I-4.7847J2.2679
G3X15.3503Y-9.5074Z1.5700I-2.8222J0.9759
G3X15.3616Y-9.1974Z1.5700I-3.2185J0.2731
G1 X15.3581 Y-8.9106 Z1.5700
G1 X15.3521 Y-8.6722 Z1.5700
G3X15.2189Y-7.7790Z1.5700I-4.3163J-0.1873
G3X14.9088Y-6.8974Z1.5700I-4.8777J-1.2201
G3X14.7909Y-6.6743Z1.5700I-2.4545J-1.1548
G3X14.4303Y-6.5592Z1.5700I-0.2456J-0.1470
G3X14.2705Y-6.9015Z1.5700I0.1150J-0.2621
G2X14.3652Y-8.4130Z1.5700I-3.1979J-0.9592
G2X14.1486Y-9.0760Z1.5700I-2.3247J0.3928
G2X13.7268Y-9.6086Z1.5700I-1.5290J0.7775
G2X12.5294Y-10.0802Z1.5700I-1.3000J1.5450
G2X11.3472Y-9.6873Z1.5700I-0.0760J1.7465
G2X11.1784Y-9.5187Z1.5700I0.8365J1.0061
G2X10.9893Y-9.1578Z1.5700I0.7172J0.6059
G2X10.9684Y-8.9825Z1.5700I0.6692J0.1683
G1 X10.9665 Y-7.2145 Z1.5700
G3X10.9468Y-7.1072Z1.5700I-0.3711J-0.0127
G1 X10.9420 Y-7.0938 Z1.5700
G3X10.8794Y-6.9971Z1.5700I-0.3107J-0.1324
G1 X10.8693 Y-6.9862 Z1.5700
G3X10.7734Y-6.9216Z1.5700I-0.2343J-0.2448
G1 X10.7604 Y-6.9158 Z1.5700
G3X10.6543Y-6.8942Z1.5700I-0.1204J-0.3195
G1 X8.8570 Y-6.8937 Z1.5700
G3X8.7504Y-6.9117Z1.5700I0.0000J-0.3238
G1 X8.7024 Y-6.9329 Z1.5700
G1 X8.6561 Y-6.9631 Z1.5700
G1 X8.6220 Y-6.9944 Z1.5700
G1 X8.6119 Y-7.0050 Z1.5700
G1 X8.5794 Y-7.0491 Z1.5700
G3X8.5415Y-7.1451Z1.5700I0.2699J-0.1619
G1 X8.5130 Y-7.3055 Z1.5700
G2X8.4336Y-7.5721Z1.5700I-1.2668J0.2323
G1 X8.4049 Y-7.6305 Z1.5700
G1 X8.3715 Y-7.6859 Z1.5700
G2X7.7755Y-8.1431Z1.5700I-0.9739J0.6524
G2X7.3387Y-8.2126Z1.5700I-0.4192J1.2281
G1 X7.2494 Y-8.2089 Z1.5700
G1 X7.1584 Y-8.1996 Z1.5700
G2X6.2517Y-7.7304Z1.5700I0.1299J1.3618
G2X6.0571Y-7.4459Z1.5700I1.1771J1.0141
G2X5.6236Y-5.5523Z1.5700I3.1985J1.7287
G2X5.9572Y-4.2382Z1.5700I3.3998J-0.1639
G3X5.8530Y-3.8505Z1.5700I-0.2981J0.1278
G3X5.4421Y-3.8703Z1.5700I-0.1934J-0.2596
G3X5.2101Y-4.1074Z1.5700I2.0340J-2.2222
G1 X5.0960 Y-4.2429 Z1.5700
G1 X4.9837 Y-4.3886 Z1.5700
G3X4.4280Y-5.3419Z1.5700I4.2309J-3.1049
G1 X4.3604 Y-5.4979 Z1.5700
G1 X4.3271 Y-5.5812 Z1.5700
G1 X4.2972 Y-5.6826 Z1.5700
G3X4.1311Y-6.6895Z1.5700I5.5313J-1.4296
G3X4.1236Y-7.3086Z1.5700I6.3099J-0.3863
G3X4.1742Y-8.1246Z1.5700I14.1465J0.4686
G1 X4.1910 Y-8.2744 Z1.5700
G1 X4.2060 Y-8.3702 Z1.5700
G1 X4.2202 Y-8.4356 Z1.5700
G3X4.4583Y-9.2971Z1.5700I31.0108J8.1068
G1 X4.6164 Y-9.8262 Z1.5700
G1 X4.7568 Y-10.2818 Z1.5700
G1 X4.8791 Y-10.6859 Z1.5700
G2X5.0624Y-11.4012Z1.5700I-8.2986J-2.5072
G2X5.1345Y-11.8945Z1.5700I-4.2066J-0.8672
G2X5.1036Y-12.5881Z1.5700I-2.5675J-0.2331
G2X5.0506Y-12.8102Z1.5700I-2.6007J0.5031
G2X4.9006Y-13.2462Z1.5700I-4.2894J1.2322
G1 X4.7879 Y-13.5245 Z1.5700
G1 X4.6750 Y-13.7910 Z1.5700
G3X4.2147Y-14.8570Z1.5700I66.0317J-29.1478
G3X3.7323Y-16.1768Z1.5700I15.3238J-6.3482
G3X3.3746Y-17.5413Z1.5700I12.5854J-4.0286
G3X3.2315Y-18.5364Z1.5700I8.3932J-1.7153
G3X3.2161Y-19.1669Z1.5700I5.3708J-0.4466
G2X2.9772Y-19.4277Z1.5700I-0.2498J-0.0110 F75.
G0 Z4.0000
G0 X2.9772 Y-19.4277 
M5
G53 Z
X2Y0
