( MOP:  Hum-PUP-Bridge-True24-front-01 )
( FILE: G:\Shared drives\AlloyProjectFiles\Customer CAD files\Alloy-Standard-Builds-CAM\t-in\True24\Hum-PUP-Bridge-True24-front-01.nc)
G90
(  BEGIN TOOL LIST )
(  TOOL 11 - Downcut PT750 ROUGH - DESC: 0.7500 DIA, 2 FLUTE,  CARBIDE MAT )
(  ENDOF TOOL LIST )
( Hum-PUP-Bridge-True24-front-01)
T11
S14000
M3
G0 Z4.0000
G0 X11.4141 Y-14.6455 
G1 X11.4141 Y-14.6455 Z1.7600 F75.
G1 X11.5580 Y-14.6455 Z1.7346 F50.
G1 X11.5618 Y-14.6374 Z1.7331
G1 X11.5656 Y-14.6294 Z1.7315
G1 X11.5695 Y-14.6215 Z1.7299
G1 X11.5736 Y-14.6136 Z1.7284
G1 X11.5777 Y-14.6057 Z1.7268
G1 X11.5820 Y-14.5980 Z1.7252
G1 X11.5863 Y-14.5902 Z1.7237
G1 X11.5908 Y-14.5826 Z1.7221
G1 X11.5954 Y-14.5749 Z1.7205
G1 X11.6000 Y-14.5674 Z1.7190
G1 X11.6048 Y-14.5599 Z1.7174
G1 X11.6096 Y-14.5525 Z1.7158
G1 X11.6146 Y-14.5451 Z1.7143
G1 X11.6196 Y-14.5378 Z1.7127
G1 X11.6248 Y-14.5306 Z1.7112
G1 X11.6196 Y-14.5234 Z1.7096
G1 X11.6146 Y-14.5161 Z1.7080
G1 X11.6096 Y-14.5087 Z1.7065
G1 X11.6048 Y-14.5013 Z1.7049
G1 X11.6000 Y-14.4938 Z1.7033
G1 X11.5954 Y-14.4862 Z1.7018
G1 X11.5908 Y-14.4786 Z1.7002
G1 X11.5863 Y-14.4709 Z1.6986
G1 X11.5820 Y-14.4632 Z1.6971
G1 X11.5777 Y-14.4554 Z1.6955
G1 X11.5736 Y-14.4476 Z1.6939
G1 X11.5695 Y-14.4397 Z1.6924
G1 X11.5656 Y-14.4317 Z1.6908
G1 X11.5618 Y-14.4237 Z1.6892
G1 X11.5580 Y-14.4157 Z1.6877
G1 X9.9080 Y-14.4157 Z1.3967
G1 X9.9061 Y-14.4197 Z1.3960
G1 X9.9042 Y-14.4237 Z1.3952
G1 X9.9023 Y-14.4277 Z1.3944
G1 X9.9004 Y-14.4317 Z1.3936
G1 X9.8984 Y-14.4357 Z1.3928
G1 X9.8965 Y-14.4397 Z1.3920
G1 X9.8945 Y-14.4436 Z1.3913
G1 X9.8924 Y-14.4476 Z1.3905
G1 X9.8904 Y-14.4515 Z1.3897
G1 X9.8883 Y-14.4554 Z1.3889
G1 X9.8861 Y-14.4593 Z1.3881
G1 X9.8840 Y-14.4632 Z1.3873
G1 X9.8818 Y-14.4671 Z1.3866
G1 X9.8797 Y-14.4709 Z1.3858
G1 X9.8774 Y-14.4748 Z1.3850
G17
G2X9.8412Y-14.5306Z1.3850I-0.5814J0.3379 F150.
G2X9.9080Y-14.6455Z1.3850I-0.5452J-0.3937
G1 X11.5580 Y-14.6455 Z1.3850
G2X11.6248Y-14.5306Z1.3850I0.6120J-0.2788
G2X11.5580Y-14.4157Z1.3850I0.5452J0.3937
G1 X9.9080 Y-14.4157 Z1.3850
G2X9.8774Y-14.4748Z1.3850I-0.6120J0.2788
G1 X9.6634 Y-14.3504 Z1.3850
G2X9.4705Y-14.5244Z1.3850I-0.3674J0.2135
G1 X9.4705 Y-14.5368 Z1.3850
G2X9.7198Y-14.8930Z1.3850I-0.1745J-0.3875
G1 X11.7462 Y-14.8930 Z1.3850
G2X11.9952Y-14.5369Z1.3850I0.4238J-0.0313
G1 X11.9952 Y-14.5243 Z1.3850
G2X11.7462Y-14.1682Z1.3850I0.1748J0.3874
G1 X9.7198 Y-14.1682 Z1.3850
G2X9.6634Y-14.3504Z1.3850I-0.4238J0.0313
G0 Z1.6350
G0 X9.6634 Y-14.3504 
G0 Z1.6350
G0 X11.4141 Y-14.6455 
G1 X11.4141 Y-14.6455 Z1.3850 F75.
G1 X11.5580 Y-14.6455 Z1.3596 F50.
G1 X11.5618 Y-14.6374 Z1.3581
G1 X11.5656 Y-14.6294 Z1.3565
G1 X11.5695 Y-14.6215 Z1.3549
G1 X11.5736 Y-14.6136 Z1.3534
G1 X11.5777 Y-14.6057 Z1.3518
G1 X11.5820 Y-14.5980 Z1.3502
G1 X11.5863 Y-14.5902 Z1.3487
G1 X11.5908 Y-14.5826 Z1.3471
G1 X11.5954 Y-14.5749 Z1.3455
G1 X11.6000 Y-14.5674 Z1.3440
G1 X11.6048 Y-14.5599 Z1.3424
G1 X11.6096 Y-14.5525 Z1.3408
G1 X11.6146 Y-14.5451 Z1.3393
G1 X11.6196 Y-14.5378 Z1.3377
G1 X11.6248 Y-14.5306 Z1.3362
G1 X11.6196 Y-14.5234 Z1.3346
G1 X11.6146 Y-14.5161 Z1.3330
G1 X11.6096 Y-14.5087 Z1.3315
G1 X11.6048 Y-14.5013 Z1.3299
G1 X11.6000 Y-14.4938 Z1.3283
G1 X11.5954 Y-14.4862 Z1.3268
G1 X11.5908 Y-14.4786 Z1.3252
G1 X11.5863 Y-14.4709 Z1.3236
G1 X11.5820 Y-14.4632 Z1.3221
G1 X11.5777 Y-14.4554 Z1.3205
G1 X11.5736 Y-14.4476 Z1.3189
G1 X11.5695 Y-14.4397 Z1.3174
G1 X11.5656 Y-14.4317 Z1.3158
G1 X11.5618 Y-14.4237 Z1.3142
G1 X11.5580 Y-14.4157 Z1.3127
G1 X9.9080 Y-14.4157 Z1.0217
G1 X9.9061 Y-14.4197 Z1.0210
G1 X9.9042 Y-14.4237 Z1.0202
G1 X9.9023 Y-14.4277 Z1.0194
G1 X9.9004 Y-14.4317 Z1.0186
G1 X9.8984 Y-14.4357 Z1.0178
G1 X9.8965 Y-14.4397 Z1.0170
G1 X9.8945 Y-14.4436 Z1.0163
G1 X9.8924 Y-14.4476 Z1.0155
G1 X9.8904 Y-14.4515 Z1.0147
G1 X9.8883 Y-14.4554 Z1.0139
G1 X9.8861 Y-14.4593 Z1.0131
G1 X9.8840 Y-14.4632 Z1.0123
G1 X9.8818 Y-14.4671 Z1.0116
G1 X9.8797 Y-14.4709 Z1.0108
G1 X9.8774 Y-14.4748 Z1.0100
G2X9.8412Y-14.5306Z1.0100I-0.5814J0.3379 F150.
G2X9.9080Y-14.6455Z1.0100I-0.5452J-0.3937
G1 X11.5580 Y-14.6455 Z1.0100
G2X11.6248Y-14.5306Z1.0100I0.6120J-0.2788
G2X11.5580Y-14.4157Z1.0100I0.5452J0.3937
G1 X9.9080 Y-14.4157 Z1.0100
G2X9.8774Y-14.4748Z1.0100I-0.6120J0.2788
G1 X9.6634 Y-14.3504 Z1.0100
G2X9.4705Y-14.5244Z1.0100I-0.3674J0.2135
G1 X9.4705 Y-14.5368 Z1.0100
G2X9.7198Y-14.8930Z1.0100I-0.1745J-0.3875
G1 X11.7462 Y-14.8930 Z1.0100
G2X11.9952Y-14.5369Z1.0100I0.4238J-0.0313
G1 X11.9952 Y-14.5243 Z1.0100
G2X11.7462Y-14.1682Z1.0100I0.1748J0.3874
G1 X9.7198 Y-14.1682 Z1.0100
G2X9.6634Y-14.3504Z1.0100I-0.4238J0.0313
G0 Z4.0000
G0 X9.6634 Y-14.3504 
M5
G53 Z
X2Y0
