( MOP:  Hum-PUP-Bridge-True24-front-03 )
( FILE: G:\Shared drives\AlloyProjectFiles\Customer CAD files\Alloy-Standard-Builds-CAM\t-in\True24\Hum-PUP-Bridge-True24-front-03.nc)
G90
(  BEGIN TOOL LIST )
(  TOOL 5 - Downcut PT375 - DESC: 0.3750 DIA, 2 FLUTE,  CARBIDE MAT )
(  ENDOF TOOL LIST )
( Hum-PUP-Bridge-True24-front-03)
( Max Depth 1.75)
T05
S12000
M3
G0 Z4.0000
G0 X12.1024 Y-14.3493 
G1 X12.1024 Y-14.3493 Z1.0100 F75.
G1 X12.0790 Y-14.3556 Z1.0057 F40.
G1 X12.0483 Y-14.3863 Z0.9981
G1 X12.0371 Y-14.4281 Z0.9904
G1 X12.0371 Y-14.6330 Z0.9543
G1 X12.0483 Y-14.6749 Z0.9467
G1 X12.0790 Y-14.7056 Z0.9390
G1 X12.1209 Y-14.7168 Z0.9314
G1 X12.1249 Y-14.7168 Z0.9307
G1 X12.1289 Y-14.7168 Z0.9300
G1 X12.1461 Y-14.7122 Z0.9268
G1 X12.1708 Y-14.7056 Z0.9223
G1 X12.2015 Y-14.6749 Z0.9147
G1 X12.2127 Y-14.6330 Z0.9070
G1 X12.2127 Y-14.4281 Z0.8709
G1 X12.2015 Y-14.3863 Z0.8633
G1 X12.1708 Y-14.3556 Z0.8556
G1 X12.1289 Y-14.3444 Z0.8480
G1 X12.1209 Y-14.3444 Z0.8466
G1 X12.0790 Y-14.3556 Z0.8389
G1 X12.0483 Y-14.3863 Z0.8313
G1 X12.0371 Y-14.4281 Z0.8236
G1 X12.0371 Y-14.6330 Z0.7875
G1 X12.0483 Y-14.6749 Z0.7798
G1 X12.0790 Y-14.7056 Z0.7722
G1 X12.1209 Y-14.7168 Z0.7646
G1 X12.1249 Y-14.7168 Z0.7638
G1 X12.1289 Y-14.7168 Z0.7631
G1 X12.1461 Y-14.7122 Z0.7600
G1 X12.1249 Y-14.6330 Z0.7600
G1 X12.1289 Y-14.6330 Z0.7600
G1 X12.1289 Y-14.4281 Z0.7600
G1 X12.1209 Y-14.4281 Z0.7600
G1 X12.1209 Y-14.6330 Z0.7600
G1 X12.1249 Y-14.6330 Z0.7600
G1 X12.1249 Y-14.7568 Z0.7600
G1 X12.2327 Y-14.7568 Z0.7600
G17
G3X12.2527Y-14.7368Z0.7600I0.0000J0.0200
G1 X12.2527 Y-14.3244 Z0.7600
G3X12.2327Y-14.3044Z0.7600I-0.0200J0.0000
G1 X12.0171 Y-14.3044 Z0.7600
G3X11.9971Y-14.3244Z0.7600I0.0000J-0.0200
G1 X11.9971 Y-14.7368 Z0.7600
G3X12.0171Y-14.7568Z0.7600I0.0200J0.0000
G1 X12.1249 Y-14.7568 Z0.7600
G0 Z1.0100
G0 X12.1249 Y-14.7568 
G0 Z1.0100
G0 X12.1024 Y-14.3493 
G1 X12.1024 Y-14.3493 Z0.7600 F75.
G1 X12.0790 Y-14.3556 Z0.7557 F40.
G1 X12.0483 Y-14.3863 Z0.7481
G1 X12.0371 Y-14.4281 Z0.7404
G1 X12.0371 Y-14.6330 Z0.7043
G1 X12.0483 Y-14.6749 Z0.6967
G1 X12.0790 Y-14.7056 Z0.6890
G1 X12.1209 Y-14.7168 Z0.6814
G1 X12.1249 Y-14.7168 Z0.6807
G1 X12.1289 Y-14.7168 Z0.6800
G1 X12.1461 Y-14.7122 Z0.6768
G1 X12.1708 Y-14.7056 Z0.6723
G1 X12.2015 Y-14.6749 Z0.6647
G1 X12.2127 Y-14.6330 Z0.6570
G1 X12.2127 Y-14.4281 Z0.6209
G1 X12.2015 Y-14.3863 Z0.6133
G1 X12.1708 Y-14.3556 Z0.6056
G1 X12.1289 Y-14.3444 Z0.5980
G1 X12.1209 Y-14.3444 Z0.5966
G1 X12.0790 Y-14.3556 Z0.5889
G1 X12.0483 Y-14.3863 Z0.5813
G1 X12.0371 Y-14.4281 Z0.5736
G1 X12.0371 Y-14.6330 Z0.5375
G1 X12.0483 Y-14.6749 Z0.5298
G1 X12.0790 Y-14.7056 Z0.5222
G1 X12.1209 Y-14.7168 Z0.5146
G1 X12.1249 Y-14.7168 Z0.5138
G1 X12.1289 Y-14.7168 Z0.5131
G1 X12.1461 Y-14.7122 Z0.5100
G1 X12.1249 Y-14.6330 Z0.5100
G1 X12.1289 Y-14.6330 Z0.5100
G1 X12.1289 Y-14.4281 Z0.5100
G1 X12.1209 Y-14.4281 Z0.5100
G1 X12.1209 Y-14.6330 Z0.5100
G1 X12.1249 Y-14.6330 Z0.5100
G1 X12.1249 Y-14.7568 Z0.5100
G1 X12.2327 Y-14.7568 Z0.5100
G3X12.2527Y-14.7368Z0.5100I0.0000J0.0200
G1 X12.2527 Y-14.3244 Z0.5100
G3X12.2327Y-14.3044Z0.5100I-0.0200J0.0000
G1 X12.0171 Y-14.3044 Z0.5100
G3X11.9971Y-14.3244Z0.5100I0.0000J-0.0200
G1 X11.9971 Y-14.7368 Z0.5100
G3X12.0171Y-14.7568Z0.5100I0.0200J0.0000
G1 X12.1249 Y-14.7568 Z0.5100
G0 Z1.2600
G0 X12.1249 Y-14.7568 
G0 Z1.2600
G0 X9.3183 Y-14.3493 
G1 X9.3183 Y-14.3493 Z1.0100 F75.
G1 X9.2949 Y-14.3556 Z1.0057 F40.
G1 X9.2642 Y-14.3863 Z0.9981
G1 X9.2530 Y-14.4281 Z0.9904
G1 X9.2530 Y-14.6330 Z0.9543
G1 X9.2642 Y-14.6749 Z0.9467
G1 X9.2949 Y-14.7056 Z0.9390
G1 X9.3368 Y-14.7168 Z0.9314
G1 X9.3408 Y-14.7168 Z0.9307
G1 X9.3448 Y-14.7168 Z0.9300
G1 X9.3620 Y-14.7122 Z0.9268
G1 X9.3867 Y-14.7056 Z0.9223
G1 X9.4173 Y-14.6749 Z0.9147
G1 X9.4286 Y-14.6330 Z0.9070
G1 X9.4286 Y-14.4281 Z0.8709
G1 X9.4173 Y-14.3863 Z0.8633
G1 X9.3867 Y-14.3556 Z0.8556
G1 X9.3448 Y-14.3444 Z0.8480
G1 X9.3368 Y-14.3444 Z0.8466
G1 X9.2949 Y-14.3556 Z0.8389
G1 X9.2642 Y-14.3863 Z0.8313
G1 X9.2530 Y-14.4281 Z0.8236
G1 X9.2530 Y-14.6330 Z0.7875
G1 X9.2642 Y-14.6749 Z0.7798
G1 X9.2949 Y-14.7056 Z0.7722
G1 X9.3368 Y-14.7168 Z0.7646
G1 X9.3408 Y-14.7168 Z0.7638
G1 X9.3448 Y-14.7168 Z0.7631
G1 X9.3620 Y-14.7122 Z0.7600
G1 X9.3408 Y-14.6330 Z0.7600
G1 X9.3448 Y-14.6330 Z0.7600
G1 X9.3448 Y-14.4281 Z0.7600
G1 X9.3368 Y-14.4281 Z0.7600
G1 X9.3368 Y-14.6330 Z0.7600
G1 X9.3408 Y-14.6330 Z0.7600
G1 X9.3408 Y-14.7568 Z0.7600
G1 X9.4486 Y-14.7568 Z0.7600
G3X9.4686Y-14.7368Z0.7600I0.0000J0.0200
G1 X9.4686 Y-14.3244 Z0.7600
G3X9.4486Y-14.3044Z0.7600I-0.0200J0.0000
G1 X9.2330 Y-14.3044 Z0.7600
G3X9.2130Y-14.3244Z0.7600I0.0000J-0.0200
G1 X9.2130 Y-14.7368 Z0.7600
G3X9.2330Y-14.7568Z0.7600I0.0200J0.0000
G1 X9.3408 Y-14.7568 Z0.7600
G0 Z1.0100
G0 X9.3408 Y-14.7568 
G0 Z1.0100
G0 X9.3183 Y-14.3493 
G1 X9.3183 Y-14.3493 Z0.7600 F75.
G1 X9.2949 Y-14.3556 Z0.7557 F40.
G1 X9.2642 Y-14.3863 Z0.7481
G1 X9.2530 Y-14.4281 Z0.7404
G1 X9.2530 Y-14.6330 Z0.7043
G1 X9.2642 Y-14.6749 Z0.6967
G1 X9.2949 Y-14.7056 Z0.6890
G1 X9.3368 Y-14.7168 Z0.6814
G1 X9.3408 Y-14.7168 Z0.6807
G1 X9.3448 Y-14.7168 Z0.6800
G1 X9.3620 Y-14.7122 Z0.6768
G1 X9.3867 Y-14.7056 Z0.6723
G1 X9.4173 Y-14.6749 Z0.6647
G1 X9.4286 Y-14.6330 Z0.6570
G1 X9.4286 Y-14.4281 Z0.6209
G1 X9.4173 Y-14.3863 Z0.6133
G1 X9.3867 Y-14.3556 Z0.6056
G1 X9.3448 Y-14.3444 Z0.5980
G1 X9.3368 Y-14.3444 Z0.5966
G1 X9.2949 Y-14.3556 Z0.5889
G1 X9.2642 Y-14.3863 Z0.5813
G1 X9.2530 Y-14.4281 Z0.5736
G1 X9.2530 Y-14.6330 Z0.5375
G1 X9.2642 Y-14.6749 Z0.5298
G1 X9.2949 Y-14.7056 Z0.5222
G1 X9.3368 Y-14.7168 Z0.5146
G1 X9.3408 Y-14.7168 Z0.5138
G1 X9.3448 Y-14.7168 Z0.5131
G1 X9.3620 Y-14.7122 Z0.5100
G1 X9.3408 Y-14.6330 Z0.5100
G1 X9.3448 Y-14.6330 Z0.5100
G1 X9.3448 Y-14.4281 Z0.5100
G1 X9.3368 Y-14.4281 Z0.5100
G1 X9.3368 Y-14.6330 Z0.5100
G1 X9.3408 Y-14.6330 Z0.5100
G1 X9.3408 Y-14.7568 Z0.5100
G1 X9.4486 Y-14.7568 Z0.5100
G3X9.4686Y-14.7368Z0.5100I0.0000J0.0200
G1 X9.4686 Y-14.3244 Z0.5100
G3X9.4486Y-14.3044Z0.5100I-0.0200J0.0000
G1 X9.2330 Y-14.3044 Z0.5100
G3X9.2130Y-14.3244Z0.5100I0.0000J-0.0200
G1 X9.2130 Y-14.7368 Z0.5100
G3X9.2330Y-14.7568Z0.5100I0.0200J0.0000
G1 X9.3408 Y-14.7568 Z0.5100
G0 Z4.0000
G0 X9.3408 Y-14.7568 
M5
G53 Z
X2Y0
