( MOP:  Hum-PUP-Bridge-True24-front-02 )
( FILE: G:\Shared drives\AlloyProjectFiles\Customer CAD files\Alloy-Standard-Builds-CAM\t-in\True24\Hum-PUP-Bridge-True24-front-02.nc)
G90
(  BEGIN TOOL LIST )
(  TOOL 5 - Downcut PT375 - DESC: 0.3750 DIA, 2 FLUTE,  CARBIDE MAT )
(  ENDOF TOOL LIST )
( Hum-PUP-Bridge-True24-front-02)
( Max Depth 1.75)
T05
S12000
M3
G0 Z4.0000
G0 X10.4830 Y-14.9005 
G1 X10.4830 Y-14.9005 Z1.0100 F75.
G17
G3X10.7330Y-15.1505Z1.0100I0.2500J0.0000 F40.
G1 X11.9825 Y-15.1505 Z1.0100 F60.
G3X11.9966Y-15.1446Z1.0100I0.0000J0.0200
G3X12.0025Y-15.1305Z1.0100I-0.0141J0.0141
G1 X12.0025 Y-14.9243 Z1.0100
G2X12.1700Y-14.7568Z1.0100I0.1675J0.0000
G1 X12.2327 Y-14.7568 Z1.0100
G3X12.2468Y-14.7509Z1.0100I0.0000J0.0200
G3X12.2527Y-14.7368Z1.0100I-0.0141J0.0141
G1 X12.2527 Y-14.3244 Z1.0100
G3X12.2327Y-14.3044Z1.0100I-0.0200J0.0000
G1 X12.1700 Y-14.3044 Z1.0100
G2X12.0025Y-14.1369Z1.0100I0.0000J0.1675
G1 X12.0025 Y-13.9307 Z1.0100
G3X11.9825Y-13.9107Z1.0100I-0.0200J0.0000
G1 X9.4835 Y-13.9107 Z1.0100
G3X9.4693Y-13.9165Z1.0100I0.0000J-0.0200
G3X9.4635Y-13.9307Z1.0100I0.0142J-0.0142
G1 X9.4635 Y-14.1369 Z1.0100
G2X9.2960Y-14.3044Z1.0100I-0.1675J0.0000
G1 X9.2330 Y-14.3044 Z1.0100
G3X9.2189Y-14.3102Z1.0100I0.0000J-0.0200
G3X9.2130Y-14.3244Z1.0100I0.0141J-0.0142
G1 X9.2130 Y-14.7368 Z1.0100
G3X9.2189Y-14.7509Z1.0100I0.0200J0.0000
G3X9.2330Y-14.7568Z1.0100I0.0141J0.0141
G1 X9.2960 Y-14.7568 Z1.0100
G2X9.4635Y-14.9243Z1.0100I0.0000J-0.1675
G1 X9.4635 Y-15.1305 Z1.0100
G3X9.4693Y-15.1446Z1.0100I0.0200J0.0000
G3X9.4835Y-15.1505Z1.0100I0.0142J0.0141
G1 X10.7330 Y-15.1505 Z1.0100
G1 X11.2330 Y-15.1505 Z1.0100
G3X11.4830Y-14.9005Z1.0100I0.0000J0.2500
G0 Z4.0000
G0 X11.4830 Y-14.9005 
M5
G53 Z
X2Y0
