( MOP:  P90-PUP-Bridge-True24-front-02 )
( FILE: G:\Shared drives\AlloyProjectFiles\Customer CAD files\Alloy-Standard-Builds-CAM\t-in\True24\P90-PUP-Bridge-True24-front-02.nc)
G90
(  BEGIN TOOL LIST )
(  TOOL 6 - Downcut PT250 - DESC: 0.2500 DIA, 2 FLUTE,  CARBIDE MAT )
(  ENDOF TOOL LIST )
( P90-PUP-Bridge-True24-front-02)
( Max Depth 1.75)
T06
S12000
M3
G0 Z4.0000
G0 X10.9830 Y-14.1082 
G1 X10.9830 Y-14.1082 Z1.0100 F75.
G17
G3X10.7330Y-13.8582Z1.0100I-0.2500J0.0000 F25.
G1 X9.2330 Y-13.8582 Z1.0100 F75.
G3X9.1705Y-13.9207Z1.0100I0.0000J-0.0625
G1 X9.1705 Y-14.9519 Z1.0100
G3X9.2330Y-15.0144Z1.0100I0.0625J0.0000
G1 X12.2330 Y-15.0144 Z1.0100
G3X12.2955Y-14.9519Z1.0100I0.0000J0.0625
G1 X12.2955 Y-13.9207 Z1.0100
G3X12.2330Y-13.8582Z1.0100I-0.0625J0.0000
G1 X10.7330 Y-13.8582 Z1.0100
G1 X10.2330 Y-13.8582 Z1.0100
G3X9.9830Y-14.1082Z1.0100I0.0000J-0.2500
G0 Z4.0000
G0 X9.9830 Y-14.1082 
M5
G53 Z
X2Y0
