( MOP:  T-PUP-Bridge-True24-front-01 )
( FILE: G:\Shared drives\AlloyProjectFiles\Customer CAD files\Alloy-Standard-Builds-CAM\t-in\True24\T-PUP-Bridge-True24-front-01.nc)
G90
(  BEGIN TOOL LIST )
(  TOOL 11 - Downcut PT750 ROUGH - DESC: 0.7500 DIA, 2 FLUTE,  CARBIDE MAT )
(  ENDOF TOOL LIST )
( T-PUP-Bridge-True24-front-01)
T11
S14000
M3
G0 Z4.0000
G0 X10.0340 Y-14.4685 
G1 X10.0340 Y-14.4685 Z1.7767 F75.
G1 X9.9687 Y-14.4711 Z1.7651 F50.
G1 X10.0158 Y-14.6734 Z1.7285
G1 X11.2684 Y-15.0801 Z1.4963
G1 X11.3505 Y-15.0048 Z1.4767
G1 X11.4326 Y-14.9295 Z1.4767 F150.
G1 X10.7895 Y-14.4385 Z1.4767
G1 X9.9687 Y-14.4711 Z1.4767
G1 X10.0158 Y-14.6734 Z1.4767
G1 X11.2684 Y-15.0801 Z1.4767
G1 X11.3505 Y-15.0048 Z1.4767
G1 X11.5178 Y-15.1872 Z1.4767
G1 X11.7731 Y-14.9530 Z1.4767
G1 X11.7736 Y-14.9525 Z1.4767
G17
G3X11.7898Y-14.9134Z1.4767I-0.0337J0.0369
G1 X11.7898 Y-14.9134 Z1.4767
G3X11.7702Y-14.8759Z1.4767I-0.0499J-0.0022
G1 X10.8687 Y-14.1876 Z1.4767
G1 X9.7202 Y-14.2333 Z1.4767
G3X9.6824Y-14.2530Z1.4767I0.0020J-0.0500
G1 X9.6824 Y-14.2530 Z1.4767
G3X9.6735Y-14.2947Z1.4767I0.0398J-0.0303
G1 X9.6737 Y-14.2953 Z1.4767
G1 X9.8065 Y-14.8657 Z1.4767
G1 X10.5689 Y-15.1132 Z1.4767
G1 X11.3293 Y-15.3601 Z1.4767
G1 X11.5178 Y-15.1872 Z1.4767
G0 Z1.7433
G0 X11.5178 Y-15.1872 
G0 Z1.7433
G0 X10.0340 Y-14.4685 
G1 X10.0340 Y-14.4685 Z1.4933 F75.
G1 X9.9687 Y-14.4711 Z1.4818 F50.
G1 X10.0158 Y-14.6734 Z1.4452
G1 X11.2684 Y-15.0801 Z1.2130
G1 X11.3505 Y-15.0048 Z1.1933
G1 X11.4326 Y-14.9295 Z1.1933 F150.
G1 X10.7895 Y-14.4385 Z1.1933
G1 X9.9687 Y-14.4711 Z1.1933
G1 X10.0158 Y-14.6734 Z1.1933
G1 X11.2684 Y-15.0801 Z1.1933
G1 X11.3505 Y-15.0048 Z1.1933
G1 X11.5178 Y-15.1872 Z1.1933
G1 X11.7731 Y-14.9530 Z1.1933
G1 X11.7736 Y-14.9525 Z1.1933
G3X11.7898Y-14.9134Z1.1933I-0.0337J0.0369
G1 X11.7898 Y-14.9134 Z1.1933
G3X11.7702Y-14.8759Z1.1933I-0.0499J-0.0022
G1 X10.8687 Y-14.1876 Z1.1933
G1 X9.7202 Y-14.2333 Z1.1933
G3X9.6824Y-14.2530Z1.1933I0.0020J-0.0500
G1 X9.6824 Y-14.2530 Z1.1933
G3X9.6735Y-14.2947Z1.1933I0.0398J-0.0303
G1 X9.6737 Y-14.2953 Z1.1933
G1 X9.8065 Y-14.8657 Z1.1933
G1 X10.5689 Y-15.1132 Z1.1933
G1 X11.3293 Y-15.3601 Z1.1933
G1 X11.5178 Y-15.1872 Z1.1933
G0 Z1.4600
G0 X11.5178 Y-15.1872 
G0 Z1.4600
G0 X10.0340 Y-14.4685 
G1 X10.0340 Y-14.4685 Z1.2100 F75.
G1 X9.9687 Y-14.4711 Z1.1985 F50.
G1 X10.0158 Y-14.6734 Z1.1619
G1 X11.2684 Y-15.0801 Z0.9296
G1 X11.3505 Y-15.0048 Z0.9100
G1 X11.4326 Y-14.9295 Z0.9100 F150.
G1 X10.7895 Y-14.4385 Z0.9100
G1 X9.9687 Y-14.4711 Z0.9100
G1 X10.0158 Y-14.6734 Z0.9100
G1 X11.2684 Y-15.0801 Z0.9100
G1 X11.3505 Y-15.0048 Z0.9100
G1 X11.5178 Y-15.1872 Z0.9100
G1 X11.7731 Y-14.9530 Z0.9100
G1 X11.7736 Y-14.9525 Z0.9100
G3X11.7898Y-14.9134Z0.9100I-0.0337J0.0369
G1 X11.7898 Y-14.9134 Z0.9100
G3X11.7702Y-14.8759Z0.9100I-0.0499J-0.0022
G1 X10.8687 Y-14.1876 Z0.9100
G1 X9.7202 Y-14.2333 Z0.9100
G3X9.6824Y-14.2530Z0.9100I0.0020J-0.0500
G1 X9.6824 Y-14.2530 Z0.9100
G3X9.6735Y-14.2947Z0.9100I0.0398J-0.0303
G1 X9.6737 Y-14.2953 Z0.9100
G1 X9.8065 Y-14.8657 Z0.9100
G1 X10.5689 Y-15.1132 Z0.9100
G1 X11.3293 Y-15.3601 Z0.9100
G1 X11.5178 Y-15.1872 Z0.9100
G0 Z4.0000
G0 X11.5178 Y-15.1872 
M5
G53 Z
X2Y0
