( MOP:  vint-T-True24-back-03 )
( FILE: G:\Shared drives\AlloyProjectFiles\Customer CAD files\Alloy-Standard-Builds-CAM\t-in\True24\vint-T-True24-back-03.nc)
G90
(  BEGIN TOOL LIST )
(  TOOL 9 - Drill PT1575 4mm - DESC: 0.1570 DIA, 2 FLUTE,  CARBIDE MAT )
(  ENDOF TOOL LIST )
( vint-T-True24-back-03)
T09
S6000
M3
G0 Z4.0000
G0 X11.7956 Y-16.8237 
G0 Z1.8600
G83 X11.7956 Y-16.8237 Z0.8100 R1.8600 Q0.5 F30.0
G80
G0 Z2.0100
G0 X11.3706 Y-16.8238 
G0 Z1.8600
G83 X11.3706 Y-16.8238 Z0.8100 R1.8600 Q0.5 F30.0
G80
G0 Z2.0100
G0 X10.9456 Y-16.8237 
G0 Z1.8600
G83 X10.9456 Y-16.8237 Z0.8100 R1.8600 Q0.5 F30.0
G80
G0 Z2.0100
G0 X10.5206 Y-16.8238 
G0 Z1.8600
G83 X10.5206 Y-16.8238 Z0.8100 R1.8600 Q0.5 F30.0
G80
G0 Z2.0100
G0 X10.0956 Y-16.8238 
G0 Z1.8600
G83 X10.0956 Y-16.8238 Z0.8100 R1.8600 Q0.5 F30.0
G80
G0 Z2.0100
G0 X9.6706 Y-16.8238 
G0 Z1.8600
G83 X9.6706 Y-16.8238 Z0.8100 R1.8600 Q0.5 F30.0
G80
G0 Z4.0000
G0 X9.6706 Y-16.8238 
M5
G53 Z
X2Y0
