( MOP:  S-Neck-Pocket-02-front-end )
( FILE: G:\Shared drives\AlloyProjectFiles\Customer CAD files\Alloy-Standard-Builds-CAM\s-in\Neck\S-Neck-Pocket-02-front-end.nc)
G90
(  BEGIN TOOL LIST )
(  TOOL 5 - Downcut PT375 - DESC: 0.3750 DIA, 2 FLUTE,  CARBIDE MAT )
(  ENDOF TOOL LIST )
( S-Neck-Pocket-02-front-end)
( Max Depth 1.75)
T05
S12000
M3
G0 Z4.0000
G0 X10.0985 Y-6.4874 
G1 X10.0985 Y-6.4874 Z1.1350 F75.
G17
G3X9.8485Y-6.2374Z1.1350I-0.2500J0.0000 F25.
G1 X8.3325 Y-6.2374 Z1.1350 F40.
G1 X8.3325 Y-7.0660 Z1.1350
G1 X8.6620 Y-7.0660 Z1.1350
G2X8.8695Y-7.2762Z1.1350I0.0000J-0.2075
G1 X8.8381 Y-9.7046 Z1.1350
G3X8.8718Y-9.7449Z1.1350I0.0425J0.0013
G3X10.5854Y-9.7464Z1.1350I0.8609J4.6575
G3X10.6277Y-9.6936Z1.1350I-0.0063J0.0484
G1 X10.6146 Y-8.7781 Z1.1350
G2X10.8221Y-8.5676Z1.1350I0.2075J0.0030
G1 X11.3646 Y-8.5676 Z1.1350
G1 X11.3646 Y-6.2374 Z1.1350
G1 X9.8485 Y-6.2374 Z1.1350
G1 X9.3485 Y-6.2374 Z1.1350
G3X9.0985Y-6.4874Z1.1350I0.0000J-0.2500
G0 Z4.0000
G0 X9.0985 Y-6.4874 
M5
G53 Z
X2Y0
