( BEGIN FILE 02-backside-prep-01-facing-1pt825-start.ncTNUM: -1 )
( Lefty:False Nunits:2 )
( cline: 9.733 delta:15.5 )
( start_unit: 1 num_units: 2)
( MOP:  02-backside-prep-01-facing-1pt825-start )
( FILE: G:\Shared drives\AlloyProjectFiles\Customer CAD files\Alloy-Standard-Builds-CAM\s-in\BackPrepFacing-PICK-ONE\02-backside-prep-01-facing-1pt825-start.nc)
G90
(  BEGIN TOOL LIST )
(  TOOL 1 - Surface 2PT500 - DESC: 2.5000 DIA, 2 FLUTE,  CARBIDE MAT )
(  ENDOF TOOL LIST )
( 02-backside-prep-01-facing-1pt825-start)
T01
S12000
M3
G0 Z6.0000
G0 X3.4061 Y-1.0291 
G1 X3.4061 Y-1.0291 Z1.8250 F75.
G1 X2.6990 Y-1.7362 Z1.8250 F50.
G1 X1.9919 Y-2.4433 Z1.8250 F125.
G1 X1.1080 Y-3.3272 Z1.8250 F250.
G1 X1.1080 Y-4.2110 Z1.8250
G1 X2.8758 Y-2.4433 Z1.8250
G1 X3.7596 Y-2.4433 Z1.8250
G1 X1.1080 Y-5.0949 Z1.8250
G1 X1.1080 Y-5.9788 Z1.8250
G1 X4.6435 Y-2.4433 Z1.8250
G1 X5.5274 Y-2.4433 Z1.8250
G1 X1.1080 Y-6.8627 Z1.8250
G1 X1.1080 Y-7.7466 Z1.8250
G1 X6.4113 Y-2.4433 Z1.8250
G1 X7.2952 Y-2.4433 Z1.8250
G1 X1.1080 Y-8.6305 Z1.8250
G1 X1.1080 Y-9.5143 Z1.8250
G1 X8.1791 Y-2.4433 Z1.8250
G1 X9.0629 Y-2.4433 Z1.8250
G1 X1.1080 Y-10.3982 Z1.8250
G1 X1.1080 Y-11.2821 Z1.8250
G1 X9.9468 Y-2.4433 Z1.8250
G1 X10.8307 Y-2.4433 Z1.8250
G1 X1.1080 Y-12.1660 Z1.8250
G1 X1.1080 Y-13.0499 Z1.8250
G1 X11.7146 Y-2.4433 Z1.8250
G1 X12.5985 Y-2.4433 Z1.8250
G1 X1.1080 Y-13.9338 Z1.8250
G1 X1.1080 Y-14.8176 Z1.8250
G1 X13.4824 Y-2.4433 Z1.8250
G1 X14.3663 Y-2.4433 Z1.8250
G1 X1.1080 Y-15.7015 Z1.8250
G1 X1.1080 Y-16.5854 Z1.8250
G1 X15.2501 Y-2.4433 Z1.8250
G1 X16.1340 Y-2.4433 Z1.8250
G1 X1.1080 Y-17.4693 Z1.8250
G1 X1.1080 Y-18.3532 Z1.8250
G1 X17.0179 Y-2.4433 Z1.8250
G1 X17.7330 Y-2.4433 Z1.8250
G1 X17.8549 Y-2.4553 Z1.8250
G1 X17.8817 Y-2.4634 Z1.8250
G1 X1.1080 Y-19.2371 Z1.8250
G1 X1.1080 Y-20.1209 Z1.8250
G1 X18.3312 Y-2.8977 Z1.8250
G1 X18.3460 Y-2.9463 Z1.8250
G1 X18.3580 Y-3.0683 Z1.8250
G1 X18.3580 Y-3.7548 Z1.8250
G1 X1.1080 Y-21.0048 Z1.8250
G1 X1.1080 Y-21.8887 Z1.8250
G1 X18.3580 Y-4.6387 Z1.8250
G1 X18.3580 Y-5.5226 Z1.8250
G1 X1.1080 Y-22.7726 Z1.8250
G1 X1.1080 Y-23.6565 Z1.8250
G1 X18.3580 Y-6.4065 Z1.8250
G1 X18.3580 Y-7.2904 Z1.8250
G1 X1.1080 Y-24.5404 Z1.8250
G1 X1.1080 Y-25.0683 Z1.8250
G1 X1.1200 Y-25.1902 Z1.8250
G1 X1.1556 Y-25.3074 Z1.8250
G1 X1.1797 Y-25.3526 Z1.8250
G1 X18.3580 Y-8.1742 Z1.8250
G1 X18.3580 Y-9.0581 Z1.8250
G1 X1.7238 Y-25.6924 Z1.8250
G1 X1.7330 Y-25.6933 Z1.8250
G1 X2.6067 Y-25.6933 Z1.8250
G1 X18.3580 Y-9.9420 Z1.8250
G1 X18.3580 Y-10.8259 Z1.8250
G1 X3.4906 Y-25.6933 Z1.8250
G1 X4.3745 Y-25.6933 Z1.8250
G1 X18.3580 Y-11.7098 Z1.8250
G1 X18.3580 Y-12.5937 Z1.8250
G1 X5.2584 Y-25.6933 Z1.8250
G1 X6.1423 Y-25.6933 Z1.8250
G1 X18.3580 Y-13.4775 Z1.8250
G1 X18.3580 Y-14.3614 Z1.8250
G1 X7.0262 Y-25.6933 Z1.8250
G1 X7.9100 Y-25.6933 Z1.8250
G1 X18.3580 Y-15.2453 Z1.8250
G1 X18.3580 Y-16.1292 Z1.8250
G1 X8.7939 Y-25.6933 Z1.8250
G1 X9.6778 Y-25.6933 Z1.8250
G1 X18.3580 Y-17.0131 Z1.8250
G1 X18.3580 Y-17.8970 Z1.8250
G1 X10.5617 Y-25.6933 Z1.8250
G1 X11.4456 Y-25.6933 Z1.8250
G1 X18.3580 Y-18.7808 Z1.8250
G1 X18.3580 Y-19.6647 Z1.8250
G1 X12.3295 Y-25.6933 Z1.8250
G1 X13.2133 Y-25.6933 Z1.8250
G1 X18.3580 Y-20.5486 Z1.8250
G1 X18.3580 Y-21.4325 Z1.8250
G1 X14.0972 Y-25.6933 Z1.8250
G1 X14.9811 Y-25.6933 Z1.8250
G1 X18.3580 Y-22.3164 Z1.8250
G1 X18.3580 Y-23.2003 Z1.8250
G1 X15.8650 Y-25.6933 Z1.8250
G1 X16.7489 Y-25.6933 Z1.8250
G1 X18.3580 Y-24.0841 Z1.8250
G1 X18.3580 Y-24.9680 Z1.8250
G1 X17.6328 Y-25.6933 Z1.8250
G1 X16.9256 Y-26.4004 Z1.8250
G1 X16.2185 Y-27.1075 Z1.8250
G0 Z6.0000
G0 X16.2185 Y-27.1075 
M5
G53 Z
( MOP:  02-backside-prep-01-facing-1pt825-start )
( FILE: G:\Shared drives\AlloyProjectFiles\Customer CAD files\Alloy-Standard-Builds-CAM\s-in\BackPrepFacing-PICK-ONE\02-backside-prep-01-facing-1pt825-start.nc)
G90
(  BEGIN TOOL LIST )
(  TOOL 1 - Surface 2PT500 - DESC: 2.5000 DIA, 2 FLUTE,  CARBIDE MAT )
(  ENDOF TOOL LIST )
( 02-backside-prep-01-facing-1pt825-start)
T01
S12000
M3
G0 Z6.0000
G0 X18.9061 Y-1.0291 
G1 X18.9061 Y-1.0291 Z1.8250 F75.
G1 X18.1990 Y-1.7362 Z1.8250 F50.
G1 X17.4919 Y-2.4433 Z1.8250 F125.
G1 X16.6080 Y-3.3272 Z1.8250 F250.
G1 X16.6080 Y-4.2110 Z1.8250
G1 X18.3758 Y-2.4433 Z1.8250
G1 X19.2596 Y-2.4433 Z1.8250
G1 X16.6080 Y-5.0949 Z1.8250
G1 X16.6080 Y-5.9788 Z1.8250
G1 X20.1435 Y-2.4433 Z1.8250
G1 X21.0274 Y-2.4433 Z1.8250
G1 X16.6080 Y-6.8627 Z1.8250
G1 X16.6080 Y-7.7466 Z1.8250
G1 X21.9113 Y-2.4433 Z1.8250
G1 X22.7952 Y-2.4433 Z1.8250
G1 X16.6080 Y-8.6305 Z1.8250
G1 X16.6080 Y-9.5143 Z1.8250
G1 X23.6791 Y-2.4433 Z1.8250
G1 X24.5629 Y-2.4433 Z1.8250
G1 X16.6080 Y-10.3982 Z1.8250
G1 X16.6080 Y-11.2821 Z1.8250
G1 X25.4468 Y-2.4433 Z1.8250
G1 X26.3307 Y-2.4433 Z1.8250
G1 X16.6080 Y-12.1660 Z1.8250
G1 X16.6080 Y-13.0499 Z1.8250
G1 X27.2146 Y-2.4433 Z1.8250
G1 X28.0985 Y-2.4433 Z1.8250
G1 X16.6080 Y-13.9338 Z1.8250
G1 X16.6080 Y-14.8176 Z1.8250
G1 X28.9824 Y-2.4433 Z1.8250
G1 X29.8663 Y-2.4433 Z1.8250
G1 X16.6080 Y-15.7015 Z1.8250
G1 X16.6080 Y-16.5854 Z1.8250
G1 X30.7501 Y-2.4433 Z1.8250
G1 X31.6340 Y-2.4433 Z1.8250
G1 X16.6080 Y-17.4693 Z1.8250
G1 X16.6080 Y-18.3532 Z1.8250
G1 X32.5179 Y-2.4433 Z1.8250
G1 X33.2330 Y-2.4433 Z1.8250
G1 X33.3549 Y-2.4553 Z1.8250
G1 X33.3817 Y-2.4634 Z1.8250
G1 X16.6080 Y-19.2371 Z1.8250
G1 X16.6080 Y-20.1209 Z1.8250
G1 X33.8312 Y-2.8977 Z1.8250
G1 X33.8460 Y-2.9463 Z1.8250
G1 X33.8580 Y-3.0683 Z1.8250
G1 X33.8580 Y-3.7548 Z1.8250
G1 X16.6080 Y-21.0048 Z1.8250
G1 X16.6080 Y-21.8887 Z1.8250
G1 X33.8580 Y-4.6387 Z1.8250
G1 X33.8580 Y-5.5226 Z1.8250
G1 X16.6080 Y-22.7726 Z1.8250
G1 X16.6080 Y-23.6565 Z1.8250
G1 X33.8580 Y-6.4065 Z1.8250
G1 X33.8580 Y-7.2904 Z1.8250
G1 X16.6080 Y-24.5404 Z1.8250
G1 X16.6080 Y-25.0683 Z1.8250
G1 X16.6200 Y-25.1902 Z1.8250
G1 X16.6556 Y-25.3074 Z1.8250
G1 X16.6797 Y-25.3526 Z1.8250
G1 X33.8580 Y-8.1742 Z1.8250
G1 X33.8580 Y-9.0581 Z1.8250
G1 X17.2238 Y-25.6924 Z1.8250
G1 X17.2330 Y-25.6933 Z1.8250
G1 X18.1067 Y-25.6933 Z1.8250
G1 X33.8580 Y-9.9420 Z1.8250
G1 X33.8580 Y-10.8259 Z1.8250
G1 X18.9906 Y-25.6933 Z1.8250
G1 X19.8745 Y-25.6933 Z1.8250
G1 X33.8580 Y-11.7098 Z1.8250
G1 X33.8580 Y-12.5937 Z1.8250
G1 X20.7584 Y-25.6933 Z1.8250
G1 X21.6423 Y-25.6933 Z1.8250
G1 X33.8580 Y-13.4775 Z1.8250
G1 X33.8580 Y-14.3614 Z1.8250
G1 X22.5262 Y-25.6933 Z1.8250
G1 X23.4100 Y-25.6933 Z1.8250
G1 X33.8580 Y-15.2453 Z1.8250
G1 X33.8580 Y-16.1292 Z1.8250
G1 X24.2939 Y-25.6933 Z1.8250
G1 X25.1778 Y-25.6933 Z1.8250
G1 X33.8580 Y-17.0131 Z1.8250
G1 X33.8580 Y-17.8970 Z1.8250
G1 X26.0617 Y-25.6933 Z1.8250
G1 X26.9456 Y-25.6933 Z1.8250
G1 X33.8580 Y-18.7808 Z1.8250
G1 X33.8580 Y-19.6647 Z1.8250
G1 X27.8295 Y-25.6933 Z1.8250
G1 X28.7133 Y-25.6933 Z1.8250
G1 X33.8580 Y-20.5486 Z1.8250
G1 X33.8580 Y-21.4325 Z1.8250
G1 X29.5972 Y-25.6933 Z1.8250
G1 X30.4811 Y-25.6933 Z1.8250
G1 X33.8580 Y-22.3164 Z1.8250
G1 X33.8580 Y-23.2003 Z1.8250
G1 X31.3650 Y-25.6933 Z1.8250
G1 X32.2489 Y-25.6933 Z1.8250
G1 X33.8580 Y-24.0841 Z1.8250
G1 X33.8580 Y-24.9680 Z1.8250
G1 X33.1328 Y-25.6933 Z1.8250
G1 X32.4256 Y-26.4004 Z1.8250
G1 X31.7185 Y-27.1075 Z1.8250
G0 Z6.0000
G0 X31.7185 Y-27.1075 
M5
G53 Z
( END FILE 02-backside-prep-01-facing-1pt825-start.nc )
