( BEGIN FILE 05-Adcock-binding-no-elbow-PT10xPT375-01.ncTNUM: -1 )
( Lefty:False Nunits:2 )
( cline: 9.733 delta:15.5 )
( start_unit: 1 num_units: 2)
( MOP:  05-Adcock-binding-no-elbow-PT10xPT375-01 )
( FILE: G:\Shared drives\AlloyProjectFiles\Customer CAD files\Alloy-Standard-Builds-CAM\s-in\FullAdcock-Specific\05-Adcock-binding-no-elbow-PT10xPT375-01.nc)
G90
(  BEGIN TOOL LIST )
(  TOOL 6 - Downcut PT250 - DESC: 0.2500 DIA, 2 FLUTE,  CARBIDE MAT )
(  ENDOF TOOL LIST )
( 05-Adcock-binding-no-elbow-PT10xPT375-01)
( Max Depth 1.75)
T06
S12000
M3
G0 Z6.0000
G0 X3.0471 Y-18.9063 
G1 X3.0471 Y-18.9063 Z1.5725 F75.
G17
G3X3.3135Y-18.6739Z1.5725I0.0170J0.2494 F25.
G2X3.5512Y-17.1640Z1.5725I8.7249J-0.5997 F75.
G2X4.2988Y-14.8924Z1.5725I14.9246J-3.6529
G2X4.7588Y-13.8271Z1.5725I43.5305J-18.1666
G3X5.0406Y-13.1345Z1.5725I-14.6518J6.3642
G3X5.2069Y-12.5275Z1.5725I-2.9220J1.1266
G3X5.2082Y-11.7210Z1.5725I-2.7867J0.4078
G3X5.0701Y-11.0320Z1.5725I-5.4878J-0.7413
G3X4.8441Y-10.2552Z1.5725I-14.9043J-3.9154
G2X4.3093Y-8.4158Z1.5725I37.1864J11.8089
G1 X4.2961 Y-8.3559 Z1.5725
G1 X4.2816 Y-8.2642 Z1.5725
G2X4.2110Y-6.9962Z1.5725I11.7667J1.2911
G2X4.4122Y-5.6141Z1.5725I5.2363J-0.0565
G2X5.2778Y-4.1686Z1.5725I4.6991J-1.8319
G2X5.5034Y-3.9379Z1.5725I2.1980J-1.9238
G2X5.7985Y-3.9236Z1.5725I0.1562J-0.1722
G2X5.8749Y-4.1988Z1.5725I-0.1396J-0.1870
G3X5.6668Y-6.7221Z1.5725I3.2169J-1.5356
G3X6.0215Y-7.5677Z1.5725I3.5944J1.0105
G3X6.9699Y-8.2617Z1.5725I1.2750J0.7475
G3X7.6221Y-8.2783Z1.5725I0.3678J1.6308
G3X8.4851Y-7.6743Z1.5725I-0.2276J1.2436
G3X8.6025Y-7.3231Z1.5725I-1.0657J0.5516
G1 X8.6297 Y-7.1684 Z1.5725
G2X8.8570Y-6.9849Z1.5725I0.2268J-0.0483
G1 X10.6468 Y-6.9851 Z1.5725
G2X10.8752Y-7.2146Z1.5725I-0.0039J-0.2323
G1 X10.8772 Y-8.9837 Z1.5725
G3X11.0766Y-9.5370Z1.5725I0.9126J0.0163
G3X11.4555Y-9.8797Z1.5725I1.1468J0.8872
G3X12.8448Y-10.1330Z1.5725I1.0030J1.5647
G3X13.9363Y-9.5355Z1.5725I-0.4134J2.0507
G3X14.3510Y-8.8335Z1.5725I-1.4193J1.3120
G3X14.4919Y-7.5918Z1.5725I-2.9495J0.9637
G3X14.3582Y-6.8763Z1.5725I-3.5182J-0.2875
G2X14.4669Y-6.6428Z1.5725I0.1871J0.0550
G2X14.7126Y-6.7212Z1.5725I0.0784J-0.1785
G2X15.0402Y-7.4865Z1.5725I-3.2848J-1.8590
G2X15.2669Y-8.9117Z1.5725I-4.2624J-1.4086
G2X15.2670Y-9.3842Z1.5725I-7.8223J-0.2385
G2X15.1140Y-10.1672Z1.5725I-2.7896J0.1389
G2X14.8919Y-10.7139Z1.5725I-4.9180J1.6792
G3X14.5748Y-11.3848Z1.5725I31.6123J-15.3532
G3X14.3076Y-12.2078Z1.5725I3.3861J-1.5539
G3X14.3180Y-13.3305Z1.5725I2.9046J-0.5346
G3X14.5798Y-14.1798Z1.5725I4.2740J0.8527
G3X14.8195Y-14.6884Z1.5725I5.7229J2.3855
G1 X15.0364 Y-15.0914 Z1.5725
G2X15.4193Y-15.9763Z1.5725I-6.2615J-3.2350
G2X15.9295Y-17.6237Z1.5725I-18.3380J-6.5821
G2X16.1157Y-18.7206Z1.5725I-6.1543J-1.6088
G2X15.9988Y-20.0233Z1.5725I-3.7958J-0.3162
G2X15.6621Y-20.8132Z1.5725I-3.2830J0.9330
G2X15.3944Y-21.2343Z1.5725I-4.3189J2.4490
G2X15.0115Y-21.6357Z1.5725I-2.0237J1.5474
G2X13.3586Y-22.5549Z1.5725I-3.1126J3.6513
G2X12.4888Y-22.7370Z1.5725I-1.4473J4.7449
G2X11.5657Y-22.8051Z1.5725I-1.2017J9.9992
G2X10.7330Y-22.8173Z1.5725I-0.7652J23.7670
G2X8.3459Y-22.8128Z1.5725I-0.7178J250.1248
G2X7.3293Y-22.7651Z1.5725I0.0445J11.8017
G2X5.4577Y-22.2859Z1.5725I0.6358J6.3789
G2X3.9526Y-21.0825Z1.5725I1.4450J3.3501
G2X3.3221Y-19.4040Z1.5725I2.6744J1.9623
G2X3.3335Y-18.4247Z1.5725I5.1720J0.4295
G3X3.1076Y-18.1527Z1.5725I-0.2490J0.0231
G0 Z2.5725
G0 X3.1076 Y-18.1527 
G0 Z2.5725
G0 X3.0471 Y-18.9063 
G1 X3.0471 Y-18.9063 Z1.3850 F75.
G3X3.3135Y-18.6739Z1.3850I0.0170J0.2494 F25.
G2X3.5512Y-17.1640Z1.3850I8.7249J-0.5997 F75.
G2X4.2988Y-14.8924Z1.3850I14.9246J-3.6529
G2X4.7588Y-13.8271Z1.3850I43.5305J-18.1666
G3X5.0406Y-13.1345Z1.3850I-14.6518J6.3642
G3X5.2069Y-12.5275Z1.3850I-2.9220J1.1266
G3X5.2082Y-11.7210Z1.3850I-2.7867J0.4078
G3X5.0701Y-11.0320Z1.3850I-5.4878J-0.7413
G3X4.8441Y-10.2552Z1.3850I-14.9043J-3.9154
G2X4.3093Y-8.4158Z1.3850I37.1864J11.8089
G1 X4.2961 Y-8.3559 Z1.3850
G1 X4.2816 Y-8.2642 Z1.3850
G2X4.2110Y-6.9962Z1.3850I11.7667J1.2911
G2X4.4122Y-5.6141Z1.3850I5.2363J-0.0565
G2X5.2778Y-4.1686Z1.3850I4.6991J-1.8319
G2X5.5034Y-3.9379Z1.3850I2.1980J-1.9238
G2X5.7985Y-3.9236Z1.3850I0.1562J-0.1722
G2X5.8749Y-4.1988Z1.3850I-0.1396J-0.1870
G3X5.6668Y-6.7221Z1.3850I3.2169J-1.5356
G3X6.0215Y-7.5677Z1.3850I3.5944J1.0105
G3X6.9699Y-8.2617Z1.3850I1.2750J0.7475
G3X7.6221Y-8.2783Z1.3850I0.3678J1.6308
G3X8.4851Y-7.6743Z1.3850I-0.2276J1.2436
G3X8.6025Y-7.3231Z1.3850I-1.0657J0.5516
G1 X8.6297 Y-7.1684 Z1.3850
G2X8.8570Y-6.9849Z1.3850I0.2268J-0.0483
G1 X10.6468 Y-6.9851 Z1.3850
G2X10.8752Y-7.2146Z1.3850I-0.0039J-0.2323
G1 X10.8772 Y-8.9837 Z1.3850
G3X11.0766Y-9.5370Z1.3850I0.9126J0.0163
G3X11.4555Y-9.8797Z1.3850I1.1468J0.8872
G3X12.8448Y-10.1330Z1.3850I1.0030J1.5647
G3X13.9363Y-9.5355Z1.3850I-0.4134J2.0507
G3X14.3510Y-8.8335Z1.3850I-1.4193J1.3120
G3X14.4919Y-7.5918Z1.3850I-2.9495J0.9637
G3X14.3582Y-6.8763Z1.3850I-3.5182J-0.2875
G2X14.4669Y-6.6428Z1.3850I0.1871J0.0550
G2X14.7126Y-6.7212Z1.3850I0.0784J-0.1785
G2X15.0402Y-7.4865Z1.3850I-3.2848J-1.8590
G2X15.2669Y-8.9117Z1.3850I-4.2624J-1.4086
G2X15.2670Y-9.3842Z1.3850I-7.8223J-0.2385
G2X15.1140Y-10.1672Z1.3850I-2.7896J0.1389
G2X14.8919Y-10.7139Z1.3850I-4.9180J1.6792
G3X14.5748Y-11.3848Z1.3850I31.6123J-15.3532
G3X14.3076Y-12.2078Z1.3850I3.3861J-1.5539
G3X14.3180Y-13.3305Z1.3850I2.9046J-0.5346
G3X14.5798Y-14.1798Z1.3850I4.2740J0.8527
G3X14.8195Y-14.6884Z1.3850I5.7229J2.3855
G1 X15.0364 Y-15.0914 Z1.3850
G2X15.4193Y-15.9763Z1.3850I-6.2615J-3.2350
G2X15.9295Y-17.6237Z1.3850I-18.3380J-6.5821
G2X16.1157Y-18.7206Z1.3850I-6.1543J-1.6088
G2X15.9988Y-20.0233Z1.3850I-3.7958J-0.3162
G2X15.6621Y-20.8132Z1.3850I-3.2830J0.9330
G2X15.3944Y-21.2343Z1.3850I-4.3189J2.4490
G2X15.0115Y-21.6357Z1.3850I-2.0237J1.5474
G2X13.3586Y-22.5549Z1.3850I-3.1126J3.6513
G2X12.4888Y-22.7370Z1.3850I-1.4473J4.7449
G2X11.5657Y-22.8051Z1.3850I-1.2017J9.9992
G2X10.7330Y-22.8173Z1.3850I-0.7652J23.7670
G2X8.3459Y-22.8128Z1.3850I-0.7178J250.1248
G2X7.3293Y-22.7651Z1.3850I0.0445J11.8017
G2X5.4577Y-22.2859Z1.3850I0.6358J6.3789
G2X3.9526Y-21.0825Z1.3850I1.4450J3.3501
G2X3.3221Y-19.4040Z1.3850I2.6744J1.9623
G2X3.3335Y-18.4247Z1.3850I5.1720J0.4295
G3X3.1076Y-18.1527Z1.3850I-0.2490J0.0231
G0 Z6.0000
G0 X3.1076 Y-18.1527 
M5
G53 Z
( MOP:  05-Adcock-binding-no-elbow-PT10xPT375-01 )
( FILE: G:\Shared drives\AlloyProjectFiles\Customer CAD files\Alloy-Standard-Builds-CAM\s-in\FullAdcock-Specific\05-Adcock-binding-no-elbow-PT10xPT375-01.nc)
G90
(  BEGIN TOOL LIST )
(  TOOL 6 - Downcut PT250 - DESC: 0.2500 DIA, 2 FLUTE,  CARBIDE MAT )
(  ENDOF TOOL LIST )
( 05-Adcock-binding-no-elbow-PT10xPT375-01)
( Max Depth 1.75)
T06
S12000
M3
G0 Z6.0000
G0 X18.5471 Y-18.9063 
G1 X18.5471 Y-18.9063 Z1.5725 F75.
G17
G3X18.8135Y-18.6739Z1.5725I0.0170J0.2494 F25.
G2X19.0512Y-17.1640Z1.5725I8.7249J-0.5997 F75.
G2X19.7988Y-14.8924Z1.5725I14.9246J-3.6529
G2X20.2588Y-13.8271Z1.5725I43.5305J-18.1666
G3X20.5406Y-13.1345Z1.5725I-14.6518J6.3642
G3X20.7069Y-12.5275Z1.5725I-2.9220J1.1266
G3X20.7082Y-11.7210Z1.5725I-2.7867J0.4078
G3X20.5701Y-11.0320Z1.5725I-5.4878J-0.7413
G3X20.3441Y-10.2552Z1.5725I-14.9043J-3.9154
G2X19.8093Y-8.4158Z1.5725I37.1864J11.8089
G1 X19.7961 Y-8.3559 Z1.5725
G1 X19.7816 Y-8.2642 Z1.5725
G2X19.7110Y-6.9962Z1.5725I11.7667J1.2911
G2X19.9122Y-5.6141Z1.5725I5.2363J-0.0565
G2X20.7778Y-4.1686Z1.5725I4.6991J-1.8319
G2X21.0034Y-3.9379Z1.5725I2.1980J-1.9238
G2X21.2985Y-3.9236Z1.5725I0.1562J-0.1722
G2X21.3749Y-4.1988Z1.5725I-0.1396J-0.1870
G3X21.1668Y-6.7221Z1.5725I3.2169J-1.5356
G3X21.5215Y-7.5677Z1.5725I3.5944J1.0105
G3X22.4699Y-8.2617Z1.5725I1.2750J0.7475
G3X23.1221Y-8.2783Z1.5725I0.3678J1.6308
G3X23.9851Y-7.6743Z1.5725I-0.2276J1.2436
G3X24.1025Y-7.3231Z1.5725I-1.0657J0.5516
G1 X24.1297 Y-7.1684 Z1.5725
G2X24.3570Y-6.9849Z1.5725I0.2268J-0.0483
G1 X26.1468 Y-6.9851 Z1.5725
G2X26.3752Y-7.2146Z1.5725I-0.0039J-0.2323
G1 X26.3772 Y-8.9837 Z1.5725
G3X26.5766Y-9.5370Z1.5725I0.9126J0.0163
G3X26.9555Y-9.8797Z1.5725I1.1468J0.8872
G3X28.3448Y-10.1330Z1.5725I1.0030J1.5647
G3X29.4363Y-9.5355Z1.5725I-0.4134J2.0507
G3X29.8510Y-8.8335Z1.5725I-1.4193J1.3120
G3X29.9919Y-7.5918Z1.5725I-2.9495J0.9637
G3X29.8582Y-6.8763Z1.5725I-3.5182J-0.2875
G2X29.9669Y-6.6428Z1.5725I0.1871J0.0550
G2X30.2126Y-6.7212Z1.5725I0.0784J-0.1785
G2X30.5402Y-7.4865Z1.5725I-3.2848J-1.8590
G2X30.7669Y-8.9117Z1.5725I-4.2624J-1.4086
G2X30.7670Y-9.3842Z1.5725I-7.8223J-0.2385
G2X30.6140Y-10.1672Z1.5725I-2.7896J0.1389
G2X30.3919Y-10.7139Z1.5725I-4.9180J1.6792
G3X30.0748Y-11.3848Z1.5725I31.6123J-15.3532
G3X29.8076Y-12.2078Z1.5725I3.3861J-1.5539
G3X29.8180Y-13.3305Z1.5725I2.9046J-0.5346
G3X30.0798Y-14.1798Z1.5725I4.2740J0.8527
G3X30.3195Y-14.6884Z1.5725I5.7229J2.3855
G1 X30.5364 Y-15.0914 Z1.5725
G2X30.9193Y-15.9763Z1.5725I-6.2615J-3.2350
G2X31.4295Y-17.6237Z1.5725I-18.3380J-6.5821
G2X31.6157Y-18.7206Z1.5725I-6.1543J-1.6088
G2X31.4988Y-20.0233Z1.5725I-3.7958J-0.3162
G2X31.1621Y-20.8132Z1.5725I-3.2830J0.9330
G2X30.8944Y-21.2343Z1.5725I-4.3189J2.4490
G2X30.5115Y-21.6357Z1.5725I-2.0237J1.5474
G2X28.8586Y-22.5549Z1.5725I-3.1126J3.6513
G2X27.9888Y-22.7370Z1.5725I-1.4473J4.7449
G2X27.0657Y-22.8051Z1.5725I-1.2017J9.9992
G2X26.2330Y-22.8173Z1.5725I-0.7652J23.7670
G2X23.8459Y-22.8128Z1.5725I-0.7178J250.1248
G2X22.8293Y-22.7651Z1.5725I0.0445J11.8017
G2X20.9577Y-22.2859Z1.5725I0.6358J6.3789
G2X19.4526Y-21.0825Z1.5725I1.4450J3.3501
G2X18.8221Y-19.4040Z1.5725I2.6744J1.9623
G2X18.8335Y-18.4247Z1.5725I5.1720J0.4295
G3X18.6076Y-18.1527Z1.5725I-0.2490J0.0231
G0 Z2.5725
G0 X18.6076 Y-18.1527 
G0 Z2.5725
G0 X18.5471 Y-18.9063 
G1 X18.5471 Y-18.9063 Z1.3850 F75.
G3X18.8135Y-18.6739Z1.3850I0.0170J0.2494 F25.
G2X19.0512Y-17.1640Z1.3850I8.7249J-0.5997 F75.
G2X19.7988Y-14.8924Z1.3850I14.9246J-3.6529
G2X20.2588Y-13.8271Z1.3850I43.5305J-18.1666
G3X20.5406Y-13.1345Z1.3850I-14.6518J6.3642
G3X20.7069Y-12.5275Z1.3850I-2.9220J1.1266
G3X20.7082Y-11.7210Z1.3850I-2.7867J0.4078
G3X20.5701Y-11.0320Z1.3850I-5.4878J-0.7413
G3X20.3441Y-10.2552Z1.3850I-14.9043J-3.9154
G2X19.8093Y-8.4158Z1.3850I37.1864J11.8089
G1 X19.7961 Y-8.3559 Z1.3850
G1 X19.7816 Y-8.2642 Z1.3850
G2X19.7110Y-6.9962Z1.3850I11.7667J1.2911
G2X19.9122Y-5.6141Z1.3850I5.2363J-0.0565
G2X20.7778Y-4.1686Z1.3850I4.6991J-1.8319
G2X21.0034Y-3.9379Z1.3850I2.1980J-1.9238
G2X21.2985Y-3.9236Z1.3850I0.1562J-0.1722
G2X21.3749Y-4.1988Z1.3850I-0.1396J-0.1870
G3X21.1668Y-6.7221Z1.3850I3.2169J-1.5356
G3X21.5215Y-7.5677Z1.3850I3.5944J1.0105
G3X22.4699Y-8.2617Z1.3850I1.2750J0.7475
G3X23.1221Y-8.2783Z1.3850I0.3678J1.6308
G3X23.9851Y-7.6743Z1.3850I-0.2276J1.2436
G3X24.1025Y-7.3231Z1.3850I-1.0657J0.5516
G1 X24.1297 Y-7.1684 Z1.3850
G2X24.3570Y-6.9849Z1.3850I0.2268J-0.0483
G1 X26.1468 Y-6.9851 Z1.3850
G2X26.3752Y-7.2146Z1.3850I-0.0039J-0.2323
G1 X26.3772 Y-8.9837 Z1.3850
G3X26.5766Y-9.5370Z1.3850I0.9126J0.0163
G3X26.9555Y-9.8797Z1.3850I1.1468J0.8872
G3X28.3448Y-10.1330Z1.3850I1.0030J1.5647
G3X29.4363Y-9.5355Z1.3850I-0.4134J2.0507
G3X29.8510Y-8.8335Z1.3850I-1.4193J1.3120
G3X29.9919Y-7.5918Z1.3850I-2.9495J0.9637
G3X29.8582Y-6.8763Z1.3850I-3.5182J-0.2875
G2X29.9669Y-6.6428Z1.3850I0.1871J0.0550
G2X30.2126Y-6.7212Z1.3850I0.0784J-0.1785
G2X30.5402Y-7.4865Z1.3850I-3.2848J-1.8590
G2X30.7669Y-8.9117Z1.3850I-4.2624J-1.4086
G2X30.7670Y-9.3842Z1.3850I-7.8223J-0.2385
G2X30.6140Y-10.1672Z1.3850I-2.7896J0.1389
G2X30.3919Y-10.7139Z1.3850I-4.9180J1.6792
G3X30.0748Y-11.3848Z1.3850I31.6123J-15.3532
G3X29.8076Y-12.2078Z1.3850I3.3861J-1.5539
G3X29.8180Y-13.3305Z1.3850I2.9046J-0.5346
G3X30.0798Y-14.1798Z1.3850I4.2740J0.8527
G3X30.3195Y-14.6884Z1.3850I5.7229J2.3855
G1 X30.5364 Y-15.0914 Z1.3850
G2X30.9193Y-15.9763Z1.3850I-6.2615J-3.2350
G2X31.4295Y-17.6237Z1.3850I-18.3380J-6.5821
G2X31.6157Y-18.7206Z1.3850I-6.1543J-1.6088
G2X31.4988Y-20.0233Z1.3850I-3.7958J-0.3162
G2X31.1621Y-20.8132Z1.3850I-3.2830J0.9330
G2X30.8944Y-21.2343Z1.3850I-4.3189J2.4490
G2X30.5115Y-21.6357Z1.3850I-2.0237J1.5474
G2X28.8586Y-22.5549Z1.3850I-3.1126J3.6513
G2X27.9888Y-22.7370Z1.3850I-1.4473J4.7449
G2X27.0657Y-22.8051Z1.3850I-1.2017J9.9992
G2X26.2330Y-22.8173Z1.3850I-0.7652J23.7670
G2X23.8459Y-22.8128Z1.3850I-0.7178J250.1248
G2X22.8293Y-22.7651Z1.3850I0.0445J11.8017
G2X20.9577Y-22.2859Z1.3850I0.6358J6.3789
G2X19.4526Y-21.0825Z1.3850I1.4450J3.3501
G2X18.8221Y-19.4040Z1.3850I2.6744J1.9623
G2X18.8335Y-18.4247Z1.3850I5.1720J0.4295
G3X18.6076Y-18.1527Z1.3850I-0.2490J0.0231
G0 Z6.0000
G0 X18.6076 Y-18.1527 
M5
G53 Z
( END FILE 05-Adcock-binding-no-elbow-PT10xPT375-01.nc )
