( BEGIN FILE 07-Adcock-binding-with-elbow-PT10xPT375-02.ncTNUM: -1 )
( Lefty:False Nunits:2 )
( cline: 9.733 delta:15.5 )
( start_unit: 1 num_units: 2)
( MOP:  07-Adcock-binding-with-elbow-PT10xPT375-02 )
( FILE: G:\Shared drives\AlloyProjectFiles\Customer CAD files\Alloy-Standard-Builds-CAM\s-in\FullAdcock-Specific\07-Adcock-binding-with-elbow-PT10xPT375-02.nc)
G90
(  BEGIN TOOL LIST )
(  TOOL 3 - Downcut PT750 - DESC: 0.7500 DIA, 2 FLUTE,  CARBIDE MAT )
(  ENDOF TOOL LIST )
( 07-Adcock-binding-with-elbow-PT10xPT375-02)
T03
S14000
M3
G0 Z6.0000
G0 X2.7078 Y-18.8813 
G1 X2.7078 Y-18.8813 Z1.2600 F75.
G17
G3X2.9744Y-18.6489Z1.2600I0.0172J0.2494 F100.
G2X3.2212Y-17.0823Z1.2600I9.0750J-0.6264
G2X3.8649Y-15.0597Z1.2600I14.9233J-3.6358
G2X4.4465Y-13.6928Z1.2600I33.9741J-13.6482
G3X4.7210Y-13.0183Z1.2600I-14.3740J6.2441
G3X4.8709Y-12.4747Z1.2600I-2.6065J1.0112
G3X4.8707Y-11.7635Z1.2600I-2.4510J0.3550
G3X4.6933Y-10.9403Z1.2600I-5.5387J-0.7632
G1 X4.6405 Y-10.7563 Z1.2600
G1 X4.5189 Y-10.3545 Z1.2600
G2X3.9774Y-8.4894Z1.2600I37.0396J11.7658
G1 X3.9605 Y-8.4106 Z1.2600
G1 X3.9438 Y-8.3021 Z1.2600
G2X3.8711Y-6.9885Z1.2600I12.0810J1.3268
G2X4.0903Y-5.5047Z1.2600I5.5607J-0.0631
G2X5.0255Y-3.9406Z1.2600I5.0118J-1.9353
G2X5.2750Y-3.6861Z1.2600I2.4513J-2.1524
G2X6.0016Y-3.6510Z1.2600I0.3846J-0.4240
G2X6.1816Y-4.3456Z1.2600I-0.3423J-0.4593
G3X5.9941Y-6.6299Z1.2600I2.9106J-1.3888
G3X6.3125Y-7.3917Z1.2600I3.2682J0.9186
G3X7.1871Y-7.9524Z1.2600I0.9815J0.5685
G3X7.8811Y-7.8199Z1.2600I0.1626J1.0317
G3X8.2060Y-7.4713Z1.2600I-0.4429J0.7384
G3X8.2689Y-7.2575Z1.2600I-0.9599J0.3986
G1 X8.2979 Y-7.0944 Z1.2600
G2X8.8509Y-6.6450Z1.2600I0.5584J-0.1222
G1 X10.6614 Y-6.6454 Z1.2600
G2X11.2152Y-7.2143Z1.2600I-0.0187J-0.5723
G1 X11.2172 Y-8.9791 Z1.2600
G3X11.3480Y-9.3320Z1.2600I0.5745J0.0122
G3X11.6398Y-9.5938Z1.2600I0.8822J0.6899
G3X12.7770Y-9.7997Z1.2600I0.8188J1.2790
G3X13.7439Y-9.2402Z1.2600I-0.3403J1.7032
G3X14.0572Y-8.6368Z1.2600I-1.3065J1.0616
G3X14.1321Y-7.4321Z1.2600I-2.7688J0.7769
G3X14.0314Y-6.9703Z1.2600I-3.1832J-0.4525
G2X14.3304Y-6.3314Z1.2600I0.5139J0.1490
G2X15.0043Y-6.5466Z1.2600I0.2149J-0.4899
G2X15.3650Y-7.3861Z1.2600I-3.5789J-2.0350
G2X15.6069Y-8.9075Z1.2600I-4.5842J-1.5086
G2X15.6063Y-9.4064Z1.2600I-7.8638J-0.2406
G2X15.4347Y-10.2801Z1.2600I-3.1337J0.1619
G2X15.1986Y-10.8607Z1.2600I-5.2622J1.8015
G3X14.8860Y-11.5217Z1.2600I31.5949J-15.3445
G3X14.6419Y-12.2701Z1.2600I3.0850J-1.4201
G3X14.6519Y-13.2663Z1.2600I2.5711J-0.4723
G3X14.8939Y-14.0494Z1.2600I3.9416J0.7889
G3X15.1209Y-14.5310Z1.2600I5.4123J2.2565
G1 X15.3392 Y-14.9369 Z1.2600
G2X15.7396Y-15.8622Z1.2600I-6.5753J-3.3942
G2X16.2602Y-17.5445Z1.2600I-18.6361J-6.6885
G2X16.4551Y-18.7001Z1.2600I-6.4739J-1.6862
G2X16.3249Y-20.1196Z1.2600I-4.1298J-0.3371
G2X15.9537Y-20.9879Z1.2600I-3.6186J1.0334
G2X15.6627Y-21.4432Z1.2600I-4.4883J2.5483
G2X15.2287Y-21.8972Z1.2600I-2.3118J1.7753
G2X13.4555Y-22.8808Z1.2600I-3.3295J3.9125
G2X12.5267Y-23.0749Z1.2600I-1.5486J5.0920
G2X11.5748Y-23.1450Z1.2600I-1.2417J10.3632
G2X10.7332Y-23.1573Z1.2600I-0.7749J24.1387
G2X8.3394Y-23.1527Z1.2600I-0.7176J249.2922
G2X7.2899Y-23.1028Z1.2600I0.0484J12.0672
G2X5.3154Y-22.5948Z1.2600I0.6737J6.7097
G2X3.6744Y-21.2780Z1.2600I1.5865J3.6581
G2X2.9831Y-19.4298Z1.2600I2.9528J2.1580
G2X2.9944Y-18.3997Z1.2600I5.5039J0.4545
G3X2.7687Y-18.1277Z1.2600I-0.2489J0.0231
G0 Z6.0000
G0 X2.7687 Y-18.1277 
( 07-Adcock-binding-with-elbow-PT10xPT375-02)
G0 Z6.0000
G0 X10.9311 Y-23.4070 
G1 X10.9311 Y-23.4070 Z0.0000 F75.
G3X10.6808Y-23.1574Z0.0000I-0.2500J-0.0004 F100.
G2X8.2522Y-23.1515Z0.0000I-0.7916J175.7444
G2X7.1763Y-23.0905Z0.0000I0.0817J10.9509
G2X5.3637Y-22.6158Z0.0000I0.7937J6.7286
G2X3.7018Y-21.3154Z0.0000I1.5469J3.6892
G2X2.9786Y-19.3766Z0.0000I2.9358J2.1993
G2X3.0068Y-18.2723Z0.0000I5.8223J0.4038
G2X3.2332Y-17.0323Z0.0000I10.1209J-1.2072
G3X3.0474Y-16.7315Z0.0000I-0.2433J0.0575
G0 Z6.0000
G0 X3.0474 Y-16.7315 
M5
G53 Z
( MOP:  07-Adcock-binding-with-elbow-PT10xPT375-02 )
( FILE: G:\Shared drives\AlloyProjectFiles\Customer CAD files\Alloy-Standard-Builds-CAM\s-in\FullAdcock-Specific\07-Adcock-binding-with-elbow-PT10xPT375-02.nc)
G90
(  BEGIN TOOL LIST )
(  TOOL 3 - Downcut PT750 - DESC: 0.7500 DIA, 2 FLUTE,  CARBIDE MAT )
(  ENDOF TOOL LIST )
( 07-Adcock-binding-with-elbow-PT10xPT375-02)
T03
S14000
M3
G0 Z6.0000
G0 X18.2078 Y-18.8813 
G1 X18.2078 Y-18.8813 Z1.2600 F75.
G17
G3X18.4744Y-18.6489Z1.2600I0.0172J0.2494 F100.
G2X18.7212Y-17.0823Z1.2600I9.0750J-0.6264
G2X19.3649Y-15.0597Z1.2600I14.9233J-3.6358
G2X19.9465Y-13.6928Z1.2600I33.9741J-13.6482
G3X20.2210Y-13.0183Z1.2600I-14.3740J6.2441
G3X20.3709Y-12.4747Z1.2600I-2.6065J1.0112
G3X20.3707Y-11.7635Z1.2600I-2.4510J0.3550
G3X20.1933Y-10.9403Z1.2600I-5.5387J-0.7632
G1 X20.1405 Y-10.7563 Z1.2600
G1 X20.0189 Y-10.3545 Z1.2600
G2X19.4774Y-8.4894Z1.2600I37.0396J11.7658
G1 X19.4605 Y-8.4106 Z1.2600
G1 X19.4438 Y-8.3021 Z1.2600
G2X19.3711Y-6.9885Z1.2600I12.0810J1.3268
G2X19.5903Y-5.5047Z1.2600I5.5607J-0.0631
G2X20.5255Y-3.9406Z1.2600I5.0118J-1.9353
G2X20.7750Y-3.6861Z1.2600I2.4513J-2.1524
G2X21.5016Y-3.6510Z1.2600I0.3846J-0.4240
G2X21.6816Y-4.3456Z1.2600I-0.3423J-0.4593
G3X21.4941Y-6.6299Z1.2600I2.9106J-1.3888
G3X21.8125Y-7.3917Z1.2600I3.2682J0.9186
G3X22.6871Y-7.9524Z1.2600I0.9815J0.5685
G3X23.3811Y-7.8199Z1.2600I0.1626J1.0317
G3X23.7060Y-7.4713Z1.2600I-0.4429J0.7384
G3X23.7689Y-7.2575Z1.2600I-0.9599J0.3986
G1 X23.7979 Y-7.0944 Z1.2600
G2X24.3509Y-6.6450Z1.2600I0.5584J-0.1222
G1 X26.1614 Y-6.6454 Z1.2600
G2X26.7152Y-7.2143Z1.2600I-0.0187J-0.5723
G1 X26.7172 Y-8.9791 Z1.2600
G3X26.8480Y-9.3320Z1.2600I0.5745J0.0122
G3X27.1398Y-9.5938Z1.2600I0.8822J0.6899
G3X28.2770Y-9.7997Z1.2600I0.8188J1.2790
G3X29.2439Y-9.2402Z1.2600I-0.3403J1.7032
G3X29.5572Y-8.6368Z1.2600I-1.3065J1.0616
G3X29.6321Y-7.4321Z1.2600I-2.7688J0.7769
G3X29.5314Y-6.9703Z1.2600I-3.1832J-0.4525
G2X29.8304Y-6.3314Z1.2600I0.5139J0.1490
G2X30.5043Y-6.5466Z1.2600I0.2149J-0.4899
G2X30.8650Y-7.3861Z1.2600I-3.5789J-2.0350
G2X31.1069Y-8.9075Z1.2600I-4.5842J-1.5086
G2X31.1063Y-9.4064Z1.2600I-7.8638J-0.2406
G2X30.9347Y-10.2801Z1.2600I-3.1337J0.1619
G2X30.6986Y-10.8607Z1.2600I-5.2622J1.8015
G3X30.3860Y-11.5217Z1.2600I31.5949J-15.3445
G3X30.1419Y-12.2701Z1.2600I3.0850J-1.4201
G3X30.1519Y-13.2663Z1.2600I2.5711J-0.4723
G3X30.3939Y-14.0494Z1.2600I3.9416J0.7889
G3X30.6209Y-14.5310Z1.2600I5.4123J2.2565
G1 X30.8392 Y-14.9369 Z1.2600
G2X31.2396Y-15.8622Z1.2600I-6.5753J-3.3942
G2X31.7602Y-17.5445Z1.2600I-18.6361J-6.6885
G2X31.9551Y-18.7001Z1.2600I-6.4739J-1.6862
G2X31.8249Y-20.1196Z1.2600I-4.1298J-0.3371
G2X31.4537Y-20.9879Z1.2600I-3.6186J1.0334
G2X31.1627Y-21.4432Z1.2600I-4.4883J2.5483
G2X30.7287Y-21.8972Z1.2600I-2.3118J1.7753
G2X28.9555Y-22.8808Z1.2600I-3.3295J3.9125
G2X28.0267Y-23.0749Z1.2600I-1.5486J5.0920
G2X27.0748Y-23.1450Z1.2600I-1.2417J10.3632
G2X26.2332Y-23.1573Z1.2600I-0.7749J24.1387
G2X23.8394Y-23.1527Z1.2600I-0.7176J249.2922
G2X22.7899Y-23.1028Z1.2600I0.0484J12.0672
G2X20.8154Y-22.5948Z1.2600I0.6737J6.7097
G2X19.1744Y-21.2780Z1.2600I1.5865J3.6581
G2X18.4831Y-19.4298Z1.2600I2.9528J2.1580
G2X18.4944Y-18.3997Z1.2600I5.5039J0.4545
G3X18.2687Y-18.1277Z1.2600I-0.2489J0.0231
G0 Z6.0000
G0 X18.2687 Y-18.1277 
( 07-Adcock-binding-with-elbow-PT10xPT375-02)
G0 Z6.0000
G0 X26.4311 Y-23.4070 
G1 X26.4311 Y-23.4070 Z0.0000 F75.
G3X26.1808Y-23.1574Z0.0000I-0.2500J-0.0004 F100.
G2X23.7522Y-23.1515Z0.0000I-0.7916J175.7444
G2X22.6763Y-23.0905Z0.0000I0.0817J10.9509
G2X20.8637Y-22.6158Z0.0000I0.7937J6.7286
G2X19.2018Y-21.3154Z0.0000I1.5469J3.6892
G2X18.4786Y-19.3766Z0.0000I2.9358J2.1993
G2X18.5068Y-18.2723Z0.0000I5.8223J0.4038
G2X18.7332Y-17.0323Z0.0000I10.1209J-1.2072
G3X18.5474Y-16.7315Z0.0000I-0.2433J0.0575
G0 Z6.0000
G0 X18.5474 Y-16.7315 
M5
G53 Z
( END FILE 07-Adcock-binding-with-elbow-PT10xPT375-02.nc )
