( BEGIN FILE Adcock-pot2-front.ncTNUM: -1 )
( Lefty:False Nunits:2 )
( cline: 9.733 delta:15.5 )
( start_unit: 1 num_units: 2)
( MOP:  Adcock-pot2-front )
( FILE: G:\Shared drives\AlloyProjectFiles\Customer CAD files\Alloy-Standard-Builds-CAM\s-in\FullAdcock-Specific\Adcock-pot2-front.nc)
G90
(  BEGIN TOOL LIST )
(  TOOL 7 - Downcut PT125 - DESC: 0.1250 DIA, 2 FLUTE,  CARBIDE MAT )
(  ENDOF TOOL LIST )
( Adcock-pot2-front)
T07
S12000
M3
G0 Z4.0000
G0 X14.0693 Y-19.3364 
G1 X14.0693 Y-19.3364 Z1.8000 F75.
G1 X14.0693 Y-19.3364 Z1.7750 F25.
G1 X14.0708 Y-19.3374 Z1.7744 F75.
G1 X14.0801 Y-19.3426 Z1.7711
G1 X14.0897 Y-19.3469 Z1.7677
G1 X14.0997 Y-19.3505 Z1.7643
G1 X14.1100 Y-19.3532 Z1.7609
G1 X14.1205 Y-19.3549 Z1.7575
G1 X14.1310 Y-19.3558 Z1.7542
G1 X14.1417 Y-19.3558 Z1.7508
G1 X14.1522 Y-19.3549 Z1.7474
G1 X14.1627 Y-19.3532 Z1.7440
G1 X14.1730 Y-19.3505 Z1.7407
G1 X14.1830 Y-19.3469 Z1.7373
G1 X14.1926 Y-19.3426 Z1.7339
G1 X14.2019 Y-19.3374 Z1.7305
G1 X14.2107 Y-19.3315 Z1.7272
G1 X14.2189 Y-19.3248 Z1.7238
G1 X14.2266 Y-19.3174 Z1.7204
G1 X14.2336 Y-19.3095 Z1.7170
G1 X14.2399 Y-19.3010 Z1.7136
G1 X14.2455 Y-19.2919 Z1.7103
G1 X14.2503 Y-19.2824 Z1.7069
G1 X14.2542 Y-19.2726 Z1.7035
G1 X14.2573 Y-19.2625 Z1.7001
G1 X14.2596 Y-19.2521 Z1.6968
G1 X14.2609 Y-19.2416 Z1.6934
G1 X14.2614 Y-19.2310 Z1.6900
G17
G3X14.0114Y-19.2310Z1.6900I-0.1250J0.0000
G3X14.2614Y-19.2310Z1.6900I0.1250J0.0000
G1 X14.1441 Y-19.3556 Z1.6900
G1 X14.1522 Y-19.3549 Z1.6874
G1 X14.1627 Y-19.3532 Z1.6840
G1 X14.1730 Y-19.3505 Z1.6807
G1 X14.1830 Y-19.3469 Z1.6773
G1 X14.1926 Y-19.3426 Z1.6739
G1 X14.2019 Y-19.3374 Z1.6705
G1 X14.2107 Y-19.3315 Z1.6672
G1 X14.2189 Y-19.3248 Z1.6638
G1 X14.2266 Y-19.3174 Z1.6604
G1 X14.2336 Y-19.3095 Z1.6570
G1 X14.2399 Y-19.3010 Z1.6536
G1 X14.2455 Y-19.2919 Z1.6503
G1 X14.2503 Y-19.2824 Z1.6469
G1 X14.2542 Y-19.2726 Z1.6435
G1 X14.2573 Y-19.2625 Z1.6401
G1 X14.2596 Y-19.2521 Z1.6368
G1 X14.2609 Y-19.2416 Z1.6334
G1 X14.2614 Y-19.2310 Z1.6300
G3X14.0114Y-19.2310Z1.6300I-0.1250J0.0000
G3X14.2614Y-19.2310Z1.6300I0.1250J0.0000
G1 X14.1441 Y-19.3556 Z1.6300
G1 X14.1522 Y-19.3549 Z1.6274
G1 X14.1627 Y-19.3532 Z1.6240
G1 X14.1730 Y-19.3505 Z1.6207
G1 X14.1830 Y-19.3469 Z1.6173
G1 X14.1926 Y-19.3426 Z1.6139
G1 X14.2019 Y-19.3374 Z1.6105
G1 X14.2107 Y-19.3315 Z1.6072
G1 X14.2189 Y-19.3248 Z1.6038
G1 X14.2266 Y-19.3174 Z1.6004
G1 X14.2336 Y-19.3095 Z1.5970
G1 X14.2399 Y-19.3010 Z1.5936
G1 X14.2455 Y-19.2919 Z1.5903
G1 X14.2503 Y-19.2824 Z1.5869
G1 X14.2542 Y-19.2726 Z1.5835
G1 X14.2573 Y-19.2625 Z1.5801
G1 X14.2596 Y-19.2521 Z1.5768
G1 X14.2609 Y-19.2416 Z1.5734
G1 X14.2614 Y-19.2310 Z1.5700
G3X14.0114Y-19.2310Z1.5700I-0.1250J0.0000
G3X14.2614Y-19.2310Z1.5700I0.1250J0.0000
G1 X14.1441 Y-19.3556 Z1.5700
G1 X14.1522 Y-19.3549 Z1.5674
G1 X14.1627 Y-19.3532 Z1.5640
G1 X14.1730 Y-19.3505 Z1.5607
G1 X14.1830 Y-19.3469 Z1.5573
G1 X14.1926 Y-19.3426 Z1.5539
G1 X14.2019 Y-19.3374 Z1.5505
G1 X14.2107 Y-19.3315 Z1.5472
G1 X14.2189 Y-19.3248 Z1.5438
G1 X14.2266 Y-19.3174 Z1.5404
G1 X14.2336 Y-19.3095 Z1.5370
G1 X14.2399 Y-19.3010 Z1.5336
G1 X14.2455 Y-19.2919 Z1.5303
G1 X14.2503 Y-19.2824 Z1.5269
G1 X14.2542 Y-19.2726 Z1.5235
G1 X14.2573 Y-19.2625 Z1.5201
G1 X14.2596 Y-19.2521 Z1.5168
G1 X14.2609 Y-19.2416 Z1.5134
G1 X14.2614 Y-19.2310 Z1.5100
G3X14.0114Y-19.2310Z1.5100I-0.1250J0.0000
G3X14.2614Y-19.2310Z1.5100I0.1250J0.0000
G1 X14.1441 Y-19.3556 Z1.5100
G1 X14.1522 Y-19.3549 Z1.5074
G1 X14.1627 Y-19.3532 Z1.5040
G1 X14.1730 Y-19.3505 Z1.5007
G1 X14.1830 Y-19.3469 Z1.4973
G1 X14.1926 Y-19.3426 Z1.4939
G1 X14.2019 Y-19.3374 Z1.4905
G1 X14.2107 Y-19.3315 Z1.4872
G1 X14.2189 Y-19.3248 Z1.4838
G1 X14.2266 Y-19.3174 Z1.4804
G1 X14.2336 Y-19.3095 Z1.4770
G1 X14.2399 Y-19.3010 Z1.4736
G1 X14.2455 Y-19.2919 Z1.4703
G1 X14.2503 Y-19.2824 Z1.4669
G1 X14.2542 Y-19.2726 Z1.4635
G1 X14.2573 Y-19.2625 Z1.4601
G1 X14.2596 Y-19.2521 Z1.4568
G1 X14.2609 Y-19.2416 Z1.4534
G1 X14.2614 Y-19.2310 Z1.4500
G3X14.0114Y-19.2310Z1.4500I-0.1250J0.0000
G3X14.2614Y-19.2310Z1.4500I0.1250J0.0000
G1 X14.1364 Y-19.2310 Z1.4500
G0 Z4.0000
G0 X14.1364 Y-19.2310 
M5
G53 Z
( MOP:  Adcock-pot2-front )
( FILE: G:\Shared drives\AlloyProjectFiles\Customer CAD files\Alloy-Standard-Builds-CAM\s-in\FullAdcock-Specific\Adcock-pot2-front.nc)
G90
(  BEGIN TOOL LIST )
(  TOOL 7 - Downcut PT125 - DESC: 0.1250 DIA, 2 FLUTE,  CARBIDE MAT )
(  ENDOF TOOL LIST )
( Adcock-pot2-front)
T07
S12000
M3
G0 Z4.0000
G0 X29.5693 Y-19.3364 
G1 X29.5693 Y-19.3364 Z1.8000 F75.
G1 X29.5693 Y-19.3364 Z1.7750 F25.
G1 X29.5708 Y-19.3374 Z1.7744 F75.
G1 X29.5801 Y-19.3426 Z1.7711
G1 X29.5897 Y-19.3469 Z1.7677
G1 X29.5997 Y-19.3505 Z1.7643
G1 X29.6100 Y-19.3532 Z1.7609
G1 X29.6205 Y-19.3549 Z1.7575
G1 X29.6310 Y-19.3558 Z1.7542
G1 X29.6417 Y-19.3558 Z1.7508
G1 X29.6522 Y-19.3549 Z1.7474
G1 X29.6627 Y-19.3532 Z1.7440
G1 X29.6730 Y-19.3505 Z1.7407
G1 X29.6830 Y-19.3469 Z1.7373
G1 X29.6926 Y-19.3426 Z1.7339
G1 X29.7019 Y-19.3374 Z1.7305
G1 X29.7107 Y-19.3315 Z1.7272
G1 X29.7189 Y-19.3248 Z1.7238
G1 X29.7266 Y-19.3174 Z1.7204
G1 X29.7336 Y-19.3095 Z1.7170
G1 X29.7399 Y-19.3010 Z1.7136
G1 X29.7455 Y-19.2919 Z1.7103
G1 X29.7503 Y-19.2824 Z1.7069
G1 X29.7542 Y-19.2726 Z1.7035
G1 X29.7573 Y-19.2625 Z1.7001
G1 X29.7596 Y-19.2521 Z1.6968
G1 X29.7609 Y-19.2416 Z1.6934
G1 X29.7614 Y-19.2310 Z1.6900
G17
G3X29.5114Y-19.2310Z1.6900I-0.1250J0.0000
G3X29.7614Y-19.2310Z1.6900I0.1250J0.0000
G1 X29.6441 Y-19.3556 Z1.6900
G1 X29.6522 Y-19.3549 Z1.6874
G1 X29.6627 Y-19.3532 Z1.6840
G1 X29.6730 Y-19.3505 Z1.6807
G1 X29.6830 Y-19.3469 Z1.6773
G1 X29.6926 Y-19.3426 Z1.6739
G1 X29.7019 Y-19.3374 Z1.6705
G1 X29.7107 Y-19.3315 Z1.6672
G1 X29.7189 Y-19.3248 Z1.6638
G1 X29.7266 Y-19.3174 Z1.6604
G1 X29.7336 Y-19.3095 Z1.6570
G1 X29.7399 Y-19.3010 Z1.6536
G1 X29.7455 Y-19.2919 Z1.6503
G1 X29.7503 Y-19.2824 Z1.6469
G1 X29.7542 Y-19.2726 Z1.6435
G1 X29.7573 Y-19.2625 Z1.6401
G1 X29.7596 Y-19.2521 Z1.6368
G1 X29.7609 Y-19.2416 Z1.6334
G1 X29.7614 Y-19.2310 Z1.6300
G3X29.5114Y-19.2310Z1.6300I-0.1250J0.0000
G3X29.7614Y-19.2310Z1.6300I0.1250J0.0000
G1 X29.6441 Y-19.3556 Z1.6300
G1 X29.6522 Y-19.3549 Z1.6274
G1 X29.6627 Y-19.3532 Z1.6240
G1 X29.6730 Y-19.3505 Z1.6207
G1 X29.6830 Y-19.3469 Z1.6173
G1 X29.6926 Y-19.3426 Z1.6139
G1 X29.7019 Y-19.3374 Z1.6105
G1 X29.7107 Y-19.3315 Z1.6072
G1 X29.7189 Y-19.3248 Z1.6038
G1 X29.7266 Y-19.3174 Z1.6004
G1 X29.7336 Y-19.3095 Z1.5970
G1 X29.7399 Y-19.3010 Z1.5936
G1 X29.7455 Y-19.2919 Z1.5903
G1 X29.7503 Y-19.2824 Z1.5869
G1 X29.7542 Y-19.2726 Z1.5835
G1 X29.7573 Y-19.2625 Z1.5801
G1 X29.7596 Y-19.2521 Z1.5768
G1 X29.7609 Y-19.2416 Z1.5734
G1 X29.7614 Y-19.2310 Z1.5700
G3X29.5114Y-19.2310Z1.5700I-0.1250J0.0000
G3X29.7614Y-19.2310Z1.5700I0.1250J0.0000
G1 X29.6441 Y-19.3556 Z1.5700
G1 X29.6522 Y-19.3549 Z1.5674
G1 X29.6627 Y-19.3532 Z1.5640
G1 X29.6730 Y-19.3505 Z1.5607
G1 X29.6830 Y-19.3469 Z1.5573
G1 X29.6926 Y-19.3426 Z1.5539
G1 X29.7019 Y-19.3374 Z1.5505
G1 X29.7107 Y-19.3315 Z1.5472
G1 X29.7189 Y-19.3248 Z1.5438
G1 X29.7266 Y-19.3174 Z1.5404
G1 X29.7336 Y-19.3095 Z1.5370
G1 X29.7399 Y-19.3010 Z1.5336
G1 X29.7455 Y-19.2919 Z1.5303
G1 X29.7503 Y-19.2824 Z1.5269
G1 X29.7542 Y-19.2726 Z1.5235
G1 X29.7573 Y-19.2625 Z1.5201
G1 X29.7596 Y-19.2521 Z1.5168
G1 X29.7609 Y-19.2416 Z1.5134
G1 X29.7614 Y-19.2310 Z1.5100
G3X29.5114Y-19.2310Z1.5100I-0.1250J0.0000
G3X29.7614Y-19.2310Z1.5100I0.1250J0.0000
G1 X29.6441 Y-19.3556 Z1.5100
G1 X29.6522 Y-19.3549 Z1.5074
G1 X29.6627 Y-19.3532 Z1.5040
G1 X29.6730 Y-19.3505 Z1.5007
G1 X29.6830 Y-19.3469 Z1.4973
G1 X29.6926 Y-19.3426 Z1.4939
G1 X29.7019 Y-19.3374 Z1.4905
G1 X29.7107 Y-19.3315 Z1.4872
G1 X29.7189 Y-19.3248 Z1.4838
G1 X29.7266 Y-19.3174 Z1.4804
G1 X29.7336 Y-19.3095 Z1.4770
G1 X29.7399 Y-19.3010 Z1.4736
G1 X29.7455 Y-19.2919 Z1.4703
G1 X29.7503 Y-19.2824 Z1.4669
G1 X29.7542 Y-19.2726 Z1.4635
G1 X29.7573 Y-19.2625 Z1.4601
G1 X29.7596 Y-19.2521 Z1.4568
G1 X29.7609 Y-19.2416 Z1.4534
G1 X29.7614 Y-19.2310 Z1.4500
G3X29.5114Y-19.2310Z1.4500I-0.1250J0.0000
G3X29.7614Y-19.2310Z1.4500I0.1250J0.0000
G1 X29.6364 Y-19.2310 Z1.4500
G0 Z4.0000
G0 X29.6364 Y-19.2310 
M5
G53 Z
( END FILE Adcock-pot2-front.nc )
