( BEGIN FILE DStyle-BackRoundover-PT125-01-back.ncTNUM: -1 )
( Lefty:False Nunits:2 )
( cline: 9.733 delta:15.5 )
( start_unit: 1 num_units: 2)
( MOP:  DStyle-BackRoundover-PT125-01-back )
( FILE: G:\Shared drives\AlloyProjectFiles\Customer CAD files\Alloy-Standard-Builds-CAM\s-in\FullD-Style-Specific\DStyle-BackRoundover-PT125-01-back.nc)
G90
(  BEGIN TOOL LIST )
(  TOOL 3 - Downcut PT750 - DESC: 0.7500 DIA, 2 FLUTE,  CARBIDE MAT )
(  ENDOF TOOL LIST )
( DStyle-BackRoundover-PT125-01-back)
T03
S14000
M3
G0 Z4.0000
G0 X2.8839 Y-18.8913 
G1 X2.8839 Y-18.8913 Z1.4800 F75.
G17
G3X3.1394Y-18.6426Z1.4800I0.0055J0.2499 F50.
G1 X3.1442 Y-18.4253 Z1.4800 F110.
G1 X3.1573 Y-18.2154 Z1.4800
G2X3.2416Y-17.5961Z1.4800I5.9292J-0.4920
G2X3.4351Y-16.8019Z1.4800I8.0934J-1.5517
G2X3.6175Y-16.2284Z1.4800I13.3319J-3.9234
G2X4.0237Y-15.1122Z1.4800I27.5397J-9.3909
G1 X4.1023 Y-14.9240 Z1.4800
G1 X4.1855 Y-14.7403 Z1.4800
G1 X4.3553 Y-14.3886 Z1.4800
G1 X4.6361 Y-13.8292 Z1.4800
G3X4.9962Y-13.0029Z1.4800I-10.1070J4.8960
G3X5.0946Y-12.6876Z1.4800I-2.1965J0.8585
G3X5.1148Y-12.3249Z1.4800I-1.1151J0.2440
G3X5.0542Y-12.0066Z1.4800I-1.9589J-0.2082
G1 X5.0309 Y-11.9232 Z1.4800
G1 X4.9762 Y-11.7462 Z1.4800
G1 X4.9168 Y-11.5682 Z1.4800
G1 X4.7896 Y-11.2045 Z1.4800
G1 X4.5244 Y-10.4700 Z1.4800
G2X4.2200Y-9.4965Z1.4800I9.3679J3.4635
G2X4.1016Y-8.8812Z1.4800I5.6062J1.3978
G2X4.0739Y-7.9154Z1.4800I4.4079J0.6097
G2X4.1786Y-7.3517Z1.4800I2.8189J-0.2316
G1 X4.2172 Y-7.2379 Z1.4800
G1 X4.2643 Y-7.1242 Z1.4800
G1 X4.3222 Y-7.0096 Z1.4800
G2X4.5401Y-6.7212Z1.4800I1.1099J-0.6118
G2X4.7359Y-6.5746Z1.4800I0.6643J-0.6831
G2X5.0038Y-6.4812Z1.4800I0.4051J-0.7307
G2X5.1388Y-6.4724Z1.4800I0.1247J-0.8820
G1 X5.2104 Y-6.4770 Z1.4800
G2X5.3493Y-6.5079Z1.4800I-0.1143J-0.8420
G1 X5.4172 Y-6.5332 Z1.4800
G2X5.5400Y-6.6022Z1.4800I-0.3551J-0.7748
G1 X5.5956 Y-6.6441 Z1.4800
G2X5.7307Y-6.7893Z1.4800I-0.5208J-0.6203
G1 X5.7788 Y-6.8628 Z1.4800
G2X5.8958Y-7.1507Z1.4800I-1.0218J-0.5827
G2X5.9600Y-7.4824Z1.4800I-2.4632J-0.6492
G1 X6.0081 Y-7.8644 Z1.4800
G1 X6.0357 Y-8.0455 Z1.4800
G3X6.1979Y-8.6066Z1.4800I2.4228J0.3964
G3X6.6030Y-9.1894Z1.4800I1.6119J0.6882
G3X7.3460Y-9.5732Z1.4800I1.0392J1.1009
G3X7.7086Y-9.5887Z1.4800I0.2323J1.1824
G3X7.8667Y-9.5547Z1.4800I-0.0963J0.8316
G3X8.1141Y-9.3798Z1.4800I-0.1678J0.4997
G1 X8.1553 Y-9.3246 Z1.4800
G1 X8.1948 Y-9.2619 Z1.4800
G3X8.2379Y-9.0975Z1.4800I-0.3056J0.1682
G1 X8.2609 Y-7.2528 Z1.4800
G2X8.6838Y-6.6729Z1.4800I0.6502J-0.0301
G2X8.9190Y-6.6301Z1.4800I0.2350J-0.6244
G1 X10.5624 Y-6.6305 Z1.4800
G2X11.1348Y-6.9878Z1.4800I-0.0138J-0.6593
G2X11.2054Y-7.2714Z1.4800I-0.5666J-0.2916
G1 X11.2064 Y-7.3551 Z1.4800
G3X11.2225Y-7.4559Z1.4800I0.3509J0.0044
G3X11.3082Y-7.6618Z1.4800I1.1802J0.3706
G3X11.4901Y-7.8244Z1.4800I0.3049J0.1581
G3X11.6565Y-7.8588Z1.4800I0.1910J0.5032
G3X12.0136Y-7.8035Z1.4800I0.0407J0.9176
G3X12.5326Y-7.5019Z1.4800I-0.5892J1.6113
G3X12.8040Y-7.2355Z1.4800I-1.4482J1.7464
G3X13.1584Y-6.6999Z1.4800I-1.9141J1.6518
G3X13.3496Y-6.2075Z1.4800I-2.8158J1.3764
G3X13.5052Y-5.4054Z1.4800I-4.1326J1.2181
G1 X13.5172 Y-5.2673 Z1.4800
G1 X13.5259 Y-5.1260 Z1.4800
G1 X13.5411 Y-4.8205 Z1.4800
G1 X13.5537 Y-4.6558 Z1.4800
G2X13.5905Y-4.4417Z1.4800I1.2328J-0.1013
G2X13.7288Y-4.1693Z1.4800I0.7146J-0.1917
G2X14.0208Y-3.9580Z1.4800I0.5460J-0.4471
G1 X14.0794 Y-3.9375 Z1.4800
G2X14.4487Y-3.9172Z1.4800I0.2271J-0.7635
G2X14.8261Y-4.0845Z1.4800I-0.1567J-0.8625
G1 X14.8738 Y-4.1229 Z1.4800
G1 X14.9196 Y-4.1642 Z1.4800
G1 X14.9886 Y-4.2350 Z1.4800
G2X15.2962Y-4.7154Z1.4800I-1.4642J-1.2761
G2X15.4201Y-5.0430Z1.4800I-2.5198J-1.1404
G2X15.5625Y-5.6897Z1.4800I-3.7522J-1.1652
G2X15.6014Y-6.3383Z1.4800I-4.5096J-0.5953
G2X15.5002Y-7.4405Z1.4800I-6.6746J0.0570
G2X15.2913Y-8.3545Z1.4800I-8.8210J1.5350
G1 X15.2039 Y-8.6488 Z1.4800
G2X14.9123Y-9.5126Z1.4800I-18.9654J5.9216
G1 X14.7063 Y-10.0717 Z1.4800
G3X14.5136Y-10.6181Z1.4800I11.6713J-4.4229
G3X14.3430Y-11.2867Z1.4800I5.0223J-1.6376
G3X14.3017Y-11.9389Z1.4800I2.8187J-0.5059
G3X14.3793Y-12.4561Z1.4800I2.8108J0.1572
G3X14.5879Y-13.1243Z1.4800I6.1990J1.5686
G3X14.8536Y-13.8045Z1.4800I16.4256J6.0234
G1 X15.3085 Y-14.9080 Z1.4800
G2X15.7475Y-16.0365Z1.4800I-28.0827J-11.5738
G2X15.9913Y-16.7630Z1.4800I-14.0788J-5.1293
G2X16.2392Y-17.8386Z1.4800I-7.1643J-2.2176
G2X16.2881Y-18.9670Z1.4800I-5.1849J-0.7900
G2X16.1560Y-19.7768Z1.4800I-4.3786J0.2991
G2X15.8601Y-20.5535Z1.4800I-3.7336J0.9776
G2X15.5997Y-20.9840Z1.4800I-3.2030J1.6430
G1 X15.4995 Y-21.1191 Z1.4800
G1 X15.3929 Y-21.2494 Z1.4800
G1 X15.2802 Y-21.3744 Z1.4800
G1 X15.1617 Y-21.4937 Z1.4800
G1 X15.0378 Y-21.6071 Z1.4800
G2X14.4971Y-21.9977Z1.4800I-2.4168J2.7759
G2X13.9089Y-22.2873Z1.4800I-2.1861J3.6985
G2X12.9860Y-22.5633Z1.4800I-2.0069J5.0287
G2X11.8902Y-22.6977Z1.4800I-1.3850J6.7594
G1 X11.5874 Y-22.7096 Z1.4800
G2X9.1884Y-22.7417Z1.4800I-2.1289J69.2570
G2X7.6857Y-22.7190Z1.4800I0.1125J57.1263
G2X6.7440Y-22.6371Z1.4800I0.1634J7.3330
G2X5.6552Y-22.3608Z1.4800I0.8471J5.6219
G2X4.9132Y-22.0066Z1.4800I1.4966J4.0899
G2X4.5020Y-21.7180Z1.4800I1.9008J3.1452
G1 X4.3739 Y-21.6090 Z1.4800
G1 X4.2512 Y-21.4938 Z1.4800
G1 X4.1341 Y-21.3729 Z1.4800
G1 X4.0229 Y-21.2465 Z1.4800
G1 X3.9181 Y-21.1151 Z1.4800
G2X3.5649Y-20.5467Z1.4800I2.8749J2.1804
G2X3.3207Y-19.9293Z1.4800I3.4439J1.7188
G2X3.1631Y-19.1247Z1.4800I4.0940J1.2198
G2X3.1394Y-18.6426Z1.4800I4.7762J0.4766
G1 X3.1442 Y-18.4253 Z1.4800
G1 X3.1573 Y-18.2154 Z1.4800
G1 X3.1645 Y-18.1435 Z1.4800
G3X2.9408Y-17.8700Z1.4800I-0.2488J0.0248 F75.
G0 Z4.0000
G0 X2.9408 Y-17.8700 
M5
G53 Z
( MOP:  DStyle-BackRoundover-PT125-01-back )
( FILE: G:\Shared drives\AlloyProjectFiles\Customer CAD files\Alloy-Standard-Builds-CAM\s-in\FullD-Style-Specific\DStyle-BackRoundover-PT125-01-back.nc)
G90
(  BEGIN TOOL LIST )
(  TOOL 3 - Downcut PT750 - DESC: 0.7500 DIA, 2 FLUTE,  CARBIDE MAT )
(  ENDOF TOOL LIST )
( DStyle-BackRoundover-PT125-01-back)
T03
S14000
M3
G0 Z4.0000
G0 X18.3839 Y-18.8913 
G1 X18.3839 Y-18.8913 Z1.4800 F75.
G17
G3X18.6394Y-18.6426Z1.4800I0.0055J0.2499 F50.
G1 X18.6442 Y-18.4253 Z1.4800 F110.
G1 X18.6573 Y-18.2154 Z1.4800
G2X18.7416Y-17.5961Z1.4800I5.9292J-0.4920
G2X18.9351Y-16.8019Z1.4800I8.0934J-1.5517
G2X19.1175Y-16.2284Z1.4800I13.3319J-3.9234
G2X19.5237Y-15.1122Z1.4800I27.5397J-9.3909
G1 X19.6023 Y-14.9240 Z1.4800
G1 X19.6855 Y-14.7403 Z1.4800
G1 X19.8553 Y-14.3886 Z1.4800
G1 X20.1361 Y-13.8292 Z1.4800
G3X20.4962Y-13.0029Z1.4800I-10.1070J4.8960
G3X20.5946Y-12.6876Z1.4800I-2.1965J0.8585
G3X20.6148Y-12.3249Z1.4800I-1.1151J0.2440
G3X20.5542Y-12.0066Z1.4800I-1.9589J-0.2082
G1 X20.5309 Y-11.9232 Z1.4800
G1 X20.4762 Y-11.7462 Z1.4800
G1 X20.4168 Y-11.5682 Z1.4800
G1 X20.2896 Y-11.2045 Z1.4800
G1 X20.0244 Y-10.4700 Z1.4800
G2X19.7200Y-9.4965Z1.4800I9.3679J3.4635
G2X19.6016Y-8.8812Z1.4800I5.6062J1.3978
G2X19.5739Y-7.9154Z1.4800I4.4079J0.6097
G2X19.6786Y-7.3517Z1.4800I2.8189J-0.2316
G1 X19.7172 Y-7.2379 Z1.4800
G1 X19.7643 Y-7.1242 Z1.4800
G1 X19.8222 Y-7.0096 Z1.4800
G2X20.0401Y-6.7212Z1.4800I1.1099J-0.6118
G2X20.2359Y-6.5746Z1.4800I0.6643J-0.6831
G2X20.5038Y-6.4812Z1.4800I0.4051J-0.7307
G2X20.6388Y-6.4724Z1.4800I0.1247J-0.8820
G1 X20.7104 Y-6.4770 Z1.4800
G2X20.8493Y-6.5079Z1.4800I-0.1143J-0.8420
G1 X20.9172 Y-6.5332 Z1.4800
G2X21.0400Y-6.6022Z1.4800I-0.3551J-0.7748
G1 X21.0956 Y-6.6441 Z1.4800
G2X21.2307Y-6.7893Z1.4800I-0.5208J-0.6203
G1 X21.2788 Y-6.8628 Z1.4800
G2X21.3958Y-7.1507Z1.4800I-1.0218J-0.5827
G2X21.4600Y-7.4824Z1.4800I-2.4632J-0.6492
G1 X21.5081 Y-7.8644 Z1.4800
G1 X21.5357 Y-8.0455 Z1.4800
G3X21.6979Y-8.6066Z1.4800I2.4228J0.3964
G3X22.1030Y-9.1894Z1.4800I1.6119J0.6882
G3X22.8460Y-9.5732Z1.4800I1.0392J1.1009
G3X23.2086Y-9.5887Z1.4800I0.2323J1.1824
G3X23.3667Y-9.5547Z1.4800I-0.0963J0.8316
G3X23.6141Y-9.3798Z1.4800I-0.1678J0.4997
G1 X23.6553 Y-9.3246 Z1.4800
G1 X23.6948 Y-9.2619 Z1.4800
G3X23.7379Y-9.0975Z1.4800I-0.3056J0.1682
G1 X23.7609 Y-7.2528 Z1.4800
G2X24.1838Y-6.6729Z1.4800I0.6502J-0.0301
G2X24.4190Y-6.6301Z1.4800I0.2350J-0.6244
G1 X26.0624 Y-6.6305 Z1.4800
G2X26.6348Y-6.9878Z1.4800I-0.0138J-0.6593
G2X26.7054Y-7.2714Z1.4800I-0.5666J-0.2916
G1 X26.7064 Y-7.3551 Z1.4800
G3X26.7225Y-7.4559Z1.4800I0.3509J0.0044
G3X26.8082Y-7.6618Z1.4800I1.1802J0.3706
G3X26.9901Y-7.8244Z1.4800I0.3049J0.1581
G3X27.1565Y-7.8588Z1.4800I0.1910J0.5032
G3X27.5136Y-7.8035Z1.4800I0.0407J0.9176
G3X28.0326Y-7.5019Z1.4800I-0.5892J1.6113
G3X28.3040Y-7.2355Z1.4800I-1.4482J1.7464
G3X28.6584Y-6.6999Z1.4800I-1.9141J1.6518
G3X28.8496Y-6.2075Z1.4800I-2.8158J1.3764
G3X29.0052Y-5.4054Z1.4800I-4.1326J1.2181
G1 X29.0172 Y-5.2673 Z1.4800
G1 X29.0259 Y-5.1260 Z1.4800
G1 X29.0411 Y-4.8205 Z1.4800
G1 X29.0537 Y-4.6558 Z1.4800
G2X29.0905Y-4.4417Z1.4800I1.2328J-0.1013
G2X29.2288Y-4.1693Z1.4800I0.7146J-0.1917
G2X29.5208Y-3.9580Z1.4800I0.5460J-0.4471
G1 X29.5794 Y-3.9375 Z1.4800
G2X29.9487Y-3.9172Z1.4800I0.2271J-0.7635
G2X30.3261Y-4.0845Z1.4800I-0.1567J-0.8625
G1 X30.3738 Y-4.1229 Z1.4800
G1 X30.4196 Y-4.1642 Z1.4800
G1 X30.4886 Y-4.2350 Z1.4800
G2X30.7962Y-4.7154Z1.4800I-1.4642J-1.2761
G2X30.9201Y-5.0430Z1.4800I-2.5198J-1.1404
G2X31.0625Y-5.6897Z1.4800I-3.7522J-1.1652
G2X31.1014Y-6.3383Z1.4800I-4.5096J-0.5953
G2X31.0002Y-7.4405Z1.4800I-6.6746J0.0570
G2X30.7913Y-8.3545Z1.4800I-8.8210J1.5350
G1 X30.7039 Y-8.6488 Z1.4800
G2X30.4123Y-9.5126Z1.4800I-18.9654J5.9216
G1 X30.2063 Y-10.0717 Z1.4800
G3X30.0136Y-10.6181Z1.4800I11.6713J-4.4229
G3X29.8430Y-11.2867Z1.4800I5.0223J-1.6376
G3X29.8017Y-11.9389Z1.4800I2.8187J-0.5059
G3X29.8793Y-12.4561Z1.4800I2.8108J0.1572
G3X30.0879Y-13.1243Z1.4800I6.1990J1.5686
G3X30.3536Y-13.8045Z1.4800I16.4256J6.0234
G1 X30.8085 Y-14.9080 Z1.4800
G2X31.2475Y-16.0365Z1.4800I-28.0827J-11.5738
G2X31.4913Y-16.7630Z1.4800I-14.0788J-5.1293
G2X31.7392Y-17.8386Z1.4800I-7.1643J-2.2176
G2X31.7881Y-18.9670Z1.4800I-5.1849J-0.7900
G2X31.6560Y-19.7768Z1.4800I-4.3786J0.2991
G2X31.3601Y-20.5535Z1.4800I-3.7336J0.9776
G2X31.0997Y-20.9840Z1.4800I-3.2030J1.6430
G1 X30.9995 Y-21.1191 Z1.4800
G1 X30.8929 Y-21.2494 Z1.4800
G1 X30.7802 Y-21.3744 Z1.4800
G1 X30.6617 Y-21.4937 Z1.4800
G1 X30.5378 Y-21.6071 Z1.4800
G2X29.9971Y-21.9977Z1.4800I-2.4168J2.7759
G2X29.4089Y-22.2873Z1.4800I-2.1861J3.6985
G2X28.4860Y-22.5633Z1.4800I-2.0069J5.0287
G2X27.3902Y-22.6977Z1.4800I-1.3850J6.7594
G1 X27.0874 Y-22.7096 Z1.4800
G2X24.6884Y-22.7417Z1.4800I-2.1289J69.2570
G2X23.1857Y-22.7190Z1.4800I0.1125J57.1263
G2X22.2440Y-22.6371Z1.4800I0.1634J7.3330
G2X21.1552Y-22.3608Z1.4800I0.8471J5.6219
G2X20.4132Y-22.0066Z1.4800I1.4966J4.0899
G2X20.0020Y-21.7180Z1.4800I1.9008J3.1452
G1 X19.8739 Y-21.6090 Z1.4800
G1 X19.7512 Y-21.4938 Z1.4800
G1 X19.6341 Y-21.3729 Z1.4800
G1 X19.5229 Y-21.2465 Z1.4800
G1 X19.4181 Y-21.1151 Z1.4800
G2X19.0649Y-20.5467Z1.4800I2.8749J2.1804
G2X18.8207Y-19.9293Z1.4800I3.4439J1.7188
G2X18.6631Y-19.1247Z1.4800I4.0940J1.2198
G2X18.6394Y-18.6426Z1.4800I4.7762J0.4766
G1 X18.6442 Y-18.4253 Z1.4800
G1 X18.6573 Y-18.2154 Z1.4800
G1 X18.6645 Y-18.1435 Z1.4800
G3X18.4408Y-17.8700Z1.4800I-0.2488J0.0248 F75.
G0 Z4.0000
G0 X18.4408 Y-17.8700 
M5
G53 Z
( END FILE DStyle-BackRoundover-PT125-01-back.nc )
