( BEGIN FILE DStyle-FrontRoundover-PT125-02-front.ncTNUM: -1 )
( Lefty:False Nunits:2 )
( cline: 9.733 delta:15.5 )
( start_unit: 1 num_units: 2)
( MOP:  DStyle-FrontRoundover-PT125-02-front )
( FILE: G:\Shared drives\AlloyProjectFiles\Customer CAD files\Alloy-Standard-Builds-CAM\s-in\FullD-Style-Specific\DStyle-FrontRoundover-PT125-02-front.nc)
G90
(  BEGIN TOOL LIST )
(  TOOL 15 - Roundover PT125 Accusize - DESC: 0.2625 DIA, 2 FLUTE,  CARBIDE MAT )
(  ENDOF TOOL LIST )
( DStyle-FrontRoundover-PT125-02-front)
( Accusize 1011-0018 Depth .1822 diameter .2625 but added .001 since there was a line in test cuts)
T15
S9000
M3
G0 Z4.0000
G0 X3.6158 Y-17.2407 
G1 X3.6158 Y-17.2407 Z1.9100 F75.
G1 X3.6074 Y-17.2730 Z1.9041 F25.
G1 X3.5683 Y-17.4406 Z1.8738
G1 X3.5333 Y-17.6095 Z1.8434
G1 X3.5029 Y-17.7794 Z1.8129
G1 X3.4773 Y-17.9504 Z1.7824
G1 X3.4569 Y-18.1223 Z1.7519
G1 X3.4419 Y-18.2950 Z1.7213
G1 X3.4329 Y-18.4683 Z1.6907
G1 X3.4300 Y-18.6426 Z1.6600
G17
G3X3.5347Y-19.5863Z1.6600I4.2669J-0.0045 F80.
G3X3.7939Y-20.3386Z1.6600I3.5771J0.8116
G3X4.2200Y-21.0142Z1.6600I3.0041J1.4229
G3X4.6717Y-21.4679Z1.6600I2.5215J2.0582
G3X5.2003Y-21.8265Z1.6600I2.2092J2.6874
G3X5.7781Y-22.0901Z1.6600I2.0309J3.6881
G3X6.6906Y-22.3356Z1.6600I1.8447J5.0380
G3X7.6251Y-22.4360Z1.6600I1.1978J6.7506
G1 X7.9340 Y-22.4475 Z1.6600
G3X10.0888Y-22.4783Z1.6600I2.0387J67.1613
G3X11.6283Y-22.4597Z1.6600I0.0196J62.0005
G1 X11.9368 Y-22.4492 Z1.6600
G3X13.1780Y-22.2780Z1.6600I-0.2527J6.4203
G3X13.9273Y-22.0308Z1.6600I-1.1431J4.7227
G3X14.6226Y-21.6461Z1.6600I-1.4822J3.4992
G3X14.9935Y-21.3412Z1.6600I-1.8953J2.6836
G3X15.4109Y-20.8556Z1.6600I-2.2425J2.3505
G3X15.7266Y-20.2996Z1.6600I-2.7750J1.9430
G3X15.9359Y-19.6974Z1.6600I-3.3426J1.4990
G3X16.0551Y-18.9131Z1.6600I-4.0195J1.0124
G3X16.0170Y-17.9675Z1.6600I-4.9904J0.2723
G3X15.8262Y-17.0470Z1.6600I-6.8683J-0.9439
G1 X15.7839 Y-16.8969 Z1.6600
G1 X15.7394 Y-16.7478 Z1.6600
G3X15.3370Y-15.5782Z1.6600I-21.2874J-6.6702
G3X15.1251Y-15.0365Z1.6600I-10.4917J-3.7922
G1 X15.0443 Y-14.8580 Z1.6600
G1 X14.8761 Y-14.5093 Z1.6600
G1 X14.5927 Y-13.9445 Z1.6600
G2X14.2231Y-13.0963Z1.6600I10.3491J5.0134
G2X14.1135Y-12.7433Z1.6600I2.4444J0.9527
G2X14.0885Y-12.3001Z1.6600I1.3699J0.2995
G2X14.1568Y-11.9391Z1.6600I2.2189J-0.2329
G1 X14.1821 Y-11.8487 Z1.6600
G1 X14.2387 Y-11.6656 Z1.6600
G1 X14.2996 Y-11.4829 Z1.6600
G1 X14.4279 Y-11.1162 Z1.6600
G1 X14.6926 Y-10.3829 Z1.6600
G3X14.9880Y-9.4412Z1.6600I-9.1812J3.3969
G3X15.1020Y-8.8529Z1.6600I-5.3513J1.3427
G3X15.1300Y-7.9465Z1.6600I-4.1564J0.5821
G3X15.0391Y-7.4414Z1.6600I-2.5894J-0.2056
G3X14.9178Y-7.1462Z1.6600I-1.4849J-0.4376
G3X14.7067Y-6.8783Z1.6600I-0.8364J-0.4420
G3X14.4862Y-6.7563Z1.6600I-0.3966J-0.4566
G1 X14.4208 Y-6.7416 Z1.6600
G1 X14.3529 Y-6.7356 Z1.6600
G1 X14.2851 Y-6.7391 Z1.6600
G1 X14.2179 Y-6.7524 Z1.6600
G1 X14.1530 Y-6.7755 Z1.6600
G1 X14.0925 Y-6.8078 Z1.6600
G1 X14.0391 Y-6.8469 Z1.6600
G3X13.8890Y-7.0444Z1.6600I0.3888J-0.4512
G3X13.8286Y-7.2055Z1.6600I0.8516J-0.4111
G3X13.7682Y-7.5117Z1.6600I2.1465J-0.5826
G1 X13.7191 Y-7.9008 Z1.6600
G1 X13.6904 Y-8.0896 Z1.6600
G2X13.5099Y-8.7120Z1.6600I-2.6832J0.4405
G2X13.0432Y-9.3821Z1.6600I-1.8535J0.7933
G2X12.1693Y-9.8324Z1.6600I-1.2194J1.2936
G2X11.7257Y-9.8507Z1.6600I-0.2818J1.4419
G2X11.5151Y-9.8047Z1.6600I0.1246J1.0757
G2X11.1456Y-9.5443Z1.6600I0.2521J0.7499
G1 X11.0931 Y-9.4740 Z1.6600
G1 X11.0454 Y-9.3982 Z1.6600
G2X10.9643Y-9.1007Z1.6600I0.5327J0.3050
G1 X10.9421 Y-7.2750 Z1.6600
G3X10.6598Y-6.9101Z1.6600I-0.3870J-0.0077
G3X10.5528Y-6.8940Z1.6600I-0.1127J-0.3875
G1 X8.9205 Y-6.8939 Z1.6600
G3X8.5336Y-7.1972Z1.6600I-0.0033J-0.3942
G1 X8.5273 Y-7.2330 Z1.6600
G1 X8.5246 Y-7.2680 Z1.6600
G1 X8.5233 Y-7.3584 Z1.6600
G2X8.4935Y-7.5399Z1.6600I-0.6136J0.0076
G2X8.3699Y-7.8218Z1.6600I-1.3235J0.4125
G2X8.0206Y-8.0883Z1.6600I-0.5167J0.3150
G2X7.7684Y-8.1240Z1.6600I-0.2462J0.8321
G2X7.3226Y-8.0369Z1.6600I0.0092J1.2319
G2X6.7799Y-7.7172Z1.6600I0.7277J1.8557
G2X6.0839Y-6.8426Z1.6600I1.7266J2.0882
G2X5.9534Y-6.5473Z1.6600I2.7755J1.4035
G2X5.7723Y-5.9190Z1.6600I3.7924J1.4336
G2X5.6844Y-5.2675Z1.6600I4.7943J0.9786
G1 X5.6747 Y-5.1014 Z1.6600
G3X5.6492Y-4.6752Z1.6600I-9.6456J-0.3641
G1 X5.6375 Y-4.5853 Z1.6600
G3X5.5590Y-4.3718Z1.6600I-0.5462J-0.0796
G1 X5.5217 Y-4.3230 Z1.6600
G1 X5.4778 Y-4.2799 Z1.6600
G1 X5.4297 Y-4.2444 Z1.6600
G3X5.2125Y-4.1709Z1.6600I-0.2619J-0.4158
G3X4.8920Y-4.2358Z1.6600I-0.0510J-0.5717
G3X4.6892Y-4.3943Z1.6600I0.3609J-0.6707
G3X4.4744Y-4.6964Z1.6600I1.1316J-1.0320
G3X4.3007Y-5.1116Z1.6600I1.9489J-1.0594
G1 X4.2752 Y-5.1961 Z1.6600
G1 X4.2519 Y-5.2809 Z1.6600
G1 X4.2121 Y-5.4502 Z1.6600
G1 X4.1800 Y-5.6227 Z1.6600
G1 X4.1559 Y-5.7962 Z1.6600
G1 X4.1395 Y-5.9704 Z1.6600
G3X4.1395Y-6.6649Z1.6600I5.3783J-0.3476
G3X4.2818Y-7.6884Z1.6600I7.0284J0.4554
G3X4.5486Y-8.6810Z1.6600I9.6753J2.0693
G3X5.0004Y-9.9622Z1.6600I25.7088J8.3445
G1 X5.1158 Y-10.2781 Z1.6600
G2X5.3493Y-11.0715Z1.6600I-6.4030J-2.3160
G2X5.4154Y-11.4732Z1.6600I-3.6006J-0.7987
G2X5.3780Y-12.3578Z1.6600I-2.9843J-0.3168
G1 X5.3432 Y-12.5175 Z1.6600
G2X5.1493Y-13.1496Z1.6600I-6.4151J1.6223
G1 X5.0920 Y-13.3064 Z1.6600
G2X4.7816Y-14.0874Z1.6600I-21.5319J8.1052
G1 X4.5234 Y-14.7116 Z1.6600
G1 X4.2681 Y-15.3382 Z1.6600
G3X3.7981Y-16.6141Z1.6600I19.8191J-8.0254
G3X3.5683Y-17.4406Z1.6600I8.4399J-2.7915
G3X3.4419Y-18.2950Z1.6600I5.7891J-1.2928
G3X3.4559Y-19.1166Z1.6600I4.6190J-0.3322
G1 X3.4591 Y-19.1415 Z1.6600
G2X3.2429Y-19.4214Z1.6600I-0.2479J-0.0319 F75.
G0 Z2.0700
G0 X3.2429 Y-19.4214 
G0 Z2.0700
G0 X3.6158 Y-17.2407 
G1 X3.6158 Y-17.2407 Z1.8200 F75.
G1 X3.6074 Y-17.2730 Z1.8141 F25.
G1 X3.5683 Y-17.4406 Z1.7838
G1 X3.5333 Y-17.6095 Z1.7534
G1 X3.5029 Y-17.7794 Z1.7229
G1 X3.4773 Y-17.9504 Z1.6924
G1 X3.4569 Y-18.1223 Z1.6619
G1 X3.4419 Y-18.2950 Z1.6313
G1 X3.4329 Y-18.4683 Z1.6007
G1 X3.4300 Y-18.6426 Z1.5700
G3X3.5347Y-19.5863Z1.5700I4.2669J-0.0045 F80.
G3X3.7939Y-20.3386Z1.5700I3.5771J0.8116
G3X4.2200Y-21.0142Z1.5700I3.0041J1.4229
G3X4.6717Y-21.4679Z1.5700I2.5215J2.0582
G3X5.2003Y-21.8265Z1.5700I2.2092J2.6874
G3X5.7781Y-22.0901Z1.5700I2.0309J3.6881
G3X6.6906Y-22.3356Z1.5700I1.8447J5.0380
G3X7.6251Y-22.4360Z1.5700I1.1978J6.7506
G1 X7.9340 Y-22.4475 Z1.5700
G3X10.0888Y-22.4783Z1.5700I2.0387J67.1613
G3X11.6283Y-22.4597Z1.5700I0.0196J62.0005
G1 X11.9368 Y-22.4492 Z1.5700
G3X13.1780Y-22.2780Z1.5700I-0.2527J6.4203
G3X13.9273Y-22.0308Z1.5700I-1.1431J4.7227
G3X14.6226Y-21.6461Z1.5700I-1.4822J3.4992
G3X14.9935Y-21.3412Z1.5700I-1.8953J2.6836
G3X15.4109Y-20.8556Z1.5700I-2.2425J2.3505
G3X15.7266Y-20.2996Z1.5700I-2.7750J1.9430
G3X15.9359Y-19.6974Z1.5700I-3.3426J1.4990
G3X16.0551Y-18.9131Z1.5700I-4.0195J1.0124
G3X16.0170Y-17.9675Z1.5700I-4.9904J0.2723
G3X15.8262Y-17.0470Z1.5700I-6.8683J-0.9439
G1 X15.7839 Y-16.8969 Z1.5700
G1 X15.7394 Y-16.7478 Z1.5700
G3X15.3370Y-15.5782Z1.5700I-21.2874J-6.6702
G3X15.1251Y-15.0365Z1.5700I-10.4917J-3.7922
G1 X15.0443 Y-14.8580 Z1.5700
G1 X14.8761 Y-14.5093 Z1.5700
G1 X14.5927 Y-13.9445 Z1.5700
G2X14.2231Y-13.0963Z1.5700I10.3491J5.0134
G2X14.1135Y-12.7433Z1.5700I2.4444J0.9527
G2X14.0885Y-12.3001Z1.5700I1.3699J0.2995
G2X14.1568Y-11.9391Z1.5700I2.2189J-0.2329
G1 X14.1821 Y-11.8487 Z1.5700
G1 X14.2387 Y-11.6656 Z1.5700
G1 X14.2996 Y-11.4829 Z1.5700
G1 X14.4279 Y-11.1162 Z1.5700
G1 X14.6926 Y-10.3829 Z1.5700
G3X14.9880Y-9.4412Z1.5700I-9.1812J3.3969
G3X15.1020Y-8.8529Z1.5700I-5.3513J1.3427
G3X15.1300Y-7.9465Z1.5700I-4.1564J0.5821
G3X15.0391Y-7.4414Z1.5700I-2.5894J-0.2056
G3X14.9178Y-7.1462Z1.5700I-1.4849J-0.4376
G3X14.7067Y-6.8783Z1.5700I-0.8364J-0.4420
G3X14.4862Y-6.7563Z1.5700I-0.3966J-0.4566
G1 X14.4208 Y-6.7416 Z1.5700
G1 X14.3529 Y-6.7356 Z1.5700
G1 X14.2851 Y-6.7391 Z1.5700
G1 X14.2179 Y-6.7524 Z1.5700
G1 X14.1530 Y-6.7755 Z1.5700
G1 X14.0925 Y-6.8078 Z1.5700
G1 X14.0391 Y-6.8469 Z1.5700
G3X13.8890Y-7.0444Z1.5700I0.3888J-0.4512
G3X13.8286Y-7.2055Z1.5700I0.8516J-0.4111
G3X13.7682Y-7.5117Z1.5700I2.1465J-0.5826
G1 X13.7191 Y-7.9008 Z1.5700
G1 X13.6904 Y-8.0896 Z1.5700
G2X13.5099Y-8.7120Z1.5700I-2.6832J0.4405
G2X13.0432Y-9.3821Z1.5700I-1.8535J0.7933
G2X12.1693Y-9.8324Z1.5700I-1.2194J1.2936
G2X11.7257Y-9.8507Z1.5700I-0.2818J1.4419
G2X11.5151Y-9.8047Z1.5700I0.1246J1.0757
G2X11.1456Y-9.5443Z1.5700I0.2521J0.7499
G1 X11.0931 Y-9.4740 Z1.5700
G1 X11.0454 Y-9.3982 Z1.5700
G2X10.9643Y-9.1007Z1.5700I0.5327J0.3050
G1 X10.9421 Y-7.2750 Z1.5700
G3X10.6598Y-6.9101Z1.5700I-0.3870J-0.0077
G3X10.5528Y-6.8940Z1.5700I-0.1127J-0.3875
G1 X8.9205 Y-6.8939 Z1.5700
G3X8.5336Y-7.1972Z1.5700I-0.0033J-0.3942
G1 X8.5273 Y-7.2330 Z1.5700
G1 X8.5246 Y-7.2680 Z1.5700
G1 X8.5233 Y-7.3584 Z1.5700
G2X8.4935Y-7.5399Z1.5700I-0.6136J0.0076
G2X8.3699Y-7.8218Z1.5700I-1.3235J0.4125
G2X8.0206Y-8.0883Z1.5700I-0.5167J0.3150
G2X7.7684Y-8.1240Z1.5700I-0.2462J0.8321
G2X7.3226Y-8.0369Z1.5700I0.0092J1.2319
G2X6.7799Y-7.7172Z1.5700I0.7277J1.8557
G2X6.0839Y-6.8426Z1.5700I1.7266J2.0882
G2X5.9534Y-6.5473Z1.5700I2.7755J1.4035
G2X5.7723Y-5.9190Z1.5700I3.7924J1.4336
G2X5.6844Y-5.2675Z1.5700I4.7943J0.9786
G1 X5.6747 Y-5.1014 Z1.5700
G3X5.6492Y-4.6752Z1.5700I-9.6456J-0.3641
G1 X5.6375 Y-4.5853 Z1.5700
G3X5.5590Y-4.3718Z1.5700I-0.5462J-0.0796
G1 X5.5217 Y-4.3230 Z1.5700
G1 X5.4778 Y-4.2799 Z1.5700
G1 X5.4297 Y-4.2444 Z1.5700
G3X5.2125Y-4.1709Z1.5700I-0.2619J-0.4158
G3X4.8920Y-4.2358Z1.5700I-0.0510J-0.5717
G3X4.6892Y-4.3943Z1.5700I0.3609J-0.6707
G3X4.4744Y-4.6964Z1.5700I1.1316J-1.0320
G3X4.3007Y-5.1116Z1.5700I1.9489J-1.0594
G1 X4.2752 Y-5.1961 Z1.5700
G1 X4.2519 Y-5.2809 Z1.5700
G1 X4.2121 Y-5.4502 Z1.5700
G1 X4.1800 Y-5.6227 Z1.5700
G1 X4.1559 Y-5.7962 Z1.5700
G1 X4.1395 Y-5.9704 Z1.5700
G3X4.1395Y-6.6649Z1.5700I5.3783J-0.3476
G3X4.2818Y-7.6884Z1.5700I7.0284J0.4554
G3X4.5486Y-8.6810Z1.5700I9.6753J2.0693
G3X5.0004Y-9.9622Z1.5700I25.7088J8.3445
G1 X5.1158 Y-10.2781 Z1.5700
G2X5.3493Y-11.0715Z1.5700I-6.4030J-2.3160
G2X5.4154Y-11.4732Z1.5700I-3.6006J-0.7987
G2X5.3780Y-12.3578Z1.5700I-2.9843J-0.3168
G1 X5.3432 Y-12.5175 Z1.5700
G2X5.1493Y-13.1496Z1.5700I-6.4151J1.6223
G1 X5.0920 Y-13.3064 Z1.5700
G2X4.7816Y-14.0874Z1.5700I-21.5319J8.1052
G1 X4.5234 Y-14.7116 Z1.5700
G1 X4.2681 Y-15.3382 Z1.5700
G3X3.7981Y-16.6141Z1.5700I19.8191J-8.0254
G3X3.5683Y-17.4406Z1.5700I8.4399J-2.7915
G3X3.4419Y-18.2950Z1.5700I5.7891J-1.2928
G3X3.4559Y-19.1166Z1.5700I4.6190J-0.3322
G1 X3.4591 Y-19.1415 Z1.5700
G2X3.2429Y-19.4214Z1.5700I-0.2479J-0.0319 F75.
G0 Z4.0000
G0 X3.2429 Y-19.4214 
M5
G53 Z
( MOP:  DStyle-FrontRoundover-PT125-02-front )
( FILE: G:\Shared drives\AlloyProjectFiles\Customer CAD files\Alloy-Standard-Builds-CAM\s-in\FullD-Style-Specific\DStyle-FrontRoundover-PT125-02-front.nc)
G90
(  BEGIN TOOL LIST )
(  TOOL 15 - Roundover PT125 Accusize - DESC: 0.2625 DIA, 2 FLUTE,  CARBIDE MAT )
(  ENDOF TOOL LIST )
( DStyle-FrontRoundover-PT125-02-front)
( Accusize 1011-0018 Depth .1822 diameter .2625 but added .001 since there was a line in test cuts)
T15
S9000
M3
G0 Z4.0000
G0 X19.1158 Y-17.2407 
G1 X19.1158 Y-17.2407 Z1.9100 F75.
G1 X19.1074 Y-17.2730 Z1.9041 F25.
G1 X19.0683 Y-17.4406 Z1.8738
G1 X19.0333 Y-17.6095 Z1.8434
G1 X19.0029 Y-17.7794 Z1.8129
G1 X18.9773 Y-17.9504 Z1.7824
G1 X18.9569 Y-18.1223 Z1.7519
G1 X18.9419 Y-18.2950 Z1.7213
G1 X18.9329 Y-18.4683 Z1.6907
G1 X18.9300 Y-18.6426 Z1.6600
G17
G3X19.0347Y-19.5863Z1.6600I4.2669J-0.0045 F80.
G3X19.2939Y-20.3386Z1.6600I3.5771J0.8116
G3X19.7200Y-21.0142Z1.6600I3.0041J1.4229
G3X20.1717Y-21.4679Z1.6600I2.5215J2.0582
G3X20.7003Y-21.8265Z1.6600I2.2092J2.6874
G3X21.2781Y-22.0901Z1.6600I2.0309J3.6881
G3X22.1906Y-22.3356Z1.6600I1.8447J5.0380
G3X23.1251Y-22.4360Z1.6600I1.1978J6.7506
G1 X23.4340 Y-22.4475 Z1.6600
G3X25.5888Y-22.4783Z1.6600I2.0387J67.1613
G3X27.1283Y-22.4597Z1.6600I0.0196J62.0005
G1 X27.4368 Y-22.4492 Z1.6600
G3X28.6780Y-22.2780Z1.6600I-0.2527J6.4203
G3X29.4273Y-22.0308Z1.6600I-1.1431J4.7227
G3X30.1226Y-21.6461Z1.6600I-1.4822J3.4992
G3X30.4935Y-21.3412Z1.6600I-1.8953J2.6836
G3X30.9109Y-20.8556Z1.6600I-2.2425J2.3505
G3X31.2266Y-20.2996Z1.6600I-2.7750J1.9430
G3X31.4359Y-19.6974Z1.6600I-3.3426J1.4990
G3X31.5551Y-18.9131Z1.6600I-4.0195J1.0124
G3X31.5170Y-17.9675Z1.6600I-4.9904J0.2723
G3X31.3262Y-17.0470Z1.6600I-6.8683J-0.9439
G1 X31.2839 Y-16.8969 Z1.6600
G1 X31.2394 Y-16.7478 Z1.6600
G3X30.8370Y-15.5782Z1.6600I-21.2874J-6.6702
G3X30.6251Y-15.0365Z1.6600I-10.4917J-3.7922
G1 X30.5443 Y-14.8580 Z1.6600
G1 X30.3761 Y-14.5093 Z1.6600
G1 X30.0927 Y-13.9445 Z1.6600
G2X29.7231Y-13.0963Z1.6600I10.3491J5.0134
G2X29.6135Y-12.7433Z1.6600I2.4444J0.9527
G2X29.5885Y-12.3001Z1.6600I1.3699J0.2995
G2X29.6568Y-11.9391Z1.6600I2.2189J-0.2329
G1 X29.6821 Y-11.8487 Z1.6600
G1 X29.7387 Y-11.6656 Z1.6600
G1 X29.7996 Y-11.4829 Z1.6600
G1 X29.9279 Y-11.1162 Z1.6600
G1 X30.1926 Y-10.3829 Z1.6600
G3X30.4880Y-9.4412Z1.6600I-9.1812J3.3969
G3X30.6020Y-8.8529Z1.6600I-5.3513J1.3427
G3X30.6300Y-7.9465Z1.6600I-4.1564J0.5821
G3X30.5391Y-7.4414Z1.6600I-2.5894J-0.2056
G3X30.4178Y-7.1462Z1.6600I-1.4849J-0.4376
G3X30.2067Y-6.8783Z1.6600I-0.8364J-0.4420
G3X29.9862Y-6.7563Z1.6600I-0.3966J-0.4566
G1 X29.9208 Y-6.7416 Z1.6600
G1 X29.8529 Y-6.7356 Z1.6600
G1 X29.7851 Y-6.7391 Z1.6600
G1 X29.7179 Y-6.7524 Z1.6600
G1 X29.6530 Y-6.7755 Z1.6600
G1 X29.5925 Y-6.8078 Z1.6600
G1 X29.5391 Y-6.8469 Z1.6600
G3X29.3890Y-7.0444Z1.6600I0.3888J-0.4512
G3X29.3286Y-7.2055Z1.6600I0.8516J-0.4111
G3X29.2682Y-7.5117Z1.6600I2.1465J-0.5826
G1 X29.2191 Y-7.9008 Z1.6600
G1 X29.1904 Y-8.0896 Z1.6600
G2X29.0099Y-8.7120Z1.6600I-2.6832J0.4405
G2X28.5432Y-9.3821Z1.6600I-1.8535J0.7933
G2X27.6693Y-9.8324Z1.6600I-1.2194J1.2936
G2X27.2257Y-9.8507Z1.6600I-0.2818J1.4419
G2X27.0151Y-9.8047Z1.6600I0.1246J1.0757
G2X26.6456Y-9.5443Z1.6600I0.2521J0.7499
G1 X26.5931 Y-9.4740 Z1.6600
G1 X26.5454 Y-9.3982 Z1.6600
G2X26.4643Y-9.1007Z1.6600I0.5327J0.3050
G1 X26.4421 Y-7.2750 Z1.6600
G3X26.1598Y-6.9101Z1.6600I-0.3870J-0.0077
G3X26.0528Y-6.8940Z1.6600I-0.1127J-0.3875
G1 X24.4205 Y-6.8939 Z1.6600
G3X24.0336Y-7.1972Z1.6600I-0.0033J-0.3942
G1 X24.0273 Y-7.2330 Z1.6600
G1 X24.0246 Y-7.2680 Z1.6600
G1 X24.0233 Y-7.3584 Z1.6600
G2X23.9935Y-7.5399Z1.6600I-0.6136J0.0076
G2X23.8699Y-7.8218Z1.6600I-1.3235J0.4125
G2X23.5206Y-8.0883Z1.6600I-0.5167J0.3150
G2X23.2684Y-8.1240Z1.6600I-0.2462J0.8321
G2X22.8226Y-8.0369Z1.6600I0.0092J1.2319
G2X22.2799Y-7.7172Z1.6600I0.7277J1.8557
G2X21.5839Y-6.8426Z1.6600I1.7266J2.0882
G2X21.4534Y-6.5473Z1.6600I2.7755J1.4035
G2X21.2723Y-5.9190Z1.6600I3.7924J1.4336
G2X21.1844Y-5.2675Z1.6600I4.7943J0.9786
G1 X21.1747 Y-5.1014 Z1.6600
G3X21.1492Y-4.6752Z1.6600I-9.6456J-0.3641
G1 X21.1375 Y-4.5853 Z1.6600
G3X21.0590Y-4.3718Z1.6600I-0.5462J-0.0796
G1 X21.0217 Y-4.3230 Z1.6600
G1 X20.9778 Y-4.2799 Z1.6600
G1 X20.9297 Y-4.2444 Z1.6600
G3X20.7125Y-4.1709Z1.6600I-0.2619J-0.4158
G3X20.3920Y-4.2358Z1.6600I-0.0510J-0.5717
G3X20.1892Y-4.3943Z1.6600I0.3609J-0.6707
G3X19.9744Y-4.6964Z1.6600I1.1316J-1.0320
G3X19.8007Y-5.1116Z1.6600I1.9489J-1.0594
G1 X19.7752 Y-5.1961 Z1.6600
G1 X19.7519 Y-5.2809 Z1.6600
G1 X19.7121 Y-5.4502 Z1.6600
G1 X19.6800 Y-5.6227 Z1.6600
G1 X19.6559 Y-5.7962 Z1.6600
G1 X19.6395 Y-5.9704 Z1.6600
G3X19.6395Y-6.6649Z1.6600I5.3783J-0.3476
G3X19.7818Y-7.6884Z1.6600I7.0284J0.4554
G3X20.0486Y-8.6810Z1.6600I9.6753J2.0693
G3X20.5004Y-9.9622Z1.6600I25.7088J8.3445
G1 X20.6158 Y-10.2781 Z1.6600
G2X20.8493Y-11.0715Z1.6600I-6.4030J-2.3160
G2X20.9154Y-11.4732Z1.6600I-3.6006J-0.7987
G2X20.8780Y-12.3578Z1.6600I-2.9843J-0.3168
G1 X20.8432 Y-12.5175 Z1.6600
G2X20.6493Y-13.1496Z1.6600I-6.4151J1.6223
G1 X20.5920 Y-13.3064 Z1.6600
G2X20.2816Y-14.0874Z1.6600I-21.5319J8.1052
G1 X20.0234 Y-14.7116 Z1.6600
G1 X19.7681 Y-15.3382 Z1.6600
G3X19.2981Y-16.6141Z1.6600I19.8191J-8.0254
G3X19.0683Y-17.4406Z1.6600I8.4399J-2.7915
G3X18.9419Y-18.2950Z1.6600I5.7891J-1.2928
G3X18.9559Y-19.1166Z1.6600I4.6190J-0.3322
G1 X18.9591 Y-19.1415 Z1.6600
G2X18.7429Y-19.4214Z1.6600I-0.2479J-0.0319 F75.
G0 Z2.0700
G0 X18.7429 Y-19.4214 
G0 Z2.0700
G0 X19.1158 Y-17.2407 
G1 X19.1158 Y-17.2407 Z1.8200 F75.
G1 X19.1074 Y-17.2730 Z1.8141 F25.
G1 X19.0683 Y-17.4406 Z1.7838
G1 X19.0333 Y-17.6095 Z1.7534
G1 X19.0029 Y-17.7794 Z1.7229
G1 X18.9773 Y-17.9504 Z1.6924
G1 X18.9569 Y-18.1223 Z1.6619
G1 X18.9419 Y-18.2950 Z1.6313
G1 X18.9329 Y-18.4683 Z1.6007
G1 X18.9300 Y-18.6426 Z1.5700
G3X19.0347Y-19.5863Z1.5700I4.2669J-0.0045 F80.
G3X19.2939Y-20.3386Z1.5700I3.5771J0.8116
G3X19.7200Y-21.0142Z1.5700I3.0041J1.4229
G3X20.1717Y-21.4679Z1.5700I2.5215J2.0582
G3X20.7003Y-21.8265Z1.5700I2.2092J2.6874
G3X21.2781Y-22.0901Z1.5700I2.0309J3.6881
G3X22.1906Y-22.3356Z1.5700I1.8447J5.0380
G3X23.1251Y-22.4360Z1.5700I1.1978J6.7506
G1 X23.4340 Y-22.4475 Z1.5700
G3X25.5888Y-22.4783Z1.5700I2.0387J67.1613
G3X27.1283Y-22.4597Z1.5700I0.0196J62.0005
G1 X27.4368 Y-22.4492 Z1.5700
G3X28.6780Y-22.2780Z1.5700I-0.2527J6.4203
G3X29.4273Y-22.0308Z1.5700I-1.1431J4.7227
G3X30.1226Y-21.6461Z1.5700I-1.4822J3.4992
G3X30.4935Y-21.3412Z1.5700I-1.8953J2.6836
G3X30.9109Y-20.8556Z1.5700I-2.2425J2.3505
G3X31.2266Y-20.2996Z1.5700I-2.7750J1.9430
G3X31.4359Y-19.6974Z1.5700I-3.3426J1.4990
G3X31.5551Y-18.9131Z1.5700I-4.0195J1.0124
G3X31.5170Y-17.9675Z1.5700I-4.9904J0.2723
G3X31.3262Y-17.0470Z1.5700I-6.8683J-0.9439
G1 X31.2839 Y-16.8969 Z1.5700
G1 X31.2394 Y-16.7478 Z1.5700
G3X30.8370Y-15.5782Z1.5700I-21.2874J-6.6702
G3X30.6251Y-15.0365Z1.5700I-10.4917J-3.7922
G1 X30.5443 Y-14.8580 Z1.5700
G1 X30.3761 Y-14.5093 Z1.5700
G1 X30.0927 Y-13.9445 Z1.5700
G2X29.7231Y-13.0963Z1.5700I10.3491J5.0134
G2X29.6135Y-12.7433Z1.5700I2.4444J0.9527
G2X29.5885Y-12.3001Z1.5700I1.3699J0.2995
G2X29.6568Y-11.9391Z1.5700I2.2189J-0.2329
G1 X29.6821 Y-11.8487 Z1.5700
G1 X29.7387 Y-11.6656 Z1.5700
G1 X29.7996 Y-11.4829 Z1.5700
G1 X29.9279 Y-11.1162 Z1.5700
G1 X30.1926 Y-10.3829 Z1.5700
G3X30.4880Y-9.4412Z1.5700I-9.1812J3.3969
G3X30.6020Y-8.8529Z1.5700I-5.3513J1.3427
G3X30.6300Y-7.9465Z1.5700I-4.1564J0.5821
G3X30.5391Y-7.4414Z1.5700I-2.5894J-0.2056
G3X30.4178Y-7.1462Z1.5700I-1.4849J-0.4376
G3X30.2067Y-6.8783Z1.5700I-0.8364J-0.4420
G3X29.9862Y-6.7563Z1.5700I-0.3966J-0.4566
G1 X29.9208 Y-6.7416 Z1.5700
G1 X29.8529 Y-6.7356 Z1.5700
G1 X29.7851 Y-6.7391 Z1.5700
G1 X29.7179 Y-6.7524 Z1.5700
G1 X29.6530 Y-6.7755 Z1.5700
G1 X29.5925 Y-6.8078 Z1.5700
G1 X29.5391 Y-6.8469 Z1.5700
G3X29.3890Y-7.0444Z1.5700I0.3888J-0.4512
G3X29.3286Y-7.2055Z1.5700I0.8516J-0.4111
G3X29.2682Y-7.5117Z1.5700I2.1465J-0.5826
G1 X29.2191 Y-7.9008 Z1.5700
G1 X29.1904 Y-8.0896 Z1.5700
G2X29.0099Y-8.7120Z1.5700I-2.6832J0.4405
G2X28.5432Y-9.3821Z1.5700I-1.8535J0.7933
G2X27.6693Y-9.8324Z1.5700I-1.2194J1.2936
G2X27.2257Y-9.8507Z1.5700I-0.2818J1.4419
G2X27.0151Y-9.8047Z1.5700I0.1246J1.0757
G2X26.6456Y-9.5443Z1.5700I0.2521J0.7499
G1 X26.5931 Y-9.4740 Z1.5700
G1 X26.5454 Y-9.3982 Z1.5700
G2X26.4643Y-9.1007Z1.5700I0.5327J0.3050
G1 X26.4421 Y-7.2750 Z1.5700
G3X26.1598Y-6.9101Z1.5700I-0.3870J-0.0077
G3X26.0528Y-6.8940Z1.5700I-0.1127J-0.3875
G1 X24.4205 Y-6.8939 Z1.5700
G3X24.0336Y-7.1972Z1.5700I-0.0033J-0.3942
G1 X24.0273 Y-7.2330 Z1.5700
G1 X24.0246 Y-7.2680 Z1.5700
G1 X24.0233 Y-7.3584 Z1.5700
G2X23.9935Y-7.5399Z1.5700I-0.6136J0.0076
G2X23.8699Y-7.8218Z1.5700I-1.3235J0.4125
G2X23.5206Y-8.0883Z1.5700I-0.5167J0.3150
G2X23.2684Y-8.1240Z1.5700I-0.2462J0.8321
G2X22.8226Y-8.0369Z1.5700I0.0092J1.2319
G2X22.2799Y-7.7172Z1.5700I0.7277J1.8557
G2X21.5839Y-6.8426Z1.5700I1.7266J2.0882
G2X21.4534Y-6.5473Z1.5700I2.7755J1.4035
G2X21.2723Y-5.9190Z1.5700I3.7924J1.4336
G2X21.1844Y-5.2675Z1.5700I4.7943J0.9786
G1 X21.1747 Y-5.1014 Z1.5700
G3X21.1492Y-4.6752Z1.5700I-9.6456J-0.3641
G1 X21.1375 Y-4.5853 Z1.5700
G3X21.0590Y-4.3718Z1.5700I-0.5462J-0.0796
G1 X21.0217 Y-4.3230 Z1.5700
G1 X20.9778 Y-4.2799 Z1.5700
G1 X20.9297 Y-4.2444 Z1.5700
G3X20.7125Y-4.1709Z1.5700I-0.2619J-0.4158
G3X20.3920Y-4.2358Z1.5700I-0.0510J-0.5717
G3X20.1892Y-4.3943Z1.5700I0.3609J-0.6707
G3X19.9744Y-4.6964Z1.5700I1.1316J-1.0320
G3X19.8007Y-5.1116Z1.5700I1.9489J-1.0594
G1 X19.7752 Y-5.1961 Z1.5700
G1 X19.7519 Y-5.2809 Z1.5700
G1 X19.7121 Y-5.4502 Z1.5700
G1 X19.6800 Y-5.6227 Z1.5700
G1 X19.6559 Y-5.7962 Z1.5700
G1 X19.6395 Y-5.9704 Z1.5700
G3X19.6395Y-6.6649Z1.5700I5.3783J-0.3476
G3X19.7818Y-7.6884Z1.5700I7.0284J0.4554
G3X20.0486Y-8.6810Z1.5700I9.6753J2.0693
G3X20.5004Y-9.9622Z1.5700I25.7088J8.3445
G1 X20.6158 Y-10.2781 Z1.5700
G2X20.8493Y-11.0715Z1.5700I-6.4030J-2.3160
G2X20.9154Y-11.4732Z1.5700I-3.6006J-0.7987
G2X20.8780Y-12.3578Z1.5700I-2.9843J-0.3168
G1 X20.8432 Y-12.5175 Z1.5700
G2X20.6493Y-13.1496Z1.5700I-6.4151J1.6223
G1 X20.5920 Y-13.3064 Z1.5700
G2X20.2816Y-14.0874Z1.5700I-21.5319J8.1052
G1 X20.0234 Y-14.7116 Z1.5700
G1 X19.7681 Y-15.3382 Z1.5700
G3X19.2981Y-16.6141Z1.5700I19.8191J-8.0254
G3X19.0683Y-17.4406Z1.5700I8.4399J-2.7915
G3X18.9419Y-18.2950Z1.5700I5.7891J-1.2928
G3X18.9559Y-19.1166Z1.5700I4.6190J-0.3322
G1 X18.9591 Y-19.1415 Z1.5700
G2X18.7429Y-19.4214Z1.5700I-0.2479J-0.0319 F75.
G0 Z4.0000
G0 X18.7429 Y-19.4214 
M5
G53 Z
( END FILE DStyle-FrontRoundover-PT125-02-front.nc )
