( BEGIN FILE DStyle-BellyCarve-back-01.ncTNUM: -1 )
( Lefty:False Nunits:2 )
( cline: 9.733 delta:15.5 )
( start_unit: 1 num_units: 2)
( MOP:  DStyle-BellyCarve-back-01 )
( FILE: G:\Shared drives\AlloyProjectFiles\Customer CAD files\Alloy-Standard-Builds-CAM\s-in\FullD-Style-Specific\DStyle-BellyCarve-back-01.nc)
G90
(  BEGIN TOOL LIST )
(  TOOL 11 - Downcut PT750 ROUGH - DESC: 0.7500 DIA, 2 FLUTE,  CARBIDE MAT )
(  ENDOF TOOL LIST )
( DStyle-BellyCarve-back-01)
T11
S14000
M3
G0 Z4.0000
G0 X15.3259 Y-8.3259 
G1 X15.3259 Y-8.3259 Z1.7500 F75.
G1 X15.3276 Y-8.3203 Z1.7490 F50.
G1 X15.3791 Y-8.1271 Z1.7137
G1 X15.4267 Y-7.9321 Z1.6783
G1 X15.4700 Y-7.7358 Z1.6429
G1 X15.5089 Y-7.5381 Z1.6074
G1 X15.5430 Y-7.3389 Z1.5717
G1 X15.5719 Y-7.1380 Z1.5359
G1 X15.5951 Y-6.9356 Z1.5000
G17
G2X15.2726Y-8.5112Z1.5000I-8.4925J0.9175 F150.
G2X14.8993Y-9.6240Z1.5000I-18.3843J5.5486
G1 X14.6357 Y-10.3391 Z1.5000
G3X14.3697Y-11.2833Z1.5000I5.4950J-2.0579
G3X14.4228Y-12.5232Z1.5000I2.7215J-0.5044
G3X14.7142Y-13.3860Z1.5000I7.6363J2.0986
G3X15.2919Y-14.7993Z1.5000I58.5419J23.1011
G2X15.9152Y-16.4394Z1.5000I-25.0116J-10.4443
G2X16.2614Y-17.8124Z1.5000I-7.8652J-2.7131
G2X16.3254Y-18.6238Z1.5000I-5.4096J-0.8353
G0 Z2.5000
G0 X16.3254 Y-18.6238 
G0 Z2.5000
G0 X15.3259 Y-8.3259 
G1 X15.3259 Y-8.3259 Z1.5000 F75.
G1 X15.3276 Y-8.3203 Z1.4990 F50.
G1 X15.3791 Y-8.1271 Z1.4637
G1 X15.4267 Y-7.9321 Z1.4283
G1 X15.4700 Y-7.7358 Z1.3929
G1 X15.5089 Y-7.5381 Z1.3574
G1 X15.5430 Y-7.3389 Z1.3217
G1 X15.5719 Y-7.1380 Z1.2859
G1 X15.5951 Y-6.9356 Z1.2500
G2X15.2726Y-8.5112Z1.2500I-8.4925J0.9175 F150.
G2X14.8993Y-9.6240Z1.2500I-18.3843J5.5486
G1 X14.6357 Y-10.3391 Z1.2500
G3X14.3697Y-11.2833Z1.2500I5.4950J-2.0579
G3X14.4228Y-12.5232Z1.2500I2.7215J-0.5044
G3X14.7142Y-13.3860Z1.2500I7.6363J2.0986
G3X15.2919Y-14.7993Z1.2500I58.5419J23.1011
G2X15.9152Y-16.4394Z1.2500I-25.0116J-10.4443
G2X16.2614Y-17.8124Z1.2500I-7.8652J-2.7131
G2X16.3254Y-18.6238Z1.2500I-5.4096J-0.8353
G0 Z2.3945
G0 X16.3254 Y-18.6238 
G0 Z2.3945
G0 X15.3259 Y-8.3259 
G1 X15.3259 Y-8.3259 Z1.2500 F75.
G1 X15.3276 Y-8.3203 Z1.2490 F50.
G1 X15.3791 Y-8.1271 Z1.2137
G1 X15.4267 Y-7.9321 Z1.1783
G1 X15.4700 Y-7.7358 Z1.1429
G1 X15.5089 Y-7.5381 Z1.1074
G1 X15.5430 Y-7.3389 Z1.0717
G1 X15.5719 Y-7.1380 Z1.0359
G1 X15.5951 Y-6.9356 Z1.0000
G2X15.2726Y-8.5112Z1.0000I-8.4925J0.9175 F150.
G2X14.8993Y-9.6240Z1.0000I-18.3843J5.5486
G1 X14.6357 Y-10.3391 Z1.0000
G3X14.3697Y-11.2833Z1.0000I5.4950J-2.0579
G3X14.4228Y-12.5232Z1.0000I2.7215J-0.5044
G3X14.7142Y-13.3860Z1.0000I7.6363J2.0986
G3X15.2919Y-14.7993Z1.0000I58.5419J23.1011
G2X15.9152Y-16.4394Z1.0000I-25.0116J-10.4443
G2X16.2614Y-17.8124Z1.0000I-7.8652J-2.7131
G2X16.3254Y-18.6238Z1.0000I-5.4096J-0.8353
G0 Z2.3945
G0 X16.3254 Y-18.6238 
G0 Z2.3945
G0 X15.3259 Y-8.3259 
G1 X15.3259 Y-8.3259 Z1.0000 F75.
G1 X15.3276 Y-8.3203 Z0.9990 F50.
G1 X15.3791 Y-8.1271 Z0.9637
G1 X15.4267 Y-7.9321 Z0.9283
G1 X15.4700 Y-7.7358 Z0.8929
G1 X15.5089 Y-7.5381 Z0.8574
G1 X15.5430 Y-7.3389 Z0.8217
G1 X15.5719 Y-7.1380 Z0.7859
G1 X15.5951 Y-6.9356 Z0.7500
G2X15.2726Y-8.5112Z0.7500I-8.4925J0.9175 F150.
G2X14.8993Y-9.6240Z0.7500I-18.3843J5.5486
G1 X14.6357 Y-10.3391 Z0.7500
G3X14.3697Y-11.2833Z0.7500I5.4950J-2.0579
G3X14.4228Y-12.5232Z0.7500I2.7215J-0.5044
G3X14.7142Y-13.3860Z0.7500I7.6363J2.0986
G3X15.2919Y-14.7993Z0.7500I58.5419J23.1011
G2X15.9152Y-16.4394Z0.7500I-25.0116J-10.4443
G2X16.2614Y-17.8124Z0.7500I-7.8652J-2.7131
G2X16.3254Y-18.6238Z0.7500I-5.4096J-0.8353
G0 Z4.0000
G0 X16.3254 Y-18.6238 
M5
G53 Z
( MOP:  DStyle-BellyCarve-back-01 )
( FILE: G:\Shared drives\AlloyProjectFiles\Customer CAD files\Alloy-Standard-Builds-CAM\s-in\FullD-Style-Specific\DStyle-BellyCarve-back-01.nc)
G90
(  BEGIN TOOL LIST )
(  TOOL 11 - Downcut PT750 ROUGH - DESC: 0.7500 DIA, 2 FLUTE,  CARBIDE MAT )
(  ENDOF TOOL LIST )
( DStyle-BellyCarve-back-01)
T11
S14000
M3
G0 Z4.0000
G0 X30.8259 Y-8.3259 
G1 X30.8259 Y-8.3259 Z1.7500 F75.
G1 X30.8276 Y-8.3203 Z1.7490 F50.
G1 X30.8791 Y-8.1271 Z1.7137
G1 X30.9267 Y-7.9321 Z1.6783
G1 X30.9700 Y-7.7358 Z1.6429
G1 X31.0089 Y-7.5381 Z1.6074
G1 X31.0430 Y-7.3389 Z1.5717
G1 X31.0719 Y-7.1380 Z1.5359
G1 X31.0951 Y-6.9356 Z1.5000
G17
G2X30.7726Y-8.5112Z1.5000I-8.4925J0.9175 F150.
G2X30.3993Y-9.6240Z1.5000I-18.3843J5.5486
G1 X30.1357 Y-10.3391 Z1.5000
G3X29.8697Y-11.2833Z1.5000I5.4950J-2.0579
G3X29.9228Y-12.5232Z1.5000I2.7215J-0.5044
G3X30.2142Y-13.3860Z1.5000I7.6363J2.0986
G3X30.7919Y-14.7993Z1.5000I58.5419J23.1011
G2X31.4152Y-16.4394Z1.5000I-25.0116J-10.4443
G2X31.7614Y-17.8124Z1.5000I-7.8652J-2.7131
G2X31.8254Y-18.6238Z1.5000I-5.4096J-0.8353
G0 Z2.5000
G0 X31.8254 Y-18.6238 
G0 Z2.5000
G0 X30.8259 Y-8.3259 
G1 X30.8259 Y-8.3259 Z1.5000 F75.
G1 X30.8276 Y-8.3203 Z1.4990 F50.
G1 X30.8791 Y-8.1271 Z1.4637
G1 X30.9267 Y-7.9321 Z1.4283
G1 X30.9700 Y-7.7358 Z1.3929
G1 X31.0089 Y-7.5381 Z1.3574
G1 X31.0430 Y-7.3389 Z1.3217
G1 X31.0719 Y-7.1380 Z1.2859
G1 X31.0951 Y-6.9356 Z1.2500
G2X30.7726Y-8.5112Z1.2500I-8.4925J0.9175 F150.
G2X30.3993Y-9.6240Z1.2500I-18.3843J5.5486
G1 X30.1357 Y-10.3391 Z1.2500
G3X29.8697Y-11.2833Z1.2500I5.4950J-2.0579
G3X29.9228Y-12.5232Z1.2500I2.7215J-0.5044
G3X30.2142Y-13.3860Z1.2500I7.6363J2.0986
G3X30.7919Y-14.7993Z1.2500I58.5419J23.1011
G2X31.4152Y-16.4394Z1.2500I-25.0116J-10.4443
G2X31.7614Y-17.8124Z1.2500I-7.8652J-2.7131
G2X31.8254Y-18.6238Z1.2500I-5.4096J-0.8353
G0 Z2.3945
G0 X31.8254 Y-18.6238 
G0 Z2.3945
G0 X30.8259 Y-8.3259 
G1 X30.8259 Y-8.3259 Z1.2500 F75.
G1 X30.8276 Y-8.3203 Z1.2490 F50.
G1 X30.8791 Y-8.1271 Z1.2137
G1 X30.9267 Y-7.9321 Z1.1783
G1 X30.9700 Y-7.7358 Z1.1429
G1 X31.0089 Y-7.5381 Z1.1074
G1 X31.0430 Y-7.3389 Z1.0717
G1 X31.0719 Y-7.1380 Z1.0359
G1 X31.0951 Y-6.9356 Z1.0000
G2X30.7726Y-8.5112Z1.0000I-8.4925J0.9175 F150.
G2X30.3993Y-9.6240Z1.0000I-18.3843J5.5486
G1 X30.1357 Y-10.3391 Z1.0000
G3X29.8697Y-11.2833Z1.0000I5.4950J-2.0579
G3X29.9228Y-12.5232Z1.0000I2.7215J-0.5044
G3X30.2142Y-13.3860Z1.0000I7.6363J2.0986
G3X30.7919Y-14.7993Z1.0000I58.5419J23.1011
G2X31.4152Y-16.4394Z1.0000I-25.0116J-10.4443
G2X31.7614Y-17.8124Z1.0000I-7.8652J-2.7131
G2X31.8254Y-18.6238Z1.0000I-5.4096J-0.8353
G0 Z2.3945
G0 X31.8254 Y-18.6238 
G0 Z2.3945
G0 X30.8259 Y-8.3259 
G1 X30.8259 Y-8.3259 Z1.0000 F75.
G1 X30.8276 Y-8.3203 Z0.9990 F50.
G1 X30.8791 Y-8.1271 Z0.9637
G1 X30.9267 Y-7.9321 Z0.9283
G1 X30.9700 Y-7.7358 Z0.8929
G1 X31.0089 Y-7.5381 Z0.8574
G1 X31.0430 Y-7.3389 Z0.8217
G1 X31.0719 Y-7.1380 Z0.7859
G1 X31.0951 Y-6.9356 Z0.7500
G2X30.7726Y-8.5112Z0.7500I-8.4925J0.9175 F150.
G2X30.3993Y-9.6240Z0.7500I-18.3843J5.5486
G1 X30.1357 Y-10.3391 Z0.7500
G3X29.8697Y-11.2833Z0.7500I5.4950J-2.0579
G3X29.9228Y-12.5232Z0.7500I2.7215J-0.5044
G3X30.2142Y-13.3860Z0.7500I7.6363J2.0986
G3X30.7919Y-14.7993Z0.7500I58.5419J23.1011
G2X31.4152Y-16.4394Z0.7500I-25.0116J-10.4443
G2X31.7614Y-17.8124Z0.7500I-7.8652J-2.7131
G2X31.8254Y-18.6238Z0.7500I-5.4096J-0.8353
G0 Z4.0000
G0 X31.8254 Y-18.6238 
M5
G53 Z
( END FILE DStyle-BellyCarve-back-01.nc )
