( BEGIN FILE Elbow-carve-binding-front-02.ncTNUM: -1 )
( Lefty:False Nunits:2 )
( cline: 9.733 delta:15.5 )
( start_unit: 1 num_units: 2)
( MOP:  Elbow-carve-binding-front-02 )
( FILE: G:\Shared drives\AlloyProjectFiles\Customer CAD files\Alloy-Standard-Builds-CAM\s-in\FullStandardS-Specific\Elbow-carve-binding-front-02.nc)
G90
(  BEGIN TOOL LIST )
(  TOOL 12 - Ball PT750 - DESC: 0.7500 DIA, 2 FLUTE,  CARBIDE MAT )
(  ENDOF TOOL LIST )
( Elbow-carve-binding-front-02)
T12
S12000
M3
G0 Z4.0000
G0 X3.4069 Y-16.8792 
G1 X3.4069 Y-16.8792 Z1.8808 F75.
G1 X3.3992 Y-16.8773 Z1.8416 F25.
G1 X3.3772 Y-16.8718 Z1.8087
G1 X3.3444 Y-16.8637 Z1.7873
G1 X3.3062 Y-16.8542 Z1.7809
G1 X3.2772 Y-16.8471 Z1.7820 F150.
G1 X3.2675 Y-16.8447 Z1.7822
G0 Z1.9072
G0 X3.2675 Y-16.8447 
G0 Z1.9072
G0 X3.5688 Y-16.9607 
G1 X3.5688 Y-16.9607 Z1.8733 F75.
G1 X3.5610 Y-16.9588 Z1.8342 F25.
G1 X3.5390 Y-16.9535 Z1.8013
G1 X3.5063 Y-16.9457 Z1.7799
G1 X3.4680 Y-16.9365 Z1.7733
G1 X3.4147 Y-16.9237 Z1.7753 F150.
G1 X3.3614 Y-16.9109 Z1.7769
G1 X3.3081 Y-16.8982 Z1.7780
G1 X3.2548 Y-16.8854 Z1.7786
G0 Z1.9036
G0 X3.2548 Y-16.8854 
G0 Z1.9036
G0 X3.7206 Y-17.0371 
G1 X3.7206 Y-17.0371 Z1.8662 F75.
G1 X3.7129 Y-17.0353 Z1.8272 F25.
G1 X3.6910 Y-17.0302 Z1.7944
G1 X3.6583 Y-17.0226 Z1.7729
G1 X3.6200 Y-17.0138 Z1.7663
G1 X3.5262 Y-16.9920 Z1.7694 F150.
G1 X3.4323 Y-16.9702 Z1.7711
G1 X3.3619 Y-16.9539 Z1.7714
G1 X3.2445 Y-16.9267 Z1.7707
G0 Z1.8957
G0 X3.2445 Y-16.9267 
G0 Z1.8957
G0 X3.8538 Y-17.1068 
G1 X3.8538 Y-17.1068 Z1.8650 F75.
G1 X3.8465 Y-17.1052 Z1.8269 F25.
G1 X3.8254 Y-17.1004 Z1.7945
G1 X3.7939 Y-17.0934 Z1.7728
G1 X3.7567 Y-17.0851 Z1.7650
G1 X3.7404 Y-17.0814 Z1.7650 F150.
G1 X3.7240 Y-17.0777 Z1.7643
G1 X3.7077 Y-17.0741 Z1.7630
G1 X3.6996 Y-17.0722 Z1.7620
G1 X3.6189 Y-17.0542 Z1.7638
G1 X3.5444 Y-17.0375 Z1.7649
G1 X3.4954 Y-17.0265 Z1.7652
G1 X3.3975 Y-17.0046 Z1.7650
G1 X3.2995 Y-16.9826 Z1.7642
G1 X3.2342 Y-16.9680 Z1.7633
G0 Z1.8900
G0 X3.2342 Y-16.9680 
G0 Z1.8900
G0 X3.9283 Y-17.1616 
G1 X3.9283 Y-17.1616 Z1.8650 F75.
G1 X3.9210 Y-17.1600 Z1.8270 F25.
G1 X3.9002 Y-17.1555 Z1.7947
G1 X3.8689 Y-17.1488 Z1.7730
G1 X3.8319 Y-17.1408 Z1.7650
G1 X3.7939 Y-17.1325 Z1.7645 F150.
G1 X3.7559 Y-17.1243 Z1.7635
G1 X3.7179 Y-17.1161 Z1.7619
G1 X3.6965 Y-17.1115 Z1.7601
G1 X3.6134 Y-17.0935 Z1.7608
G1 X3.5279 Y-17.0750 Z1.7608
G1 X3.4138 Y-17.0504 Z1.7599
G1 X3.2785 Y-17.0211 Z1.7579
G1 X3.2238 Y-17.0093 Z1.7569
G0 Z1.8900
G0 X3.2238 Y-17.0093 
G0 Z1.8900
G0 X4.0007 Y-17.2147 
G1 X4.0007 Y-17.2147 Z1.8649 F75.
G1 X3.9934 Y-17.2132 Z1.8271 F25.
G1 X3.9727 Y-17.2089 Z1.7949
G1 X3.9415 Y-17.2024 Z1.7731
G1 X3.9046 Y-17.1947 Z1.7650
G1 X3.8614 Y-17.1857 Z1.7642 F150.
G1 X3.8182 Y-17.1767 Z1.7626
G1 X3.7549 Y-17.1635 Z1.7590
G1 X3.6996 Y-17.1519 Z1.7584
G1 X3.5809 Y-17.1272 Z1.7576
G1 X3.4568 Y-17.1013 Z1.7560
G1 X3.3866 Y-17.0867 Z1.7548
G1 X3.2733 Y-17.0631 Z1.7523
G1 X3.2140 Y-17.0508 Z1.7508
G0 Z1.8900
G0 X3.2140 Y-17.0508 
G0 Z1.8900
G0 X4.0710 Y-17.2661 
G1 X4.0710 Y-17.2661 Z1.8649 F75.
G1 X4.0638 Y-17.2647 Z1.8271 F25.
G1 X4.0430 Y-17.2605 Z1.7949
G1 X4.0119 Y-17.2543 Z1.7731
G1 X3.9750 Y-17.2469 Z1.7650
G1 X3.9290 Y-17.2376 Z1.7640 F150.
G1 X3.8831 Y-17.2284 Z1.7620
G1 X3.8342 Y-17.2186 Z1.7589
G1 X3.7452 Y-17.2008 Z1.7576
G1 X3.5154 Y-17.1547 Z1.7532
G1 X3.3775 Y-17.1270 Z1.7500
G1 X3.2044 Y-17.0923 Z1.7446
G0 Z1.8900
G0 X3.2044 Y-17.0923 
G0 Z1.8900
G0 X4.1394 Y-17.3160 
G1 X4.1394 Y-17.3160 Z1.8650 F75.
G1 X4.1321 Y-17.3146 Z1.8272 F25.
G1 X4.1113 Y-17.3106 Z1.7950
G1 X4.0801 Y-17.3045 Z1.7732
G1 X4.0432 Y-17.2974 Z1.7650
G1 X3.9971 Y-17.2885 Z1.7640 F150.
G1 X3.9511 Y-17.2797 Z1.7619
G1 X3.9065 Y-17.2711 Z1.7589
G1 X3.7785 Y-17.2464 Z1.7566
G1 X3.6519 Y-17.2220 Z1.7533
G1 X3.4448 Y-17.1820 Z1.7474
G1 X3.3528 Y-17.1643 Z1.7437
G1 X3.1947 Y-17.1338 Z1.7385
G0 Z1.8900
G0 X3.1947 Y-17.1338 
G0 Z1.8900
G0 X4.2058 Y-17.3643 
G1 X4.2058 Y-17.3643 Z1.8650 F75.
G1 X4.1985 Y-17.3629 Z1.8272 F25.
G1 X4.1776 Y-17.3591 Z1.7950
G1 X4.1463 Y-17.3533 Z1.7732
G1 X4.1093 Y-17.3464 Z1.7650
G1 X4.0632 Y-17.3379 Z1.7641 F150.
G1 X4.0171 Y-17.3294 Z1.7620
G1 X3.9739 Y-17.3214 Z1.7589
G1 X3.8457 Y-17.2976 Z1.7564
G1 X3.7175 Y-17.2739 Z1.7528
G1 X3.4986 Y-17.2334 Z1.7450
G1 X3.3718 Y-17.2099 Z1.7391
G1 X3.3018 Y-17.1969 Z1.7360
G1 X3.1851 Y-17.1753 Z1.7324
G0 Z1.8900
G0 X3.1851 Y-17.1753 
G0 Z1.8900
G0 X4.2703 Y-17.4111 
G1 X4.2703 Y-17.4111 Z1.8650 F75.
G1 X4.2630 Y-17.4098 Z1.8271 F25.
G1 X4.2420 Y-17.4061 Z1.7949
G1 X4.2106 Y-17.4006 Z1.7731
G1 X4.1734 Y-17.3940 Z1.7650
G1 X4.1272 Y-17.3858 Z1.7643 F150.
G1 X4.0811 Y-17.3776 Z1.7622
G1 X4.0349 Y-17.3694 Z1.7589
G1 X3.9195 Y-17.3489 Z1.7566
G1 X3.7811 Y-17.3244 Z1.7523
G1 X3.6657 Y-17.3039 Z1.7477
G1 X3.5503 Y-17.2834 Z1.7427
G1 X3.4349 Y-17.2629 Z1.7366
G1 X3.2606 Y-17.2320 Z1.7285
G1 X3.1755 Y-17.2169 Z1.7258
G0 Z1.8900
G0 X3.1755 Y-17.2169 
G0 Z1.8900
G0 X4.3287 Y-17.4559 
G1 X4.3287 Y-17.4559 Z1.8650 F75.
G1 X4.3213 Y-17.4546 Z1.8271 F25.
G1 X4.3003 Y-17.4511 Z1.7948
G1 X4.2688 Y-17.4457 Z1.7731
G1 X4.2315 Y-17.4394 Z1.7650
G1 X4.1853 Y-17.4315 Z1.7643 F150.
G1 X4.1391 Y-17.4237 Z1.7623
G1 X4.0929 Y-17.4159 Z1.7589
G1 X3.9774 Y-17.3963 Z1.7564
G1 X3.8503 Y-17.3747 Z1.7522
G1 X3.7203 Y-17.3526 Z1.7467
G1 X3.6048 Y-17.3330 Z1.7409
G1 X3.4921 Y-17.3139 Z1.7344
G1 X3.4105 Y-17.3001 Z1.7300
G1 X3.2117 Y-17.2663 Z1.7207
G1 X3.1658 Y-17.2585 Z1.7192
G0 Z1.8900
G0 X3.1658 Y-17.2585 
G0 Z1.8900
G0 X4.3826 Y-17.4989 
G1 X4.3826 Y-17.4989 Z1.8650 F75.
G1 X4.3752 Y-17.4977 Z1.8271 F25.
G1 X4.3542 Y-17.4943 Z1.7949
G1 X4.3227 Y-17.4892 Z1.7731
G1 X4.2854 Y-17.4831 Z1.7650
G1 X4.2391 Y-17.4756 Z1.7643 F150.
G1 X4.1929 Y-17.4682 Z1.7621
G1 X4.1495 Y-17.4611 Z1.7589
G1 X4.0367 Y-17.4428 Z1.7564
G1 X3.9123 Y-17.4227 Z1.7521
G1 X3.7880 Y-17.4026 Z1.7465
G1 X3.6723 Y-17.3838 Z1.7403
G1 X3.4525 Y-17.3482 Z1.7270
G1 X3.3600 Y-17.3332 Z1.7221
G1 X3.1655 Y-17.3017 Z1.7129
G1 X3.1562 Y-17.3002 Z1.7126
G0 Z1.8900
G0 X3.1562 Y-17.3002 
G0 Z1.8900
G0 X4.4352 Y-17.5408 
G1 X4.4352 Y-17.5408 Z1.8650 F75.
G1 X4.4278 Y-17.5397 Z1.8271 F25.
G1 X4.4068 Y-17.5364 Z1.7949
G1 X4.3752 Y-17.5315 Z1.7731
G1 X4.3379 Y-17.5258 Z1.7650
G1 X4.2915 Y-17.5186 Z1.7643 F150.
G1 X4.2452 Y-17.5115 Z1.7621
G1 X4.2032 Y-17.5050 Z1.7588
G1 X4.0918 Y-17.4878 Z1.7563
G1 X3.9731 Y-17.4695 Z1.7521
G1 X3.8514 Y-17.4507 Z1.7463
G1 X3.7356 Y-17.4328 Z1.7398
G1 X3.4113 Y-17.3828 Z1.7195
G1 X3.3187 Y-17.3685 Z1.7146
G1 X3.1569 Y-17.3435 Z1.7067
G1 X3.1470 Y-17.3419 Z1.7061
G0 Z1.8900
G0 X3.1470 Y-17.3419 
G0 Z1.8900
G0 X4.4864 Y-17.5816 
G1 X4.4864 Y-17.5816 Z1.8650 F75.
G1 X4.4790 Y-17.5805 Z1.8271 F25.
G1 X4.4580 Y-17.5775 Z1.7949
G1 X4.4264 Y-17.5728 Z1.7731
G1 X4.3890 Y-17.5673 Z1.7650
G1 X4.3426 Y-17.5605 Z1.7643 F150.
G1 X4.2963 Y-17.5537 Z1.7620
G1 X4.2557 Y-17.5478 Z1.7588
G1 X4.1455 Y-17.5316 Z1.7562
G1 X4.0296 Y-17.5146 Z1.7520
G1 X3.9107 Y-17.4972 Z1.7461
G1 X3.7861 Y-17.4789 Z1.7386
G1 X3.3716 Y-17.4181 Z1.7120
G1 X3.2243 Y-17.3964 Z1.7043
G1 X3.1383 Y-17.3838 Z1.6990
G0 Z1.8900
G0 X3.1383 Y-17.3838 
G0 Z1.8900
G0 X4.5363 Y-17.6214 
G1 X4.5363 Y-17.6214 Z1.8650 F75.
G1 X4.5289 Y-17.6204 Z1.8271 F25.
G1 X4.5079 Y-17.6175 Z1.7949
G1 X4.4763 Y-17.6131 Z1.7731
G1 X4.4389 Y-17.6079 Z1.7650
G1 X4.3925 Y-17.6014 Z1.7643 F150.
G1 X4.3460 Y-17.5950 Z1.7619
G1 X4.3228 Y-17.5917 Z1.7601
G1 X4.3083 Y-17.5897 Z1.7588
G1 X4.1981 Y-17.5744 Z1.7562
G1 X4.0820 Y-17.5582 Z1.7518
G1 X3.9688 Y-17.5425 Z1.7460
G1 X3.8586 Y-17.5271 Z1.7391
G1 X3.8121 Y-17.5207 Z1.7357
G1 X3.6961 Y-17.5045 Z1.7279
G1 X3.3246 Y-17.4529 Z1.7040
G1 X3.2881 Y-17.4478 Z1.7019
G1 X3.1297 Y-17.4258 Z1.6919
G0 Z1.8900
G0 X3.1297 Y-17.4258 
G0 Z1.8900
G0 X4.5851 Y-17.6602 
G1 X4.5851 Y-17.6602 Z1.8650 F75.
G1 X4.5777 Y-17.6593 Z1.8271 F25.
G1 X4.5566 Y-17.6565 Z1.7949
G1 X4.5250 Y-17.6523 Z1.7731
G1 X4.4876 Y-17.6474 Z1.7650
G1 X4.4411 Y-17.6413 Z1.7643 F150.
G1 X4.3946 Y-17.6352 Z1.7618
G1 X4.3569 Y-17.6302 Z1.7588
G1 X4.2494 Y-17.6161 Z1.7562
G1 X4.1390 Y-17.6016 Z1.7519
G1 X4.0228 Y-17.5863 Z1.7459
G1 X3.9182 Y-17.5725 Z1.7391
G1 X3.7904 Y-17.5557 Z1.7294
G1 X3.5581 Y-17.5252 Z1.7138
G1 X3.3722 Y-17.5007 Z1.7017
G1 X3.2860 Y-17.4894 Z1.6950
G1 X3.1214 Y-17.4678 Z1.6845
G0 Z1.8900
G0 X3.1214 Y-17.4678 
G0 Z1.8900
G0 X4.6326 Y-17.6981 
G1 X4.6326 Y-17.6981 Z1.8650 F75.
G1 X4.6252 Y-17.6972 Z1.8271 F25.
G1 X4.6041 Y-17.6946 Z1.7949
G1 X4.5725 Y-17.6906 Z1.7731
G1 X4.5351 Y-17.6860 Z1.7650
G1 X4.4885 Y-17.6802 Z1.7642 F150.
G1 X4.4420 Y-17.6745 Z1.7618
G1 X4.4057 Y-17.6700 Z1.7588
G1 X4.2996 Y-17.6568 Z1.7561
G1 X4.1978 Y-17.6442 Z1.7522
G1 X4.0815 Y-17.6298 Z1.7461
G1 X3.9768 Y-17.6168 Z1.7392
G1 X3.7559 Y-17.5895 Z1.7221
G1 X3.6047 Y-17.5707 Z1.7118
G1 X3.4360 Y-17.5498 Z1.7006
G1 X3.2374 Y-17.5252 Z1.6847
G1 X3.1135 Y-17.5099 Z1.6767
G0 Z1.8900
G0 X3.1135 Y-17.5099 
G0 Z1.8900
G0 X4.6792 Y-17.7350 
G1 X4.6792 Y-17.7350 Z1.8650 F75.
G1 X4.6718 Y-17.7342 Z1.8272 F25.
G1 X4.6507 Y-17.7317 Z1.7949
G1 X4.6191 Y-17.7281 Z1.7732
G1 X4.5816 Y-17.7237 Z1.7650
G1 X4.5351 Y-17.7183 Z1.7642 F150.
G1 X4.4885 Y-17.7129 Z1.7617
G1 X4.4536 Y-17.7088 Z1.7588
G1 X4.3488 Y-17.6966 Z1.7561
G1 X4.2353 Y-17.6834 Z1.7515
G1 X4.1335 Y-17.6716 Z1.7460
G1 X4.0229 Y-17.6587 Z1.7384
G1 X3.7290 Y-17.6245 Z1.7153
G1 X3.6504 Y-17.6154 Z1.7098
G1 X3.5107 Y-17.5991 Z1.7004
G1 X3.1840 Y-17.5611 Z1.6740
G1 X3.1056 Y-17.5520 Z1.6689
G0 Z1.8900
G0 X3.1056 Y-17.5520 
G0 Z1.8900
G0 X4.7257 Y-17.7712 
G1 X4.7257 Y-17.7712 Z1.8650 F75.
G1 X4.7183 Y-17.7704 Z1.8272 F25.
G1 X4.6972 Y-17.7681 Z1.7950
G1 X4.6656 Y-17.7647 Z1.7732
G1 X4.6281 Y-17.7606 Z1.7650
G1 X4.5815 Y-17.7556 Z1.7642 F150.
G1 X4.5349 Y-17.7505 Z1.7616
G1 X4.5014 Y-17.7469 Z1.7588
G1 X4.3951 Y-17.7353 Z1.7560
G1 X4.2844 Y-17.7233 Z1.7514
G1 X4.1854 Y-17.7125 Z1.7459
G1 X4.1155 Y-17.7049 Z1.7412
G1 X4.0689 Y-17.6998 Z1.7378
G1 X3.6961 Y-17.6593 Z1.7081
G1 X3.5680 Y-17.6453 Z1.6991
G1 X3.3233 Y-17.6187 Z1.6789
G1 X3.1271 Y-17.5974 Z1.6630
G1 X3.0977 Y-17.5942 Z1.6610
G0 Z1.8900
G0 X3.0977 Y-17.5942 
G0 Z1.8900
G0 X4.7712 Y-17.8066 
G1 X4.7712 Y-17.8066 Z1.8650 F75.
G1 X4.7638 Y-17.8058 Z1.8272 F25.
G1 X4.7427 Y-17.8037 Z1.7950
G1 X4.7110 Y-17.8005 Z1.7732
G1 X4.6735 Y-17.7967 Z1.7650
G1 X4.6269 Y-17.7920 Z1.7642 F150.
G1 X4.5802 Y-17.7873 Z1.7616
G1 X4.5482 Y-17.7840 Z1.7588
G1 X4.4520 Y-17.7743 Z1.7563
G1 X4.3325 Y-17.7622 Z1.7513
G1 X4.2217 Y-17.7510 Z1.7449
G1 X4.1372 Y-17.7424 Z1.7389
G1 X3.6591 Y-17.6940 Z1.7005
G1 X3.6242 Y-17.6905 Z1.6978
G1 X3.3677 Y-17.6645 Z1.6763
G1 X3.0898 Y-17.6364 Z1.6534
G0 Z1.8900
G0 X3.0898 Y-17.6364 
G0 Z1.8900
G0 X4.8156 Y-17.8411 
G1 X4.8156 Y-17.8411 Z1.8650 F75.
G1 X4.8082 Y-17.8404 Z1.8272 F25.
G1 X4.7870 Y-17.8384 Z1.7950
G1 X4.7554 Y-17.8354 Z1.7732
G1 X4.7178 Y-17.8319 Z1.7650
G1 X4.6712 Y-17.8276 Z1.7642 F150.
G1 X4.6245 Y-17.8232 Z1.7615
G1 X4.5924 Y-17.8202 Z1.7587
G1 X4.4961 Y-17.8112 Z1.7562
G1 X4.3795 Y-17.8002 Z1.7513
G1 X4.2686 Y-17.7899 Z1.7447
G1 X4.1753 Y-17.7811 Z1.7379
G1 X4.0761 Y-17.7718 Z1.7292
G1 X3.6911 Y-17.7358 Z1.6979
G1 X3.6444 Y-17.7314 Z1.6936
G1 X3.2244 Y-17.6921 Z1.6579
G1 X3.0818 Y-17.6787 Z1.6451
G0 Z1.8900
G0 X3.0818 Y-17.6787 
G0 Z1.8900
G0 X4.8589 Y-17.8748 
G1 X4.8589 Y-17.8748 Z1.8650 F75.
G1 X4.8515 Y-17.8742 Z1.8272 F25.
G1 X4.8304 Y-17.8723 Z1.7950
G1 X4.7987 Y-17.8696 Z1.7732
G1 X4.7612 Y-17.8664 Z1.7650
G1 X4.7145 Y-17.8624 Z1.7642 F150.
G1 X4.6678 Y-17.8583 Z1.7615
G1 X4.6371 Y-17.8557 Z1.7587
G1 X4.5335 Y-17.8468 Z1.7559
G1 X4.4343 Y-17.8382 Z1.7516
G1 X4.3175 Y-17.8282 Z1.7447
G1 X4.2241 Y-17.8201 Z1.7377
G1 X4.0606 Y-17.8060 Z1.7233
G1 X3.7454 Y-17.7789 Z1.6973
G1 X3.6403 Y-17.7698 Z1.6874
G1 X3.3601 Y-17.7457 Z1.6632
G1 X3.2546 Y-17.7366 Z1.6527
G1 X3.0739 Y-17.7210 Z1.6362
G0 Z1.8900
G0 X3.0739 Y-17.7210 
G0 Z1.8900
G0 X4.9023 Y-17.9078 
G1 X4.9023 Y-17.9078 Z1.8650 F75.
G1 X4.8948 Y-17.9072 Z1.8270 F25.
G1 X4.8735 Y-17.9055 Z1.7946
G1 X4.8414 Y-17.9030 Z1.7729
G1 X4.8035 Y-17.9000 Z1.7650
G1 X4.7802 Y-17.8982 Z1.7648 F150.
G1 X4.7568 Y-17.8964 Z1.7642
G1 X4.7101 Y-17.8927 Z1.7614
G1 X4.6809 Y-17.8904 Z1.7587
G1 X4.5816 Y-17.8826 Z1.7560
G1 X4.4764 Y-17.8743 Z1.7514
G1 X4.3713 Y-17.8661 Z1.7451
G1 X4.2661 Y-17.8578 Z1.7372
G1 X4.0442 Y-17.8404 Z1.7172
G1 X3.7974 Y-17.8210 Z1.6966
G1 X3.6820 Y-17.8119 Z1.6854
G1 X3.4133 Y-17.7908 Z1.6616
G1 X3.3082 Y-17.7825 Z1.6507
G1 X3.1719 Y-17.7718 Z1.6372
G1 X3.0659 Y-17.7635 Z1.6274
G0 Z1.8900
G0 X3.0659 Y-17.7635 
G0 Z1.8900
G0 X4.9438 Y-17.9400 
G1 X4.9438 Y-17.9400 Z1.8650 F75.
G1 X4.9363 Y-17.9395 Z1.8270 F25.
G1 X4.9149 Y-17.9380 Z1.7946
G1 X4.8829 Y-17.9357 Z1.7729
G1 X4.8450 Y-17.9330 Z1.7650
G1 X4.8216 Y-17.9313 Z1.7648 F150.
G1 X4.7982 Y-17.9297 Z1.7641
G1 X4.7515 Y-17.9263 Z1.7614
G1 X4.7222 Y-17.9243 Z1.7587
G1 X4.6229 Y-17.9172 Z1.7559
G1 X4.5235 Y-17.9101 Z1.7515
G1 X4.4154 Y-17.9024 Z1.7449
G1 X4.3073 Y-17.8948 Z1.7366
G1 X4.0267 Y-17.8748 Z1.7110
G1 X3.8514 Y-17.8623 Z1.6962
G1 X3.7228 Y-17.8532 Z1.6836
G1 X3.6293 Y-17.8466 Z1.6746
G1 X3.4773 Y-17.8357 Z1.6611
G1 X3.3488 Y-17.8266 Z1.6477
G1 X3.0917 Y-17.8083 Z1.6217
G1 X3.0583 Y-17.8060 Z1.6185
G0 Z1.8900
G0 X3.0583 Y-17.8060 
G0 Z1.8900
G0 X4.9844 Y-17.9715 
G1 X4.9844 Y-17.9715 Z1.8650 F75.
G1 X4.9769 Y-17.9710 Z1.8270 F25.
G1 X4.9555 Y-17.9697 Z1.7946
G1 X4.9234 Y-17.9676 Z1.7729
G1 X4.8855 Y-17.9652 Z1.7650
G1 X4.8621 Y-17.9637 Z1.7648 F150.
G1 X4.8387 Y-17.9622 Z1.7641
G1 X4.7920 Y-17.9593 Z1.7613
G1 X4.7642 Y-17.9575 Z1.7587
G1 X4.6633 Y-17.9511 Z1.7558
G1 X4.5698 Y-17.9451 Z1.7516
G1 X4.4820 Y-17.9395 Z1.7463
G1 X4.4411 Y-17.9369 Z1.7434
G1 X4.3475 Y-17.9310 Z1.7359
G1 X4.0084 Y-17.9094 Z1.7048
G1 X3.9031 Y-17.9027 Z1.6957
G1 X3.6692 Y-17.8879 Z1.6725
G1 X3.5289 Y-17.8789 Z1.6596
G1 X3.3885 Y-17.8700 Z1.6447
G1 X3.0519 Y-17.8486 Z1.6100
G0 Z1.8900
G0 X3.0519 Y-17.8486 
G0 Z1.8900
G0 X5.0242 Y-18.0023 
G1 X5.0242 Y-18.0023 Z1.8650 F75.
G1 X5.0167 Y-18.0019 Z1.8270 F25.
G1 X4.9952 Y-18.0007 Z1.7946
G1 X4.9631 Y-17.9989 Z1.7729
G1 X4.9252 Y-17.9967 Z1.7650
G1 X4.9018 Y-17.9954 Z1.7648 F150.
G1 X4.8784 Y-17.9941 Z1.7641
G1 X4.8550 Y-17.9928 Z1.7629
G1 X4.8316 Y-17.9915 Z1.7612
G1 X4.8038 Y-17.9899 Z1.7587
G1 X4.7146 Y-17.9849 Z1.7561
G1 X4.6444 Y-17.9810 Z1.7530
G1 X4.5947 Y-17.9782 Z1.7505
G1 X4.5040 Y-17.9731 Z1.7447
G1 X4.4104 Y-17.9679 Z1.7373
G1 X3.9541 Y-17.9423 Z1.6952
G1 X3.8020 Y-17.9337 Z1.6800
G1 X3.5680 Y-17.9206 Z1.6569
G1 X3.4276 Y-17.9127 Z1.6418
G1 X3.2404 Y-17.9022 Z1.6219
G1 X3.1468 Y-17.8970 Z1.6122
G1 X3.0455 Y-17.8913 Z1.6005
G0 Z1.8900
G0 X3.0455 Y-17.8913 
G0 Z1.8900
G0 X5.0631 Y-18.0324 
G1 X5.0631 Y-18.0324 Z1.8650 F75.
G1 X5.0555 Y-18.0321 Z1.8270 F25.
G1 X5.0341 Y-18.0310 Z1.7946
G1 X5.0020 Y-18.0295 Z1.7729
G1 X4.9641 Y-18.0276 Z1.7650
G1 X4.9407 Y-18.0265 Z1.7648 F150.
G1 X4.9172 Y-18.0253 Z1.7641
G1 X4.8938 Y-18.0242 Z1.7629
G1 X4.8704 Y-18.0231 Z1.7612
G1 X4.8441 Y-18.0218 Z1.7587
G1 X4.7446 Y-18.0170 Z1.7557
G1 X4.6422 Y-18.0120 Z1.7508
G1 X4.5661 Y-18.0083 Z1.7459
G1 X4.5310 Y-18.0066 Z1.7434
G1 X4.4490 Y-18.0026 Z1.7367
G1 X4.2150 Y-17.9912 Z1.7145
G1 X3.9984 Y-17.9807 Z1.6942
G1 X3.6297 Y-17.9628 Z1.6567
G1 X3.2288 Y-17.9433 Z1.6131
G1 X3.0391 Y-17.9341 Z1.5907
G0 Z1.8900
G0 X3.0391 Y-17.9341 
G0 Z1.8900
G0 X5.1011 Y-18.0619 
G1 X5.1011 Y-18.0619 Z1.8650 F75.
G1 X5.0936 Y-18.0616 Z1.8270 F25.
G1 X5.0722 Y-18.0607 Z1.7946
G1 X5.0401 Y-18.0594 Z1.7729
G1 X5.0021 Y-18.0579 Z1.7650
G1 X4.9787 Y-18.0569 Z1.7648 F150.
G1 X4.9553 Y-18.0559 Z1.7641
G1 X4.9319 Y-18.0550 Z1.7629
G1 X4.9085 Y-18.0540 Z1.7611
G1 X4.8836 Y-18.0530 Z1.7587
G1 X4.8148 Y-18.0502 Z1.7567
G1 X4.7562 Y-18.0478 Z1.7544
G1 X4.6801 Y-18.0446 Z1.7506
G1 X4.5865 Y-18.0408 Z1.7444
G1 X4.5104 Y-18.0376 Z1.7381
G1 X4.4752 Y-18.0362 Z1.7351
G1 X4.3464 Y-18.0309 Z1.7222
G1 X4.0479 Y-18.0186 Z1.6939
G1 X3.9717 Y-18.0155 Z1.6857
G1 X3.6849 Y-18.0037 Z1.6562
G1 X3.6439 Y-18.0020 Z1.6514
G1 X3.3160 Y-17.9885 Z1.6151
G1 X3.1287 Y-17.9808 Z1.5924
G1 X3.0327 Y-17.9769 Z1.5809
G0 Z1.8900
G0 X3.0327 Y-17.9769 
G0 Z1.8900
G0 X5.1384 Y-18.0908 
G1 X5.1384 Y-18.0908 Z1.8650 F75.
G1 X5.1309 Y-18.0906 Z1.8270 F25.
G1 X5.1095 Y-18.0898 Z1.7947
G1 X5.0774 Y-18.0888 Z1.7729
G1 X5.0394 Y-18.0875 Z1.7650
G1 X5.0160 Y-18.0867 Z1.7648 F150.
G1 X4.9926 Y-18.0859 Z1.7641
G1 X4.9691 Y-18.0851 Z1.7628
G1 X4.9457 Y-18.0843 Z1.7610
G1 X4.9208 Y-18.0835 Z1.7587
G1 X4.8520 Y-18.0812 Z1.7566
G1 X4.8052 Y-18.0796 Z1.7548
G1 X4.7203 Y-18.0768 Z1.7505
G1 X4.6295 Y-18.0737 Z1.7444
G1 X4.5709 Y-18.0717 Z1.7396
G1 X4.5153 Y-18.0699 Z1.7347
G1 X4.3835 Y-18.0654 Z1.7212
G1 X4.0907 Y-18.0556 Z1.6930
G1 X4.0087 Y-18.0528 Z1.6840
G1 X3.7335 Y-18.0436 Z1.6552
G1 X3.6340 Y-18.0402 Z1.6433
G1 X3.3997 Y-18.0323 Z1.6172
G1 X3.3529 Y-18.0308 Z1.6116
G1 X3.1655 Y-18.0245 Z1.5881
G1 X3.0263 Y-18.0198 Z1.5711
G0 Z1.8900
G0 X3.0263 Y-18.0198 
G0 Z1.8900
G0 X5.1749 Y-18.1191 
G1 X5.1749 Y-18.1191 Z1.8650 F75.
G1 X5.1674 Y-18.1189 Z1.8270 F25.
G1 X5.1460 Y-18.1184 Z1.7947
G1 X5.1139 Y-18.1175 Z1.7729
G1 X5.0759 Y-18.1165 Z1.7650
G1 X5.0525 Y-18.1159 Z1.7648 F150.
G1 X5.0291 Y-18.1153 Z1.7640
G1 X5.0057 Y-18.1147 Z1.7628
G1 X4.9822 Y-18.1141 Z1.7609
G1 X4.9588 Y-18.1135 Z1.7587
G1 X4.8651 Y-18.1110 Z1.7558
G1 X4.7596 Y-18.1083 Z1.7505
G1 X4.6571 Y-18.1056 Z1.7433
G1 X4.6074 Y-18.1043 Z1.7391
G1 X4.5576 Y-18.1030 Z1.7346
G1 X4.3262 Y-18.0969 Z1.7110
G1 X4.1388 Y-18.0920 Z1.6928
G1 X3.9513 Y-18.0871 Z1.6722
G1 X3.7873 Y-18.0828 Z1.6549
G1 X3.5765 Y-18.0773 Z1.6299
G1 X3.4359 Y-18.0736 Z1.6140
G1 X3.2953 Y-18.0700 Z1.5957
G1 X3.0199 Y-18.0628 Z1.5614
G0 Z1.8900
G0 X3.0199 Y-18.0628 
G0 Z1.8900
G0 X5.2107 Y-18.1468 
G1 X5.2107 Y-18.1468 Z1.8650 F75.
G1 X5.2032 Y-18.1467 Z1.8270 F25.
G1 X5.1818 Y-18.1463 Z1.7947
G1 X5.1497 Y-18.1457 Z1.7729
G1 X5.1118 Y-18.1450 Z1.7650
G1 X5.0883 Y-18.1446 Z1.7648 F150.
G1 X5.0649 Y-18.1441 Z1.7640
G1 X5.0415 Y-18.1437 Z1.7627
G1 X5.0180 Y-18.1432 Z1.7608
G1 X4.9961 Y-18.1428 Z1.7587
G1 X4.9009 Y-18.1411 Z1.7557
G1 X4.7983 Y-18.1391 Z1.7504
G1 X4.6973 Y-18.1373 Z1.7433
G1 X4.6080 Y-18.1356 Z1.7354
G1 X4.3619 Y-18.1310 Z1.7099
G1 X4.1803 Y-18.1276 Z1.6920
G1 X3.9870 Y-18.1240 Z1.6702
G1 X3.8346 Y-18.1211 Z1.6540
G1 X3.6120 Y-18.1170 Z1.6270
G1 X3.4831 Y-18.1146 Z1.6122
G1 X3.2371 Y-18.1100 Z1.5800
G1 X3.0973 Y-18.1074 Z1.5624
G1 X3.0134 Y-18.1058 Z1.5505
G0 Z1.8900
G0 X3.0134 Y-18.1058 
G0 Z1.8900
G0 X5.2458 Y-18.1740 
G1 X5.2458 Y-18.1740 Z1.8650 F75.
G1 X5.2383 Y-18.1739 Z1.8270 F25.
G1 X5.2169 Y-18.1737 Z1.7947
G1 X5.1848 Y-18.1733 Z1.7729
G1 X5.1469 Y-18.1729 Z1.7650
G1 X5.1235 Y-18.1727 Z1.7648 F150.
G1 X5.1000 Y-18.1724 Z1.7640
G1 X5.0766 Y-18.1721 Z1.7626
G1 X5.0532 Y-18.1719 Z1.7607
G1 X5.0326 Y-18.1716 Z1.7587
G1 X4.9477 Y-18.1707 Z1.7560
G1 X4.8422 Y-18.1695 Z1.7507
G1 X4.7368 Y-18.1683 Z1.7432
G1 X4.6430 Y-18.1673 Z1.7348
G1 X4.3501 Y-18.1640 Z1.7041
G1 X4.2241 Y-18.1626 Z1.6915
G1 X4.0220 Y-18.1603 Z1.6685
G1 X3.8799 Y-18.1587 Z1.6529
G1 X3.6470 Y-18.1561 Z1.6242
G1 X3.5298 Y-18.1548 Z1.6104
G1 X3.2720 Y-18.1519 Z1.5760
G1 X3.1561 Y-18.1506 Z1.5611
G1 X3.0070 Y-18.1489 Z1.5396
G0 Z1.8900
G0 X3.0070 Y-18.1489 
G0 Z1.8900
G0 X5.2803 Y-18.2007 
G1 X5.2803 Y-18.2007 Z1.8650 F75.
G1 X5.2727 Y-18.2006 Z1.8270 F25.
G1 X5.2514 Y-18.2006 Z1.7947
G1 X5.2193 Y-18.2004 Z1.7730
G1 X5.1814 Y-18.2003 Z1.7650
G1 X5.1579 Y-18.2002 Z1.7648 F150.
G1 X5.1345 Y-18.2001 Z1.7640
G1 X5.1110 Y-18.2000 Z1.7626
G1 X5.0876 Y-18.2000 Z1.7606
G1 X5.0686 Y-18.1999 Z1.7587
G1 X4.9821 Y-18.1996 Z1.7559
G1 X4.8767 Y-18.1992 Z1.7505
G1 X4.7727 Y-18.1988 Z1.7430
G1 X4.6774 Y-18.1984 Z1.7342
G1 X4.3376 Y-18.1971 Z1.6982
G1 X4.2673 Y-18.1969 Z1.6911
G1 X3.9275 Y-18.1956 Z1.6523
G1 X3.6345 Y-18.1945 Z1.6158
G1 X3.5818 Y-18.1943 Z1.6094
G1 X3.2684 Y-18.1932 Z1.5671
G1 X3.2209 Y-18.1930 Z1.5609
G1 X3.0024 Y-18.1922 Z1.5289
G0 Z1.8900
G0 X3.0024 Y-18.1922 
G0 Z1.8900
G0 X5.3139 Y-18.2268 
G1 X5.3139 Y-18.2268 Z1.8650 F75.
G1 X5.3064 Y-18.2268 Z1.8270 F25.
G1 X5.2851 Y-18.2269 Z1.7947
G1 X5.2530 Y-18.2270 Z1.7730
G1 X5.2151 Y-18.2272 Z1.7650
G1 X5.1916 Y-18.2273 Z1.7648 F150.
G1 X5.1682 Y-18.2273 Z1.7639
G1 X5.1448 Y-18.2274 Z1.7625
G1 X5.1213 Y-18.2275 Z1.7605
G1 X5.1038 Y-18.2276 Z1.7587
G1 X5.0159 Y-18.2279 Z1.7558
G1 X4.9221 Y-18.2283 Z1.7510
G1 X4.8870 Y-18.2284 Z1.7486
G1 X4.8167 Y-18.2287 Z1.7434
G1 X4.7229 Y-18.2290 Z1.7348
G1 X4.6526 Y-18.2293 Z1.7274
G1 X4.3010 Y-18.2306 Z1.6896
G1 X3.9700 Y-18.2318 Z1.6511
G1 X3.6331 Y-18.2331 Z1.6086
G1 X3.2866 Y-18.2344 Z1.5611
G1 X2.9977 Y-18.2355 Z1.5181
G0 Z1.8900
G0 X2.9977 Y-18.2355 
G0 Z1.8900
G0 X5.3470 Y-18.2524 
G1 X5.3470 Y-18.2524 Z1.8650 F75.
G1 X5.3395 Y-18.2525 Z1.8270 F25.
G1 X5.3181 Y-18.2528 Z1.7947
G1 X5.2861 Y-18.2531 Z1.7730
G1 X5.2482 Y-18.2535 Z1.7650
G1 X5.2248 Y-18.2538 Z1.7648 F150.
G1 X5.2013 Y-18.2541 Z1.7639
G1 X5.1779 Y-18.2543 Z1.7624
G1 X5.1545 Y-18.2546 Z1.7604
G1 X5.1383 Y-18.2548 Z1.7587
G1 X5.0607 Y-18.2557 Z1.7562
G1 X5.0373 Y-18.2559 Z1.7552
G1 X4.9552 Y-18.2568 Z1.7508
G1 X4.8732 Y-18.2578 Z1.7449
G1 X4.8410 Y-18.2581 Z1.7422
G1 X4.7560 Y-18.2591 Z1.7342
G1 X4.6623 Y-18.2601 Z1.7243
G1 X4.3108 Y-18.2641 Z1.6853
G1 X4.0119 Y-18.2674 Z1.6500
G1 X3.9358 Y-18.2683 Z1.6401
G1 X3.6751 Y-18.2712 Z1.6067
G1 X3.5608 Y-18.2725 Z1.5905
G1 X3.3382 Y-18.2750 Z1.5597
G1 X3.2796 Y-18.2756 Z1.5506
G1 X3.1858 Y-18.2767 Z1.5354
G1 X2.9931 Y-18.2788 Z1.5064
G0 Z1.8900
G0 X2.9931 Y-18.2788 
G0 Z1.8900
G0 X5.3795 Y-18.2776 
G1 X5.3795 Y-18.2776 Z1.8650 F75.
G1 X5.3720 Y-18.2777 Z1.8270 F25.
G1 X5.3506 Y-18.2781 Z1.7948
G1 X5.3186 Y-18.2787 Z1.7730
G1 X5.2807 Y-18.2794 Z1.7650
G1 X5.2573 Y-18.2799 Z1.7647 F150.
G1 X5.2338 Y-18.2803 Z1.7639
G1 X5.2104 Y-18.2808 Z1.7624
G1 X5.1870 Y-18.2812 Z1.7603
G1 X5.1709 Y-18.2815 Z1.7586
G1 X5.0815 Y-18.2832 Z1.7556
G1 X4.9878 Y-18.2849 Z1.7506
G1 X4.8941 Y-18.2867 Z1.7436
G1 X4.8589 Y-18.2873 Z1.7404
G1 X4.7886 Y-18.2886 Z1.7336
G1 X4.7652 Y-18.2891 Z1.7309
G1 X4.6714 Y-18.2908 Z1.7207
G1 X4.6246 Y-18.2917 Z1.7150
G1 X4.3434 Y-18.2970 Z1.6835
G1 X4.0622 Y-18.3022 Z1.6502
G1 X3.9684 Y-18.3040 Z1.6376
G1 X3.7224 Y-18.3086 Z1.6058
G1 X3.5935 Y-18.3110 Z1.5871
G1 X3.3826 Y-18.3149 Z1.5575
G1 X3.3123 Y-18.3162 Z1.5463
G1 X3.2186 Y-18.3180 Z1.5311
G1 X3.1014 Y-18.3202 Z1.5119
G1 X2.9884 Y-18.3223 Z1.4947
G0 Z1.8900
G0 X2.9884 Y-18.3223 
G0 Z1.8900
G0 X5.4113 Y-18.3023 
G1 X5.4113 Y-18.3023 Z1.8650 F75.
G1 X5.4038 Y-18.3025 Z1.8271 F25.
G1 X5.3825 Y-18.3031 Z1.7948
G1 X5.3505 Y-18.3039 Z1.7730
G1 X5.3126 Y-18.3049 Z1.7650
G1 X5.2892 Y-18.3055 Z1.7647 F150.
G1 X5.2658 Y-18.3061 Z1.7638
G1 X5.2423 Y-18.3067 Z1.7623
G1 X5.2189 Y-18.3073 Z1.7602
G1 X5.2043 Y-18.3077 Z1.7586
G1 X5.1135 Y-18.3101 Z1.7555
G1 X5.0315 Y-18.3122 Z1.7511
G1 X5.0081 Y-18.3128 Z1.7495
G1 X4.9260 Y-18.3150 Z1.7433
G1 X4.8323 Y-18.3174 Z1.7342
G1 X4.7503 Y-18.3196 Z1.7248
G1 X4.6566 Y-18.3220 Z1.7143
G1 X4.5746 Y-18.3242 Z1.7041
G1 X4.3755 Y-18.3294 Z1.6816
G1 X4.1412 Y-18.3355 Z1.6538
G1 X4.0943 Y-18.3367 Z1.6481
G1 X4.0006 Y-18.3392 Z1.6353
G1 X3.7663 Y-18.3453 Z1.6045
G1 X3.6257 Y-18.3490 Z1.5837
G1 X3.4324 Y-18.3541 Z1.5562
G1 X3.2508 Y-18.3588 Z1.5269
G1 X3.0186 Y-18.3649 Z1.4883
G1 X2.9838 Y-18.3658 Z1.4829
G0 Z1.8900
G0 X2.9838 Y-18.3658 
G0 Z1.8900
G0 X5.4426 Y-18.3265 
G1 X5.4426 Y-18.3265 Z1.8650 F75.
G1 X5.4351 Y-18.3268 Z1.8271 F25.
G1 X5.4138 Y-18.3275 Z1.7948
G1 X5.3818 Y-18.3286 Z1.7730
G1 X5.3440 Y-18.3299 Z1.7650
G1 X5.3206 Y-18.3307 Z1.7647 F150.
G1 X5.2971 Y-18.3314 Z1.7638
G1 X5.2737 Y-18.3322 Z1.7623
G1 X5.2503 Y-18.3330 Z1.7601
G1 X5.2371 Y-18.3335 Z1.7586
G1 X5.1566 Y-18.3362 Z1.7559
G1 X5.1098 Y-18.3377 Z1.7535
G1 X5.0512 Y-18.3397 Z1.7501
G1 X4.9692 Y-18.3425 Z1.7439
G1 X4.9458 Y-18.3433 Z1.7418
G1 X4.8638 Y-18.3460 Z1.7337
G1 X4.7525 Y-18.3498 Z1.7205
G1 X4.6647 Y-18.3527 Z1.7107
G1 X4.5241 Y-18.3574 Z1.6931
G1 X4.3133 Y-18.3645 Z1.6690
G1 X4.1376 Y-18.3704 Z1.6475
G1 X4.0322 Y-18.3740 Z1.6330
G1 X3.8214 Y-18.3811 Z1.6049
G1 X3.6575 Y-18.3866 Z1.5804
G1 X3.4818 Y-18.3925 Z1.5550
G1 X3.2827 Y-18.3992 Z1.5226
G1 X2.9791 Y-18.4094 Z1.4717
G0 Z1.8900
G0 X2.9791 Y-18.4094 
G0 Z1.8900
G0 X5.4734 Y-18.3504 
G1 X5.4734 Y-18.3504 Z1.8650 F75.
G1 X5.4659 Y-18.3507 Z1.8271 F25.
G1 X5.4446 Y-18.3515 Z1.7948
G1 X5.4126 Y-18.3529 Z1.7730
G1 X5.3748 Y-18.3544 Z1.7650
G1 X5.3514 Y-18.3554 Z1.7647 F150.
G1 X5.3280 Y-18.3563 Z1.7638
G1 X5.3046 Y-18.3573 Z1.7622
G1 X5.2694 Y-18.3587 Z1.7586
G1 X5.1875 Y-18.3621 Z1.7558
G1 X5.1172 Y-18.3650 Z1.7520
G1 X5.0792 Y-18.3666 Z1.7497
G1 X5.0001 Y-18.3698 Z1.7435
G1 X4.9533 Y-18.3717 Z1.7391
G1 X4.8948 Y-18.3742 Z1.7331
G1 X4.8596 Y-18.3756 Z1.7288
G1 X4.7191 Y-18.3814 Z1.7123
G1 X4.6606 Y-18.3838 Z1.7056
G1 X4.4732 Y-18.3915 Z1.6820
G1 X4.3444 Y-18.3968 Z1.6671
G1 X4.1864 Y-18.4033 Z1.6478
G1 X3.9698 Y-18.4122 Z1.6178
G1 X3.8556 Y-18.4169 Z1.6025
G1 X3.5951 Y-18.4276 Z1.5632
G1 X3.5365 Y-18.4300 Z1.5547
G1 X3.3141 Y-18.4391 Z1.5182
G1 X3.0886 Y-18.4484 Z1.4803
G1 X3.0315 Y-18.4508 Z1.4702
G1 X2.9744 Y-18.4531 Z1.4598
G0 Z1.8900
G0 X2.9744 Y-18.4531 
G0 Z1.8900
G0 X5.5036 Y-18.3738 
G1 X5.5036 Y-18.3738 Z1.8650 F75.
G1 X5.4961 Y-18.3741 Z1.8271 F25.
G1 X5.4748 Y-18.3752 Z1.7948
G1 X5.4429 Y-18.3767 Z1.7730
G1 X5.4051 Y-18.3785 Z1.7650
G1 X5.3817 Y-18.3797 Z1.7647 F150.
G1 X5.3583 Y-18.3808 Z1.7637
G1 X5.3349 Y-18.3820 Z1.7621
G1 X5.2998 Y-18.3837 Z1.7586
G1 X5.2120 Y-18.3879 Z1.7555
G1 X5.1242 Y-18.3922 Z1.7505
G1 X5.0540 Y-18.3956 Z1.7451
G1 X5.0188 Y-18.3973 Z1.7421
G1 X4.9369 Y-18.4013 Z1.7338
G1 X4.8433 Y-18.4059 Z1.7226
G1 X4.6560 Y-18.4150 Z1.7005
G1 X4.4219 Y-18.4263 Z1.6706
G1 X4.2814 Y-18.4332 Z1.6539
G1 X4.2171 Y-18.4363 Z1.6458
G1 X3.9537 Y-18.4491 Z1.6089
G1 X3.8981 Y-18.4518 Z1.6013
G1 X3.5704 Y-18.4677 Z1.5514
G1 X3.2514 Y-18.4832 Z1.4984
G1 X3.1812 Y-18.4866 Z1.4858
G1 X2.9697 Y-18.4969 Z1.4471
G0 Z1.8900
G0 X2.9697 Y-18.4969 
G0 Z1.8900
G0 X5.5333 Y-18.3968 
G1 X5.5333 Y-18.3968 Z1.8650 F75.
G1 X5.5259 Y-18.3972 Z1.8271 F25.
G1 X5.5046 Y-18.3984 Z1.7948
G1 X5.4727 Y-18.4002 Z1.7730
G1 X5.4349 Y-18.4023 Z1.7650
G1 X5.4115 Y-18.4036 Z1.7647 F150.
G1 X5.3881 Y-18.4049 Z1.7637
G1 X5.3647 Y-18.4062 Z1.7621
G1 X5.3311 Y-18.4081 Z1.7586
G1 X5.2418 Y-18.4131 Z1.7554
G1 X5.1482 Y-18.4184 Z1.7499
G1 X5.0605 Y-18.4233 Z1.7428
G1 X4.9669 Y-18.4285 Z1.7333
G1 X4.9201 Y-18.4311 Z1.7275
G1 X4.6393 Y-18.4469 Z1.6937
G1 X4.3643 Y-18.4623 Z1.6584
G1 X4.3117 Y-18.4653 Z1.6521
G1 X4.2561 Y-18.4684 Z1.6450
G1 X3.9372 Y-18.4863 Z1.5998
G1 X3.6213 Y-18.5040 Z1.5510
G1 X3.2937 Y-18.5224 Z1.4959
G1 X3.1333 Y-18.5314 Z1.4655
G1 X2.9679 Y-18.5406 Z1.4350
G0 Z1.8900
G0 X2.9679 Y-18.5406 
G0 Z1.8900
G0 X5.5625 Y-18.4193 
G1 X5.5625 Y-18.4193 Z1.8650 F75.
G1 X5.5551 Y-18.4198 Z1.8271 F25.
G1 X5.5338 Y-18.4212 Z1.7948
G1 X5.5019 Y-18.4232 Z1.7731
G1 X5.4642 Y-18.4256 Z1.7650
G1 X5.4408 Y-18.4271 Z1.7647 F150.
G1 X5.4174 Y-18.4286 Z1.7637
G1 X5.3940 Y-18.4301 Z1.7620
G1 X5.3604 Y-18.4322 Z1.7586
G1 X5.2771 Y-18.4375 Z1.7556
G1 X5.1835 Y-18.4435 Z1.7501
G1 X5.0899 Y-18.4494 Z1.7425
G1 X4.9964 Y-18.4554 Z1.7327
G1 X4.9730 Y-18.4568 Z1.7297
G1 X4.6572 Y-18.4769 Z1.6915
G1 X4.2947 Y-18.5000 Z1.6443
G1 X3.9906 Y-18.5193 Z1.6007
G1 X3.6631 Y-18.5401 Z1.5494
G1 X3.5930 Y-18.5446 Z1.5372
G1 X3.3474 Y-18.5602 Z1.4955
G1 X3.3123 Y-18.5624 Z1.4889
G1 X2.9662 Y-18.5844 Z1.4228
G0 Z1.8900
G0 X2.9662 Y-18.5844 
G0 Z1.8900
G0 X5.5913 Y-18.4416 
G1 X5.5913 Y-18.4416 Z1.8650 F75.
G1 X5.5838 Y-18.4421 Z1.8271 F25.
G1 X5.5626 Y-18.4436 Z1.7948
G1 X5.5307 Y-18.4459 Z1.7731
G1 X5.4930 Y-18.4486 Z1.7650
G1 X5.4696 Y-18.4502 Z1.7647 F150.
G1 X5.4462 Y-18.4519 Z1.7637
G1 X5.4229 Y-18.4535 Z1.7620
G1 X5.3936 Y-18.4556 Z1.7589
G1 X5.3892 Y-18.4559 Z1.7586
G1 X5.3060 Y-18.4618 Z1.7555
G1 X5.2125 Y-18.4685 Z1.7499
G1 X5.1189 Y-18.4751 Z1.7421
G1 X5.0371 Y-18.4810 Z1.7335
G1 X4.6514 Y-18.5084 Z1.6861
G1 X4.5111 Y-18.5184 Z1.6676
G1 X4.3474 Y-18.5300 Z1.6456
G1 X4.0201 Y-18.5533 Z1.5981
G1 X3.7045 Y-18.5757 Z1.5479
G1 X3.6227 Y-18.5815 Z1.5334
G1 X3.3831 Y-18.5986 Z1.4921
G1 X2.9645 Y-18.6283 Z1.4113
G0 Z1.8900
G0 X2.9645 Y-18.6283 
G0 Z1.8900
G0 X5.6195 Y-18.4634 
G1 X5.6195 Y-18.4634 Z1.8650 F75.
G1 X5.6121 Y-18.4640 Z1.8271 F25.
G1 X5.5909 Y-18.4657 Z1.7948
G1 X5.5590 Y-18.4682 Z1.7731
G1 X5.5213 Y-18.4711 Z1.7650
G1 X5.4980 Y-18.4730 Z1.7647 F150.
G1 X5.4746 Y-18.4748 Z1.7636
G1 X5.4512 Y-18.4766 Z1.7619
G1 X5.4206 Y-18.4791 Z1.7586
G1 X5.3344 Y-18.4858 Z1.7554
G1 X5.2526 Y-18.4923 Z1.7505
G1 X5.2176 Y-18.4950 Z1.7478
G1 X5.1504 Y-18.5003 Z1.7420
G1 X5.0657 Y-18.5069 Z1.7330
G1 X5.0307 Y-18.5097 Z1.7285
G1 X4.6743 Y-18.5377 Z1.6843
G1 X4.3662 Y-18.5619 Z1.6424
G1 X4.3063 Y-18.5666 Z1.6333
G1 X4.0581 Y-18.5862 Z1.5968
G1 X3.8390 Y-18.6034 Z1.5614
G1 X3.7456 Y-18.6107 Z1.5464
G1 X3.6521 Y-18.6181 Z1.5297
G1 X3.4272 Y-18.6357 Z1.4903
G1 X3.0417 Y-18.6661 Z1.4152
G1 X2.9628 Y-18.6723 Z1.3987
G0 Z1.8900
G0 X2.9628 Y-18.6723 
G0 Z1.8900
G0 X5.6473 Y-18.4849 
G1 X5.6473 Y-18.4849 Z1.8650 F75.
G1 X5.6399 Y-18.4855 Z1.8271 F25.
G1 X5.6187 Y-18.4874 Z1.7949
G1 X5.5869 Y-18.4901 Z1.7731
G1 X5.5492 Y-18.4934 Z1.7650
G1 X5.5259 Y-18.4954 Z1.7647 F150.
G1 X5.5025 Y-18.4974 Z1.7636
G1 X5.4792 Y-18.4994 Z1.7619
G1 X5.4485 Y-18.5020 Z1.7586
G1 X5.3683 Y-18.5089 Z1.7556
G1 X5.2807 Y-18.5165 Z1.7503
G1 X5.1990 Y-18.5235 Z1.7436
G1 X5.1639 Y-18.5265 Z1.7401
G1 X5.0939 Y-18.5326 Z1.7325
G1 X5.0589 Y-18.5356 Z1.7278
G1 X4.7057 Y-18.5660 Z1.6834
G1 X4.6619 Y-18.5698 Z1.6772
G1 X4.4021 Y-18.5922 Z1.6416
G1 X4.3350 Y-18.5979 Z1.6313
G1 X4.0956 Y-18.6185 Z1.5957
G1 X3.9614 Y-18.6301 Z1.5733
G1 X3.7862 Y-18.6452 Z1.5450
G1 X3.5877 Y-18.6623 Z1.5092
G1 X3.4827 Y-18.6713 Z1.4908
G1 X3.4476 Y-18.6744 Z1.4840
G1 X3.1127 Y-18.7032 Z1.4181
G1 X2.9611 Y-18.7163 Z1.3858
G0 Z1.8900
G0 X2.9611 Y-18.7163 
G0 Z1.8900
G0 X5.6747 Y-18.5060 
G1 X5.6747 Y-18.5060 Z1.8650 F75.
G1 X5.6673 Y-18.5067 Z1.8271 F25.
G1 X5.6461 Y-18.5087 Z1.7949
G1 X5.6143 Y-18.5117 Z1.7731
G1 X5.5767 Y-18.5152 Z1.7650
G1 X5.5534 Y-18.5174 Z1.7647 F150.
G1 X5.5300 Y-18.5196 Z1.7636
G1 X5.5067 Y-18.5218 Z1.7618
G1 X5.4775 Y-18.5245 Z1.7586
G1 X5.3958 Y-18.5322 Z1.7555
G1 X5.3054 Y-18.5406 Z1.7500
G1 X5.2121 Y-18.5494 Z1.7419
G1 X5.1333 Y-18.5568 Z1.7333
G1 X5.0166 Y-18.5677 Z1.7181
G1 X4.7381 Y-18.5938 Z1.6829
G1 X4.6433 Y-18.6026 Z1.6693
G1 X4.4362 Y-18.6220 Z1.6407
G1 X4.2699 Y-18.6376 Z1.6151
G1 X4.1357 Y-18.6502 Z1.5950
G1 X3.8965 Y-18.6726 Z1.5551
G1 X3.8265 Y-18.6791 Z1.5437
G1 X3.6165 Y-18.6988 Z1.5053
G1 X3.5173 Y-18.7081 Z1.4876
G1 X3.1848 Y-18.7393 Z1.4215
G1 X2.9594 Y-18.7604 Z1.3727
G0 Z1.8900
G0 X2.9594 Y-18.7604 
G0 Z1.8900
G0 X5.7017 Y-18.5269 
G1 X5.7017 Y-18.5269 Z1.8650 F75.
G1 X5.6942 Y-18.5276 Z1.8271 F25.
G1 X5.6731 Y-18.5297 Z1.7949
G1 X5.6413 Y-18.5330 Z1.7731
G1 X5.6037 Y-18.5368 Z1.7650
G1 X5.5804 Y-18.5391 Z1.7647 F150.
G1 X5.5571 Y-18.5415 Z1.7636
G1 X5.5338 Y-18.5438 Z1.7618
G1 X5.5046 Y-18.5468 Z1.7586
G1 X5.4230 Y-18.5551 Z1.7555
G1 X5.3356 Y-18.5639 Z1.7500
G1 X5.2539 Y-18.5722 Z1.7430
G1 X5.2306 Y-18.5745 Z1.7406
G1 X5.1607 Y-18.5816 Z1.7328
G1 X5.0208 Y-18.5958 Z1.7143
G1 X4.7876 Y-18.6194 Z1.6846
G1 X4.7643 Y-18.6217 Z1.6815
G1 X4.6710 Y-18.6312 Z1.6680
G1 X4.4713 Y-18.6514 Z1.6400
G1 X4.2979 Y-18.6689 Z1.6129
G1 X4.1813 Y-18.6807 Z1.5953
G1 X3.9248 Y-18.7067 Z1.5521
G1 X3.8665 Y-18.7126 Z1.5424
G1 X3.5750 Y-18.7421 Z1.4888
G1 X3.5517 Y-18.7444 Z1.4844
G1 X3.2486 Y-18.7751 Z1.4235
G1 X2.9577 Y-18.8045 Z1.3593
G0 Z1.8900
G0 X2.9577 Y-18.8045 
G0 Z1.8900
G0 X5.7282 Y-18.5473 
G1 X5.7282 Y-18.5473 Z1.8650 F75.
G1 X5.7208 Y-18.5481 Z1.8271 F25.
G1 X5.6996 Y-18.5504 Z1.7949
G1 X5.6679 Y-18.5539 Z1.7731
G1 X5.6304 Y-18.5580 Z1.7650
G1 X5.6071 Y-18.5605 Z1.7647 F150.
G1 X5.5838 Y-18.5630 Z1.7636
G1 X5.5605 Y-18.5656 Z1.7617
G1 X5.5328 Y-18.5686 Z1.7586
G1 X5.4556 Y-18.5770 Z1.7557
G1 X5.3682 Y-18.5865 Z1.7503
G1 X5.2838 Y-18.5957 Z1.7430
G1 X5.2575 Y-18.5985 Z1.7403
G1 X5.1876 Y-18.6061 Z1.7323
G1 X5.1643 Y-18.6087 Z1.7291
G1 X5.0245 Y-18.6239 Z1.7105
G1 X4.8017 Y-18.6481 Z1.6818
G1 X4.6983 Y-18.6593 Z1.6667
G1 X4.5047 Y-18.6804 Z1.6391
G1 X4.3255 Y-18.6999 Z1.6108
G1 X4.2061 Y-18.7129 Z1.5924
G1 X3.9003 Y-18.7461 Z1.5401
G1 X3.6003 Y-18.7787 Z1.4842
G1 X3.5333 Y-18.7860 Z1.4704
G1 X3.2625 Y-18.8155 Z1.4152
G1 X3.1838 Y-18.8240 Z1.3970
G1 X2.9560 Y-18.8488 Z1.3458
G0 Z1.8900
G0 X2.9560 Y-18.8488 
G0 Z1.8900
G0 X5.7543 Y-18.5675 
G1 X5.7543 Y-18.5675 Z1.8650 F75.
G1 X5.7469 Y-18.5684 Z1.8271 F25.
G1 X5.7258 Y-18.5708 Z1.7949
G1 X5.6941 Y-18.5745 Z1.7731
G1 X5.6566 Y-18.5789 Z1.7650
G1 X5.6333 Y-18.5816 Z1.7646 F150.
G1 X5.6100 Y-18.5843 Z1.7635
G1 X5.5867 Y-18.5870 Z1.7617
G1 X5.5591 Y-18.5902 Z1.7586
G1 X5.4820 Y-18.5992 Z1.7556
G1 X5.3918 Y-18.6097 Z1.7499
G1 X5.3074 Y-18.6195 Z1.7425
G1 X5.2259 Y-18.6290 Z1.7333
G1 X5.2026 Y-18.6317 Z1.7303
G1 X5.1910 Y-18.6330 Z1.7285
G1 X5.0047 Y-18.6547 Z1.7036
G1 X4.8359 Y-18.6743 Z1.6817
G1 X4.6322 Y-18.6980 Z1.6517
G1 X4.5391 Y-18.7088 Z1.6385
G1 X4.3529 Y-18.7305 Z1.6088
G1 X4.2423 Y-18.7434 Z1.5914
G1 X3.9455 Y-18.7779 Z1.5401
G1 X3.6428 Y-18.8131 Z1.4831
G1 X3.5730 Y-18.8212 Z1.4684
G1 X3.5380 Y-18.8253 Z1.4609
G1 X3.2878 Y-18.8544 Z1.4094
G1 X3.2121 Y-18.8632 Z1.3919
G1 X3.1539 Y-18.8700 Z1.3781
G1 X2.9543 Y-18.8932 Z1.3328
G0 Z1.8900
G0 X2.9543 Y-18.8932 
G0 Z1.8900
G0 X5.7800 Y-18.5874 
G1 X5.7800 Y-18.5874 Z1.8650 F75.
G1 X5.7726 Y-18.5883 Z1.8271 F25.
G1 X5.7515 Y-18.5909 Z1.7949
G1 X5.7199 Y-18.5948 Z1.7731
G1 X5.6824 Y-18.5994 Z1.7650
G1 X5.6592 Y-18.6023 Z1.7646 F150.
G1 X5.6359 Y-18.6052 Z1.7635
G1 X5.6126 Y-18.6081 Z1.7616
G1 X5.5865 Y-18.6113 Z1.7586
G1 X5.5196 Y-18.6196 Z1.7561
G1 X5.4963 Y-18.6225 Z1.7549
G1 X5.4207 Y-18.6319 Z1.7500
G1 X5.3321 Y-18.6429 Z1.7421
G1 X5.2463 Y-18.6535 Z1.7322
G1 X5.2172 Y-18.6571 Z1.7280
G1 X5.0079 Y-18.6830 Z1.6997
G1 X4.8640 Y-18.7009 Z1.6807
G1 X4.6590 Y-18.7262 Z1.6503
G1 X4.5892 Y-18.7349 Z1.6402
G1 X4.5660 Y-18.7378 Z1.6367
G1 X4.2752 Y-18.7738 Z1.5900
G1 X3.9816 Y-18.8102 Z1.5386
G1 X3.9147 Y-18.8185 Z1.5257
G1 X3.6821 Y-18.8473 Z1.4815
G1 X3.5774 Y-18.8603 Z1.4594
G1 X3.5076 Y-18.8689 Z1.4441
G1 X3.3099 Y-18.8934 Z1.4030
G1 X3.2169 Y-18.9049 Z1.3813
G1 X3.1239 Y-18.9165 Z1.3590
G1 X2.9526 Y-18.9377 Z1.3198
G0 Z1.8900
G0 X2.9526 Y-18.9377 
G0 Z1.8900
G0 X5.8054 Y-18.6069 
G1 X5.8054 Y-18.6069 Z1.8650 F75.
G1 X5.7980 Y-18.6079 Z1.8271 F25.
G1 X5.7769 Y-18.6107 Z1.7949
G1 X5.7453 Y-18.6148 Z1.7731
G1 X5.7079 Y-18.6197 Z1.7650
G1 X5.6846 Y-18.6228 Z1.7646 F150.
G1 X5.6614 Y-18.6258 Z1.7635
G1 X5.6382 Y-18.6289 Z1.7616
G1 X5.6120 Y-18.6323 Z1.7586
G1 X5.5452 Y-18.6411 Z1.7560
G1 X5.5220 Y-18.6442 Z1.7548
G1 X5.4465 Y-18.6541 Z1.7499
G1 X5.3608 Y-18.6654 Z1.7421
G1 X5.2751 Y-18.6766 Z1.7321
G1 X5.2518 Y-18.6797 Z1.7287
G1 X5.0108 Y-18.7114 Z1.6957
G1 X4.8946 Y-18.7267 Z1.6803
G1 X4.6041 Y-18.7649 Z1.6368
G1 X4.3136 Y-18.8031 Z1.5896
G1 X4.0348 Y-18.8397 Z1.5404
G1 X4.0115 Y-18.8428 Z1.5361
G1 X3.9418 Y-18.8520 Z1.5224
G1 X3.7327 Y-18.8795 Z1.4823
G1 X3.7095 Y-18.8825 Z1.4775
G1 X3.5700 Y-18.9008 Z1.4477
G1 X3.4771 Y-18.9131 Z1.4271
G1 X3.3377 Y-18.9314 Z1.3979
G1 X3.2215 Y-18.9467 Z1.3706
G1 X3.0860 Y-18.9645 Z1.3379
G1 X2.9894 Y-18.9772 Z1.3156
G1 X2.9508 Y-18.9823 Z1.3058
G0 Z1.8900
G0 X2.9508 Y-18.9823 
G0 Z1.8900
G0 X5.8303 Y-18.6262 
G1 X5.8303 Y-18.6262 Z1.8650 F75.
G1 X5.8230 Y-18.6272 Z1.8271 F25.
G1 X5.8019 Y-18.6301 Z1.7949
G1 X5.7704 Y-18.6345 Z1.7731
G1 X5.7330 Y-18.6397 Z1.7650
G1 X5.7098 Y-18.6430 Z1.7646 F150.
G1 X5.6866 Y-18.6462 Z1.7635
G1 X5.6633 Y-18.6494 Z1.7615
G1 X5.6387 Y-18.6528 Z1.7586
G1 X5.5705 Y-18.6623 Z1.7560
G1 X5.5473 Y-18.6656 Z1.7547
G1 X5.4747 Y-18.6756 Z1.7499
G1 X5.3891 Y-18.6876 Z1.7421
G1 X5.3035 Y-18.6995 Z1.7321
G1 X5.2919 Y-18.7011 Z1.7305
G1 X5.2745 Y-18.7035 Z1.7277
G1 X4.9901 Y-18.7431 Z1.6886
G1 X4.9248 Y-18.7521 Z1.6798
G1 X4.6361 Y-18.7923 Z1.6361
G1 X4.3459 Y-18.8327 Z1.5884
G1 X4.2473 Y-18.8464 Z1.5706
G1 X4.0558 Y-18.8730 Z1.5364
G1 X3.9687 Y-18.8851 Z1.5192
G1 X3.7714 Y-18.9126 Z1.4809
G1 X3.5741 Y-18.9400 Z1.4386
G1 X3.4464 Y-18.9578 Z1.4100
G1 X3.3564 Y-18.9703 Z1.3908
G1 X3.2143 Y-18.9901 Z1.3571
G1 X3.0527 Y-19.0126 Z1.3177
G1 X3.0240 Y-19.0166 Z1.3109
G1 X2.9493 Y-19.0269 Z1.2916
G0 Z1.8900
G0 X2.9493 Y-19.0269 
G0 Z1.8900
G0 X5.8550 Y-18.6452 
G1 X5.8550 Y-18.6452 Z1.8650 F75.
G1 X5.8476 Y-18.6463 Z1.8271 F25.
G1 X5.8266 Y-18.6493 Z1.7949
G1 X5.7951 Y-18.6540 Z1.7731
G1 X5.7577 Y-18.6594 Z1.7650
G1 X5.7345 Y-18.6628 Z1.7646 F150.
G1 X5.7113 Y-18.6662 Z1.7634
G1 X5.6882 Y-18.6696 Z1.7615
G1 X5.6635 Y-18.6733 Z1.7586
G1 X5.5896 Y-18.6841 Z1.7556
G1 X5.5026 Y-18.6969 Z1.7500
G1 X5.4186 Y-18.7092 Z1.7423
G1 X5.3345 Y-18.7215 Z1.7324
G1 X5.3171 Y-18.7241 Z1.7300
G1 X5.2997 Y-18.7266 Z1.7272
G1 X4.9548 Y-18.7772 Z1.6793
G1 X4.8302 Y-18.7955 Z1.6603
G1 X4.7374 Y-18.8091 Z1.6460
G1 X4.6331 Y-18.8245 Z1.6295
G1 X4.3809 Y-18.8615 Z1.5877
G1 X4.2736 Y-18.8772 Z1.5680
G1 X4.0939 Y-18.9036 Z1.5357
G1 X3.9026 Y-18.9316 Z1.4976
G1 X3.8011 Y-18.9465 Z1.4777
G1 X3.5721 Y-18.9801 Z1.4281
G1 X3.4156 Y-19.0031 Z1.3926
G1 X3.3779 Y-19.0086 Z1.3845
G1 X3.2127 Y-19.0329 Z1.3450
G1 X3.0621 Y-19.0550 Z1.3073
G1 X2.9506 Y-19.0713 Z1.2778
G0 Z1.8900
G0 X2.9506 Y-19.0713 
G0 Z1.8900
G0 X5.8792 Y-18.6639 
G1 X5.8792 Y-18.6639 Z1.8650 F75.
G1 X5.8719 Y-18.6650 Z1.8272 F25.
G1 X5.8509 Y-18.6683 Z1.7949
G1 X5.8194 Y-18.6731 Z1.7731
G1 X5.7821 Y-18.6789 Z1.7650
G1 X5.7590 Y-18.6825 Z1.7646 F150.
G1 X5.7358 Y-18.6860 Z1.7634
G1 X5.7126 Y-18.6896 Z1.7614
G1 X5.6895 Y-18.6932 Z1.7586
G1 X5.6142 Y-18.7048 Z1.7556
G1 X5.5302 Y-18.7178 Z1.7501
G1 X5.4463 Y-18.7307 Z1.7424
G1 X5.3652 Y-18.7432 Z1.7328
G1 X5.3420 Y-18.7468 Z1.7295
G1 X5.3304 Y-18.7486 Z1.7276
G1 X4.9830 Y-18.8022 Z1.6787
G1 X4.9019 Y-18.8147 Z1.6661
G1 X4.6356 Y-18.8559 Z1.6239
G1 X4.4155 Y-18.8898 Z1.5870
G1 X4.2997 Y-18.9077 Z1.5655
G1 X4.1375 Y-18.9327 Z1.5361
G1 X3.9291 Y-18.9649 Z1.4942
G1 X3.8393 Y-18.9788 Z1.4764
G1 X3.5700 Y-19.0203 Z1.4175
G1 X3.4137 Y-19.0445 Z1.3815
G1 X3.2573 Y-19.0686 Z1.3438
G1 X3.1067 Y-19.0919 Z1.3057
G1 X3.0698 Y-19.0976 Z1.2959
G1 X2.9518 Y-19.1158 Z1.2643
G0 Z1.8900
G0 X2.9518 Y-19.1158 
G0 Z1.8900
G0 X5.9032 Y-18.6823 
G1 X5.9032 Y-18.6823 Z1.8650 F75.
G1 X5.8958 Y-18.6835 Z1.8272 F25.
G1 X5.8749 Y-18.6869 Z1.7949
G1 X5.8434 Y-18.6920 Z1.7731
G1 X5.8062 Y-18.6980 Z1.7650
G1 X5.7831 Y-18.7018 Z1.7646 F150.
G1 X5.7599 Y-18.7055 Z1.7634
G1 X5.7368 Y-18.7093 Z1.7614
G1 X5.7137 Y-18.7130 Z1.7586
G1 X5.6385 Y-18.7252 Z1.7555
G1 X5.5575 Y-18.7383 Z1.7502
G1 X5.4736 Y-18.7519 Z1.7424
G1 X5.3898 Y-18.7655 Z1.7324
G1 X5.3551 Y-18.7711 Z1.7272
G1 X5.0890 Y-18.8143 Z1.6895
G1 X4.9878 Y-18.8307 Z1.6744
G1 X4.9502 Y-18.8367 Z1.6681
G1 X4.6378 Y-18.8874 Z1.6181
G1 X4.4470 Y-18.9183 Z1.5859
G1 X4.3255 Y-18.9380 Z1.5631
G1 X4.1621 Y-18.9644 Z1.5329
G1 X3.8758 Y-19.0108 Z1.4748
G1 X3.6546 Y-19.0467 Z1.4260
G1 X3.5736 Y-19.0598 Z1.4078
G1 X3.4463 Y-19.0804 Z1.3780
G1 X3.2960 Y-19.1048 Z1.3412
G1 X3.1495 Y-19.1285 Z1.3037
G1 X3.0185 Y-19.1497 Z1.2687
G1 X2.9530 Y-19.1603 Z1.2507
G0 Z1.8900
G0 X2.9530 Y-19.1603 
G0 Z1.8900
G0 X5.9268 Y-18.7005 
G1 X5.9268 Y-18.7005 Z1.8650 F75.
G1 X5.9194 Y-18.7018 Z1.8272 F25.
G1 X5.8985 Y-18.7053 Z1.7949
G1 X5.8671 Y-18.7107 Z1.7732
G1 X5.8299 Y-18.7170 Z1.7650
G1 X5.8068 Y-18.7209 Z1.7646 F150.
G1 X5.7837 Y-18.7248 Z1.7634
G1 X5.7606 Y-18.7287 Z1.7613
G1 X5.7390 Y-18.7324 Z1.7586
G1 X5.6653 Y-18.7449 Z1.7556
G1 X5.5989 Y-18.7562 Z1.7513
G1 X5.5700 Y-18.7611 Z1.7490
G1 X5.4978 Y-18.7733 Z1.7422
G1 X5.4155 Y-18.7873 Z1.7322
G1 X5.4025 Y-18.7895 Z1.7303
G1 X5.3851 Y-18.7924 Z1.7275
G1 X5.2407 Y-18.8170 Z1.7071
G1 X4.9894 Y-18.8596 Z1.6696
G1 X4.9057 Y-18.8738 Z1.6553
G1 X4.6284 Y-18.9209 Z1.6104
G1 X4.4796 Y-18.9461 Z1.5851
G1 X4.2587 Y-18.9836 Z1.5434
G1 X4.1980 Y-18.9939 Z1.5321
G1 X3.9120 Y-19.0424 Z1.4733
G1 X3.7965 Y-19.0620 Z1.4474
G1 X3.5654 Y-19.1013 Z1.3951
G1 X3.4846 Y-19.1150 Z1.3759
G1 X3.3401 Y-19.1395 Z1.3401
G1 X3.1970 Y-19.1638 Z1.3032
G1 X3.0532 Y-19.1882 Z1.2644
G1 X2.9543 Y-19.2050 Z1.2364
G0 Z1.8900
G0 X2.9543 Y-19.2050 
G0 Z1.8900
G0 X5.9500 Y-18.7185 
G1 X5.9500 Y-18.7185 Z1.8650 F75.
G1 X5.9427 Y-18.7198 Z1.8272 F25.
G1 X5.9218 Y-18.7235 Z1.7950
G1 X5.8905 Y-18.7290 Z1.7732
G1 X5.8534 Y-18.7356 Z1.7650
G1 X5.8303 Y-18.7397 Z1.7646 F150.
G1 X5.8072 Y-18.7438 Z1.7633
G1 X5.7841 Y-18.7479 Z1.7613
G1 X5.7625 Y-18.7517 Z1.7586
G1 X5.6889 Y-18.7648 Z1.7556
G1 X5.6111 Y-18.7786 Z1.7504
G1 X5.5303 Y-18.7929 Z1.7428
G1 X5.5072 Y-18.7970 Z1.7402
G1 X5.4438 Y-18.8083 Z1.7324
G1 X5.4142 Y-18.8135 Z1.7278
G1 X5.3457 Y-18.8257 Z1.7183
G1 X4.9880 Y-18.8891 Z1.6643
G1 X4.8495 Y-18.9137 Z1.6404
G1 X4.6303 Y-18.9526 Z1.6046
G1 X4.5120 Y-18.9736 Z1.5843
G1 X4.2841 Y-19.0140 Z1.5408
G1 X4.2322 Y-19.0232 Z1.5310
G1 X3.9610 Y-19.0713 Z1.4749
G1 X3.9380 Y-19.0754 Z1.4697
G1 X3.7764 Y-19.1041 Z1.4324
G1 X3.5687 Y-19.1409 Z1.3850
G1 X3.5226 Y-19.1491 Z1.3739
G1 X3.3841 Y-19.1737 Z1.3392
G1 X3.2394 Y-19.1993 Z1.3015
G1 X3.1024 Y-19.2236 Z1.2643
G1 X3.0339 Y-19.2358 Z1.2449
G1 X2.9556 Y-19.2497 Z1.2224
G0 Z1.8900
G0 X2.9556 Y-19.2497 
G0 Z1.8900
G0 X5.9730 Y-18.7362 
G1 X5.9730 Y-18.7362 Z1.8650 F75.
G1 X5.9657 Y-18.7375 Z1.8272 F25.
G1 X5.9448 Y-18.7414 Z1.7950
G1 X5.9136 Y-18.7472 Z1.7732
G1 X5.8765 Y-18.7540 Z1.7650
G1 X5.8534 Y-18.7583 Z1.7646 F150.
G1 X5.8304 Y-18.7626 Z1.7633
G1 X5.8074 Y-18.7668 Z1.7612
G1 X5.7865 Y-18.7707 Z1.7586
G1 X5.7137 Y-18.7842 Z1.7556
G1 X5.6460 Y-18.7967 Z1.7511
G1 X5.6230 Y-18.8010 Z1.7492
G1 X5.5538 Y-18.8138 Z1.7426
G1 X5.4847 Y-18.8266 Z1.7343
G1 X5.4617 Y-18.8308 Z1.7312
G1 X5.4401 Y-18.8348 Z1.7276
G1 X5.3407 Y-18.8532 Z1.7133
G1 X5.2888 Y-18.8628 Z1.7050
G1 X4.9863 Y-18.9188 Z1.6589
G1 X4.7818 Y-18.9567 Z1.6235
G1 X4.6320 Y-18.9844 Z1.5988
G1 X4.5441 Y-19.0007 Z1.5835
G1 X4.2662 Y-19.0521 Z1.5299
G1 X3.9867 Y-19.1039 Z1.4715
G1 X3.6641 Y-19.1636 Z1.3965
G1 X3.5719 Y-19.1807 Z1.3749
G1 X3.4221 Y-19.2084 Z1.3370
G1 X3.2953 Y-19.2319 Z1.3037
G1 X3.1274 Y-19.2629 Z1.2575
G1 X3.0014 Y-19.2863 Z1.2213
G1 X2.9594 Y-19.2940 Z1.2089
G0 Z1.8900
G0 X2.9594 Y-19.2940 
G0 Z1.8900
G0 X5.9957 Y-18.7536 
G1 X5.9957 Y-18.7536 Z1.8650 F75.
G1 X5.9884 Y-18.7551 Z1.8272 F25.
G1 X5.9676 Y-18.7591 Z1.7950
G1 X5.9363 Y-18.7651 Z1.7732
G1 X5.8993 Y-18.7722 Z1.7650
G1 X5.8763 Y-18.7767 Z1.7646 F150.
G1 X5.8533 Y-18.7811 Z1.7633
G1 X5.8303 Y-18.7855 Z1.7612
G1 X5.8101 Y-18.7894 Z1.7586
G1 X5.7382 Y-18.8033 Z1.7556
G1 X5.6606 Y-18.8183 Z1.7503
G1 X5.6001 Y-18.8299 Z1.7447
G1 X5.5714 Y-18.8355 Z1.7417
G1 X5.4966 Y-18.8499 Z1.7324
G1 X5.4851 Y-18.8521 Z1.7308
G1 X5.4563 Y-18.8577 Z1.7258
G1 X5.3412 Y-18.8799 Z1.7092
G1 X5.2319 Y-18.9009 Z1.6916
G1 X4.9845 Y-18.9486 Z1.6535
G1 X4.7256 Y-18.9986 Z1.6082
G1 X4.6336 Y-19.0163 Z1.5929
G1 X4.5760 Y-19.0274 Z1.5828
G1 X4.2999 Y-19.0807 Z1.5290
G1 X4.0237 Y-19.1339 Z1.4707
G1 X3.8741 Y-19.1628 Z1.4358
G1 X3.6382 Y-19.2083 Z1.3803
G1 X3.5059 Y-19.2338 Z1.3468
G1 X3.3218 Y-19.2693 Z1.2981
G1 X3.1873 Y-19.2952 Z1.2608
G1 X3.0529 Y-19.3212 Z1.2220
G1 X2.9632 Y-19.3385 Z1.1949
G0 Z1.8900
G0 X2.9632 Y-19.3385 
G0 Z1.8900
G0 X6.0180 Y-18.7709 
G1 X6.0180 Y-18.7709 Z1.8650 F75.
G1 X6.0107 Y-18.7723 Z1.8272 F25.
G1 X5.9900 Y-18.7765 Z1.7950
G1 X5.9588 Y-18.7828 Z1.7732
G1 X5.9218 Y-18.7902 Z1.7650
G1 X5.8989 Y-18.7948 Z1.7646 F150.
G1 X5.8759 Y-18.7994 Z1.7633
G1 X5.8529 Y-18.8040 Z1.7611
G1 X5.8328 Y-18.8080 Z1.7586
G1 X5.7624 Y-18.8222 Z1.7556
G1 X5.6863 Y-18.8374 Z1.7504
G1 X5.6461 Y-18.8455 Z1.7467
G1 X5.6001 Y-18.8547 Z1.7421
G1 X5.5312 Y-18.8685 Z1.7336
G1 X5.5082 Y-18.8732 Z1.7303
G1 X5.4824 Y-18.8783 Z1.7257
G1 X5.4393 Y-18.8870 Z1.7193
G1 X5.3387 Y-18.9072 Z1.7046
G1 X5.1865 Y-18.9377 Z1.6797
G1 X4.9854 Y-18.9780 Z1.6485
G1 X4.6580 Y-19.0437 Z1.5908
G1 X4.6350 Y-19.0483 Z1.5870
G1 X4.5890 Y-19.0576 Z1.5784
G1 X4.3319 Y-19.1091 Z1.5279
G1 X4.2673 Y-19.1221 Z1.5139
G1 X4.0605 Y-19.1636 Z1.4699
G1 X3.8996 Y-19.1959 Z1.4322
G1 X3.7043 Y-19.2350 Z1.3859
G1 X3.5320 Y-19.2696 Z1.3419
G1 X3.3481 Y-19.3065 Z1.2925
G1 X3.2103 Y-19.3342 Z1.2536
G1 X3.0681 Y-19.3627 Z1.2121
G1 X2.9862 Y-19.3791 Z1.1862
G1 X2.9671 Y-19.3829 Z1.1804
G0 Z1.8900
G0 X2.9671 Y-19.3829 
G0 Z1.8900
G0 X6.0401 Y-18.7879 
G1 X6.0401 Y-18.7879 Z1.8650 F75.
G1 X6.0328 Y-18.7894 Z1.8272 F25.
G1 X6.0121 Y-18.7937 Z1.7950
G1 X5.9810 Y-18.8002 Z1.7732
G1 X5.9441 Y-18.8079 Z1.7650
G1 X5.9212 Y-18.8127 Z1.7646 F150.
G1 X5.8982 Y-18.8175 Z1.7633
G1 X5.8753 Y-18.8222 Z1.7611
G1 X5.8566 Y-18.8261 Z1.7586
G1 X5.8064 Y-18.8366 Z1.7566
G1 X5.7749 Y-18.8432 Z1.7549
G1 X5.7061 Y-18.8575 Z1.7501
G1 X5.6286 Y-18.8736 Z1.7425
G1 X5.5540 Y-18.8892 Z1.7333
G1 X5.5311 Y-18.8940 Z1.7299
G1 X5.5110 Y-18.8982 Z1.7262
G1 X5.4164 Y-18.9179 Z1.7118
G1 X5.3361 Y-18.9346 Z1.6999
G1 X5.1181 Y-18.9800 Z1.6642
G1 X4.9833 Y-19.0081 Z1.6430
G1 X4.7051 Y-19.0661 Z1.5936
G1 X4.6363 Y-19.0805 Z1.5808
G1 X4.3652 Y-19.1369 Z1.5271
G1 X4.2921 Y-19.1522 Z1.5112
G1 X4.0942 Y-19.1934 Z1.4686
G1 X3.9250 Y-19.2287 Z1.4286
G1 X3.7644 Y-19.2621 Z1.3902
G1 X3.5464 Y-19.3076 Z1.3341
G1 X3.4030 Y-19.3375 Z1.2951
G1 X3.3628 Y-19.3458 Z1.2833
G1 X3.2137 Y-19.3769 Z1.2407
G1 X3.0932 Y-19.4020 Z1.2052
G1 X2.9709 Y-19.4275 Z1.1661
G0 Z1.8900
G0 X2.9709 Y-19.4275 
G0 Z1.8900
G0 X6.0619 Y-18.8047 
G1 X6.0619 Y-18.8047 Z1.8650 F75.
G1 X6.0547 Y-18.8063 Z1.8272 F25.
G1 X6.0340 Y-18.8107 Z1.7950
G1 X6.0029 Y-18.8174 Z1.7732
G1 X5.9661 Y-18.8254 Z1.7650
G1 X5.9432 Y-18.8304 Z1.7646 F150.
G1 X5.9203 Y-18.8353 Z1.7632
G1 X5.8974 Y-18.8403 Z1.7610
G1 X5.8787 Y-18.8443 Z1.7586
G1 X5.8086 Y-18.8595 Z1.7556
G1 X5.7370 Y-18.8749 Z1.7506
G1 X5.7141 Y-18.8799 Z1.7486
G1 X5.6683 Y-18.8898 Z1.7441
G1 X5.6396 Y-18.8960 Z1.7409
G1 X5.5766 Y-18.9096 Z1.7329
G1 X5.5537 Y-18.9146 Z1.7295
G1 X5.5308 Y-18.9195 Z1.7252
G1 X5.4048 Y-18.9468 Z1.7059
G1 X5.3361 Y-18.9616 Z1.6957
G1 X5.0612 Y-19.0210 Z1.6502
G1 X4.9810 Y-19.0384 Z1.6374
G1 X4.7978 Y-19.0780 Z1.6045
G1 X4.6259 Y-19.1152 Z1.5719
G1 X4.4083 Y-19.1622 Z1.5285
G1 X4.1277 Y-19.2229 Z1.4673
G1 X3.9502 Y-19.2613 Z1.4250
G1 X3.8242 Y-19.2885 Z1.3946
G1 X3.5894 Y-19.3393 Z1.3339
G1 X3.4233 Y-19.3752 Z1.2882
G1 X3.3316 Y-19.3950 Z1.2607
G1 X3.2171 Y-19.4197 Z1.2277
G1 X3.1183 Y-19.4411 Z1.1983
G1 X2.9748 Y-19.4721 Z1.1522
G0 Z1.8900
G0 X2.9748 Y-19.4721 
G0 Z1.8900
G0 X6.0834 Y-18.8213 
G1 X6.0834 Y-18.8213 Z1.8650 F75.
G1 X6.0762 Y-18.8229 Z1.8272 F25.
G1 X6.0555 Y-18.8275 Z1.7950
G1 X6.0245 Y-18.8345 Z1.7732
G1 X5.9878 Y-18.8427 Z1.7650
G1 X5.9649 Y-18.8478 Z1.7646 F150.
G1 X5.9420 Y-18.8530 Z1.7632
G1 X5.9192 Y-18.8581 Z1.7610
G1 X5.9013 Y-18.8621 Z1.7586
G1 X5.8320 Y-18.8776 Z1.7556
G1 X5.7591 Y-18.8939 Z1.7505
G1 X5.7133 Y-18.9042 Z1.7462
G1 X5.6790 Y-18.9119 Z1.7427
G1 X5.6447 Y-18.9196 Z1.7385
G1 X5.5990 Y-18.9298 Z1.7326
G1 X5.5761 Y-18.9349 Z1.7290
G1 X5.5561 Y-18.9394 Z1.7252
G1 X5.3932 Y-18.9759 Z1.7000
G1 X5.3360 Y-18.9887 Z1.6914
G1 X4.9815 Y-19.0682 Z1.6324
G1 X4.9014 Y-19.0861 Z1.6177
G1 X4.6270 Y-19.1476 Z1.5652
G1 X4.4326 Y-19.1911 Z1.5260
G1 X4.2496 Y-19.2321 Z1.4855
G1 X4.1624 Y-19.2517 Z1.4664
G1 X3.8894 Y-19.3128 Z1.4007
G1 X3.6264 Y-19.3717 Z1.3323
G1 X3.5635 Y-19.3858 Z1.3145
G1 X3.4449 Y-19.4124 Z1.2816
G1 X3.3005 Y-19.4448 Z1.2380
G1 X3.2090 Y-19.4653 Z1.2113
G1 X3.1433 Y-19.4800 Z1.1915
G1 X2.9787 Y-19.5169 Z1.1381
G0 Z1.8900
G0 X2.9787 Y-19.5169 
G0 Z1.8900
G0 X6.1047 Y-18.8377 
G1 X6.1047 Y-18.8377 Z1.8650 F75.
G1 X6.0975 Y-18.8393 Z1.8272 F25.
G1 X6.0769 Y-18.8441 Z1.7950
G1 X6.0459 Y-18.8513 Z1.7732
G1 X6.0092 Y-18.8598 Z1.7650
G1 X5.9864 Y-18.8651 Z1.7646 F150.
G1 X5.9636 Y-18.8704 Z1.7632
G1 X5.9407 Y-18.8757 Z1.7609
G1 X5.9236 Y-18.8796 Z1.7586
G1 X5.8551 Y-18.8955 Z1.7556
G1 X5.7809 Y-18.9127 Z1.7504
G1 X5.7581 Y-18.9180 Z1.7483
G1 X5.7010 Y-18.9313 Z1.7425
G1 X5.6268 Y-18.9485 Z1.7331
G1 X5.6097 Y-18.9524 Z1.7305
G1 X5.5983 Y-18.9551 Z1.7285
G1 X5.5811 Y-18.9591 Z1.7252
G1 X5.3700 Y-19.0080 Z1.6923
G1 X5.3357 Y-19.0160 Z1.6871
G1 X5.0503 Y-19.0822 Z1.6391
G1 X4.9761 Y-19.0994 Z1.6258
G1 X4.9362 Y-19.1086 Z1.6179
G1 X4.6279 Y-19.1801 Z1.5585
G1 X4.4624 Y-19.2185 Z1.5248
G1 X4.2740 Y-19.2622 Z1.4826
G1 X4.1970 Y-19.2800 Z1.4656
G1 X3.9316 Y-19.3416 Z1.4012
G1 X3.6804 Y-19.3998 Z1.3354
G1 X3.6576 Y-19.4051 Z1.3292
G1 X3.5548 Y-19.4290 Z1.2999
G1 X3.4692 Y-19.4488 Z1.2759
G1 X3.2694 Y-19.4951 Z1.2150
G1 X3.2124 Y-19.5084 Z1.1982
G1 X3.1696 Y-19.5183 Z1.1852
G1 X3.0021 Y-19.5571 Z1.1304
G1 X2.9826 Y-19.5617 Z1.1238
G0 Z1.8900
G0 X2.9826 Y-19.5617 
G0 Z1.8900
G0 X6.1257 Y-18.8538 
G1 X6.1257 Y-18.8538 Z1.8650 F75.
G1 X6.1185 Y-18.8556 Z1.8272 F25.
G1 X6.0979 Y-18.8605 Z1.7950
G1 X6.0670 Y-18.8679 Z1.7732
G1 X6.0304 Y-18.8767 Z1.7650
G1 X6.0076 Y-18.8821 Z1.7646 F150.
G1 X5.9849 Y-18.8876 Z1.7632
G1 X5.9621 Y-18.8931 Z1.7609
G1 X5.9450 Y-18.8972 Z1.7586
G1 X5.8937 Y-18.9095 Z1.7564
G1 X5.8652 Y-18.9163 Z1.7548
G1 X5.8025 Y-18.9313 Z1.7503
G1 X5.7342 Y-18.9477 Z1.7436
G1 X5.7028 Y-18.9552 Z1.7398
G1 X5.6473 Y-18.9686 Z1.7325
G1 X5.6316 Y-18.9723 Z1.7301
G1 X5.6202 Y-18.9750 Z1.7281
G1 X5.6059 Y-18.9785 Z1.7252
G1 X5.4834 Y-19.0078 Z1.7059
G1 X5.3011 Y-19.0516 Z1.6769
G1 X5.1416 Y-19.0898 Z1.6498
G1 X4.9763 Y-19.1294 Z1.6200
G1 X4.8909 Y-19.1499 Z1.6027
G1 X4.6174 Y-19.2155 Z1.5493
G1 X4.4934 Y-19.2452 Z1.5239
G1 X4.2299 Y-19.3084 Z1.4644
G1 X3.9678 Y-19.3713 Z1.4004
G1 X3.7029 Y-19.4348 Z1.3302
G1 X3.5576 Y-19.4696 Z1.2884
G1 X3.4920 Y-19.4853 Z1.2699
G1 X3.2385 Y-19.5461 Z1.1919
G1 X3.1986 Y-19.5557 Z1.1799
G1 X3.1131 Y-19.5762 Z1.1517
G1 X2.9892 Y-19.6059 Z1.1097
G0 Z1.8900
G0 X2.9892 Y-19.6059 
G0 Z1.8900
G0 X6.1465 Y-18.8698 
G1 X6.1465 Y-18.8698 Z1.8650 F75.
G1 X6.1393 Y-18.8716 Z1.8272 F25.
G1 X6.1187 Y-18.8767 Z1.7950
G1 X6.0879 Y-18.8843 Z1.7732
G1 X6.0514 Y-18.8934 Z1.7650
G1 X6.0286 Y-18.8990 Z1.7645 F150.
G1 X6.0059 Y-18.9046 Z1.7631
G1 X5.9831 Y-18.9103 Z1.7608
G1 X5.9668 Y-18.9143 Z1.7586
G1 X5.9149 Y-18.9272 Z1.7564
G1 X5.8921 Y-18.9328 Z1.7552
G1 X5.8239 Y-18.9497 Z1.7502
G1 X5.7556 Y-18.9666 Z1.7434
G1 X5.7272 Y-18.9737 Z1.7399
G1 X5.6646 Y-18.9892 Z1.7315
G1 X5.6419 Y-18.9948 Z1.7276
G1 X5.6277 Y-18.9983 Z1.7248
G1 X5.3234 Y-19.0737 Z1.6764
G1 X5.2324 Y-19.0962 Z1.6607
G1 X4.9750 Y-19.1600 Z1.6139
G1 X4.8229 Y-19.1977 Z1.5828
G1 X4.6181 Y-19.2484 Z1.5425
G1 X4.5271 Y-19.2709 Z1.5237
G1 X4.2627 Y-19.3364 Z1.4634
G1 X4.0039 Y-19.4005 Z1.3996
G1 X3.7423 Y-19.4653 Z1.3297
G1 X3.5603 Y-19.5104 Z1.2769
G1 X3.5148 Y-19.5217 Z1.2639
G1 X3.2475 Y-19.5879 Z1.1808
G1 X3.2076 Y-19.5978 Z1.1680
G1 X2.9967 Y-19.6500 Z1.0959
G0 Z1.8900
G0 X2.9967 Y-19.6500 
G0 Z1.8900
G0 X6.1670 Y-18.8856 
G1 X6.1670 Y-18.8856 Z1.8650 F75.
G1 X6.1598 Y-18.8875 Z1.8272 F25.
G1 X6.1393 Y-18.8927 Z1.7950
G1 X6.1086 Y-18.9006 Z1.7732
G1 X6.0721 Y-18.9099 Z1.7650
G1 X6.0494 Y-18.9157 Z1.7645 F150.
G1 X6.0267 Y-18.9215 Z1.7631
G1 X6.0040 Y-18.9273 Z1.7608
G1 X5.9884 Y-18.9313 Z1.7586
G1 X5.9245 Y-18.9476 Z1.7558
G1 X5.8904 Y-18.9563 Z1.7535
G1 X5.8450 Y-18.9679 Z1.7500
G1 X5.7727 Y-18.9864 Z1.7427
G1 X5.7315 Y-18.9969 Z1.7374
G1 X5.6946 Y-19.0064 Z1.7324
G1 X5.6861 Y-19.0086 Z1.7312
G1 X5.6634 Y-19.0144 Z1.7271
G1 X5.6520 Y-19.0173 Z1.7249
G1 X5.3398 Y-19.0971 Z1.6748
G1 X4.9736 Y-19.1907 Z1.6078
G1 X4.7551 Y-19.2466 Z1.5627
G1 X4.6188 Y-19.2814 Z1.5356
G1 X4.5550 Y-19.2977 Z1.5222
G1 X4.3691 Y-19.3452 Z1.4795
G1 X4.2669 Y-19.3714 Z1.4553
G1 X4.0370 Y-19.4301 Z1.3982
G1 X3.8922 Y-19.4671 Z1.3590
G1 X3.7787 Y-19.4962 Z1.3284
G1 X3.5346 Y-19.5586 Z1.2570
G1 X3.3927 Y-19.5949 Z1.2125
G1 X3.2110 Y-19.6413 Z1.1540
G1 X3.0042 Y-19.6941 Z1.0826
G0 Z1.8900
G0 X3.0042 Y-19.6941 
G0 Z1.8900
G0 X6.1873 Y-18.9012 
G1 X6.1873 Y-18.9012 Z1.8650 F75.
G1 X6.1801 Y-18.9031 Z1.8272 F25.
G1 X6.1596 Y-18.9085 Z1.7950
G1 X6.1290 Y-18.9166 Z1.7732
G1 X6.0926 Y-18.9262 Z1.7650
G1 X6.0699 Y-18.9322 Z1.7645 F150.
G1 X6.0473 Y-18.9381 Z1.7631
G1 X6.0246 Y-18.9441 Z1.7607
G1 X6.0090 Y-18.9482 Z1.7586
G1 X5.9453 Y-18.9650 Z1.7557
G1 X5.9113 Y-18.9740 Z1.7534
G1 X5.8660 Y-18.9859 Z1.7499
G1 X5.7980 Y-19.0039 Z1.7430
G1 X5.7640 Y-19.0128 Z1.7386
G1 X5.7186 Y-19.0248 Z1.7325
G1 X5.7073 Y-19.0277 Z1.7308
G1 X5.6846 Y-19.0337 Z1.7266
G1 X5.6762 Y-19.0360 Z1.7249
G1 X5.3617 Y-19.1189 Z1.6740
G1 X5.3220 Y-19.1293 Z1.6667
G1 X5.2654 Y-19.1443 Z1.6559
G1 X4.9736 Y-19.2212 Z1.6019
G1 X4.6761 Y-19.2996 Z1.5401
G1 X4.6195 Y-19.3145 Z1.5287
G1 X4.5855 Y-19.3235 Z1.5214
G1 X4.4835 Y-19.3504 Z1.4978
G1 X4.2795 Y-19.4041 Z1.4492
G1 X4.2342 Y-19.4161 Z1.4380
G1 X4.0982 Y-19.4519 Z1.4040
G1 X4.0529 Y-19.4639 Z1.3921
G1 X3.9169 Y-19.4997 Z1.3549
G1 X3.8149 Y-19.5266 Z1.3273
G1 X3.5600 Y-19.5938 Z1.2520
G1 X3.4637 Y-19.6192 Z1.2209
G1 X3.2144 Y-19.6849 Z1.1400
G1 X3.0118 Y-19.7383 Z1.0694
G0 Z1.8900
G0 X3.0118 Y-19.7383 
G0 Z1.8900
G0 X6.2073 Y-18.9167 
G1 X6.2073 Y-18.9167 Z1.8650 F75.
G1 X6.2001 Y-18.9186 Z1.8272 F25.
G1 X6.1798 Y-18.9241 Z1.7950
G1 X6.1491 Y-18.9325 Z1.7732
G1 X6.1128 Y-18.9423 Z1.7650
G1 X6.0902 Y-18.9485 Z1.7645 F150.
G1 X6.0676 Y-18.9546 Z1.7631
G1 X6.0450 Y-18.9607 Z1.7607
G1 X6.0301 Y-18.9648 Z1.7586
G1 X5.9658 Y-18.9823 Z1.7557
G1 X5.9036 Y-18.9991 Z1.7512
G1 X5.8754 Y-19.0068 Z1.7487
G1 X5.8414 Y-19.0160 Z1.7452
G1 X5.7905 Y-19.0299 Z1.7391
G1 X5.7425 Y-19.0429 Z1.7326
G1 X5.7283 Y-19.0468 Z1.7304
G1 X5.7015 Y-19.0541 Z1.7252
G1 X5.3891 Y-19.1389 Z1.6742
G1 X5.3212 Y-19.1573 Z1.6616
G1 X5.2081 Y-19.1881 Z1.6397
G1 X4.9819 Y-19.2495 Z1.5976
G1 X4.9367 Y-19.2618 Z1.5882
G1 X4.6427 Y-19.3417 Z1.5266
G1 X4.6201 Y-19.3478 Z1.5217
G1 X4.5748 Y-19.3601 Z1.5110
G1 X4.2638 Y-19.4446 Z1.4363
G1 X4.1055 Y-19.4876 Z1.3962
G1 X3.8482 Y-19.5574 Z1.3253
G1 X3.6814 Y-19.6028 Z1.2757
G1 X3.5627 Y-19.6350 Z1.2396
G1 X3.4778 Y-19.6580 Z1.2110
G1 X3.2146 Y-19.7295 Z1.1249
G1 X3.0441 Y-19.7759 Z1.0649
G1 X3.0193 Y-19.7826 Z1.0557
G0 Z1.8900
G0 X3.0193 Y-19.7826 
G0 Z1.8900
G0 X6.2271 Y-18.9319 
G1 X6.2271 Y-18.9319 Z1.8650 F75.
G1 X6.2200 Y-18.9339 Z1.8272 F25.
G1 X6.1996 Y-18.9396 Z1.7951
G1 X6.1691 Y-18.9481 Z1.7732
G1 X6.1329 Y-18.9583 Z1.7650
G1 X6.1103 Y-18.9646 Z1.7645 F150.
G1 X6.0877 Y-18.9709 Z1.7631
G1 X6.0652 Y-18.9772 Z1.7606
G1 X6.0511 Y-18.9812 Z1.7586
G1 X5.9918 Y-18.9977 Z1.7560
G1 X5.9749 Y-19.0025 Z1.7549
G1 X5.9128 Y-19.0198 Z1.7502
G1 X5.8493 Y-19.0376 Z1.7437
G1 X5.8225 Y-19.0451 Z1.7404
G1 X5.7661 Y-19.0609 Z1.7327
G1 X5.7492 Y-19.0656 Z1.7301
G1 X5.7209 Y-19.0735 Z1.7245
G1 X5.4106 Y-19.1603 Z1.6734
G1 X5.3203 Y-19.1855 Z1.6565
G1 X5.1397 Y-19.2360 Z1.6213
G1 X4.9719 Y-19.2830 Z1.5897
G1 X4.7334 Y-19.3496 Z1.5392
G1 X4.6149 Y-19.3828 Z1.5127
G1 X4.5416 Y-19.4033 Z1.4944
G1 X4.2594 Y-19.4822 Z1.4260
G1 X4.1409 Y-19.5153 Z1.3958
G1 X3.8856 Y-19.5868 Z1.3248
G1 X3.8080 Y-19.6085 Z1.3014
G1 X3.5597 Y-19.6779 Z1.2253
G1 X3.3848 Y-19.7268 Z1.1658
G1 X3.2166 Y-19.7738 Z1.1103
G1 X3.1048 Y-19.8051 Z1.0706
G1 X3.0269 Y-19.8269 Z1.0414
G0 Z1.8900
G0 X3.0269 Y-19.8269 
G0 Z1.8900
G0 X6.2467 Y-18.9470 
G1 X6.2467 Y-18.9470 Z1.8650 F75.
G1 X6.2396 Y-18.9491 Z1.8272 F25.
G1 X6.2193 Y-18.9549 Z1.7951
G1 X6.1888 Y-18.9637 Z1.7733
G1 X6.1527 Y-18.9741 Z1.7650
G1 X6.1302 Y-18.9805 Z1.7645 F150.
G1 X6.1076 Y-18.9870 Z1.7630
G1 X6.0851 Y-18.9935 Z1.7606
G1 X6.0710 Y-18.9976 Z1.7586
G1 X6.0119 Y-19.0146 Z1.7559
G1 X5.9950 Y-19.0194 Z1.7548
G1 X5.9387 Y-19.0356 Z1.7506
G1 X5.9162 Y-19.0421 Z1.7484
G1 X5.8627 Y-19.0575 Z1.7427
G1 X5.8374 Y-19.0648 Z1.7394
G1 X5.7881 Y-19.0790 Z1.7326
G1 X5.7698 Y-19.0842 Z1.7297
G1 X5.7416 Y-19.0923 Z1.7240
G1 X5.4432 Y-19.1782 Z1.6745
G1 X5.3418 Y-19.2074 Z1.6557
G1 X5.0603 Y-19.2884 Z1.6005
G1 X4.9716 Y-19.3139 Z1.5837
G1 X4.8238 Y-19.3564 Z1.5521
G1 X4.6126 Y-19.4172 Z1.5043
G1 X4.4634 Y-19.4601 Z1.4666
G1 X4.2607 Y-19.5185 Z1.4171
G1 X4.1734 Y-19.5436 Z1.3946
G1 X3.9454 Y-19.6092 Z1.3306
G1 X3.9060 Y-19.6205 Z1.3192
G1 X3.8778 Y-19.6286 Z1.3102
G1 X3.5625 Y-19.7194 Z1.2128
G1 X3.2922 Y-19.7971 Z1.1202
G1 X3.2182 Y-19.8184 Z1.0955
G1 X3.1631 Y-19.8343 Z1.0757
G1 X3.0345 Y-19.8713 Z1.0271
G0 Z1.8900
G0 X3.0345 Y-19.8713 
G0 Z1.8900
G0 X6.2661 Y-18.9619 
G1 X6.2661 Y-18.9619 Z1.8650 F75.
G1 X6.2590 Y-18.9640 Z1.8272 F25.
G1 X6.2387 Y-18.9700 Z1.7951
G1 X6.2083 Y-18.9790 Z1.7733
G1 X6.1723 Y-18.9897 Z1.7650
G1 X6.1498 Y-18.9963 Z1.7645 F150.
G1 X6.1274 Y-19.0030 Z1.7630
G1 X6.1049 Y-19.0096 Z1.7605
G1 X6.0915 Y-19.0136 Z1.7586
G1 X6.0318 Y-19.0312 Z1.7559
G1 X6.0150 Y-19.0362 Z1.7548
G1 X5.9588 Y-19.0528 Z1.7505
G1 X5.9363 Y-19.0595 Z1.7483
G1 X5.8858 Y-19.0745 Z1.7429
G1 X5.8577 Y-19.0828 Z1.7392
G1 X5.8127 Y-19.0961 Z1.7330
G1 X5.7902 Y-19.1027 Z1.7293
G1 X5.7649 Y-19.1102 Z1.7241
G1 X5.4573 Y-19.2012 Z1.6725
G1 X5.3183 Y-19.2423 Z1.6462
G1 X4.9699 Y-19.3454 Z1.5773
G1 X4.9137 Y-19.3620 Z1.5651
G1 X4.6216 Y-19.4485 Z1.4985
G1 X4.5991 Y-19.4551 Z1.4930
G1 X4.3856 Y-19.5183 Z1.4386
G1 X4.2620 Y-19.5548 Z1.4081
G1 X4.2058 Y-19.5715 Z1.3935
G1 X4.0597 Y-19.6147 Z1.3521
G1 X3.9080 Y-19.6596 Z1.3081
G1 X3.7900 Y-19.6945 Z1.2703
G1 X3.5652 Y-19.7610 Z1.2003
G1 X3.2482 Y-19.8548 Z1.0907
G1 X3.2137 Y-19.8650 Z1.0782
G1 X3.0430 Y-19.9155 Z1.0129
G0 Z1.8900
G0 X3.0430 Y-19.9155 
G0 Z1.8900
G0 X6.2853 Y-18.9767 
G1 X6.2853 Y-18.9767 Z1.8650 F75.
G1 X6.2782 Y-18.9789 Z1.8272 F25.
G1 X6.2580 Y-18.9850 Z1.7951
G1 X6.2277 Y-18.9942 Z1.7733
G1 X6.1917 Y-19.0051 Z1.7650
G1 X6.1693 Y-19.0120 Z1.7645 F150.
G1 X6.1469 Y-19.0188 Z1.7630
G1 X6.1244 Y-19.0256 Z1.7605
G1 X6.1118 Y-19.0294 Z1.7586
G1 X6.0572 Y-19.0460 Z1.7561
G1 X6.0347 Y-19.0529 Z1.7547
G1 X5.9787 Y-19.0699 Z1.7504
G1 X5.9450 Y-19.0801 Z1.7469
G1 X5.9002 Y-19.0938 Z1.7420
G1 X5.8329 Y-19.1142 Z1.7327
G1 X5.8217 Y-19.1176 Z1.7309
G1 X5.8105 Y-19.1210 Z1.7289
G1 X5.7881 Y-19.1278 Z1.7242
G1 X5.4811 Y-19.2211 Z1.6722
G1 X5.3172 Y-19.2710 Z1.6410
G1 X5.0256 Y-19.3596 Z1.5827
G1 X4.9696 Y-19.3766 Z1.5708
G1 X4.9359 Y-19.3869 Z1.5629
G1 X4.6164 Y-19.4840 Z1.4894
G1 X4.2969 Y-19.5811 Z1.4075
G1 X4.2632 Y-19.5914 Z1.3991
G1 X4.2380 Y-19.5990 Z1.3924
G1 X4.1735 Y-19.6186 Z1.3740
G1 X3.9100 Y-19.6987 Z1.2971
G1 X3.6914 Y-19.7652 Z1.2264
G1 X3.5681 Y-19.8027 Z1.1877
G1 X3.3887 Y-19.8572 Z1.1254
G1 X3.3214 Y-19.8777 Z1.1011
G1 X3.2166 Y-19.9095 Z1.0630
G1 X3.0530 Y-19.9592 Z0.9992
G0 Z1.8900
G0 X3.0530 Y-19.9592 
G0 Z1.8900
G0 X6.3042 Y-18.9913 
G1 X6.3042 Y-18.9913 Z1.8650 F75.
G1 X6.2972 Y-18.9935 Z1.8273 F25.
G1 X6.2770 Y-18.9998 Z1.7951
G1 X6.2468 Y-19.0092 Z1.7733
G1 X6.2109 Y-19.0204 Z1.7650
G1 X6.1885 Y-19.0274 Z1.7645 F150.
G1 X6.1662 Y-19.0344 Z1.7630
G1 X6.1438 Y-19.0414 Z1.7604
G1 X6.1312 Y-19.0453 Z1.7586
G1 X6.0711 Y-19.0641 Z1.7558
G1 X6.0543 Y-19.0693 Z1.7547
G1 X6.0096 Y-19.0833 Z1.7512
G1 X5.9816 Y-19.0920 Z1.7486
G1 X5.9285 Y-19.1086 Z1.7428
G1 X5.8977 Y-19.1182 Z1.7387
G1 X5.8557 Y-19.1313 Z1.7328
G1 X5.8418 Y-19.1357 Z1.7306
G1 X5.8306 Y-19.1392 Z1.7285
G1 X5.8082 Y-19.1462 Z1.7238
G1 X5.5048 Y-19.2409 Z1.6720
G1 X5.3160 Y-19.2998 Z1.6358
G1 X5.1146 Y-19.3627 Z1.5952
G1 X4.9692 Y-19.4081 Z1.5641
G1 X4.8462 Y-19.4465 Z1.5347
G1 X4.6113 Y-19.5198 Z1.4802
G1 X4.3316 Y-19.6071 Z1.4079
G1 X4.2645 Y-19.6280 Z1.3898
G1 X3.9121 Y-19.7380 Z1.2860
G1 X3.6045 Y-19.8341 Z1.1857
G1 X3.5653 Y-19.8463 Z1.1733
G1 X3.4926 Y-19.8690 Z1.1477
G1 X3.2193 Y-19.9543 Z1.0477
G1 X3.0650 Y-20.0025 Z0.9870
G0 Z1.8900
G0 X3.0650 Y-20.0025 
G0 Z1.8900
G0 X6.3230 Y-19.0058 
G1 X6.3230 Y-19.0058 Z1.8650 F75.
G1 X6.3160 Y-19.0080 Z1.8273 F25.
G1 X6.2959 Y-19.0145 Z1.7951
G1 X6.2657 Y-19.0241 Z1.7733
G1 X6.2299 Y-19.0356 Z1.7650
G1 X6.2076 Y-19.0427 Z1.7645 F150.
G1 X6.1853 Y-19.0499 Z1.7629
G1 X6.1630 Y-19.0570 Z1.7604
G1 X6.1504 Y-19.0611 Z1.7586
G1 X6.0960 Y-19.0785 Z1.7561
G1 X6.0737 Y-19.0856 Z1.7546
G1 X6.0235 Y-19.1017 Z1.7507
G1 X6.0067 Y-19.1071 Z1.7491
G1 X5.9509 Y-19.1250 Z1.7430
G1 X5.9230 Y-19.1339 Z1.7393
G1 X5.8770 Y-19.1487 Z1.7327
G1 X5.8616 Y-19.1536 Z1.7302
G1 X5.8505 Y-19.1572 Z1.7281
G1 X5.8310 Y-19.1634 Z1.7239
G1 X5.6942 Y-19.2072 Z1.7002
G1 X5.5282 Y-19.2604 Z1.6717
G1 X5.3148 Y-19.3288 Z1.6305
G1 X5.2032 Y-19.3645 Z1.6079
G1 X4.9688 Y-19.4396 Z1.5573
G1 X4.7680 Y-19.5040 Z1.5089
G1 X4.6117 Y-19.5540 Z1.4723
G1 X4.4220 Y-19.6148 Z1.4229
G1 X4.2602 Y-19.6667 Z1.3784
G1 X4.1318 Y-19.7078 Z1.3394
G1 X3.9086 Y-19.7793 Z1.2731
G1 X3.6408 Y-19.8651 Z1.1851
G1 X3.5738 Y-19.8865 Z1.1622
G1 X3.5515 Y-19.8937 Z1.1541
G1 X3.5069 Y-19.9080 Z1.1373
G1 X3.2255 Y-19.9982 Z1.0336
G1 X3.0779 Y-20.0454 Z0.9752
G0 Z1.8900
G0 X3.0779 Y-20.0454 
G0 Z1.8900
G0 X6.3416 Y-19.0201 
G1 X6.3416 Y-19.0201 Z1.8650 F75.
G1 X6.3346 Y-19.0224 Z1.8273 F25.
G1 X6.3145 Y-19.0290 Z1.7951
G1 X6.2844 Y-19.0389 Z1.7733
G1 X6.2487 Y-19.0506 Z1.7650
G1 X6.2265 Y-19.0579 Z1.7645 F150.
G1 X6.2042 Y-19.0652 Z1.7629
G1 X6.1820 Y-19.0725 Z1.7603
G1 X6.1708 Y-19.0762 Z1.7586
G1 X6.1152 Y-19.0945 Z1.7560
G1 X6.0929 Y-19.1018 Z1.7545
G1 X6.0428 Y-19.1183 Z1.7506
G1 X6.0261 Y-19.1238 Z1.7490
G1 X5.9704 Y-19.1421 Z1.7428
G1 X5.9148 Y-19.1603 Z1.7351
G1 X5.8869 Y-19.1695 Z1.7309
G1 X5.8702 Y-19.1750 Z1.7277
G1 X5.8535 Y-19.1805 Z1.7240
G1 X5.5515 Y-19.2797 Z1.6715
G1 X5.3136 Y-19.3579 Z1.6252
G1 X5.2690 Y-19.3726 Z1.6160
G1 X4.9685 Y-19.4713 Z1.5505
G1 X4.6901 Y-19.5628 Z1.4829
G1 X4.6122 Y-19.5884 Z1.4644
G1 X4.5120 Y-19.6213 Z1.4381
G1 X4.2560 Y-19.7055 Z1.3670
G1 X4.0444 Y-19.7750 Z1.3019
G1 X3.9108 Y-19.8189 Z1.2619
G1 X3.7550 Y-19.8701 Z1.2103
G1 X3.5657 Y-19.9323 Z1.1449
G1 X3.4098 Y-19.9836 Z1.0857
G1 X3.2255 Y-20.0441 Z1.0172
G1 X3.0909 Y-20.0884 Z0.9632
G0 Z1.8900
G0 X3.0909 Y-20.0884 
G0 Z1.8900
G0 X6.3600 Y-19.0342 
G1 X6.3600 Y-19.0342 Z1.8650 F75.
G1 X6.3530 Y-19.0366 Z1.8273 F25.
G1 X6.3330 Y-19.0433 Z1.7951
G1 X6.3030 Y-19.0534 Z1.7733
G1 X6.2674 Y-19.0654 Z1.7650
G1 X6.2452 Y-19.0729 Z1.7645 F150.
G1 X6.2230 Y-19.0804 Z1.7629
G1 X6.2008 Y-19.0879 Z1.7603
G1 X6.1897 Y-19.0916 Z1.7586
G1 X6.1341 Y-19.1103 Z1.7560
G1 X6.1119 Y-19.1178 Z1.7545
G1 X6.0619 Y-19.1347 Z1.7505
G1 X6.0453 Y-19.1403 Z1.7488
G1 X5.9898 Y-19.1590 Z1.7426
G1 X5.9564 Y-19.1702 Z1.7380
G1 X5.9203 Y-19.1824 Z1.7328
G1 X5.9120 Y-19.1852 Z1.7315
G1 X5.8898 Y-19.1927 Z1.7273
G1 X5.8732 Y-19.1983 Z1.7237
G1 X5.6899 Y-19.2600 Z1.6914
G1 X5.5747 Y-19.2988 Z1.6713
G1 X5.3456 Y-19.3760 Z1.6264
G1 X5.3179 Y-19.3854 Z1.6206
G1 X5.2901 Y-19.3947 Z1.6144
G1 X4.9625 Y-19.5051 Z1.5423
G1 X4.6238 Y-19.6192 Z1.4593
G1 X4.6016 Y-19.6267 Z1.4535
G1 X4.2573 Y-19.7427 Z1.3571
G1 X3.9464 Y-19.8475 Z1.2608
G1 X3.9131 Y-19.8587 Z1.2507
G1 X3.8686 Y-19.8737 Z1.2359
G1 X3.8242 Y-19.8886 Z1.2206
G1 X3.5632 Y-19.9766 Z1.1294
G1 X3.3042 Y-20.0638 Z1.0301
G1 X3.2265 Y-20.0900 Z1.0010
G1 X3.1639 Y-20.1111 Z0.9756
G1 X3.1038 Y-20.1314 Z0.9505
G0 Z1.8900
G0 X3.1038 Y-20.1314 
G0 Z1.8900
G0 X6.3782 Y-19.0483 
G1 X6.3782 Y-19.0483 Z1.8650 F75.
G1 X6.3712 Y-19.0507 Z1.8273 F25.
G1 X6.3513 Y-19.0576 Z1.7951
G1 X6.3213 Y-19.0679 Z1.7733
G1 X6.2859 Y-19.0801 Z1.7650
G1 X6.2637 Y-19.0878 Z1.7645 F150.
G1 X6.2415 Y-19.0954 Z1.7629
G1 X6.2194 Y-19.1031 Z1.7602
G1 X6.2083 Y-19.1069 Z1.7586
G1 X6.1529 Y-19.1260 Z1.7559
G1 X6.1308 Y-19.1337 Z1.7544
G1 X6.0809 Y-19.1509 Z1.7504
G1 X6.0643 Y-19.1566 Z1.7487
G1 X6.0117 Y-19.1748 Z1.7428
G1 X5.9978 Y-19.1796 Z1.7410
G1 X5.9425 Y-19.1987 Z1.7330
G1 X5.9314 Y-19.2025 Z1.7312
G1 X5.9092 Y-19.2102 Z1.7269
G1 X5.8954 Y-19.2150 Z1.7238
G1 X5.5977 Y-19.3177 Z1.6711
G1 X5.4218 Y-19.3785 Z1.6363
G1 X5.3180 Y-19.4143 Z1.6150
G1 X5.2003 Y-19.4550 Z1.5882
G1 X4.9621 Y-19.5372 Z1.5354
G1 X4.7129 Y-19.6232 Z1.4739
G1 X4.6077 Y-19.6596 Z1.4464
G1 X4.5135 Y-19.6921 Z1.4192
G1 X4.2560 Y-19.7810 Z1.3464
G1 X3.9818 Y-19.8757 Z1.2608
G1 X3.9098 Y-19.9005 Z1.2372
G1 X3.8489 Y-19.9216 Z1.2154
G1 X3.5664 Y-20.0191 Z1.1159
G1 X3.2626 Y-20.1240 Z0.9986
G1 X3.2235 Y-20.1375 Z0.9828
G1 X3.1167 Y-20.1744 Z0.9377
G0 Z1.8900
G0 X3.1167 Y-20.1744 
G0 Z1.8900
G0 X6.3962 Y-19.0621 
G1 X6.3962 Y-19.0621 Z1.8650 F75.
G1 X6.3892 Y-19.0646 Z1.8273 F25.
G1 X6.3694 Y-19.0716 Z1.7951
G1 X6.3395 Y-19.0822 Z1.7733
G1 X6.3041 Y-19.0947 Z1.7650
G1 X6.2820 Y-19.1025 Z1.7645 F150.
G1 X6.2599 Y-19.1103 Z1.7629
G1 X6.2378 Y-19.1181 Z1.7602
G1 X6.2275 Y-19.1218 Z1.7586
G1 X6.1716 Y-19.1416 Z1.7559
G1 X6.1495 Y-19.1494 Z1.7544
G1 X6.1053 Y-19.1650 Z1.7508
G1 X6.0832 Y-19.1729 Z1.7486
G1 X6.0335 Y-19.1904 Z1.7430
G1 X6.0169 Y-19.1963 Z1.7408
G1 X5.9616 Y-19.2158 Z1.7327
G1 X5.9506 Y-19.2197 Z1.7309
G1 X5.9285 Y-19.2276 Z1.7265
G1 X5.9175 Y-19.2315 Z1.7239
G1 X5.6854 Y-19.3135 Z1.6824
G1 X5.6302 Y-19.3331 Z1.6727
G1 X5.5971 Y-19.3448 Z1.6662
G1 X5.4866 Y-19.3838 Z1.6441
G1 X5.3319 Y-19.4386 Z1.6122
G1 X5.3098 Y-19.4464 Z1.6074
G1 X5.1330 Y-19.5089 Z1.5668
G1 X4.9618 Y-19.5694 Z1.5284
G1 X4.8016 Y-19.6261 Z1.4886
G1 X4.7574 Y-19.6417 Z1.4771
G1 X4.6138 Y-19.6925 Z1.4391
G1 X4.5806 Y-19.7042 Z1.4296
G1 X4.4260 Y-19.7590 Z1.3845
G1 X4.2602 Y-19.8176 Z1.3373
G1 X4.0724 Y-19.8840 Z1.2782
G1 X3.9067 Y-19.9426 Z1.2233
G1 X3.7410 Y-20.0012 Z1.1632
G1 X3.5697 Y-20.0618 Z1.1024
G1 X3.3893 Y-20.1256 Z1.0323
G1 X3.3460 Y-20.1409 Z1.0150
G1 X3.2270 Y-20.1830 Z0.9668
G1 X3.1297 Y-20.2174 Z0.9249
G0 Z1.8900
G0 X3.1297 Y-20.2174 
G0 Z1.8900
G0 X6.4141 Y-19.0759 
G1 X6.4141 Y-19.0759 Z1.8650 F75.
G1 X6.4071 Y-19.0784 Z1.8273 F25.
G1 X6.3873 Y-19.0856 Z1.7951
G1 X6.3575 Y-19.0964 Z1.7733
G1 X6.3223 Y-19.1091 Z1.7650
G1 X6.3002 Y-19.1171 Z1.7645 F150.
G1 X6.2782 Y-19.1251 Z1.7628
G1 X6.2561 Y-19.1331 Z1.7601
G1 X6.2465 Y-19.1366 Z1.7586
G1 X6.1900 Y-19.1570 Z1.7559
G1 X6.1680 Y-19.1650 Z1.7543
G1 X6.1239 Y-19.1810 Z1.7507
G1 X6.1019 Y-19.1889 Z1.7485
G1 X6.0523 Y-19.2069 Z1.7428
G1 X6.0248 Y-19.2169 Z1.7390
G1 X5.9834 Y-19.2318 Z1.7329
G1 X5.9697 Y-19.2368 Z1.7306
G1 X5.9476 Y-19.2448 Z1.7261
G1 X5.9366 Y-19.2488 Z1.7236
G1 X5.6419 Y-19.3555 Z1.6704
G1 X5.5620 Y-19.3844 Z1.6544
G1 X5.3168 Y-19.4732 Z1.6033
G1 X5.0441 Y-19.5719 Z1.5402
G1 X4.9615 Y-19.6019 Z1.5215
G1 X4.8898 Y-19.6278 Z1.5035
G1 X4.8458 Y-19.6438 Z1.4920
G1 X4.6089 Y-19.7295 Z1.4289
G1 X4.3279 Y-19.8313 Z1.3463
G1 X4.2563 Y-19.8572 Z1.3256
G1 X4.1846 Y-19.8832 Z1.3030
G1 X4.1406 Y-19.8991 Z1.2885
G1 X3.9092 Y-19.9829 Z1.2112
G1 X3.6337 Y-20.0826 Z1.1106
G1 X3.5676 Y-20.1066 Z1.0869
G1 X3.4794 Y-20.1385 Z1.0522
G1 X3.2288 Y-20.2293 Z0.9499
G1 X3.1426 Y-20.2605 Z0.9126
G0 Z1.8900
G0 X3.1426 Y-20.2605 
G0 Z1.8900
G0 X6.4317 Y-19.0895 
G1 X6.4317 Y-19.0895 Z1.8650 F75.
G1 X6.4248 Y-19.0921 Z1.8273 F25.
G1 X6.4051 Y-19.0994 Z1.7951
G1 X6.3754 Y-19.1104 Z1.7733
G1 X6.3402 Y-19.1234 Z1.7650
G1 X6.3182 Y-19.1316 Z1.7645 F150.
G1 X6.2963 Y-19.1397 Z1.7628
G1 X6.2743 Y-19.1479 Z1.7601
G1 X6.2647 Y-19.1514 Z1.7586
G1 X6.2138 Y-19.1703 Z1.7562
G1 X6.1864 Y-19.1804 Z1.7542
G1 X6.1424 Y-19.1967 Z1.7506
G1 X6.1204 Y-19.2049 Z1.7484
G1 X6.0710 Y-19.2232 Z1.7426
G1 X6.0106 Y-19.2456 Z1.7339
G1 X5.9886 Y-19.2537 Z1.7303
G1 X5.9666 Y-19.2619 Z1.7257
G1 X5.9584 Y-19.2649 Z1.7238
G1 X5.6809 Y-19.3678 Z1.6733
G1 X5.6452 Y-19.3810 Z1.6664
G1 X5.3155 Y-19.5031 Z1.5972
G1 X4.9776 Y-19.6284 Z1.5184
G1 X4.9557 Y-19.6365 Z1.5130
G1 X4.6095 Y-19.7648 Z1.4202
G1 X4.2963 Y-19.8808 Z1.3274
G1 X4.2579 Y-19.8951 Z1.3155
G1 X3.9117 Y-20.0233 Z1.1992
G1 X3.6150 Y-20.1333 Z1.0899
G1 X3.5711 Y-20.1496 Z1.0731
G1 X3.2414 Y-20.2717 Z0.9376
G1 X3.2195 Y-20.2799 Z0.9282
G1 X3.1556 Y-20.3035 Z0.9002
G0 Z1.8900
G0 X3.1556 Y-20.3035 
G0 Z1.8900
G0 X6.4493 Y-19.1030 
G1 X6.4493 Y-19.1030 Z1.8650 F75.
G1 X6.4423 Y-19.1056 Z1.8273 F25.
G1 X6.4227 Y-19.1131 Z1.7951
G1 X6.3931 Y-19.1243 Z1.7733
G1 X6.3580 Y-19.1376 Z1.7650
G1 X6.3361 Y-19.1459 Z1.7645 F150.
G1 X6.3142 Y-19.1542 Z1.7628
G1 X6.2923 Y-19.1625 Z1.7601
G1 X6.2827 Y-19.1662 Z1.7586
G1 X6.2320 Y-19.1854 Z1.7561
G1 X6.2046 Y-19.1958 Z1.7542
G1 X6.1608 Y-19.2124 Z1.7505
G1 X6.1388 Y-19.2207 Z1.7482
G1 X6.0923 Y-19.2383 Z1.7428
G1 X6.0649 Y-19.2487 Z1.7389
G1 X6.0238 Y-19.2643 Z1.7328
G1 X6.0073 Y-19.2705 Z1.7300
G1 X5.9772 Y-19.2820 Z1.7234
G1 X5.7115 Y-19.3827 Z1.6748
G1 X5.6704 Y-19.3983 Z1.6667
G1 X5.6129 Y-19.4201 Z1.6544
G1 X5.3156 Y-19.5328 Z1.5915
G1 X5.0431 Y-19.6361 Z1.5274
G1 X4.9554 Y-19.6693 Z1.5053
G1 X4.8677 Y-19.7025 Z1.4811
G1 X4.6047 Y-19.8022 Z1.4098
G1 X4.3856 Y-19.8853 Z1.3443
G1 X4.3527 Y-19.8978 Z1.3342
G1 X4.2514 Y-19.9362 Z1.3021
G1 X4.1226 Y-19.9850 Z1.2576
G1 X3.9089 Y-20.0660 Z1.1851
G1 X3.7062 Y-20.1429 Z1.1098
G1 X3.5747 Y-20.1927 Z1.0588
G1 X3.5528 Y-20.2010 Z1.0498
G1 X3.4103 Y-20.2550 Z0.9898
G1 X3.2350 Y-20.3215 Z0.9172
G1 X3.1686 Y-20.3467 Z0.8879
G0 Z1.8900
G0 X3.1686 Y-20.3467 
G0 Z1.8900
G0 X6.4666 Y-19.1164 
G1 X6.4666 Y-19.1164 Z1.8650 F75.
G1 X6.4597 Y-19.1191 Z1.8273 F25.
G1 X6.4401 Y-19.1267 Z1.7951
G1 X6.4106 Y-19.1381 Z1.7733
G1 X6.3756 Y-19.1517 Z1.7650
G1 X6.3538 Y-19.1601 Z1.7645 F150.
G1 X6.3319 Y-19.1686 Z1.7628
G1 X6.3101 Y-19.1771 Z1.7600
G1 X6.3012 Y-19.1805 Z1.7586
G1 X6.2664 Y-19.1940 Z1.7569
G1 X6.2336 Y-19.2067 Z1.7550
G1 X6.1790 Y-19.2279 Z1.7504
G1 X6.1571 Y-19.2364 Z1.7481
G1 X6.1134 Y-19.2533 Z1.7430
G1 X6.0861 Y-19.2639 Z1.7392
G1 X6.0451 Y-19.2798 Z1.7330
G1 X6.0260 Y-19.2872 Z1.7297
G1 X5.9987 Y-19.2978 Z1.7237
G1 X5.7747 Y-19.3846 Z1.6825
G1 X5.6709 Y-19.4249 Z1.6620
G1 X5.5452 Y-19.4736 Z1.6346
G1 X5.3144 Y-19.5630 Z1.5854
G1 X5.1300 Y-19.6345 Z1.5417
G1 X5.0863 Y-19.6515 Z1.5309
G1 X4.9552 Y-19.7023 Z1.4976
G1 X4.7694 Y-19.7743 Z1.4458
G1 X4.6055 Y-19.8378 Z1.4010
G1 X4.4635 Y-19.8929 Z1.3582
G1 X4.2559 Y-19.9734 Z1.2922
G1 X4.0155 Y-20.0666 Z1.2085
G1 X3.9117 Y-20.1068 Z1.1730
G1 X3.8188 Y-20.1428 Z1.1383
G1 X3.7751 Y-20.1598 Z1.1214
G1 X3.5730 Y-20.2381 Z1.0424
G1 X3.2944 Y-20.3461 Z0.9242
G1 X3.2370 Y-20.3684 Z0.9002
G1 X3.1822 Y-20.3896 Z0.8755
G0 Z1.8900
G0 X3.1822 Y-20.3896 
G0 Z1.8900
G0 X6.4838 Y-19.1296 
G1 X6.4838 Y-19.1296 Z1.8650 F75.
G1 X6.4769 Y-19.1324 Z1.8273 F25.
G1 X6.4574 Y-19.1401 Z1.7952
G1 X6.4280 Y-19.1518 Z1.7733
G1 X6.3931 Y-19.1656 Z1.7650
G1 X6.3713 Y-19.1742 Z1.7645 F150.
G1 X6.3495 Y-19.1829 Z1.7628
G1 X6.3277 Y-19.1915 Z1.7600
G1 X6.3189 Y-19.1950 Z1.7586
G1 X6.2842 Y-19.2088 Z1.7569
G1 X6.2515 Y-19.2217 Z1.7549
G1 X6.2025 Y-19.2411 Z1.7509
G1 X6.1807 Y-19.2498 Z1.7486
G1 X6.1316 Y-19.2692 Z1.7429
G1 X6.1044 Y-19.2800 Z1.7390
G1 X6.0636 Y-19.2962 Z1.7327
G1 X6.0445 Y-19.3037 Z1.7294
G1 X6.0227 Y-19.3124 Z1.7245
G1 X5.8484 Y-19.3814 Z1.6923
G1 X5.8048 Y-19.3987 Z1.6838
G1 X5.6959 Y-19.4419 Z1.6622
G1 X5.6523 Y-19.4592 Z1.6531
G1 X5.4562 Y-19.5369 Z1.6100
G1 X5.3146 Y-19.5930 Z1.5795
G1 X5.1947 Y-19.6405 Z1.5510
G1 X4.9550 Y-19.7355 Z1.4899
G1 X4.6718 Y-19.8477 Z1.4102
G1 X4.6037 Y-19.8747 Z1.3913
G1 X4.5410 Y-19.8995 Z1.3723
G1 X4.2578 Y-20.0118 Z1.2814
G1 X3.9309 Y-20.1413 Z1.1667
G1 X3.9092 Y-20.1499 Z1.1588
G1 X3.8656 Y-20.1672 Z1.1418
G1 X3.5714 Y-20.2837 Z1.0258
G1 X3.2991 Y-20.3917 Z0.9093
G1 X3.2345 Y-20.4173 Z0.8806
G1 X3.1995 Y-20.4311 Z0.8644
G0 Z1.8900
G0 X3.1995 Y-20.4311 
G0 Z1.8900
G0 X6.5008 Y-19.1428 
G1 X6.5008 Y-19.1428 Z1.8650 F75.
G1 X6.4940 Y-19.1455 Z1.8273 F25.
G1 X6.4745 Y-19.1534 Z1.7952
G1 X6.4452 Y-19.1653 Z1.7733
G1 X6.4104 Y-19.1794 Z1.7650
G1 X6.3887 Y-19.1882 Z1.7644 F150.
G1 X6.3670 Y-19.1970 Z1.7628
G1 X6.3453 Y-19.2058 Z1.7599
G1 X6.3371 Y-19.2091 Z1.7586
G1 X6.2855 Y-19.2300 Z1.7560
G1 X6.2692 Y-19.2366 Z1.7549
G1 X6.2204 Y-19.2564 Z1.7508
G1 X6.1932 Y-19.2674 Z1.7479
G1 X6.1498 Y-19.2850 Z1.7427
G1 X6.0900 Y-19.3091 Z1.7339
G1 X6.0737 Y-19.3157 Z1.7311
G1 X6.0629 Y-19.3201 Z1.7290
G1 X6.0411 Y-19.3289 Z1.7242
G1 X6.0194 Y-19.3377 Z1.7204
G1 X5.8891 Y-19.3905 Z1.6960
G1 X5.6691 Y-19.4796 Z1.6520
G1 X5.3677 Y-19.6016 Z1.5852
G1 X5.3134 Y-19.6236 Z1.5734
G1 X5.2591 Y-19.6456 Z1.5603
G1 X4.9549 Y-19.7688 Z1.4821
G1 X4.6508 Y-19.8919 Z1.3959
G1 X4.6182 Y-19.9051 Z1.3863
G1 X4.5965 Y-19.9139 Z1.3796
G1 X4.2543 Y-20.0525 Z1.2688
G1 X4.0208 Y-20.1471 Z1.1861
G1 X3.9774 Y-20.1646 Z1.1702
G1 X3.9068 Y-20.1932 Z1.1438
G1 X3.7818 Y-20.2438 Z1.0935
G1 X3.5755 Y-20.3274 Z1.0115
G1 X3.4017 Y-20.3978 Z0.9367
G1 X3.2418 Y-20.4625 Z0.8652
G1 X3.2175 Y-20.4723 Z0.8539
G0 Z1.8900
G0 X3.2175 Y-20.4723 
G0 Z1.8900
G0 X6.5177 Y-19.1558 
G1 X6.5177 Y-19.1558 Z1.8650 F75.
G1 X6.5109 Y-19.1586 Z1.8273 F25.
G1 X6.4915 Y-19.1667 Z1.7952
G1 X6.4623 Y-19.1787 Z1.7733
G1 X6.4276 Y-19.1931 Z1.7650
G1 X6.4060 Y-19.2020 Z1.7644 F150.
G1 X6.3843 Y-19.2110 Z1.7627
G1 X6.3627 Y-19.2200 Z1.7599
G1 X6.3545 Y-19.2233 Z1.7586
G1 X6.3085 Y-19.2424 Z1.7563
G1 X6.2869 Y-19.2513 Z1.7548
G1 X6.2381 Y-19.2715 Z1.7507
G1 X6.2111 Y-19.2827 Z1.7478
G1 X6.1704 Y-19.2995 Z1.7429
G1 X6.1461 Y-19.3095 Z1.7394
G1 X6.1055 Y-19.3263 Z1.7332
G1 X6.0919 Y-19.3319 Z1.7308
G1 X6.0811 Y-19.3364 Z1.7287
G1 X6.0622 Y-19.3443 Z1.7244
G1 X6.0161 Y-19.3633 Z1.7161
G1 X5.9403 Y-19.3947 Z1.7018
G1 X5.6696 Y-19.5066 Z1.6472
G1 X5.3447 Y-19.6410 Z1.5747
G1 X5.3231 Y-19.6500 Z1.5696
G1 X5.2798 Y-19.6679 Z1.5585
G1 X4.9549 Y-19.8023 Z1.4743
G1 X4.7167 Y-19.9008 Z1.4062
G1 X4.6030 Y-19.9479 Z1.3718
G1 X4.4568 Y-20.0083 Z1.3233
G1 X4.2537 Y-20.0923 Z1.2570
G1 X4.1103 Y-20.1517 Z1.2058
G1 X4.0778 Y-20.1651 Z1.1939
G1 X3.9099 Y-20.2346 Z1.1309
G1 X3.6555 Y-20.3398 Z1.0275
G1 X3.5742 Y-20.3734 Z0.9949
G1 X3.5039 Y-20.4025 Z0.9644
G1 X3.2447 Y-20.5097 Z0.8477
G1 X3.2356 Y-20.5135 Z0.8434
G0 Z1.8900
G0 X3.2356 Y-20.5135 
G0 Z1.8900
G0 X6.5345 Y-19.1687 
G1 X6.5345 Y-19.1687 Z1.8650 F75.
G1 X6.5277 Y-19.1716 Z1.8273 F25.
G1 X6.5083 Y-19.1798 Z1.7952
G1 X6.4792 Y-19.1921 Z1.7733
G1 X6.4447 Y-19.2067 Z1.7650
G1 X6.4231 Y-19.2158 Z1.7644 F150.
G1 X6.4015 Y-19.2249 Z1.7627
G1 X6.3799 Y-19.2340 Z1.7598
G1 X6.3718 Y-19.2374 Z1.7586
G1 X6.3259 Y-19.2568 Z1.7563
G1 X6.3043 Y-19.2659 Z1.7548
G1 X6.2720 Y-19.2796 Z1.7521
G1 X6.2288 Y-19.2979 Z1.7477
G1 X6.1910 Y-19.3138 Z1.7431
G1 X6.1694 Y-19.3229 Z1.7400
G1 X6.1235 Y-19.3423 Z1.7329
G1 X6.1100 Y-19.3480 Z1.7306
G1 X6.0992 Y-19.3526 Z1.7284
G1 X6.0830 Y-19.3594 Z1.7246
G1 X6.0129 Y-19.3891 Z1.7119
G1 X5.9697 Y-19.4073 Z1.7033
G1 X5.6688 Y-19.5344 Z1.6421
G1 X5.4084 Y-19.6444 Z1.5836
G1 X5.3085 Y-19.6866 Z1.5594
G1 X5.1924 Y-19.7356 Z1.5285
G1 X4.9536 Y-19.8365 Z1.4661
G1 X4.8038 Y-19.8998 Z1.4230
G1 X4.7714 Y-19.9135 Z1.4133
G1 X4.6041 Y-19.9842 Z1.3621
G1 X4.3288 Y-20.1005 Z1.2701
G1 X4.2587 Y-20.1301 Z1.2470
G1 X4.1885 Y-20.1598 Z1.2219
G1 X3.9132 Y-20.2760 Z1.1180
G1 X3.6056 Y-20.4060 Z0.9919
G1 X3.5705 Y-20.4208 Z0.9768
G1 X3.5084 Y-20.4471 Z0.9484
G1 X3.2536 Y-20.5547 Z0.8328
G0 Z1.8900
G0 X3.2536 Y-20.5547 
G0 Z1.8900
G0 X6.5511 Y-19.1815 
G1 X6.5511 Y-19.1815 Z1.8650 F75.
G1 X6.5443 Y-19.1844 Z1.8273 F25.
G1 X6.5250 Y-19.1928 Z1.7952
G1 X6.4960 Y-19.2053 Z1.7733
G1 X6.4616 Y-19.2201 Z1.7650
G1 X6.4401 Y-19.2294 Z1.7644 F150.
G1 X6.4185 Y-19.2387 Z1.7627
G1 X6.3970 Y-19.2480 Z1.7598
G1 X6.3896 Y-19.2512 Z1.7586
G1 X6.3432 Y-19.2712 Z1.7563
G1 X6.3217 Y-19.2805 Z1.7547
G1 X6.2894 Y-19.2944 Z1.7520
G1 X6.2464 Y-19.3129 Z1.7476
G1 X6.2248 Y-19.3222 Z1.7450
G1 X6.1979 Y-19.3338 Z1.7415
G1 X6.1441 Y-19.3570 Z1.7332
G1 X6.1280 Y-19.3640 Z1.7303
G1 X6.1172 Y-19.3686 Z1.7281
G1 X6.1011 Y-19.3756 Z1.7244
G1 X6.0312 Y-19.4058 Z1.7114
G1 X6.0096 Y-19.4150 Z1.7071
G1 X5.9451 Y-19.4429 Z1.6938
G1 X5.6680 Y-19.5624 Z1.6370
G1 X5.4716 Y-19.6471 Z1.5925
G1 X5.3075 Y-19.7178 Z1.5526
G1 X5.0627 Y-19.8234 Z1.4870
G1 X4.9551 Y-19.8698 Z1.4586
G1 X4.8690 Y-19.9070 Z1.4336
G1 X4.6000 Y-20.0230 Z1.3507
G1 X4.2879 Y-20.1576 Z1.2455
G1 X4.2556 Y-20.1715 Z1.2341
G1 X3.9113 Y-20.3200 Z1.1029
G1 X3.7068 Y-20.4082 Z1.0185
G1 X3.5777 Y-20.4639 Z0.9630
G1 X3.3840 Y-20.5474 Z0.8734
G1 X3.2716 Y-20.5959 Z0.8220
G0 Z1.8900
G0 X3.2716 Y-20.5959 
G0 Z1.8900
G0 X6.5676 Y-19.1942 
G1 X6.5676 Y-19.1942 Z1.8650 F75.
G1 X6.5608 Y-19.1972 Z1.8273 F25.
G1 X6.5416 Y-19.2057 Z1.7952
G1 X6.5127 Y-19.2184 Z1.7734
G1 X6.4784 Y-19.2335 Z1.7650
G1 X6.4569 Y-19.2429 Z1.7644 F150.
G1 X6.4354 Y-19.2524 Z1.7627
G1 X6.4140 Y-19.2618 Z1.7598
G1 X6.4073 Y-19.2648 Z1.7586
G1 X6.3604 Y-19.2854 Z1.7562
G1 X6.3389 Y-19.2949 Z1.7547
G1 X6.3067 Y-19.3090 Z1.7520
G1 X6.2638 Y-19.3279 Z1.7475
G1 X6.2263 Y-19.3444 Z1.7428
G1 X6.1780 Y-19.3657 Z1.7355
G1 X6.1512 Y-19.3775 Z1.7310
G1 X6.1351 Y-19.3846 Z1.7278
G1 X6.1204 Y-19.3910 Z1.7243
G1 X6.0171 Y-19.4365 Z1.7047
G1 X5.8777 Y-19.4979 Z1.6753
G1 X5.6672 Y-19.5905 Z1.6319
G1 X5.5238 Y-19.6537 Z1.5991
G1 X5.3093 Y-19.7481 Z1.5464
G1 X4.9526 Y-19.9051 Z1.4499
G1 X4.9231 Y-19.9180 Z1.4411
G1 X4.6014 Y-20.0597 Z1.3411
G1 X4.3761 Y-20.1588 Z1.2646
G1 X4.3439 Y-20.1730 Z1.2533
G1 X4.2501 Y-20.2143 Z1.2195
G1 X4.0972 Y-20.2816 Z1.1599
G1 X3.9122 Y-20.3630 Z1.0889
G1 X3.7969 Y-20.4138 Z1.0409
G1 X3.5771 Y-20.5105 Z0.9455
G1 X3.2896 Y-20.6371 Z0.8114
G0 Z1.8900
G0 X3.2896 Y-20.6371 
G0 Z1.8900
G0 X6.5839 Y-19.2068 
G1 X6.5839 Y-19.2068 Z1.8650 F75.
G1 X6.5772 Y-19.2098 Z1.8273 F25.
G1 X6.5580 Y-19.2184 Z1.7952
G1 X6.5292 Y-19.2314 Z1.7734
G1 X6.4950 Y-19.2467 Z1.7650
G1 X6.4736 Y-19.2563 Z1.7644 F150.
G1 X6.4522 Y-19.2659 Z1.7627
G1 X6.4309 Y-19.2755 Z1.7597
G1 X6.4242 Y-19.2785 Z1.7586
G1 X6.3774 Y-19.2995 Z1.7562
G1 X6.3560 Y-19.3092 Z1.7547
G1 X6.3240 Y-19.3236 Z1.7519
G1 X6.2812 Y-19.3428 Z1.7474
G1 X6.2464 Y-19.3584 Z1.7431
G1 X6.2224 Y-19.3692 Z1.7395
G1 X6.1823 Y-19.3872 Z1.7332
G1 X6.1636 Y-19.3956 Z1.7298
G1 X6.1529 Y-19.4004 Z1.7275
G1 X6.1369 Y-19.4076 Z1.7235
G1 X6.0166 Y-19.4616 Z1.7005
G1 X5.7681 Y-19.5732 Z1.6479
G1 X5.6665 Y-19.6188 Z1.6267
G1 X5.5970 Y-19.6500 Z1.6108
G1 X5.5543 Y-19.6692 Z1.6004
G1 X5.3084 Y-19.7797 Z1.5395
G1 X5.0198 Y-19.9093 Z1.4609
G1 X4.9503 Y-19.9405 Z1.4406
G1 X4.8487 Y-19.9861 Z1.4084
G1 X4.6135 Y-20.0917 Z1.3347
G1 X4.5922 Y-20.1013 Z1.3277
G1 X4.4425 Y-20.1685 Z1.2765
G1 X4.2554 Y-20.2526 Z1.2088
G1 X3.9133 Y-20.4062 Z1.0748
G1 X3.8759 Y-20.4230 Z1.0590
G1 X3.5819 Y-20.5550 Z0.9305
G1 X3.3483 Y-20.6599 Z0.8207
G1 X3.3076 Y-20.6782 Z0.8012
G0 Z1.8900
G0 X3.3076 Y-20.6782 
G0 Z1.8900
G0 X6.6001 Y-19.2193 
G1 X6.6001 Y-19.2193 Z1.8650 F75.
G1 X6.5934 Y-19.2224 Z1.8273 F25.
G1 X6.5743 Y-19.2311 Z1.7952
G1 X6.5456 Y-19.2443 Z1.7734
G1 X6.5115 Y-19.2599 Z1.7650
G1 X6.4902 Y-19.2697 Z1.7644 F150.
G1 X6.4689 Y-19.2794 Z1.7626
G1 X6.4476 Y-19.2892 Z1.7597
G1 X6.4409 Y-19.2922 Z1.7586
G1 X6.3943 Y-19.3136 Z1.7562
G1 X6.3730 Y-19.3233 Z1.7546
G1 X6.3410 Y-19.3380 Z1.7519
G1 X6.2984 Y-19.3575 Z1.7472
G1 X6.2665 Y-19.3722 Z1.7433
G1 X6.2452 Y-19.3819 Z1.7402
G1 X6.1999 Y-19.4027 Z1.7329
G1 X6.1812 Y-19.4112 Z1.7295
G1 X6.1706 Y-19.4161 Z1.7272
G1 X6.1546 Y-19.4234 Z1.7231
G1 X6.0161 Y-19.4868 Z1.6963
G1 X5.6645 Y-19.6479 Z1.6212
G1 X5.6326 Y-19.6626 Z1.6136
G1 X5.3063 Y-19.8120 Z1.5322
G1 X5.0839 Y-19.9139 Z1.4711
G1 X4.9480 Y-19.9762 Z1.4312
G1 X4.7216 Y-20.0799 Z1.3586
G1 X4.6044 Y-20.1336 Z1.3216
G1 X4.5299 Y-20.1677 Z1.2960
G1 X4.4873 Y-20.1872 Z1.2807
G1 X4.2529 Y-20.2946 Z1.1952
G1 X3.9759 Y-20.4215 Z1.0856
G1 X3.9119 Y-20.4508 Z1.0591
G1 X3.8054 Y-20.4996 Z1.0116
G1 X3.5817 Y-20.6021 Z0.9130
G1 X3.4432 Y-20.6656 Z0.8474
G1 X3.3256 Y-20.7194 Z0.7907
G0 Z1.8900
G0 X3.3256 Y-20.7194 
G0 Z1.8900
G0 X6.6161 Y-19.2317 
G1 X6.6161 Y-19.2317 Z1.8650 F75.
G1 X6.6095 Y-19.2348 Z1.8273 F25.
G1 X6.5904 Y-19.2437 Z1.7952
G1 X6.5618 Y-19.2571 Z1.7734
G1 X6.5279 Y-19.2729 Z1.7650
G1 X6.5067 Y-19.2829 Z1.7644 F150.
G1 X6.4854 Y-19.2928 Z1.7626
G1 X6.4642 Y-19.3027 Z1.7596
G1 X6.4576 Y-19.3058 Z1.7586
G1 X6.4111 Y-19.3275 Z1.7561
G1 X6.3899 Y-19.3374 Z1.7546
G1 X6.3580 Y-19.3523 Z1.7518
G1 X6.3155 Y-19.3722 Z1.7471
G1 X6.2837 Y-19.3870 Z1.7432
G1 X6.2625 Y-19.3970 Z1.7400
G1 X6.2200 Y-19.4168 Z1.7332
G1 X6.2094 Y-19.4218 Z1.7313
G1 X6.1881 Y-19.4317 Z1.7268
G1 X6.1722 Y-19.4391 Z1.7229
G1 X6.1032 Y-19.4714 Z1.7091
G1 X6.0156 Y-19.5123 Z1.6921
G1 X5.7210 Y-19.6499 Z1.6287
G1 X5.6692 Y-19.6741 Z1.6169
G1 X5.5936 Y-19.7095 Z1.5977
G1 X5.3056 Y-19.8440 Z1.5252
G1 X5.1477 Y-19.9178 Z1.4815
G1 X4.9565 Y-20.0071 Z1.4250
G1 X4.9353 Y-20.0170 Z1.4183
G1 X4.6168 Y-20.1658 Z1.3154
G1 X4.5956 Y-20.1757 Z1.3082
G1 X4.2558 Y-20.3344 Z1.1835
G1 X4.0647 Y-20.4237 Z1.1074
G1 X3.9161 Y-20.4932 Z1.0454
G1 X3.6400 Y-20.6221 Z0.9215
G1 X3.5869 Y-20.6469 Z0.8979
G1 X3.5338 Y-20.6717 Z0.8726
G1 X3.3674 Y-20.7495 Z0.7919
G1 X3.3437 Y-20.7606 Z0.7799
G0 Z1.8900
G0 X3.3437 Y-20.7606 
G0 Z1.8900
G0 X6.6321 Y-19.2440 
G1 X6.6321 Y-19.2440 Z1.8650 F75.
G1 X6.6254 Y-19.2472 Z1.8273 F25.
G1 X6.6065 Y-19.2562 Z1.7952
G1 X6.5780 Y-19.2698 Z1.7734
G1 X6.5442 Y-19.2859 Z1.7650
G1 X6.5230 Y-19.2960 Z1.7644 F150.
G1 X6.5018 Y-19.3061 Z1.7626
G1 X6.4807 Y-19.3161 Z1.7596
G1 X6.4747 Y-19.3190 Z1.7586
G1 X6.4278 Y-19.3413 Z1.7561
G1 X6.4066 Y-19.3514 Z1.7545
G1 X6.3643 Y-19.3716 Z1.7507
G1 X6.3431 Y-19.3817 Z1.7484
G1 X6.3008 Y-19.4018 Z1.7430
G1 X6.2797 Y-19.4119 Z1.7398
G1 X6.2373 Y-19.4320 Z1.7330
G1 X6.2268 Y-19.4371 Z1.7311
G1 X6.2056 Y-19.4472 Z1.7265
G1 X6.1924 Y-19.4535 Z1.7231
G1 X6.0998 Y-19.4976 Z1.7044
G1 X6.0152 Y-19.5379 Z1.6878
G1 X5.7613 Y-19.6588 Z1.6328
G1 X5.6607 Y-19.7067 Z1.6092
G1 X5.4650 Y-19.7999 Z1.5589
G1 X5.3050 Y-19.8762 Z1.5183
G1 X5.2111 Y-19.9209 Z1.4920
G1 X4.9519 Y-20.0443 Z1.4148
G1 X4.6821 Y-20.1728 Z1.3270
G1 X4.5975 Y-20.2132 Z1.2977
G1 X4.4494 Y-20.2837 Z1.2423
G1 X4.2536 Y-20.3769 Z1.1697
G1 X4.1531 Y-20.4248 Z1.1294
G1 X4.1320 Y-20.4349 Z1.1207
G1 X3.9151 Y-20.5382 Z1.0294
G1 X3.6347 Y-20.6718 Z0.9025
G1 X3.5818 Y-20.6970 Z0.8775
G1 X3.4057 Y-20.7808 Z0.7915
G1 X3.3641 Y-20.8006 Z0.7702
G0 Z1.8900
G0 X3.3641 Y-20.8006 
G0 Z1.8900
G0 X6.6479 Y-19.2562 
G1 X6.6479 Y-19.2562 Z1.8650 F75.
G1 X6.6413 Y-19.2595 Z1.8273 F25.
G1 X6.6224 Y-19.2686 Z1.7952
G1 X6.5940 Y-19.2824 Z1.7734
G1 X6.5603 Y-19.2988 Z1.7650
G1 X6.5392 Y-19.3090 Z1.7644 F150.
G1 X6.5181 Y-19.3192 Z1.7626
G1 X6.4918 Y-19.3320 Z1.7586
G1 X6.4443 Y-19.3551 Z1.7561
G1 X6.4233 Y-19.3653 Z1.7545
G1 X6.3811 Y-19.3858 Z1.7507
G1 X6.3600 Y-19.3960 Z1.7483
G1 X6.3178 Y-19.4165 Z1.7429
G1 X6.2968 Y-19.4267 Z1.7397
G1 X6.2572 Y-19.4459 Z1.7332
G1 X6.2441 Y-19.4523 Z1.7308
G1 X6.2230 Y-19.4626 Z1.7262
G1 X6.2098 Y-19.4690 Z1.7229
G1 X6.0754 Y-19.5342 Z1.6956
G1 X6.0121 Y-19.5649 Z1.6830
G1 X5.8224 Y-19.6571 Z1.6416
G1 X5.6748 Y-19.7287 Z1.6069
G1 X5.6537 Y-19.7389 Z1.6017
G1 X5.3032 Y-19.9091 Z1.5109
G1 X5.2742 Y-19.9232 Z1.5027
G1 X4.9527 Y-20.0793 Z1.4061
G1 X4.7471 Y-20.1791 Z1.3387
G1 X4.5995 Y-20.2508 Z1.2873
G1 X4.3043 Y-20.3941 Z1.1757
G1 X4.2543 Y-20.4184 Z1.1570
G1 X4.2147 Y-20.4376 Z1.1409
G1 X3.9196 Y-20.5809 Z1.0157
G1 X3.7245 Y-20.6756 Z0.9268
G1 X3.5822 Y-20.7447 Z0.8592
G1 X3.4549 Y-20.8065 Z0.7967
G1 X3.3856 Y-20.8402 Z0.7612
G0 Z1.8900
G0 X3.3856 Y-20.8402 
G0 Z1.8900
G0 X6.6636 Y-19.2684 
G1 X6.6636 Y-19.2684 Z1.8650 F75.
G1 X6.6570 Y-19.2716 Z1.8273 F25.
G1 X6.6382 Y-19.2809 Z1.7952
G1 X6.6099 Y-19.2949 Z1.7734
G1 X6.5763 Y-19.3115 Z1.7650
G1 X6.5553 Y-19.3219 Z1.7644 F150.
G1 X6.5343 Y-19.3323 Z1.7626
G1 X6.5081 Y-19.3453 Z1.7586
G1 X6.4608 Y-19.3687 Z1.7560
G1 X6.4398 Y-19.3791 Z1.7544
G1 X6.3978 Y-19.3999 Z1.7506
G1 X6.3768 Y-19.4103 Z1.7482
G1 X6.3374 Y-19.4298 Z1.7431
G1 X6.3138 Y-19.4415 Z1.7395
G1 X6.2744 Y-19.4610 Z1.7330
G1 X6.2612 Y-19.4675 Z1.7306
G1 X6.2402 Y-19.4778 Z1.7259
G1 X6.2297 Y-19.4830 Z1.7231
G1 X6.0617 Y-19.5662 Z1.6887
G1 X6.0118 Y-19.5909 Z1.6787
G1 X5.8726 Y-19.6597 Z1.6481
G1 X5.6599 Y-19.7650 Z1.5976
G1 X5.3580 Y-19.9144 Z1.5188
G1 X5.3159 Y-19.9352 Z1.5072
G1 X5.2949 Y-19.9456 Z1.5010
G1 X5.2319 Y-19.9768 Z1.4817
G1 X4.9483 Y-20.1171 Z1.3958
G1 X4.8223 Y-20.1794 Z1.3541
G1 X4.6017 Y-20.2886 Z1.2768
G1 X4.3076 Y-20.4341 Z1.1648
G1 X4.2498 Y-20.4627 Z1.1415
G1 X4.1396 Y-20.5172 Z1.0939
G1 X3.9190 Y-20.6264 Z0.9996
G1 X3.8035 Y-20.6835 Z0.9466
G1 X3.5881 Y-20.7901 Z0.8436
G1 X3.4794 Y-20.8439 Z0.7896
G1 X3.4074 Y-20.8795 Z0.7522
G0 Z1.8900
G0 X3.4074 Y-20.8795 
G0 Z1.8900
G0 X6.6792 Y-19.2804 
G1 X6.6792 Y-19.2804 Z1.8650 F75.
G1 X6.6726 Y-19.2837 Z1.8273 F25.
G1 X6.6539 Y-19.2932 Z1.7952
G1 X6.6257 Y-19.3074 Z1.7734
G1 X6.5923 Y-19.3242 Z1.7650
G1 X6.5713 Y-19.3348 Z1.7644 F150.
G1 X6.5504 Y-19.3453 Z1.7626
G1 X6.5242 Y-19.3585 Z1.7586
G1 X6.4772 Y-19.3823 Z1.7560
G1 X6.4562 Y-19.3928 Z1.7544
G1 X6.4196 Y-19.4113 Z1.7511
G1 X6.3987 Y-19.4218 Z1.7487
G1 X6.3568 Y-19.4429 Z1.7434
G1 X6.3411 Y-19.4508 Z1.7411
G1 X6.2940 Y-19.4746 Z1.7333
G1 X6.2783 Y-19.4825 Z1.7304
G1 X6.2574 Y-19.4930 Z1.7256
G1 X6.2483 Y-19.4977 Z1.7231
G1 X6.0481 Y-19.5985 Z1.6818
G1 X6.0272 Y-19.6091 Z1.6776
G1 X6.0063 Y-19.6196 Z1.6732
G1 X5.9121 Y-19.6671 Z1.6523
G1 X5.6596 Y-19.7944 Z1.5918
G1 X5.4098 Y-19.9203 Z1.5261
G1 X5.2999 Y-19.9757 Z1.4950
G1 X5.0645 Y-20.0944 Z1.4222
G1 X4.9494 Y-20.1524 Z1.3871
G1 X4.8971 Y-20.1788 Z1.3697
G1 X4.8657 Y-20.1946 Z1.3588
G1 X4.5962 Y-20.3305 Z1.2633
G1 X4.3948 Y-20.4320 Z1.1861
G1 X4.3738 Y-20.4426 Z1.1779
G1 X4.2509 Y-20.5046 Z1.1280
G1 X3.9173 Y-20.6727 Z0.9830
G1 X3.8794 Y-20.6918 Z0.9653
G1 X3.5890 Y-20.8382 Z0.8253
G1 X3.5180 Y-20.8740 Z0.7898
G1 X3.4296 Y-20.9186 Z0.7435
G0 Z1.8900
G0 X3.4296 Y-20.9186 
G0 Z1.8900
G0 X6.6946 Y-19.2924 
G1 X6.6946 Y-19.2924 Z1.8650 F75.
G1 X6.6881 Y-19.2957 Z1.8273 F25.
G1 X6.6694 Y-19.3053 Z1.7952
G1 X6.6414 Y-19.3197 Z1.7734
G1 X6.6081 Y-19.3368 Z1.7650
G1 X6.5872 Y-19.3475 Z1.7644 F150.
G1 X6.5664 Y-19.3582 Z1.7625
G1 X6.5403 Y-19.3716 Z1.7586
G1 X6.4986 Y-19.3930 Z1.7563
G1 X6.4778 Y-19.4037 Z1.7548
G1 X6.4361 Y-19.4252 Z1.7510
G1 X6.4152 Y-19.4359 Z1.7486
G1 X6.3787 Y-19.4546 Z1.7440
G1 X6.3527 Y-19.4680 Z1.7401
G1 X6.3110 Y-19.4894 Z1.7331
G1 X6.2953 Y-19.4974 Z1.7301
G1 X6.2745 Y-19.5081 Z1.7253
G1 X6.2667 Y-19.5121 Z1.7232
G1 X6.0087 Y-19.6446 Z1.6695
G1 X5.9618 Y-19.6687 Z1.6589
G1 X5.6594 Y-19.8240 Z1.5859
G1 X5.4614 Y-19.9257 Z1.5334
G1 X5.2998 Y-20.0087 Z1.4873
G1 X4.9610 Y-20.1826 Z1.3817
G1 X4.9402 Y-20.1934 Z1.3747
G1 X4.6014 Y-20.3673 Z1.2538
G1 X4.4606 Y-20.4396 Z1.1995
G1 X4.2573 Y-20.5440 Z1.1167
G1 X3.9811 Y-20.6859 Z0.9956
G1 X3.9159 Y-20.7193 Z0.9657
G1 X3.7726 Y-20.7929 Z0.8956
G1 X3.6058 Y-20.8786 Z0.8147
G1 X3.5577 Y-20.9033 Z0.7906
G1 X3.4517 Y-20.9577 Z0.7346
G0 Z1.8900
G0 X3.4517 Y-20.9577 
G0 Z1.8900
G0 X6.7100 Y-19.3042 
G1 X6.7100 Y-19.3042 Z1.8650 F75.
G1 X6.7035 Y-19.3076 Z1.8273 F25.
G1 X6.6849 Y-19.3174 Z1.7952
G1 X6.6570 Y-19.3320 Z1.7734
G1 X6.6238 Y-19.3493 Z1.7650
G1 X6.6030 Y-19.3602 Z1.7644 F150.
G1 X6.5822 Y-19.3711 Z1.7625
G1 X6.5563 Y-19.3846 Z1.7586
G1 X6.5199 Y-19.4036 Z1.7566
G1 X6.4940 Y-19.4172 Z1.7548
G1 X6.4576 Y-19.4362 Z1.7515
G1 X6.4317 Y-19.4498 Z1.7486
G1 X6.3901 Y-19.4715 Z1.7431
G1 X6.3694 Y-19.4824 Z1.7399
G1 X6.3304 Y-19.5028 Z1.7334
G1 X6.3123 Y-19.5123 Z1.7299
G1 X6.2863 Y-19.5258 Z1.7235
G1 X6.0163 Y-19.6671 Z1.6668
G1 X5.6632 Y-19.8517 Z1.5810
G1 X5.5231 Y-19.9250 Z1.5437
G1 X5.3050 Y-20.0391 Z1.4811
G1 X5.0246 Y-20.1857 Z1.3932
G1 X4.9467 Y-20.2265 Z1.3671
G1 X4.7546 Y-20.3269 Z1.2974
G1 X4.5989 Y-20.4084 Z1.2413
G1 X4.5262 Y-20.4464 Z1.2130
G1 X4.2536 Y-20.5890 Z1.1009
G1 X4.0589 Y-20.6908 Z1.0149
G1 X3.9187 Y-20.7641 Z0.9501
G1 X3.6033 Y-20.9291 Z0.7946
G1 X3.5858 Y-20.9382 Z0.7856
G1 X3.4739 Y-20.9968 Z0.7259
G0 Z1.8900
G0 X3.4739 Y-20.9968 
G0 Z1.8900
G0 X6.7253 Y-19.3160 
G1 X6.7253 Y-19.3160 Z1.8650 F75.
G1 X6.7188 Y-19.3195 Z1.8273 F25.
G1 X6.7002 Y-19.3294 Z1.7952
G1 X6.6724 Y-19.3442 Z1.7734
G1 X6.6394 Y-19.3618 Z1.7650
G1 X6.6187 Y-19.3728 Z1.7644 F150.
G1 X6.5980 Y-19.3838 Z1.7625
G1 X6.5722 Y-19.3976 Z1.7585
G1 X6.5360 Y-19.4168 Z1.7566
G1 X6.5153 Y-19.4279 Z1.7552
G1 X6.4687 Y-19.4527 Z1.7509
G1 X6.4480 Y-19.4637 Z1.7485
G1 X6.4067 Y-19.4857 Z1.7430
G1 X6.3911 Y-19.4940 Z1.7407
G1 X6.3472 Y-19.5174 Z1.7332
G1 X6.3291 Y-19.5270 Z1.7297
G1 X6.3032 Y-19.5408 Z1.7234
G1 X6.0602 Y-19.6702 Z1.6719
G1 X6.0059 Y-19.6992 Z1.6595
G1 X5.8533 Y-19.7804 Z1.6217
G1 X5.6671 Y-19.8796 Z1.5761
G1 X5.6051 Y-19.9126 Z1.5596
G1 X5.5637 Y-19.9346 Z1.5483
G1 X5.2986 Y-20.0758 Z1.4714
G1 X5.0879 Y-20.1880 Z1.4048
G1 X4.9431 Y-20.2652 Z1.3559
G1 X4.6121 Y-20.4414 Z1.2346
G1 X4.5862 Y-20.4552 Z1.2245
G1 X4.2552 Y-20.6315 Z1.0873
G1 X4.1363 Y-20.6948 Z1.0344
G1 X3.9243 Y-20.8077 Z0.9357
G1 X3.6812 Y-20.9372 Z0.8151
G1 X3.5937 Y-20.9838 Z0.7699
G1 X3.4960 Y-21.0358 Z0.7174
G0 Z1.8900
G0 X3.4960 Y-21.0358 
G0 Z1.8900
G0 X6.7404 Y-19.3278 
G1 X6.7404 Y-19.3278 Z1.8650 F75.
G1 X6.7339 Y-19.3313 Z1.8274 F25.
G1 X6.7155 Y-19.3413 Z1.7952
G1 X6.6878 Y-19.3563 Z1.7734
G1 X6.6549 Y-19.3741 Z1.7650
G1 X6.6343 Y-19.3853 Z1.7644 F150.
G1 X6.6137 Y-19.3965 Z1.7625
G1 X6.5899 Y-19.4094 Z1.7587
G1 X6.5467 Y-19.4328 Z1.7563
G1 X6.5313 Y-19.4411 Z1.7551
G1 X6.4849 Y-19.4663 Z1.7508
G1 X6.4643 Y-19.4774 Z1.7484
G1 X6.4257 Y-19.4984 Z1.7433
G1 X6.4076 Y-19.5082 Z1.7405
G1 X6.3664 Y-19.5305 Z1.7335
G1 X6.3458 Y-19.5417 Z1.7295
G1 X6.3252 Y-19.5529 Z1.7243
G1 X6.1089 Y-19.6702 Z1.6782
G1 X6.0059 Y-19.7260 Z1.6547
G1 X5.6569 Y-19.9152 Z1.5676
G1 X5.6247 Y-19.9327 Z1.5588
G1 X5.3002 Y-20.1086 Z1.4641
G1 X5.1508 Y-20.1896 Z1.4165
G1 X4.9448 Y-20.3013 Z1.3464
G1 X4.6769 Y-20.4466 Z1.2476
G1 X4.5945 Y-20.4912 Z1.2154
G1 X4.3885 Y-20.6029 Z1.1286
G1 X4.2597 Y-20.6728 Z1.0749
G1 X4.2030 Y-20.7035 Z1.0495
G1 X3.9352 Y-20.8487 Z0.9237
G1 X3.9146 Y-20.8599 Z0.9138
G1 X3.7575 Y-20.9451 Z0.8351
G1 X3.5962 Y-21.0325 Z0.7512
G1 X3.5202 Y-21.0737 Z0.7101
G0 Z1.8900
G0 X3.5202 Y-21.0737 
G0 Z1.8900
G0 X6.7554 Y-19.3394 
G1 X6.7554 Y-19.3394 Z1.8650 F75.
G1 X6.7490 Y-19.3429 Z1.8274 F25.
G1 X6.7306 Y-19.3531 Z1.7953
G1 X6.7031 Y-19.3683 Z1.7734
G1 X6.6703 Y-19.3864 Z1.7650
G1 X6.6498 Y-19.3977 Z1.7644 F150.
G1 X6.6293 Y-19.4090 Z1.7625
G1 X6.6062 Y-19.4218 Z1.7588
G1 X6.6036 Y-19.4232 Z1.7585
G1 X6.5626 Y-19.4458 Z1.7562
G1 X6.5472 Y-19.4543 Z1.7551
G1 X6.5010 Y-19.4798 Z1.7507
G1 X6.4856 Y-19.4883 Z1.7490
G1 X6.4446 Y-19.5110 Z1.7436
G1 X6.4241 Y-19.5223 Z1.7404
G1 X6.3830 Y-19.5449 Z1.7333
G1 X6.3625 Y-19.5563 Z1.7292
G1 X6.3420 Y-19.5676 Z1.7241
G1 X6.1496 Y-19.6738 Z1.6829
G1 X6.0060 Y-19.7530 Z1.6498
G1 X5.6853 Y-19.9300 Z1.5690
G1 X5.6520 Y-19.9484 Z1.5599
G1 X5.2980 Y-20.1437 Z1.4555
G1 X5.2031 Y-20.1961 Z1.4250
G1 X4.9466 Y-20.3377 Z1.3370
G1 X4.7414 Y-20.4509 Z1.2607
G1 X4.5978 Y-20.5302 Z1.2041
G1 X4.2900 Y-20.7001 Z1.0736
G1 X4.2515 Y-20.7213 Z1.0564
G1 X4.1258 Y-20.7907 Z0.9967
G1 X3.9232 Y-20.9025 Z0.9007
G1 X3.8360 Y-20.9506 Z0.8567
G1 X3.5985 Y-21.0817 Z0.7323
G1 X3.5453 Y-21.1111 Z0.7033
G0 Z1.8900
G0 X3.5453 Y-21.1111 
G0 Z1.8900
G0 X6.7704 Y-19.3510 
G1 X6.7704 Y-19.3510 Z1.8650 F75.
G1 X6.7640 Y-19.3546 Z1.8274 F25.
G1 X6.7457 Y-19.3648 Z1.7953
G1 X6.7182 Y-19.3803 Z1.7734
G1 X6.6856 Y-19.3986 Z1.7650
G1 X6.6652 Y-19.4101 Z1.7644 F150.
G1 X6.6447 Y-19.4215 Z1.7625
G1 X6.6217 Y-19.4344 Z1.7588
G1 X6.6192 Y-19.4359 Z1.7585
G1 X6.5783 Y-19.4588 Z1.7562
G1 X6.5630 Y-19.4674 Z1.7551
G1 X6.5196 Y-19.4918 Z1.7510
G1 X6.5017 Y-19.5019 Z1.7489
G1 X6.4813 Y-19.5134 Z1.7462
G1 X6.4404 Y-19.5363 Z1.7402
G1 X6.3995 Y-19.5593 Z1.7331
G1 X6.3791 Y-19.5707 Z1.7290
G1 X6.3587 Y-19.5822 Z1.7239
G1 X6.2054 Y-19.6683 Z1.6910
G1 X6.0113 Y-19.7773 Z1.6462
G1 X5.7354 Y-19.9323 Z1.5762
G1 X5.6524 Y-19.9789 Z1.5534
G1 X5.2986 Y-20.1776 Z1.4477
G1 X5.2654 Y-20.1963 Z1.4370
G1 X4.9436 Y-20.3771 Z1.3257
G1 X4.8056 Y-20.4545 Z1.2740
G1 X4.5962 Y-20.5722 Z1.1907
G1 X4.3561 Y-20.7071 Z1.0881
G1 X4.2539 Y-20.7644 Z1.0421
G1 X3.9244 Y-20.9495 Z0.8838
G1 X3.9065 Y-20.9596 Z0.8745
G1 X3.6027 Y-21.1302 Z0.7143
G1 X3.5703 Y-21.1484 Z0.6965
G0 Z1.8900
G0 X3.5703 Y-21.1484 
G0 Z1.8900
G0 X6.7852 Y-19.3625 
G1 X6.7852 Y-19.3625 Z1.8650 F75.
G1 X6.7788 Y-19.3661 Z1.8274 F25.
G1 X6.7606 Y-19.3765 Z1.7953
G1 X6.7333 Y-19.3921 Z1.7734
G1 X6.7008 Y-19.4107 Z1.7650
G1 X6.6805 Y-19.4223 Z1.7644 F150.
G1 X6.6601 Y-19.4340 Z1.7624
G1 X6.6372 Y-19.4470 Z1.7587
G1 X6.5940 Y-19.4718 Z1.7562
G1 X6.5787 Y-19.4805 Z1.7550
G1 X6.5380 Y-19.5037 Z1.7512
G1 X6.5177 Y-19.5154 Z1.7488
G1 X6.4973 Y-19.5270 Z1.7461
G1 X6.4566 Y-19.5503 Z1.7401
G1 X6.4185 Y-19.5721 Z1.7334
G1 X6.3956 Y-19.5852 Z1.7288
G1 X6.3752 Y-19.5968 Z1.7237
G1 X6.2532 Y-19.6666 Z1.6974
G1 X6.2328 Y-19.6782 Z1.6929
G1 X6.0052 Y-19.8083 Z1.6397
G1 X5.7851 Y-19.9341 Z1.5835
G1 X5.6516 Y-20.0104 Z1.5465
G1 X5.3273 Y-20.1957 Z1.4487
G1 X5.2968 Y-20.2132 Z1.4388
G1 X4.9432 Y-20.4153 Z1.3152
G1 X4.8695 Y-20.4574 Z1.2874
G1 X4.5999 Y-20.6115 Z1.1795
G1 X4.4320 Y-20.7075 Z1.1073
G1 X4.2590 Y-20.8063 Z1.0290
G1 X4.0047 Y-20.9517 Z0.9061
G1 X3.9233 Y-20.9982 Z0.8649
G1 X3.6036 Y-21.1809 Z0.6943
G1 X3.5954 Y-21.1856 Z0.6897
G0 Z1.8900
G0 X3.5954 Y-21.1856 
G0 Z1.8900
G0 X6.8000 Y-19.3739 
G1 X6.8000 Y-19.3739 Z1.8650 F75.
G1 X6.7936 Y-19.3776 Z1.8274 F25.
G1 X6.7755 Y-19.3881 Z1.7953
G1 X6.7483 Y-19.4039 Z1.7734
G1 X6.7159 Y-19.4228 Z1.7650
G1 X6.6957 Y-19.4345 Z1.7644 F150.
G1 X6.6754 Y-19.4463 Z1.7624
G1 X6.6514 Y-19.4603 Z1.7586
G1 X6.6096 Y-19.4846 Z1.7562
G1 X6.5944 Y-19.4934 Z1.7550
G1 X6.5539 Y-19.5170 Z1.7511
G1 X6.5336 Y-19.5288 Z1.7487
G1 X6.5133 Y-19.5406 Z1.7460
G1 X6.4728 Y-19.5641 Z1.7400
G1 X6.4348 Y-19.5862 Z1.7333
G1 X6.4222 Y-19.5936 Z1.7308
G1 X6.4120 Y-19.5995 Z1.7286
G1 X6.3968 Y-19.6083 Z1.7246
G1 X6.3513 Y-19.6348 Z1.7150
G1 X6.2905 Y-19.6702 Z1.7016
G1 X6.2702 Y-19.6820 Z1.6970
G1 X6.0043 Y-19.8366 Z1.6345
G1 X5.8346 Y-19.9353 Z1.5908
G1 X5.6523 Y-20.0413 Z1.5400
G1 X5.3889 Y-20.1945 Z1.4600
G1 X5.2977 Y-20.2475 Z1.4303
G1 X4.9431 Y-20.4537 Z1.3048
G1 X4.9178 Y-20.4684 Z1.2949
G1 X4.5962 Y-20.6554 Z1.1650
G1 X4.4923 Y-20.7158 Z1.1199
G1 X4.2568 Y-20.8528 Z1.0122
G1 X4.0719 Y-20.9603 Z0.9222
G1 X3.9250 Y-21.0457 Z0.8473
G1 X3.6651 Y-21.1968 Z0.7074
G1 X3.6318 Y-21.2162 Z0.6891
G1 X3.6207 Y-21.2227 Z0.6828
G0 Z1.8900
G0 X3.6207 Y-21.2227 
G0 Z1.8900
G0 X6.8146 Y-19.3852 
G1 X6.8146 Y-19.3852 Z1.8650 F75.
G1 X6.8083 Y-19.3890 Z1.8274 F25.
G1 X6.7903 Y-19.3997 Z1.7953
G1 X6.7632 Y-19.4157 Z1.7734
G1 X6.7310 Y-19.4347 Z1.7650
G1 X6.7108 Y-19.4467 Z1.7644 F150.
G1 X6.6906 Y-19.4586 Z1.7624
G1 X6.6667 Y-19.4728 Z1.7585
G1 X6.6301 Y-19.4944 Z1.7565
G1 X6.6100 Y-19.5063 Z1.7550
G1 X6.5696 Y-19.5302 Z1.7511
G1 X6.5494 Y-19.5421 Z1.7487
G1 X6.5293 Y-19.5541 Z1.7460
G1 X6.4889 Y-19.5779 Z1.7398
G1 X6.4536 Y-19.5988 Z1.7336
G1 X6.4385 Y-19.6078 Z1.7306
G1 X6.4284 Y-19.6137 Z1.7283
G1 X6.4108 Y-19.6242 Z1.7238
G1 X6.3679 Y-19.6495 Z1.7148
G1 X6.3175 Y-19.6794 Z1.7036
G1 X6.0048 Y-19.8643 Z1.6296
G1 X5.8838 Y-19.9359 Z1.5982
G1 X5.6518 Y-20.0731 Z1.5331
G1 X5.4400 Y-20.1984 Z1.4683
G1 X5.2937 Y-20.2850 Z1.4201
G1 X5.0063 Y-20.4550 Z1.3176
G1 X4.9457 Y-20.4908 Z1.2947
G1 X4.7138 Y-20.6280 Z1.1999
G1 X4.5978 Y-20.6966 Z1.1526
G1 X4.5574 Y-20.7205 Z1.1349
G1 X4.2599 Y-20.8965 Z0.9979
G1 X4.1439 Y-20.9651 Z0.9410
G1 X3.9321 Y-21.0904 Z0.8324
G1 X3.7474 Y-21.1997 Z0.7324
G1 X3.6686 Y-21.2463 Z0.6889
G1 X3.6461 Y-21.2596 Z0.6759
G0 Z1.8900
G0 X3.6461 Y-21.2596 
G0 Z1.8900
G0 X6.8292 Y-19.3965 
G1 X6.8292 Y-19.3965 Z1.8650 F75.
G1 X6.8229 Y-19.4003 Z1.8274 F25.
G1 X6.8050 Y-19.4111 Z1.7953
G1 X6.7780 Y-19.4274 Z1.7734
G1 X6.7459 Y-19.4466 Z1.7650
G1 X6.7259 Y-19.4587 Z1.7644 F150.
G1 X6.7058 Y-19.4708 Z1.7624
G1 X6.6826 Y-19.4848 Z1.7586
G1 X6.6455 Y-19.5071 Z1.7565
G1 X6.6254 Y-19.5191 Z1.7549
G1 X6.5853 Y-19.5433 Z1.7510
G1 X6.5652 Y-19.5554 Z1.7486
G1 X6.5451 Y-19.5675 Z1.7459
G1 X6.5050 Y-19.5916 Z1.7397
G1 X6.4698 Y-19.6128 Z1.7334
G1 X6.4547 Y-19.6218 Z1.7304
G1 X6.4447 Y-19.6279 Z1.7281
G1 X6.4296 Y-19.6370 Z1.7241
G1 X6.3644 Y-19.6762 Z1.7102
G1 X6.0129 Y-19.8877 Z1.6265
G1 X5.9326 Y-19.9360 Z1.6056
G1 X5.9025 Y-19.9541 Z1.5973
G1 X5.6514 Y-20.1052 Z1.5261
G1 X5.5008 Y-20.1958 Z1.4798
G1 X5.4807 Y-20.2079 Z1.4733
G1 X5.2925 Y-20.3212 Z1.4108
G1 X5.0590 Y-20.4616 Z1.3269
G1 X4.9385 Y-20.5341 Z1.2806
G1 X4.6574 Y-20.7033 Z1.1646
G1 X4.6071 Y-20.7335 Z1.1432
G1 X4.5896 Y-20.7441 Z1.1353
G1 X4.4164 Y-20.8483 Z1.0546
G1 X4.2607 Y-20.9419 Z0.9824
G1 X4.2155 Y-20.9691 Z0.9600
G1 X3.9344 Y-21.1383 Z0.8148
G1 X3.8198 Y-21.2072 Z0.7523
G1 X3.7057 Y-21.2759 Z0.6889
G1 X3.6715 Y-21.2965 Z0.6690
G0 Z1.8900
G0 X3.6715 Y-21.2965 
G0 Z1.8900
G0 X6.8437 Y-19.4078 
G1 X6.8437 Y-19.4078 Z1.8650 F75.
G1 X6.8374 Y-19.4116 Z1.8274 F25.
G1 X6.8196 Y-19.4225 Z1.7953
G1 X6.7927 Y-19.4390 Z1.7734
G1 X6.7608 Y-19.4585 Z1.7650
G1 X6.7408 Y-19.4707 Z1.7644 F150.
G1 X6.7208 Y-19.4830 Z1.7624
G1 X6.6983 Y-19.4967 Z1.7586
G1 X6.6609 Y-19.5197 Z1.7564
G1 X6.6409 Y-19.5319 Z1.7549
G1 X6.6009 Y-19.5564 Z1.7510
G1 X6.5809 Y-19.5686 Z1.7485
G1 X6.5609 Y-19.5808 Z1.7458
G1 X6.5209 Y-19.6053 Z1.7396
G1 X6.5009 Y-19.6175 Z1.7360
G1 X6.4734 Y-19.6343 Z1.7307
G1 X6.4609 Y-19.6420 Z1.7279
G1 X6.4459 Y-19.6512 Z1.7239
G1 X6.3910 Y-19.6848 Z1.7121
G1 X6.3610 Y-19.7031 Z1.7052
G1 X6.0036 Y-19.9218 Z1.6190
G1 X5.9711 Y-19.9417 Z1.6104
G1 X5.6513 Y-20.1374 Z1.5192
G1 X5.5413 Y-20.2047 Z1.4850
G1 X5.3014 Y-20.3515 Z1.4048
G1 X5.2814 Y-20.3637 Z1.3978
G1 X5.1215 Y-20.4616 Z1.3399
G1 X5.0015 Y-20.5350 Z1.2937
G1 X4.9391 Y-20.5732 Z1.2694
G1 X4.7017 Y-20.7185 Z1.1708
G1 X4.6017 Y-20.7797 Z1.1268
G1 X4.5817 Y-20.7919 Z1.1176
G1 X4.2918 Y-20.9693 Z0.9814
G1 X4.2556 Y-20.9914 Z0.9634
G1 X3.9320 Y-21.1895 Z0.7946
G1 X3.8820 Y-21.2200 Z0.7669
G1 X3.7402 Y-21.3068 Z0.6875
G1 X3.6968 Y-21.3333 Z0.6622
G0 Z1.8900
G0 X3.6968 Y-21.3333 
G0 Z1.8900
G0 X6.8581 Y-19.4189 
G1 X6.8581 Y-19.4189 Z1.8650 F75.
G1 X6.8519 Y-19.4228 Z1.8274 F25.
G1 X6.8341 Y-19.4339 Z1.7953
G1 X6.8073 Y-19.4505 Z1.7734
G1 X6.7756 Y-19.4703 Z1.7650
G1 X6.7557 Y-19.4827 Z1.7644 F150.
G1 X6.7358 Y-19.4950 Z1.7624
G1 X6.7134 Y-19.5090 Z1.7586
G1 X6.6761 Y-19.5322 Z1.7564
G1 X6.6562 Y-19.5446 Z1.7549
G1 X6.6164 Y-19.5693 Z1.7509
G1 X6.5965 Y-19.5817 Z1.7485
G1 X6.5766 Y-19.5941 Z1.7457
G1 X6.5368 Y-19.6189 Z1.7394
G1 X6.5020 Y-19.6405 Z1.7331
G1 X6.4871 Y-19.6498 Z1.7300
G1 X6.4771 Y-19.6560 Z1.7277
G1 X6.4647 Y-19.6637 Z1.7243
G1 X6.4174 Y-19.6931 Z1.7140
G1 X6.3627 Y-19.7272 Z1.7015
G1 X6.0194 Y-19.9408 Z1.6178
G1 X5.9970 Y-19.9547 Z1.6118
G1 X5.6500 Y-20.1706 Z1.5118
G1 X5.5916 Y-20.2070 Z1.4935
G1 X5.2931 Y-20.3927 Z1.3929
G1 X5.1836 Y-20.4608 Z1.3530
G1 X5.1637 Y-20.4732 Z1.3455
G1 X4.9398 Y-20.6125 Z1.2582
G1 X4.7657 Y-20.7209 Z1.1854
G1 X4.5966 Y-20.8261 Z1.1104
G1 X4.3677 Y-20.9685 Z1.0021
G1 X4.3080 Y-21.0056 Z0.9726
G1 X4.2570 Y-21.0374 Z0.9471
G1 X3.9797 Y-21.2099 Z0.8011
