( BEGIN FILE Hum-PUP-Middle-front-01.ncTNUM: -1 )
( Lefty:False Nunits:2 )
( cline: 9.733 delta:15.5 )
( start_unit: 1 num_units: 2)
( MOP:  Hum-PUP-Middle-front-01 )
( FILE: G:\Shared drives\AlloyProjectFiles\Customer CAD files\Alloy-Standard-Builds-CAM\s-in\PUPs\Hum-PUP-Middle-front-01.nc)
G90
(  BEGIN TOOL LIST )
(  TOOL 11 - Downcut PT750 ROUGH - DESC: 0.7500 DIA, 2 FLUTE,  CARBIDE MAT )
(  ENDOF TOOL LIST )
( Hum-PUP-Middle-front-01)
T11
S14000
M3
G0 Z4.0000
G0 X10.4145 Y-13.4749 
G1 X10.4145 Y-13.4749 Z1.7600 F75.
G1 X10.5584 Y-13.4749 Z1.7346 F50.
G1 X10.5621 Y-13.4669 Z1.7331
G1 X10.5660 Y-13.4589 Z1.7315
G1 X10.5699 Y-13.4509 Z1.7299
G1 X10.5740 Y-13.4430 Z1.7284
G1 X10.5781 Y-13.4352 Z1.7268
G1 X10.5824 Y-13.4274 Z1.7252
G1 X10.5867 Y-13.4197 Z1.7237
G1 X10.5912 Y-13.4120 Z1.7221
G1 X10.5957 Y-13.4044 Z1.7205
G1 X10.6004 Y-13.3968 Z1.7190
G1 X10.6052 Y-13.3893 Z1.7174
G1 X10.6100 Y-13.3819 Z1.7158
G1 X10.6150 Y-13.3745 Z1.7143
G1 X10.6200 Y-13.3673 Z1.7127
G1 X10.6252 Y-13.3600 Z1.7112
G1 X10.6200 Y-13.3528 Z1.7096
G1 X10.6150 Y-13.3455 Z1.7080
G1 X10.6100 Y-13.3381 Z1.7065
G1 X10.6052 Y-13.3307 Z1.7049
G1 X10.6004 Y-13.3232 Z1.7033
G1 X10.5957 Y-13.3157 Z1.7018
G1 X10.5912 Y-13.3081 Z1.7002
G1 X10.5867 Y-13.3004 Z1.6986
G1 X10.5824 Y-13.2927 Z1.6971
G1 X10.5781 Y-13.2849 Z1.6955
G1 X10.5740 Y-13.2770 Z1.6939
G1 X10.5699 Y-13.2691 Z1.6924
G1 X10.5660 Y-13.2612 Z1.6908
G1 X10.5621 Y-13.2532 Z1.6892
G1 X10.5584 Y-13.2451 Z1.6877
G1 X8.9083 Y-13.2451 Z1.3967
G1 X8.9065 Y-13.2492 Z1.3960
G1 X8.9046 Y-13.2532 Z1.3952
G1 X8.9027 Y-13.2572 Z1.3944
G1 X8.9008 Y-13.2612 Z1.3936
G1 X8.8988 Y-13.2652 Z1.3928
G1 X8.8968 Y-13.2691 Z1.3920
G1 X8.8948 Y-13.2731 Z1.3913
G1 X8.8928 Y-13.2770 Z1.3905
G1 X8.8907 Y-13.2810 Z1.3897
G1 X8.8886 Y-13.2849 Z1.3889
G1 X8.8865 Y-13.2888 Z1.3881
G1 X8.8844 Y-13.2927 Z1.3873
G1 X8.8822 Y-13.2965 Z1.3866
G1 X8.8800 Y-13.3004 Z1.3858
G1 X8.8778 Y-13.3042 Z1.3850
G17
G2X8.8416Y-13.3600Z1.3850I-0.5814J0.3379 F150.
G2X8.9083Y-13.4749Z1.3850I-0.5452J-0.3937
G1 X10.5584 Y-13.4749 Z1.3850
G2X10.6252Y-13.3600Z1.3850I0.6120J-0.2788
G2X10.5584Y-13.2451Z1.3850I0.5452J0.3937
G1 X8.9083 Y-13.2451 Z1.3850
G2X8.8778Y-13.3042Z1.3850I-0.6119J0.2788
G1 X8.6638 Y-13.1799 Z1.3850
G2X8.4709Y-13.3538Z1.3850I-0.3674J0.2136
G1 X8.4709 Y-13.3662 Z1.3850
G2X8.7202Y-13.7224Z1.3850I-0.1745J-0.3875
G1 X10.7465 Y-13.7224 Z1.3850
G2X10.9956Y-13.3663Z1.3850I0.4239J-0.0313
G1 X10.9956 Y-13.3537 Z1.3850
G2X10.7465Y-12.9976Z1.3850I0.1748J0.3874
G1 X8.7202 Y-12.9976 Z1.3850
G2X8.6638Y-13.1799Z1.3850I-0.4238J0.0313
G0 Z1.3850
G0 X8.9191 Y-13.2451 
G1 X8.9083 Y-13.2451 Z1.3831 F50.
G1 X8.9046 Y-13.2532 Z1.3815
G1 X8.9008 Y-13.2612 Z1.3800
G1 X8.8968 Y-13.2691 Z1.3784
G1 X8.8928 Y-13.2770 Z1.3768
G1 X8.8886 Y-13.2849 Z1.3753
G1 X8.8844 Y-13.2927 Z1.3737
G1 X8.8800 Y-13.3004 Z1.3721
G1 X8.8756 Y-13.3081 Z1.3706
G1 X8.8710 Y-13.3157 Z1.3690
G1 X8.8663 Y-13.3232 Z1.3674
G1 X8.8616 Y-13.3307 Z1.3659
G1 X8.8567 Y-13.3381 Z1.3643
G1 X8.8518 Y-13.3455 Z1.3628
G1 X8.8467 Y-13.3528 Z1.3612
G1 X8.8416 Y-13.3600 Z1.3596
G1 X8.8467 Y-13.3673 Z1.3581
G1 X8.8518 Y-13.3745 Z1.3565
G1 X8.8567 Y-13.3819 Z1.3549
G1 X8.8616 Y-13.3893 Z1.3534
G1 X8.8663 Y-13.3968 Z1.3518
G1 X8.8710 Y-13.4044 Z1.3502
G1 X8.8756 Y-13.4120 Z1.3487
G1 X8.8800 Y-13.4197 Z1.3471
G1 X8.8844 Y-13.4274 Z1.3455
G1 X8.8886 Y-13.4352 Z1.3440
G1 X8.8928 Y-13.4430 Z1.3424
G1 X8.8968 Y-13.4509 Z1.3408
G1 X8.9008 Y-13.4589 Z1.3393
G1 X8.9046 Y-13.4669 Z1.3377
G1 X8.9083 Y-13.4749 Z1.3362
G1 X10.5584 Y-13.4749 Z1.0452
G1 X10.5621 Y-13.4669 Z1.0436
G1 X10.5660 Y-13.4589 Z1.0421
G1 X10.5699 Y-13.4509 Z1.0405
G1 X10.5740 Y-13.4430 Z1.0389
G1 X10.5781 Y-13.4352 Z1.0374
G1 X10.5824 Y-13.4274 Z1.0358
G1 X10.5867 Y-13.4197 Z1.0343
G1 X10.5912 Y-13.4120 Z1.0327
G1 X10.5957 Y-13.4044 Z1.0311
G1 X10.6004 Y-13.3968 Z1.0296
G1 X10.6052 Y-13.3893 Z1.0280
G1 X10.6100 Y-13.3819 Z1.0264
G1 X10.6150 Y-13.3745 Z1.0249
G1 X10.6200 Y-13.3673 Z1.0233
G1 X10.6252 Y-13.3600 Z1.0217
G1 X10.6226 Y-13.3564 Z1.0210
G1 X10.6200 Y-13.3528 Z1.0202
G1 X10.6175 Y-13.3492 Z1.0194
G1 X10.6150 Y-13.3455 Z1.0186
G1 X10.6125 Y-13.3418 Z1.0178
G1 X10.6100 Y-13.3381 Z1.0170
G1 X10.6076 Y-13.3344 Z1.0163
G1 X10.6052 Y-13.3307 Z1.0155
G1 X10.6028 Y-13.3270 Z1.0147
G1 X10.6004 Y-13.3232 Z1.0139
G1 X10.5981 Y-13.3195 Z1.0131
G1 X10.5957 Y-13.3157 Z1.0123
G1 X10.5934 Y-13.3119 Z1.0116
G1 X10.5912 Y-13.3081 Z1.0108
G1 X10.5889 Y-13.3042 Z1.0100
G2X10.5584Y-13.2451Z1.0100I0.5815J0.3379 F150.
G1 X8.9083 Y-13.2451 Z1.0100
G2X8.8416Y-13.3600Z1.0100I-0.6119J0.2788
G2X8.9083Y-13.4749Z1.0100I-0.5452J-0.3937
G1 X10.5584 Y-13.4749 Z1.0100
G2X10.6252Y-13.3600Z1.0100I0.6120J-0.2788
G2X10.5889Y-13.3042Z1.0100I0.5452J0.3937
G1 X10.8029 Y-13.1799 Z1.0100
G2X10.7465Y-12.9976Z1.0100I0.3675J0.2136
G1 X8.7202 Y-12.9976 Z1.0100
G2X8.4709Y-13.3538Z1.0100I-0.4238J0.0313
G1 X8.4709 Y-13.3662 Z1.0100
G2X8.7202Y-13.7224Z1.0100I-0.1745J-0.3875
G1 X10.7465 Y-13.7224 Z1.0100
G2X10.9956Y-13.3663Z1.0100I0.4239J-0.0313
G1 X10.9956 Y-13.3537 Z1.0100
G2X10.8029Y-13.1799Z1.0100I0.1748J0.3874
G0 Z4.0000
G0 X10.8029 Y-13.1799 
M5
G53 Z
( MOP:  Hum-PUP-Middle-front-01 )
( FILE: G:\Shared drives\AlloyProjectFiles\Customer CAD files\Alloy-Standard-Builds-CAM\s-in\PUPs\Hum-PUP-Middle-front-01.nc)
G90
(  BEGIN TOOL LIST )
(  TOOL 11 - Downcut PT750 ROUGH - DESC: 0.7500 DIA, 2 FLUTE,  CARBIDE MAT )
(  ENDOF TOOL LIST )
( Hum-PUP-Middle-front-01)
T11
S14000
M3
G0 Z4.0000
G0 X25.9145 Y-13.4749 
G1 X25.9145 Y-13.4749 Z1.7600 F75.
G1 X26.0584 Y-13.4749 Z1.7346 F50.
G1 X26.0621 Y-13.4669 Z1.7331
G1 X26.0660 Y-13.4589 Z1.7315
G1 X26.0699 Y-13.4509 Z1.7299
G1 X26.0740 Y-13.4430 Z1.7284
G1 X26.0781 Y-13.4352 Z1.7268
G1 X26.0824 Y-13.4274 Z1.7252
G1 X26.0867 Y-13.4197 Z1.7237
G1 X26.0912 Y-13.4120 Z1.7221
G1 X26.0957 Y-13.4044 Z1.7205
G1 X26.1004 Y-13.3968 Z1.7190
G1 X26.1052 Y-13.3893 Z1.7174
G1 X26.1100 Y-13.3819 Z1.7158
G1 X26.1150 Y-13.3745 Z1.7143
G1 X26.1200 Y-13.3673 Z1.7127
G1 X26.1252 Y-13.3600 Z1.7112
G1 X26.1200 Y-13.3528 Z1.7096
G1 X26.1150 Y-13.3455 Z1.7080
G1 X26.1100 Y-13.3381 Z1.7065
G1 X26.1052 Y-13.3307 Z1.7049
G1 X26.1004 Y-13.3232 Z1.7033
G1 X26.0957 Y-13.3157 Z1.7018
G1 X26.0912 Y-13.3081 Z1.7002
G1 X26.0867 Y-13.3004 Z1.6986
G1 X26.0824 Y-13.2927 Z1.6971
G1 X26.0781 Y-13.2849 Z1.6955
G1 X26.0740 Y-13.2770 Z1.6939
G1 X26.0699 Y-13.2691 Z1.6924
G1 X26.0660 Y-13.2612 Z1.6908
G1 X26.0621 Y-13.2532 Z1.6892
G1 X26.0584 Y-13.2451 Z1.6877
G1 X24.4083 Y-13.2451 Z1.3967
G1 X24.4065 Y-13.2492 Z1.3960
G1 X24.4046 Y-13.2532 Z1.3952
G1 X24.4027 Y-13.2572 Z1.3944
G1 X24.4008 Y-13.2612 Z1.3936
G1 X24.3988 Y-13.2652 Z1.3928
G1 X24.3968 Y-13.2691 Z1.3920
G1 X24.3948 Y-13.2731 Z1.3913
G1 X24.3928 Y-13.2770 Z1.3905
G1 X24.3907 Y-13.2810 Z1.3897
G1 X24.3886 Y-13.2849 Z1.3889
G1 X24.3865 Y-13.2888 Z1.3881
G1 X24.3844 Y-13.2927 Z1.3873
G1 X24.3822 Y-13.2965 Z1.3866
G1 X24.3800 Y-13.3004 Z1.3858
G1 X24.3778 Y-13.3042 Z1.3850
G17
G2X24.3416Y-13.3600Z1.3850I-0.5814J0.3379 F150.
G2X24.4083Y-13.4749Z1.3850I-0.5452J-0.3937
G1 X26.0584 Y-13.4749 Z1.3850
G2X26.1252Y-13.3600Z1.3850I0.6120J-0.2788
G2X26.0584Y-13.2451Z1.3850I0.5452J0.3937
G1 X24.4083 Y-13.2451 Z1.3850
G2X24.3778Y-13.3042Z1.3850I-0.6119J0.2788
G1 X24.1638 Y-13.1799 Z1.3850
G2X23.9709Y-13.3538Z1.3850I-0.3674J0.2136
G1 X23.9709 Y-13.3662 Z1.3850
G2X24.2202Y-13.7224Z1.3850I-0.1745J-0.3875
G1 X26.2465 Y-13.7224 Z1.3850
G2X26.4956Y-13.3663Z1.3850I0.4239J-0.0313
G1 X26.4956 Y-13.3537 Z1.3850
G2X26.2465Y-12.9976Z1.3850I0.1748J0.3874
G1 X24.2202 Y-12.9976 Z1.3850
G2X24.1638Y-13.1799Z1.3850I-0.4238J0.0313
G0 Z1.3850
G0 X24.4191 Y-13.2451 
G1 X24.4083 Y-13.2451 Z1.3831 F50.
G1 X24.4046 Y-13.2532 Z1.3815
G1 X24.4008 Y-13.2612 Z1.3800
G1 X24.3968 Y-13.2691 Z1.3784
G1 X24.3928 Y-13.2770 Z1.3768
G1 X24.3886 Y-13.2849 Z1.3753
G1 X24.3844 Y-13.2927 Z1.3737
G1 X24.3800 Y-13.3004 Z1.3721
G1 X24.3756 Y-13.3081 Z1.3706
G1 X24.3710 Y-13.3157 Z1.3690
G1 X24.3663 Y-13.3232 Z1.3674
G1 X24.3616 Y-13.3307 Z1.3659
G1 X24.3567 Y-13.3381 Z1.3643
G1 X24.3518 Y-13.3455 Z1.3628
G1 X24.3467 Y-13.3528 Z1.3612
G1 X24.3416 Y-13.3600 Z1.3596
G1 X24.3467 Y-13.3673 Z1.3581
G1 X24.3518 Y-13.3745 Z1.3565
G1 X24.3567 Y-13.3819 Z1.3549
G1 X24.3616 Y-13.3893 Z1.3534
G1 X24.3663 Y-13.3968 Z1.3518
G1 X24.3710 Y-13.4044 Z1.3502
G1 X24.3756 Y-13.4120 Z1.3487
G1 X24.3800 Y-13.4197 Z1.3471
G1 X24.3844 Y-13.4274 Z1.3455
G1 X24.3886 Y-13.4352 Z1.3440
G1 X24.3928 Y-13.4430 Z1.3424
G1 X24.3968 Y-13.4509 Z1.3408
G1 X24.4008 Y-13.4589 Z1.3393
G1 X24.4046 Y-13.4669 Z1.3377
G1 X24.4083 Y-13.4749 Z1.3362
G1 X26.0584 Y-13.4749 Z1.0452
G1 X26.0621 Y-13.4669 Z1.0436
G1 X26.0660 Y-13.4589 Z1.0421
G1 X26.0699 Y-13.4509 Z1.0405
G1 X26.0740 Y-13.4430 Z1.0389
G1 X26.0781 Y-13.4352 Z1.0374
G1 X26.0824 Y-13.4274 Z1.0358
G1 X26.0867 Y-13.4197 Z1.0343
G1 X26.0912 Y-13.4120 Z1.0327
G1 X26.0957 Y-13.4044 Z1.0311
G1 X26.1004 Y-13.3968 Z1.0296
G1 X26.1052 Y-13.3893 Z1.0280
G1 X26.1100 Y-13.3819 Z1.0264
G1 X26.1150 Y-13.3745 Z1.0249
G1 X26.1200 Y-13.3673 Z1.0233
G1 X26.1252 Y-13.3600 Z1.0217
G1 X26.1226 Y-13.3564 Z1.0210
G1 X26.1200 Y-13.3528 Z1.0202
G1 X26.1175 Y-13.3492 Z1.0194
G1 X26.1150 Y-13.3455 Z1.0186
G1 X26.1125 Y-13.3418 Z1.0178
G1 X26.1100 Y-13.3381 Z1.0170
G1 X26.1076 Y-13.3344 Z1.0163
G1 X26.1052 Y-13.3307 Z1.0155
G1 X26.1028 Y-13.3270 Z1.0147
G1 X26.1004 Y-13.3232 Z1.0139
G1 X26.0981 Y-13.3195 Z1.0131
G1 X26.0957 Y-13.3157 Z1.0123
G1 X26.0934 Y-13.3119 Z1.0116
G1 X26.0912 Y-13.3081 Z1.0108
G1 X26.0889 Y-13.3042 Z1.0100
G2X26.0584Y-13.2451Z1.0100I0.5815J0.3379 F150.
G1 X24.4083 Y-13.2451 Z1.0100
G2X24.3416Y-13.3600Z1.0100I-0.6119J0.2788
G2X24.4083Y-13.4749Z1.0100I-0.5452J-0.3937
G1 X26.0584 Y-13.4749 Z1.0100
G2X26.1252Y-13.3600Z1.0100I0.6120J-0.2788
G2X26.0889Y-13.3042Z1.0100I0.5452J0.3937
G1 X26.3029 Y-13.1799 Z1.0100
G2X26.2465Y-12.9976Z1.0100I0.3675J0.2136
G1 X24.2202 Y-12.9976 Z1.0100
G2X23.9709Y-13.3538Z1.0100I-0.4238J0.0313
G1 X23.9709 Y-13.3662 Z1.0100
G2X24.2202Y-13.7224Z1.0100I-0.1745J-0.3875
G1 X26.2465 Y-13.7224 Z1.0100
G2X26.4956Y-13.3663Z1.0100I0.4239J-0.0313
G1 X26.4956 Y-13.3537 Z1.0100
G2X26.3029Y-13.1799Z1.0100I0.1748J0.3874
G0 Z4.0000
G0 X26.3029 Y-13.1799 
M5
G53 Z
( END FILE Hum-PUP-Middle-front-01.nc )
