( BEGIN FILE P90-PUP-Middle-front-02.ncTNUM: -1 )
( Lefty:False Nunits:2 )
( cline: 9.733 delta:15.5 )
( start_unit: 1 num_units: 2)
( MOP:  P90-PUP-Middle-front-02 )
( FILE: G:\Shared drives\AlloyProjectFiles\Customer CAD files\Alloy-Standard-Builds-CAM\s-in\PUPs\P90-PUP-Middle-front-02.nc)
G90
(  BEGIN TOOL LIST )
(  TOOL 6 - Downcut PT250 - DESC: 0.2500 DIA, 2 FLUTE,  CARBIDE MAT )
(  ENDOF TOOL LIST )
( P90-PUP-Middle-front-02)
( Max Depth 1.75)
T06
S12000
M3
G0 Z4.0000
G0 X9.9834 Y-12.9389 
G1 X9.9834 Y-12.9389 Z1.0100 F75.
G17
G3X9.7334Y-12.6889Z1.0100I-0.2500J0.0000 F25.
G1 X8.2391 Y-12.6889 Z1.0100 F75.
G3X8.1709Y-12.7572Z1.0100I-0.0038J-0.0644
G1 X8.1709 Y-13.7770 Z1.0100
G3X8.2391Y-13.8452Z1.0100I0.0644J-0.0038
G1 X11.2276 Y-13.8452 Z1.0100
G3X11.2959Y-13.7770Z1.0100I0.0039J0.0644
G1 X11.2959 Y-12.7572 Z1.0100
G3X11.2276Y-12.6889Z1.0100I-0.0644J0.0039
G1 X9.7334 Y-12.6889 Z1.0100
G1 X9.2334 Y-12.6889 Z1.0100
G3X8.9834Y-12.9389Z1.0100I0.0000J-0.2500
G0 Z4.0000
G0 X8.9834 Y-12.9389 
M5
G53 Z
( MOP:  P90-PUP-Middle-front-02 )
( FILE: G:\Shared drives\AlloyProjectFiles\Customer CAD files\Alloy-Standard-Builds-CAM\s-in\PUPs\P90-PUP-Middle-front-02.nc)
G90
(  BEGIN TOOL LIST )
(  TOOL 6 - Downcut PT250 - DESC: 0.2500 DIA, 2 FLUTE,  CARBIDE MAT )
(  ENDOF TOOL LIST )
( P90-PUP-Middle-front-02)
( Max Depth 1.75)
T06
S12000
M3
G0 Z4.0000
G0 X25.4834 Y-12.9389 
G1 X25.4834 Y-12.9389 Z1.0100 F75.
G17
G3X25.2334Y-12.6889Z1.0100I-0.2500J0.0000 F25.
G1 X23.7391 Y-12.6889 Z1.0100 F75.
G3X23.6709Y-12.7572Z1.0100I-0.0038J-0.0644
G1 X23.6709 Y-13.7770 Z1.0100
G3X23.7391Y-13.8452Z1.0100I0.0644J-0.0038
G1 X26.7276 Y-13.8452 Z1.0100
G3X26.7959Y-13.7770Z1.0100I0.0039J0.0644
G1 X26.7959 Y-12.7572 Z1.0100
G3X26.7276Y-12.6889Z1.0100I-0.0644J0.0039
G1 X25.2334 Y-12.6889 Z1.0100
G1 X24.7334 Y-12.6889 Z1.0100
G3X24.4834Y-12.9389Z1.0100I0.0000J-0.2500
G0 Z4.0000
G0 X24.4834 Y-12.9389 
M5
G53 Z
( END FILE P90-PUP-Middle-front-02.nc )
