( BEGIN FILE Rear-control-back-01.ncTNUM: -1 )
( Lefty:False Nunits:2 )
( cline: 9.733 delta:15.5 )
( start_unit: 1 num_units: 2)
( MOP:  Rear-control-back-01 )
( FILE: G:\Shared drives\AlloyProjectFiles\Customer CAD files\Alloy-Standard-Builds-CAM\s-in\Control\Rear-control-back-01.nc)
G90
(  BEGIN TOOL LIST )
(  TOOL 11 - Downcut PT750 ROUGH - DESC: 0.7500 DIA, 2 FLUTE,  CARBIDE MAT )
(  ENDOF TOOL LIST )
( Rear-control-back-01)
T11
S14000
M3
G0 Z4.0000
G0 X5.6720 Y-18.3703 
G1 X5.6720 Y-18.3703 Z1.8167 F75.
G1 X5.6720 Y-18.3703 Z1.7917 F50.
G1 X5.6686 Y-18.3006 Z1.7793
G1 X5.6700 Y-18.1759 Z1.7574
G1 X5.6430 Y-18.1970 Z1.7513
G1 X5.6323 Y-18.3214 Z1.7293
G1 X5.6457 Y-18.6403 Z1.6730
G1 X5.7016 Y-18.9377 Z1.6196
G1 X5.7991 Y-19.2172 Z1.5674
G1 X5.9352 Y-19.4737 Z1.5162
G1 X6.0160 Y-19.5810 Z1.4926
G1 X6.0211 Y-19.5810 Z1.4917
G1 X6.0262 Y-19.5810 Z1.4917 F150.
G1 X6.0262 Y-19.4172 Z1.4917
G17
G2X5.6939Y-18.5994Z1.4917I1.8995J1.2482
G2X5.6700Y-18.1759Z1.4917I2.0609J0.3286
G1 X5.6430 Y-18.1970 Z1.4917
G3X6.0211Y-19.5810Z1.4917I1.9122J-0.2212
G1 X6.0211 Y-19.8285 Z1.4917
G1 X5.8925 Y-19.8285 Z1.4917
G2X5.3992Y-18.6686Z1.4917I1.6294J1.3779
G1 X5.3843 Y-18.3160 Z1.4917
G1 X5.4057 Y-18.0668 Z1.4917
G3X6.0250Y-17.2335Z1.4917I-1.1466J1.4989
G1 X6.0613 Y-17.1374 Z1.4917
G1 X6.0668 Y-17.1213 Z1.4917
G3X6.0496Y-16.0401Z1.4917I-1.6571J0.5145
G1 X6.2735 Y-15.7738 Z1.4917
G1 X6.2735 Y-17.0901 Z1.4917
G1 X6.2528 Y-17.1175 Z1.4917
G3X5.9396Y-17.9176Z1.4917I1.6980J-1.1259
G3X5.9237Y-18.4474Z1.4917I2.5372J-0.3415
G3X6.2736Y-19.3380Z1.4917I1.9590J0.2558
G1 X6.2737 Y-19.8285 Z1.4917
G1 X6.0211 Y-19.8285 Z1.4917
G1 X6.0211 Y-20.0760 Z1.4917
G1 X6.5212 Y-20.0760 Z1.4917
G1 X6.5211 Y-19.2524 Z1.4917
G2X6.1636Y-18.3050Z1.4917I1.3267J1.0418
G2X6.1841Y-17.9563Z1.4917I2.5087J0.0276
G2X6.5142Y-17.1823Z1.4917I1.7068J-0.2707
G1 X6.5210 Y-17.1746 Z1.4917
G1 X6.5210 Y-15.1359 Z1.4917
G1 X6.5026 Y-15.1168 Z1.4917
G1 X5.8133 Y-15.9366 Z1.4917
G1 X5.7792 Y-16.0335 Z1.4917
G2X5.8297Y-17.0500Z1.4917I-1.4034J-0.5792
G1 X5.7933 Y-17.1465 Z1.4917
G2X5.1693Y-17.9265Z1.4917I-1.4981J0.5589
G3X5.5163Y-19.7402Z1.4917I2.6049J-0.4418
G1 X5.7431 Y-20.0416 Z1.4917
G1 X5.7766 Y-20.0760 Z1.4917
G1 X6.0211 Y-20.0760 Z1.4917
G1 X6.0211 Y-20.3235 Z1.4917
G1 X5.6722 Y-20.3235 Z1.4917
G1 X5.5548 Y-20.2030 Z1.4917
G2X4.9061Y-18.7250Z1.4917I2.0078J1.7626
G2X4.9460Y-17.7668Z1.4917I3.2202J0.3459
G3X5.5612Y-17.0606Z1.4917I-0.6216J1.1627
G1 X5.5614 Y-17.0602 Z1.4917
G3X5.5111Y-16.0498Z1.4917I-1.1857J0.4475
G1 X5.5948 Y-15.8119 Z1.4917
G1 X6.4901 Y-14.7470 Z1.4917
G1 X6.7685 Y-15.0361 Z1.4917
G1 X6.7685 Y-17.2680 Z1.4917
G1 X6.7672 Y-17.2693 Z1.4917
G3X6.4286Y-17.9942Z1.4917I1.0757J-0.9439
G1 X6.4119 Y-18.2024 Z1.4917
G3X6.7686Y-19.1590Z1.4917I1.4297J-0.0117
G1 X6.7687 Y-20.3235 Z1.4917
G1 X6.0211 Y-20.3235 Z1.4917
G1 X6.0211 Y-20.5710 Z1.4917
G1 X7.0002 Y-20.5710 Z1.4917
G1 X7.0162 Y-20.4596 Z1.4917
G1 X7.0161 Y-19.0551 Z1.4917
G2X6.6669Y-18.1192Z1.4917I0.8257J0.8411
G2X7.0160Y-17.3718Z1.4917I1.1760J-0.0940
G1 X7.0160 Y-14.9363 Z1.4917
G1 X6.4776 Y-14.3773 Z1.4917
G1 X5.3763 Y-15.6871 Z1.4917
G1 X5.2392 Y-16.0770 Z1.4917
G2X5.3288Y-16.9755Z1.4917I-0.8889J-0.5424
G2X4.7277Y-17.5922Z1.4917I-0.9880J0.3616
G3X4.8892Y-19.6146Z1.4917I3.2412J-0.7589
G3X5.5103Y-20.5121Z1.4917I2.5566J1.1057
G1 X5.5804 Y-20.5710 Z1.4917
G1 X6.0211 Y-20.5710 Z1.4917
G0 Z1.9975
G0 X6.0211 Y-20.5710 
G0 Z1.9975
G0 X5.6720 Y-18.3703 
G1 X5.6720 Y-18.3703 Z1.5583 F75.
G1 X5.6720 Y-18.3703 Z1.5333 F50.
G1 X5.6686 Y-18.3006 Z1.5210
G1 X5.6700 Y-18.1759 Z1.4990
G1 X5.6430 Y-18.1970 Z1.4930
G1 X5.6323 Y-18.3214 Z1.4709
G1 X5.6457 Y-18.6403 Z1.4147
G1 X5.7016 Y-18.9377 Z1.3613
G1 X5.7991 Y-19.2172 Z1.3091
G1 X5.9352 Y-19.4737 Z1.2579
G1 X6.0160 Y-19.5810 Z1.2342
G1 X6.0211 Y-19.5810 Z1.2333
G1 X6.0262 Y-19.5810 Z1.2333 F150.
G1 X6.0262 Y-19.4172 Z1.2333
G2X5.6939Y-18.5994Z1.2333I1.8995J1.2482
G2X5.6700Y-18.1759Z1.2333I2.0609J0.3286
G1 X5.6430 Y-18.1970 Z1.2333
G3X6.0211Y-19.5810Z1.2333I1.9122J-0.2212
G1 X6.0211 Y-19.8285 Z1.2333
G1 X5.8925 Y-19.8285 Z1.2333
G2X5.3992Y-18.6686Z1.2333I1.6294J1.3779
G1 X5.3843 Y-18.3160 Z1.2333
G1 X5.4057 Y-18.0668 Z1.2333
G3X6.0250Y-17.2335Z1.2333I-1.1466J1.4989
G1 X6.0613 Y-17.1374 Z1.2333
G1 X6.0668 Y-17.1213 Z1.2333
G3X6.0496Y-16.0401Z1.2333I-1.6571J0.5145
G1 X6.2735 Y-15.7738 Z1.2333
G1 X6.2735 Y-17.0901 Z1.2333
G1 X6.2528 Y-17.1175 Z1.2333
G3X5.9396Y-17.9176Z1.2333I1.6980J-1.1259
G3X5.9237Y-18.4474Z1.2333I2.5372J-0.3415
G3X6.2736Y-19.3380Z1.2333I1.9590J0.2558
G1 X6.2737 Y-19.8285 Z1.2333
G1 X6.0211 Y-19.8285 Z1.2333
G1 X6.0211 Y-20.0760 Z1.2333
G1 X6.5212 Y-20.0760 Z1.2333
G1 X6.5211 Y-19.2524 Z1.2333
G2X6.1636Y-18.3050Z1.2333I1.3267J1.0418
G2X6.1841Y-17.9563Z1.2333I2.5087J0.0276
G2X6.5142Y-17.1823Z1.2333I1.7068J-0.2707
G1 X6.5210 Y-17.1746 Z1.2333
G1 X6.5210 Y-15.1359 Z1.2333
G1 X6.5026 Y-15.1168 Z1.2333
G1 X5.8133 Y-15.9366 Z1.2333
G1 X5.7792 Y-16.0335 Z1.2333
G2X5.8297Y-17.0500Z1.2333I-1.4034J-0.5792
G1 X5.7933 Y-17.1465 Z1.2333
G2X5.1693Y-17.9265Z1.2333I-1.4981J0.5589
G3X5.5163Y-19.7402Z1.2333I2.6049J-0.4418
G1 X5.7431 Y-20.0416 Z1.2333
G1 X5.7766 Y-20.0760 Z1.2333
G1 X6.0211 Y-20.0760 Z1.2333
G1 X6.0211 Y-20.3235 Z1.2333
G1 X5.6722 Y-20.3235 Z1.2333
G1 X5.5548 Y-20.2030 Z1.2333
G2X4.9061Y-18.7250Z1.2333I2.0078J1.7626
G2X4.9460Y-17.7668Z1.2333I3.2202J0.3459
G3X5.5612Y-17.0606Z1.2333I-0.6216J1.1627
G1 X5.5614 Y-17.0602 Z1.2333
G3X5.5111Y-16.0498Z1.2333I-1.1857J0.4475
G1 X5.5948 Y-15.8119 Z1.2333
G1 X6.4901 Y-14.7470 Z1.2333
G1 X6.7685 Y-15.0361 Z1.2333
G1 X6.7685 Y-17.2680 Z1.2333
G1 X6.7672 Y-17.2693 Z1.2333
G3X6.4286Y-17.9942Z1.2333I1.0757J-0.9439
G1 X6.4119 Y-18.2024 Z1.2333
G3X6.7686Y-19.1590Z1.2333I1.4297J-0.0117
G1 X6.7687 Y-20.3235 Z1.2333
G1 X6.0211 Y-20.3235 Z1.2333
G1 X6.0211 Y-20.5710 Z1.2333
G1 X7.0002 Y-20.5710 Z1.2333
G1 X7.0162 Y-20.4596 Z1.2333
G1 X7.0161 Y-19.0551 Z1.2333
G2X6.6669Y-18.1192Z1.2333I0.8257J0.8411
G2X7.0160Y-17.3718Z1.2333I1.1760J-0.0940
G1 X7.0160 Y-14.9363 Z1.2333
G1 X6.4776 Y-14.3773 Z1.2333
G1 X5.3763 Y-15.6871 Z1.2333
G1 X5.2392 Y-16.0770 Z1.2333
G2X5.3288Y-16.9755Z1.2333I-0.8889J-0.5424
G2X4.7277Y-17.5922Z1.2333I-0.9880J0.3616
G3X4.8892Y-19.6146Z1.2333I3.2412J-0.7589
G3X5.5103Y-20.5121Z1.2333I2.5566J1.1057
G1 X5.5804 Y-20.5710 Z1.2333
G1 X6.0211 Y-20.5710 Z1.2333
G0 Z1.9975
G0 X6.0211 Y-20.5710 
G0 Z1.9975
G0 X5.6720 Y-18.3703 
G1 X5.6720 Y-18.3703 Z1.3000 F75.
G1 X5.6720 Y-18.3703 Z1.2750 F50.
G1 X5.6686 Y-18.3006 Z1.2627
G1 X5.6700 Y-18.1759 Z1.2407
G1 X5.6430 Y-18.1970 Z1.2346
G1 X5.6323 Y-18.3214 Z1.2126
G1 X5.6457 Y-18.6403 Z1.1563
G1 X5.7016 Y-18.9377 Z1.1030
G1 X5.7991 Y-19.2172 Z1.0508
G1 X5.9352 Y-19.4737 Z0.9996
G1 X6.0160 Y-19.5810 Z0.9759
G1 X6.0211 Y-19.5810 Z0.9750
G1 X6.0262 Y-19.5810 Z0.9750 F150.
G1 X6.0262 Y-19.4172 Z0.9750
G2X5.6939Y-18.5994Z0.9750I1.8995J1.2482
G2X5.6700Y-18.1759Z0.9750I2.0609J0.3286
G1 X5.6430 Y-18.1970 Z0.9750
G3X6.0211Y-19.5810Z0.9750I1.9122J-0.2212
G1 X6.0211 Y-19.8285 Z0.9750
G1 X5.8925 Y-19.8285 Z0.9750
G2X5.3992Y-18.6686Z0.9750I1.6294J1.3779
G1 X5.3843 Y-18.3160 Z0.9750
G1 X5.4057 Y-18.0668 Z0.9750
G3X6.0250Y-17.2335Z0.9750I-1.1466J1.4989
G1 X6.0613 Y-17.1374 Z0.9750
G1 X6.0668 Y-17.1213 Z0.9750
G3X6.0496Y-16.0401Z0.9750I-1.6571J0.5145
G1 X6.2735 Y-15.7738 Z0.9750
G1 X6.2735 Y-17.0901 Z0.9750
G1 X6.2528 Y-17.1175 Z0.9750
G3X5.9396Y-17.9176Z0.9750I1.6980J-1.1259
G3X5.9237Y-18.4474Z0.9750I2.5372J-0.3415
G3X6.2736Y-19.3380Z0.9750I1.9590J0.2558
G1 X6.2737 Y-19.8285 Z0.9750
G1 X6.0211 Y-19.8285 Z0.9750
G1 X6.0211 Y-20.0760 Z0.9750
G1 X6.5212 Y-20.0760 Z0.9750
G1 X6.5211 Y-19.2524 Z0.9750
G2X6.1636Y-18.3050Z0.9750I1.3267J1.0418
G2X6.1841Y-17.9563Z0.9750I2.5087J0.0276
G2X6.5142Y-17.1823Z0.9750I1.7068J-0.2707
G1 X6.5210 Y-17.1746 Z0.9750
G1 X6.5210 Y-15.1359 Z0.9750
G1 X6.5026 Y-15.1168 Z0.9750
G1 X5.8133 Y-15.9366 Z0.9750
G1 X5.7792 Y-16.0335 Z0.9750
G2X5.8297Y-17.0500Z0.9750I-1.4034J-0.5792
G1 X5.7933 Y-17.1465 Z0.9750
G2X5.1693Y-17.9265Z0.9750I-1.4981J0.5589
G3X5.5163Y-19.7402Z0.9750I2.6049J-0.4418
G1 X5.7431 Y-20.0416 Z0.9750
G1 X5.7766 Y-20.0760 Z0.9750
G1 X6.0211 Y-20.0760 Z0.9750
G1 X6.0211 Y-20.3235 Z0.9750
G1 X5.6722 Y-20.3235 Z0.9750
G1 X5.5548 Y-20.2030 Z0.9750
G2X4.9061Y-18.7250Z0.9750I2.0078J1.7626
G2X4.9460Y-17.7668Z0.9750I3.2202J0.3459
G3X5.5612Y-17.0606Z0.9750I-0.6216J1.1627
G1 X5.5614 Y-17.0602 Z0.9750
G3X5.5111Y-16.0498Z0.9750I-1.1857J0.4475
G1 X5.5948 Y-15.8119 Z0.9750
G1 X6.4901 Y-14.7470 Z0.9750
G1 X6.7685 Y-15.0361 Z0.9750
G1 X6.7685 Y-17.2680 Z0.9750
G1 X6.7672 Y-17.2693 Z0.9750
G3X6.4286Y-17.9942Z0.9750I1.0757J-0.9439
G1 X6.4119 Y-18.2024 Z0.9750
G3X6.7686Y-19.1590Z0.9750I1.4297J-0.0117
G1 X6.7687 Y-20.3235 Z0.9750
G1 X6.0211 Y-20.3235 Z0.9750
G1 X6.0211 Y-20.5710 Z0.9750
G1 X7.0002 Y-20.5710 Z0.9750
G1 X7.0162 Y-20.4596 Z0.9750
G1 X7.0161 Y-19.0551 Z0.9750
G2X6.6669Y-18.1192Z0.9750I0.8257J0.8411
G2X7.0160Y-17.3718Z0.9750I1.1760J-0.0940
G1 X7.0160 Y-14.9363 Z0.9750
G1 X6.4776 Y-14.3773 Z0.9750
G1 X5.3763 Y-15.6871 Z0.9750
G1 X5.2392 Y-16.0770 Z0.9750
G2X5.3288Y-16.9755Z0.9750I-0.8889J-0.5424
G2X4.7277Y-17.5922Z0.9750I-0.9880J0.3616
G3X4.8892Y-19.6146Z0.9750I3.2412J-0.7589
G3X5.5103Y-20.5121Z0.9750I2.5566J1.1057
G1 X5.5804 Y-20.5710 Z0.9750
G1 X6.0211 Y-20.5710 Z0.9750
G0 Z1.9975
G0 X6.0211 Y-20.5710 
G0 Z1.9975
G0 X5.6720 Y-18.3703 
G1 X5.6720 Y-18.3703 Z1.0417 F75.
G1 X5.6720 Y-18.3703 Z1.0167 F50.
G1 X5.6686 Y-18.3006 Z1.0043
G1 X5.6700 Y-18.1759 Z0.9824
G1 X5.6430 Y-18.1970 Z0.9763
G1 X5.6323 Y-18.3214 Z0.9543
G1 X5.6457 Y-18.6403 Z0.8980
G1 X5.7016 Y-18.9377 Z0.8446
G1 X5.7991 Y-19.2172 Z0.7924
G1 X5.9352 Y-19.4737 Z0.7412
G1 X6.0160 Y-19.5810 Z0.7176
G1 X6.0211 Y-19.5810 Z0.7167
G1 X6.0262 Y-19.5810 Z0.7167 F150.
G1 X6.0262 Y-19.4172 Z0.7167
G2X5.6939Y-18.5994Z0.7167I1.8995J1.2482
G2X5.6700Y-18.1759Z0.7167I2.0609J0.3286
G1 X5.6430 Y-18.1970 Z0.7167
G3X6.0211Y-19.5810Z0.7167I1.9122J-0.2212
G1 X6.0211 Y-19.8285 Z0.7167
G1 X5.8925 Y-19.8285 Z0.7167
G2X5.3992Y-18.6686Z0.7167I1.6294J1.3779
G1 X5.3843 Y-18.3160 Z0.7167
G1 X5.4057 Y-18.0668 Z0.7167
G3X6.0250Y-17.2335Z0.7167I-1.1466J1.4989
G1 X6.0613 Y-17.1374 Z0.7167
G1 X6.0668 Y-17.1213 Z0.7167
G3X6.0496Y-16.0401Z0.7167I-1.6571J0.5145
G1 X6.2735 Y-15.7738 Z0.7167
G1 X6.2735 Y-17.0901 Z0.7167
G1 X6.2528 Y-17.1175 Z0.7167
G3X5.9396Y-17.9176Z0.7167I1.6980J-1.1259
G3X5.9237Y-18.4474Z0.7167I2.5372J-0.3415
G3X6.2736Y-19.3380Z0.7167I1.9590J0.2558
G1 X6.2737 Y-19.8285 Z0.7167
G1 X6.0211 Y-19.8285 Z0.7167
G1 X6.0211 Y-20.0760 Z0.7167
G1 X6.5212 Y-20.0760 Z0.7167
G1 X6.5211 Y-19.2524 Z0.7167
G2X6.1636Y-18.3050Z0.7167I1.3267J1.0418
G2X6.1841Y-17.9563Z0.7167I2.5087J0.0276
G2X6.5142Y-17.1823Z0.7167I1.7068J-0.2707
G1 X6.5210 Y-17.1746 Z0.7167
G1 X6.5210 Y-15.1359 Z0.7167
G1 X6.5026 Y-15.1168 Z0.7167
G1 X5.8133 Y-15.9366 Z0.7167
G1 X5.7792 Y-16.0335 Z0.7167
G2X5.8297Y-17.0500Z0.7167I-1.4034J-0.5792
G1 X5.7933 Y-17.1465 Z0.7167
G2X5.1693Y-17.9265Z0.7167I-1.4981J0.5589
G3X5.5163Y-19.7402Z0.7167I2.6049J-0.4418
G1 X5.7431 Y-20.0416 Z0.7167
G1 X5.7766 Y-20.0760 Z0.7167
G1 X6.0211 Y-20.0760 Z0.7167
G1 X6.0211 Y-20.3235 Z0.7167
G1 X5.6722 Y-20.3235 Z0.7167
G1 X5.5548 Y-20.2030 Z0.7167
G2X4.9061Y-18.7250Z0.7167I2.0078J1.7626
G2X4.9460Y-17.7668Z0.7167I3.2202J0.3459
G3X5.5612Y-17.0606Z0.7167I-0.6216J1.1627
G1 X5.5614 Y-17.0602 Z0.7167
G3X5.5111Y-16.0498Z0.7167I-1.1857J0.4475
G1 X5.5948 Y-15.8119 Z0.7167
G1 X6.4901 Y-14.7470 Z0.7167
G1 X6.7685 Y-15.0361 Z0.7167
G1 X6.7685 Y-17.2680 Z0.7167
G1 X6.7672 Y-17.2693 Z0.7167
G3X6.4286Y-17.9942Z0.7167I1.0757J-0.9439
G1 X6.4119 Y-18.2024 Z0.7167
G3X6.7686Y-19.1590Z0.7167I1.4297J-0.0117
G1 X6.7687 Y-20.3235 Z0.7167
G1 X6.0211 Y-20.3235 Z0.7167
G1 X6.0211 Y-20.5710 Z0.7167
G1 X7.0002 Y-20.5710 Z0.7167
G1 X7.0162 Y-20.4596 Z0.7167
G1 X7.0161 Y-19.0551 Z0.7167
G2X6.6669Y-18.1192Z0.7167I0.8257J0.8411
G2X7.0160Y-17.3718Z0.7167I1.1760J-0.0940
G1 X7.0160 Y-14.9363 Z0.7167
G1 X6.4776 Y-14.3773 Z0.7167
G1 X5.3763 Y-15.6871 Z0.7167
G1 X5.2392 Y-16.0770 Z0.7167
G2X5.3288Y-16.9755Z0.7167I-0.8889J-0.5424
G2X4.7277Y-17.5922Z0.7167I-0.9880J0.3616
G3X4.8892Y-19.6146Z0.7167I3.2412J-0.7589
G3X5.5103Y-20.5121Z0.7167I2.5566J1.1057
G1 X5.5804 Y-20.5710 Z0.7167
G1 X6.0211 Y-20.5710 Z0.7167
G0 Z1.9975
G0 X6.0211 Y-20.5710 
G0 Z1.9975
G0 X5.6720 Y-18.3703 
G1 X5.6720 Y-18.3703 Z0.7833 F75.
G1 X5.6720 Y-18.3703 Z0.7583 F50.
G1 X5.6686 Y-18.3006 Z0.7460
G1 X5.6700 Y-18.1759 Z0.7240
G1 X5.6430 Y-18.1970 Z0.7180
G1 X5.6323 Y-18.3214 Z0.6959
G1 X5.6457 Y-18.6403 Z0.6397
G1 X5.7016 Y-18.9377 Z0.5863
G1 X5.7991 Y-19.2172 Z0.5341
G1 X5.9352 Y-19.4737 Z0.4829
G1 X6.0160 Y-19.5810 Z0.4592
G1 X6.0211 Y-19.5810 Z0.4583
G1 X6.0262 Y-19.5810 Z0.4583 F150.
G1 X6.0262 Y-19.4172 Z0.4583
G2X5.6939Y-18.5994Z0.4583I1.8995J1.2482
G2X5.6700Y-18.1759Z0.4583I2.0609J0.3286
G1 X5.6430 Y-18.1970 Z0.4583
G3X6.0211Y-19.5810Z0.4583I1.9122J-0.2212
G1 X6.0211 Y-19.8285 Z0.4583
G1 X5.8925 Y-19.8285 Z0.4583
G2X5.3992Y-18.6686Z0.4583I1.6294J1.3779
G1 X5.3843 Y-18.3160 Z0.4583
G1 X5.4057 Y-18.0668 Z0.4583
G3X6.0250Y-17.2335Z0.4583I-1.1466J1.4989
G1 X6.0613 Y-17.1374 Z0.4583
G1 X6.0668 Y-17.1213 Z0.4583
G3X6.0496Y-16.0401Z0.4583I-1.6571J0.5145
G1 X6.2735 Y-15.7738 Z0.4583
G1 X6.2735 Y-17.0901 Z0.4583
G1 X6.2528 Y-17.1175 Z0.4583
G3X5.9396Y-17.9176Z0.4583I1.6980J-1.1259
G3X5.9237Y-18.4474Z0.4583I2.5372J-0.3415
G3X6.2736Y-19.3380Z0.4583I1.9590J0.2558
G1 X6.2737 Y-19.8285 Z0.4583
G1 X6.0211 Y-19.8285 Z0.4583
G1 X6.0211 Y-20.0760 Z0.4583
G1 X6.5212 Y-20.0760 Z0.4583
G1 X6.5211 Y-19.2524 Z0.4583
G2X6.1636Y-18.3050Z0.4583I1.3267J1.0418
G2X6.1841Y-17.9563Z0.4583I2.5087J0.0276
G2X6.5142Y-17.1823Z0.4583I1.7068J-0.2707
G1 X6.5210 Y-17.1746 Z0.4583
G1 X6.5210 Y-15.1359 Z0.4583
G1 X6.5026 Y-15.1168 Z0.4583
G1 X5.8133 Y-15.9366 Z0.4583
G1 X5.7792 Y-16.0335 Z0.4583
G2X5.8297Y-17.0500Z0.4583I-1.4034J-0.5792
G1 X5.7933 Y-17.1465 Z0.4583
G2X5.1693Y-17.9265Z0.4583I-1.4981J0.5589
G3X5.5163Y-19.7402Z0.4583I2.6049J-0.4418
G1 X5.7431 Y-20.0416 Z0.4583
G1 X5.7766 Y-20.0760 Z0.4583
G1 X6.0211 Y-20.0760 Z0.4583
G1 X6.0211 Y-20.3235 Z0.4583
G1 X5.6722 Y-20.3235 Z0.4583
G1 X5.5548 Y-20.2030 Z0.4583
G2X4.9061Y-18.7250Z0.4583I2.0078J1.7626
G2X4.9460Y-17.7668Z0.4583I3.2202J0.3459
G3X5.5612Y-17.0606Z0.4583I-0.6216J1.1627
G1 X5.5614 Y-17.0602 Z0.4583
G3X5.5111Y-16.0498Z0.4583I-1.1857J0.4475
G1 X5.5948 Y-15.8119 Z0.4583
G1 X6.4901 Y-14.7470 Z0.4583
G1 X6.7685 Y-15.0361 Z0.4583
G1 X6.7685 Y-17.2680 Z0.4583
G1 X6.7672 Y-17.2693 Z0.4583
G3X6.4286Y-17.9942Z0.4583I1.0757J-0.9439
G1 X6.4119 Y-18.2024 Z0.4583
G3X6.7686Y-19.1590Z0.4583I1.4297J-0.0117
G1 X6.7687 Y-20.3235 Z0.4583
G1 X6.0211 Y-20.3235 Z0.4583
G1 X6.0211 Y-20.5710 Z0.4583
G1 X7.0002 Y-20.5710 Z0.4583
G1 X7.0162 Y-20.4596 Z0.4583
G1 X7.0161 Y-19.0551 Z0.4583
G2X6.6669Y-18.1192Z0.4583I0.8257J0.8411
G2X7.0160Y-17.3718Z0.4583I1.1760J-0.0940
G1 X7.0160 Y-14.9363 Z0.4583
G1 X6.4776 Y-14.3773 Z0.4583
G1 X5.3763 Y-15.6871 Z0.4583
G1 X5.2392 Y-16.0770 Z0.4583
G2X5.3288Y-16.9755Z0.4583I-0.8889J-0.5424
G2X4.7277Y-17.5922Z0.4583I-0.9880J0.3616
G3X4.8892Y-19.6146Z0.4583I3.2412J-0.7589
G3X5.5103Y-20.5121Z0.4583I2.5566J1.1057
G1 X5.5804 Y-20.5710 Z0.4583
G1 X6.0211 Y-20.5710 Z0.4583
G0 Z1.9975
G0 X6.0211 Y-20.5710 
G0 Z1.9975
G0 X5.6720 Y-18.3703 
G1 X5.6720 Y-18.3703 Z0.5250 F75.
G1 X5.6720 Y-18.3703 Z0.5000 F50.
G1 X5.6686 Y-18.3006 Z0.4877
G1 X5.6700 Y-18.1759 Z0.4657
G1 X5.6430 Y-18.1970 Z0.4596
G1 X5.6323 Y-18.3214 Z0.4376
G1 X5.6457 Y-18.6403 Z0.3813
G1 X5.7016 Y-18.9377 Z0.3280
G1 X5.7991 Y-19.2172 Z0.2758
G1 X5.9352 Y-19.4737 Z0.2246
G1 X6.0160 Y-19.5810 Z0.2009
G1 X6.0211 Y-19.5810 Z0.2000
G1 X6.0262 Y-19.5810 Z0.2000 F150.
G1 X6.0262 Y-19.4172 Z0.2000
G2X5.6939Y-18.5994Z0.2000I1.8995J1.2482
G2X5.6700Y-18.1759Z0.2000I2.0609J0.3286
G1 X5.6430 Y-18.1970 Z0.2000
G3X6.0211Y-19.5810Z0.2000I1.9122J-0.2212
G1 X6.0211 Y-19.8285 Z0.2000
G1 X5.8925 Y-19.8285 Z0.2000
G2X5.3992Y-18.6686Z0.2000I1.6294J1.3779
G1 X5.3843 Y-18.3160 Z0.2000
G1 X5.4057 Y-18.0668 Z0.2000
G3X6.0250Y-17.2335Z0.2000I-1.1466J1.4989
G1 X6.0613 Y-17.1374 Z0.2000
G1 X6.0668 Y-17.1213 Z0.2000
G3X6.0496Y-16.0401Z0.2000I-1.6571J0.5145
G1 X6.2735 Y-15.7738 Z0.2000
G1 X6.2735 Y-17.0901 Z0.2000
G1 X6.2528 Y-17.1175 Z0.2000
G3X5.9396Y-17.9176Z0.2000I1.6980J-1.1259
G3X5.9237Y-18.4474Z0.2000I2.5372J-0.3415
G3X6.2736Y-19.3380Z0.2000I1.9590J0.2558
G1 X6.2737 Y-19.8285 Z0.2000
G1 X6.0211 Y-19.8285 Z0.2000
G1 X6.0211 Y-20.0760 Z0.2000
G1 X6.5212 Y-20.0760 Z0.2000
G1 X6.5211 Y-19.2524 Z0.2000
G2X6.1636Y-18.3050Z0.2000I1.3267J1.0418
G2X6.1841Y-17.9563Z0.2000I2.5087J0.0276
G2X6.5142Y-17.1823Z0.2000I1.7068J-0.2707
G1 X6.5210 Y-17.1746 Z0.2000
G1 X6.5210 Y-15.1359 Z0.2000
G1 X6.5026 Y-15.1168 Z0.2000
G1 X5.8133 Y-15.9366 Z0.2000
G1 X5.7792 Y-16.0335 Z0.2000
G2X5.8297Y-17.0500Z0.2000I-1.4034J-0.5792
G1 X5.7933 Y-17.1465 Z0.2000
G2X5.1693Y-17.9265Z0.2000I-1.4981J0.5589
G3X5.5163Y-19.7402Z0.2000I2.6049J-0.4418
G1 X5.7431 Y-20.0416 Z0.2000
G1 X5.7766 Y-20.0760 Z0.2000
G1 X6.0211 Y-20.0760 Z0.2000
G1 X6.0211 Y-20.3235 Z0.2000
G1 X5.6722 Y-20.3235 Z0.2000
G1 X5.5548 Y-20.2030 Z0.2000
G2X4.9061Y-18.7250Z0.2000I2.0078J1.7626
G2X4.9460Y-17.7668Z0.2000I3.2202J0.3459
G3X5.5612Y-17.0606Z0.2000I-0.6216J1.1627
G1 X5.5614 Y-17.0602 Z0.2000
G3X5.5111Y-16.0498Z0.2000I-1.1857J0.4475
G1 X5.5948 Y-15.8119 Z0.2000
G1 X6.4901 Y-14.7470 Z0.2000
G1 X6.7685 Y-15.0361 Z0.2000
G1 X6.7685 Y-17.2680 Z0.2000
G1 X6.7672 Y-17.2693 Z0.2000
G3X6.4286Y-17.9942Z0.2000I1.0757J-0.9439
G1 X6.4119 Y-18.2024 Z0.2000
G3X6.7686Y-19.1590Z0.2000I1.4297J-0.0117
G1 X6.7687 Y-20.3235 Z0.2000
G1 X6.0211 Y-20.3235 Z0.2000
G1 X6.0211 Y-20.5710 Z0.2000
G1 X7.0002 Y-20.5710 Z0.2000
G1 X7.0162 Y-20.4596 Z0.2000
G1 X7.0161 Y-19.0551 Z0.2000
G2X6.6669Y-18.1192Z0.2000I0.8257J0.8411
G2X7.0160Y-17.3718Z0.2000I1.1760J-0.0940
G1 X7.0160 Y-14.9363 Z0.2000
G1 X6.4776 Y-14.3773 Z0.2000
G1 X5.3763 Y-15.6871 Z0.2000
G1 X5.2392 Y-16.0770 Z0.2000
G2X5.3288Y-16.9755Z0.2000I-0.8889J-0.5424
G2X4.7277Y-17.5922Z0.2000I-0.9880J0.3616
G3X4.8892Y-19.6146Z0.2000I3.2412J-0.7589
G3X5.5103Y-20.5121Z0.2000I2.5566J1.1057
G1 X5.5804 Y-20.5710 Z0.2000
G1 X6.0211 Y-20.5710 Z0.2000
G0 Z4.0000
G0 X6.0211 Y-20.5710 
M5
G53 Z
( MOP:  Rear-control-back-01 )
( FILE: G:\Shared drives\AlloyProjectFiles\Customer CAD files\Alloy-Standard-Builds-CAM\s-in\Control\Rear-control-back-01.nc)
G90
(  BEGIN TOOL LIST )
(  TOOL 11 - Downcut PT750 ROUGH - DESC: 0.7500 DIA, 2 FLUTE,  CARBIDE MAT )
(  ENDOF TOOL LIST )
( Rear-control-back-01)
T11
S14000
M3
G0 Z4.0000
G0 X21.1720 Y-18.3703 
G1 X21.1720 Y-18.3703 Z1.8167 F75.
G1 X21.1720 Y-18.3703 Z1.7917 F50.
G1 X21.1686 Y-18.3006 Z1.7793
G1 X21.1700 Y-18.1759 Z1.7574
G1 X21.1430 Y-18.1970 Z1.7513
G1 X21.1323 Y-18.3214 Z1.7293
G1 X21.1457 Y-18.6403 Z1.6730
G1 X21.2016 Y-18.9377 Z1.6196
G1 X21.2991 Y-19.2172 Z1.5674
G1 X21.4352 Y-19.4737 Z1.5162
G1 X21.5160 Y-19.5810 Z1.4926
G1 X21.5211 Y-19.5810 Z1.4917
G1 X21.5262 Y-19.5810 Z1.4917 F150.
G1 X21.5262 Y-19.4172 Z1.4917
G17
G2X21.1939Y-18.5994Z1.4917I1.8995J1.2482
G2X21.1700Y-18.1759Z1.4917I2.0609J0.3286
G1 X21.1430 Y-18.1970 Z1.4917
G3X21.5211Y-19.5810Z1.4917I1.9122J-0.2212
G1 X21.5211 Y-19.8285 Z1.4917
G1 X21.3925 Y-19.8285 Z1.4917
G2X20.8992Y-18.6686Z1.4917I1.6294J1.3779
G1 X20.8843 Y-18.3160 Z1.4917
G1 X20.9057 Y-18.0668 Z1.4917
G3X21.5250Y-17.2335Z1.4917I-1.1466J1.4989
G1 X21.5613 Y-17.1374 Z1.4917
G1 X21.5668 Y-17.1213 Z1.4917
G3X21.5496Y-16.0401Z1.4917I-1.6571J0.5145
G1 X21.7735 Y-15.7738 Z1.4917
G1 X21.7735 Y-17.0901 Z1.4917
G1 X21.7528 Y-17.1175 Z1.4917
G3X21.4396Y-17.9176Z1.4917I1.6980J-1.1259
G3X21.4237Y-18.4474Z1.4917I2.5372J-0.3415
G3X21.7736Y-19.3380Z1.4917I1.9590J0.2558
G1 X21.7737 Y-19.8285 Z1.4917
G1 X21.5211 Y-19.8285 Z1.4917
G1 X21.5211 Y-20.0760 Z1.4917
G1 X22.0212 Y-20.0760 Z1.4917
G1 X22.0211 Y-19.2524 Z1.4917
G2X21.6636Y-18.3050Z1.4917I1.3267J1.0418
G2X21.6841Y-17.9563Z1.4917I2.5087J0.0276
G2X22.0142Y-17.1823Z1.4917I1.7068J-0.2707
G1 X22.0210 Y-17.1746 Z1.4917
G1 X22.0210 Y-15.1359 Z1.4917
G1 X22.0026 Y-15.1168 Z1.4917
G1 X21.3133 Y-15.9366 Z1.4917
G1 X21.2792 Y-16.0335 Z1.4917
G2X21.3297Y-17.0500Z1.4917I-1.4034J-0.5792
G1 X21.2933 Y-17.1465 Z1.4917
G2X20.6693Y-17.9265Z1.4917I-1.4981J0.5589
G3X21.0163Y-19.7402Z1.4917I2.6049J-0.4418
G1 X21.2431 Y-20.0416 Z1.4917
G1 X21.2766 Y-20.0760 Z1.4917
G1 X21.5211 Y-20.0760 Z1.4917
G1 X21.5211 Y-20.3235 Z1.4917
G1 X21.1722 Y-20.3235 Z1.4917
G1 X21.0548 Y-20.2030 Z1.4917
G2X20.4061Y-18.7250Z1.4917I2.0078J1.7626
G2X20.4460Y-17.7668Z1.4917I3.2202J0.3459
G3X21.0612Y-17.0606Z1.4917I-0.6216J1.1627
G1 X21.0614 Y-17.0602 Z1.4917
G3X21.0111Y-16.0498Z1.4917I-1.1857J0.4475
G1 X21.0948 Y-15.8119 Z1.4917
G1 X21.9901 Y-14.7470 Z1.4917
G1 X22.2685 Y-15.0361 Z1.4917
G1 X22.2685 Y-17.2680 Z1.4917
G1 X22.2672 Y-17.2693 Z1.4917
G3X21.9286Y-17.9942Z1.4917I1.0757J-0.9439
G1 X21.9119 Y-18.2024 Z1.4917
G3X22.2686Y-19.1590Z1.4917I1.4297J-0.0117
G1 X22.2687 Y-20.3235 Z1.4917
G1 X21.5211 Y-20.3235 Z1.4917
G1 X21.5211 Y-20.5710 Z1.4917
G1 X22.5002 Y-20.5710 Z1.4917
G1 X22.5162 Y-20.4596 Z1.4917
G1 X22.5161 Y-19.0551 Z1.4917
G2X22.1669Y-18.1192Z1.4917I0.8257J0.8411
G2X22.5160Y-17.3718Z1.4917I1.1760J-0.0940
G1 X22.5160 Y-14.9363 Z1.4917
G1 X21.9776 Y-14.3773 Z1.4917
G1 X20.8763 Y-15.6871 Z1.4917
G1 X20.7392 Y-16.0770 Z1.4917
G2X20.8288Y-16.9755Z1.4917I-0.8889J-0.5424
G2X20.2277Y-17.5922Z1.4917I-0.9880J0.3616
G3X20.3892Y-19.6146Z1.4917I3.2412J-0.7589
G3X21.0103Y-20.5121Z1.4917I2.5566J1.1057
G1 X21.0804 Y-20.5710 Z1.4917
G1 X21.5211 Y-20.5710 Z1.4917
G0 Z1.9975
G0 X21.5211 Y-20.5710 
G0 Z1.9975
G0 X21.1720 Y-18.3703 
G1 X21.1720 Y-18.3703 Z1.5583 F75.
G1 X21.1720 Y-18.3703 Z1.5333 F50.
G1 X21.1686 Y-18.3006 Z1.5210
G1 X21.1700 Y-18.1759 Z1.4990
G1 X21.1430 Y-18.1970 Z1.4930
G1 X21.1323 Y-18.3214 Z1.4709
G1 X21.1457 Y-18.6403 Z1.4147
G1 X21.2016 Y-18.9377 Z1.3613
G1 X21.2991 Y-19.2172 Z1.3091
G1 X21.4352 Y-19.4737 Z1.2579
G1 X21.5160 Y-19.5810 Z1.2342
G1 X21.5211 Y-19.5810 Z1.2333
G1 X21.5262 Y-19.5810 Z1.2333 F150.
G1 X21.5262 Y-19.4172 Z1.2333
G2X21.1939Y-18.5994Z1.2333I1.8995J1.2482
G2X21.1700Y-18.1759Z1.2333I2.0609J0.3286
G1 X21.1430 Y-18.1970 Z1.2333
G3X21.5211Y-19.5810Z1.2333I1.9122J-0.2212
G1 X21.5211 Y-19.8285 Z1.2333
G1 X21.3925 Y-19.8285 Z1.2333
G2X20.8992Y-18.6686Z1.2333I1.6294J1.3779
G1 X20.8843 Y-18.3160 Z1.2333
G1 X20.9057 Y-18.0668 Z1.2333
G3X21.5250Y-17.2335Z1.2333I-1.1466J1.4989
G1 X21.5613 Y-17.1374 Z1.2333
G1 X21.5668 Y-17.1213 Z1.2333
G3X21.5496Y-16.0401Z1.2333I-1.6571J0.5145
G1 X21.7735 Y-15.7738 Z1.2333
G1 X21.7735 Y-17.0901 Z1.2333
G1 X21.7528 Y-17.1175 Z1.2333
G3X21.4396Y-17.9176Z1.2333I1.6980J-1.1259
G3X21.4237Y-18.4474Z1.2333I2.5372J-0.3415
G3X21.7736Y-19.3380Z1.2333I1.9590J0.2558
G1 X21.7737 Y-19.8285 Z1.2333
G1 X21.5211 Y-19.8285 Z1.2333
G1 X21.5211 Y-20.0760 Z1.2333
G1 X22.0212 Y-20.0760 Z1.2333
G1 X22.0211 Y-19.2524 Z1.2333
G2X21.6636Y-18.3050Z1.2333I1.3267J1.0418
G2X21.6841Y-17.9563Z1.2333I2.5087J0.0276
G2X22.0142Y-17.1823Z1.2333I1.7068J-0.2707
G1 X22.0210 Y-17.1746 Z1.2333
G1 X22.0210 Y-15.1359 Z1.2333
G1 X22.0026 Y-15.1168 Z1.2333
G1 X21.3133 Y-15.9366 Z1.2333
G1 X21.2792 Y-16.0335 Z1.2333
G2X21.3297Y-17.0500Z1.2333I-1.4034J-0.5792
G1 X21.2933 Y-17.1465 Z1.2333
G2X20.6693Y-17.9265Z1.2333I-1.4981J0.5589
G3X21.0163Y-19.7402Z1.2333I2.6049J-0.4418
G1 X21.2431 Y-20.0416 Z1.2333
G1 X21.2766 Y-20.0760 Z1.2333
G1 X21.5211 Y-20.0760 Z1.2333
G1 X21.5211 Y-20.3235 Z1.2333
G1 X21.1722 Y-20.3235 Z1.2333
G1 X21.0548 Y-20.2030 Z1.2333
G2X20.4061Y-18.7250Z1.2333I2.0078J1.7626
G2X20.4460Y-17.7668Z1.2333I3.2202J0.3459
G3X21.0612Y-17.0606Z1.2333I-0.6216J1.1627
G1 X21.0614 Y-17.0602 Z1.2333
G3X21.0111Y-16.0498Z1.2333I-1.1857J0.4475
G1 X21.0948 Y-15.8119 Z1.2333
G1 X21.9901 Y-14.7470 Z1.2333
G1 X22.2685 Y-15.0361 Z1.2333
G1 X22.2685 Y-17.2680 Z1.2333
G1 X22.2672 Y-17.2693 Z1.2333
G3X21.9286Y-17.9942Z1.2333I1.0757J-0.9439
G1 X21.9119 Y-18.2024 Z1.2333
G3X22.2686Y-19.1590Z1.2333I1.4297J-0.0117
G1 X22.2687 Y-20.3235 Z1.2333
G1 X21.5211 Y-20.3235 Z1.2333
G1 X21.5211 Y-20.5710 Z1.2333
G1 X22.5002 Y-20.5710 Z1.2333
G1 X22.5162 Y-20.4596 Z1.2333
G1 X22.5161 Y-19.0551 Z1.2333
G2X22.1669Y-18.1192Z1.2333I0.8257J0.8411
G2X22.5160Y-17.3718Z1.2333I1.1760J-0.0940
G1 X22.5160 Y-14.9363 Z1.2333
G1 X21.9776 Y-14.3773 Z1.2333
G1 X20.8763 Y-15.6871 Z1.2333
G1 X20.7392 Y-16.0770 Z1.2333
G2X20.8288Y-16.9755Z1.2333I-0.8889J-0.5424
G2X20.2277Y-17.5922Z1.2333I-0.9880J0.3616
G3X20.3892Y-19.6146Z1.2333I3.2412J-0.7589
G3X21.0103Y-20.5121Z1.2333I2.5566J1.1057
G1 X21.0804 Y-20.5710 Z1.2333
G1 X21.5211 Y-20.5710 Z1.2333
G0 Z1.9975
G0 X21.5211 Y-20.5710 
G0 Z1.9975
G0 X21.1720 Y-18.3703 
G1 X21.1720 Y-18.3703 Z1.3000 F75.
G1 X21.1720 Y-18.3703 Z1.2750 F50.
G1 X21.1686 Y-18.3006 Z1.2627
G1 X21.1700 Y-18.1759 Z1.2407
G1 X21.1430 Y-18.1970 Z1.2346
G1 X21.1323 Y-18.3214 Z1.2126
G1 X21.1457 Y-18.6403 Z1.1563
G1 X21.2016 Y-18.9377 Z1.1030
G1 X21.2991 Y-19.2172 Z1.0508
G1 X21.4352 Y-19.4737 Z0.9996
G1 X21.5160 Y-19.5810 Z0.9759
G1 X21.5211 Y-19.5810 Z0.9750
G1 X21.5262 Y-19.5810 Z0.9750 F150.
G1 X21.5262 Y-19.4172 Z0.9750
G2X21.1939Y-18.5994Z0.9750I1.8995J1.2482
G2X21.1700Y-18.1759Z0.9750I2.0609J0.3286
G1 X21.1430 Y-18.1970 Z0.9750
G3X21.5211Y-19.5810Z0.9750I1.9122J-0.2212
G1 X21.5211 Y-19.8285 Z0.9750
G1 X21.3925 Y-19.8285 Z0.9750
G2X20.8992Y-18.6686Z0.9750I1.6294J1.3779
G1 X20.8843 Y-18.3160 Z0.9750
G1 X20.9057 Y-18.0668 Z0.9750
G3X21.5250Y-17.2335Z0.9750I-1.1466J1.4989
G1 X21.5613 Y-17.1374 Z0.9750
G1 X21.5668 Y-17.1213 Z0.9750
G3X21.5496Y-16.0401Z0.9750I-1.6571J0.5145
G1 X21.7735 Y-15.7738 Z0.9750
G1 X21.7735 Y-17.0901 Z0.9750
G1 X21.7528 Y-17.1175 Z0.9750
G3X21.4396Y-17.9176Z0.9750I1.6980J-1.1259
G3X21.4237Y-18.4474Z0.9750I2.5372J-0.3415
G3X21.7736Y-19.3380Z0.9750I1.9590J0.2558
G1 X21.7737 Y-19.8285 Z0.9750
G1 X21.5211 Y-19.8285 Z0.9750
G1 X21.5211 Y-20.0760 Z0.9750
G1 X22.0212 Y-20.0760 Z0.9750
G1 X22.0211 Y-19.2524 Z0.9750
G2X21.6636Y-18.3050Z0.9750I1.3267J1.0418
G2X21.6841Y-17.9563Z0.9750I2.5087J0.0276
G2X22.0142Y-17.1823Z0.9750I1.7068J-0.2707
G1 X22.0210 Y-17.1746 Z0.9750
G1 X22.0210 Y-15.1359 Z0.9750
G1 X22.0026 Y-15.1168 Z0.9750
G1 X21.3133 Y-15.9366 Z0.9750
G1 X21.2792 Y-16.0335 Z0.9750
G2X21.3297Y-17.0500Z0.9750I-1.4034J-0.5792
G1 X21.2933 Y-17.1465 Z0.9750
G2X20.6693Y-17.9265Z0.9750I-1.4981J0.5589
G3X21.0163Y-19.7402Z0.9750I2.6049J-0.4418
G1 X21.2431 Y-20.0416 Z0.9750
G1 X21.2766 Y-20.0760 Z0.9750
G1 X21.5211 Y-20.0760 Z0.9750
G1 X21.5211 Y-20.3235 Z0.9750
G1 X21.1722 Y-20.3235 Z0.9750
G1 X21.0548 Y-20.2030 Z0.9750
G2X20.4061Y-18.7250Z0.9750I2.0078J1.7626
G2X20.4460Y-17.7668Z0.9750I3.2202J0.3459
G3X21.0612Y-17.0606Z0.9750I-0.6216J1.1627
G1 X21.0614 Y-17.0602 Z0.9750
G3X21.0111Y-16.0498Z0.9750I-1.1857J0.4475
G1 X21.0948 Y-15.8119 Z0.9750
G1 X21.9901 Y-14.7470 Z0.9750
G1 X22.2685 Y-15.0361 Z0.9750
G1 X22.2685 Y-17.2680 Z0.9750
G1 X22.2672 Y-17.2693 Z0.9750
G3X21.9286Y-17.9942Z0.9750I1.0757J-0.9439
G1 X21.9119 Y-18.2024 Z0.9750
G3X22.2686Y-19.1590Z0.9750I1.4297J-0.0117
G1 X22.2687 Y-20.3235 Z0.9750
G1 X21.5211 Y-20.3235 Z0.9750
G1 X21.5211 Y-20.5710 Z0.9750
G1 X22.5002 Y-20.5710 Z0.9750
G1 X22.5162 Y-20.4596 Z0.9750
G1 X22.5161 Y-19.0551 Z0.9750
G2X22.1669Y-18.1192Z0.9750I0.8257J0.8411
G2X22.5160Y-17.3718Z0.9750I1.1760J-0.0940
G1 X22.5160 Y-14.9363 Z0.9750
G1 X21.9776 Y-14.3773 Z0.9750
G1 X20.8763 Y-15.6871 Z0.9750
G1 X20.7392 Y-16.0770 Z0.9750
G2X20.8288Y-16.9755Z0.9750I-0.8889J-0.5424
G2X20.2277Y-17.5922Z0.9750I-0.9880J0.3616
G3X20.3892Y-19.6146Z0.9750I3.2412J-0.7589
G3X21.0103Y-20.5121Z0.9750I2.5566J1.1057
G1 X21.0804 Y-20.5710 Z0.9750
G1 X21.5211 Y-20.5710 Z0.9750
G0 Z1.9975
G0 X21.5211 Y-20.5710 
G0 Z1.9975
G0 X21.1720 Y-18.3703 
G1 X21.1720 Y-18.3703 Z1.0417 F75.
G1 X21.1720 Y-18.3703 Z1.0167 F50.
G1 X21.1686 Y-18.3006 Z1.0043
G1 X21.1700 Y-18.1759 Z0.9824
G1 X21.1430 Y-18.1970 Z0.9763
G1 X21.1323 Y-18.3214 Z0.9543
G1 X21.1457 Y-18.6403 Z0.8980
G1 X21.2016 Y-18.9377 Z0.8446
G1 X21.2991 Y-19.2172 Z0.7924
G1 X21.4352 Y-19.4737 Z0.7412
G1 X21.5160 Y-19.5810 Z0.7176
G1 X21.5211 Y-19.5810 Z0.7167
G1 X21.5262 Y-19.5810 Z0.7167 F150.
G1 X21.5262 Y-19.4172 Z0.7167
G2X21.1939Y-18.5994Z0.7167I1.8995J1.2482
G2X21.1700Y-18.1759Z0.7167I2.0609J0.3286
G1 X21.1430 Y-18.1970 Z0.7167
G3X21.5211Y-19.5810Z0.7167I1.9122J-0.2212
G1 X21.5211 Y-19.8285 Z0.7167
G1 X21.3925 Y-19.8285 Z0.7167
G2X20.8992Y-18.6686Z0.7167I1.6294J1.3779
G1 X20.8843 Y-18.3160 Z0.7167
G1 X20.9057 Y-18.0668 Z0.7167
G3X21.5250Y-17.2335Z0.7167I-1.1466J1.4989
G1 X21.5613 Y-17.1374 Z0.7167
G1 X21.5668 Y-17.1213 Z0.7167
G3X21.5496Y-16.0401Z0.7167I-1.6571J0.5145
G1 X21.7735 Y-15.7738 Z0.7167
G1 X21.7735 Y-17.0901 Z0.7167
G1 X21.7528 Y-17.1175 Z0.7167
G3X21.4396Y-17.9176Z0.7167I1.6980J-1.1259
G3X21.4237Y-18.4474Z0.7167I2.5372J-0.3415
G3X21.7736Y-19.3380Z0.7167I1.9590J0.2558
G1 X21.7737 Y-19.8285 Z0.7167
G1 X21.5211 Y-19.8285 Z0.7167
G1 X21.5211 Y-20.0760 Z0.7167
G1 X22.0212 Y-20.0760 Z0.7167
G1 X22.0211 Y-19.2524 Z0.7167
G2X21.6636Y-18.3050Z0.7167I1.3267J1.0418
G2X21.6841Y-17.9563Z0.7167I2.5087J0.0276
G2X22.0142Y-17.1823Z0.7167I1.7068J-0.2707
G1 X22.0210 Y-17.1746 Z0.7167
G1 X22.0210 Y-15.1359 Z0.7167
G1 X22.0026 Y-15.1168 Z0.7167
G1 X21.3133 Y-15.9366 Z0.7167
G1 X21.2792 Y-16.0335 Z0.7167
G2X21.3297Y-17.0500Z0.7167I-1.4034J-0.5792
G1 X21.2933 Y-17.1465 Z0.7167
G2X20.6693Y-17.9265Z0.7167I-1.4981J0.5589
G3X21.0163Y-19.7402Z0.7167I2.6049J-0.4418
G1 X21.2431 Y-20.0416 Z0.7167
G1 X21.2766 Y-20.0760 Z0.7167
G1 X21.5211 Y-20.0760 Z0.7167
G1 X21.5211 Y-20.3235 Z0.7167
G1 X21.1722 Y-20.3235 Z0.7167
G1 X21.0548 Y-20.2030 Z0.7167
G2X20.4061Y-18.7250Z0.7167I2.0078J1.7626
G2X20.4460Y-17.7668Z0.7167I3.2202J0.3459
G3X21.0612Y-17.0606Z0.7167I-0.6216J1.1627
G1 X21.0614 Y-17.0602 Z0.7167
G3X21.0111Y-16.0498Z0.7167I-1.1857J0.4475
G1 X21.0948 Y-15.8119 Z0.7167
G1 X21.9901 Y-14.7470 Z0.7167
G1 X22.2685 Y-15.0361 Z0.7167
G1 X22.2685 Y-17.2680 Z0.7167
G1 X22.2672 Y-17.2693 Z0.7167
G3X21.9286Y-17.9942Z0.7167I1.0757J-0.9439
G1 X21.9119 Y-18.2024 Z0.7167
G3X22.2686Y-19.1590Z0.7167I1.4297J-0.0117
G1 X22.2687 Y-20.3235 Z0.7167
G1 X21.5211 Y-20.3235 Z0.7167
G1 X21.5211 Y-20.5710 Z0.7167
G1 X22.5002 Y-20.5710 Z0.7167
G1 X22.5162 Y-20.4596 Z0.7167
G1 X22.5161 Y-19.0551 Z0.7167
G2X22.1669Y-18.1192Z0.7167I0.8257J0.8411
G2X22.5160Y-17.3718Z0.7167I1.1760J-0.0940
G1 X22.5160 Y-14.9363 Z0.7167
G1 X21.9776 Y-14.3773 Z0.7167
G1 X20.8763 Y-15.6871 Z0.7167
G1 X20.7392 Y-16.0770 Z0.7167
G2X20.8288Y-16.9755Z0.7167I-0.8889J-0.5424
G2X20.2277Y-17.5922Z0.7167I-0.9880J0.3616
G3X20.3892Y-19.6146Z0.7167I3.2412J-0.7589
G3X21.0103Y-20.5121Z0.7167I2.5566J1.1057
G1 X21.0804 Y-20.5710 Z0.7167
G1 X21.5211 Y-20.5710 Z0.7167
G0 Z1.9975
G0 X21.5211 Y-20.5710 
G0 Z1.9975
G0 X21.1720 Y-18.3703 
G1 X21.1720 Y-18.3703 Z0.7833 F75.
G1 X21.1720 Y-18.3703 Z0.7583 F50.
G1 X21.1686 Y-18.3006 Z0.7460
G1 X21.1700 Y-18.1759 Z0.7240
G1 X21.1430 Y-18.1970 Z0.7180
G1 X21.1323 Y-18.3214 Z0.6959
G1 X21.1457 Y-18.6403 Z0.6397
G1 X21.2016 Y-18.9377 Z0.5863
G1 X21.2991 Y-19.2172 Z0.5341
G1 X21.4352 Y-19.4737 Z0.4829
G1 X21.5160 Y-19.5810 Z0.4592
G1 X21.5211 Y-19.5810 Z0.4583
G1 X21.5262 Y-19.5810 Z0.4583 F150.
G1 X21.5262 Y-19.4172 Z0.4583
G2X21.1939Y-18.5994Z0.4583I1.8995J1.2482
G2X21.1700Y-18.1759Z0.4583I2.0609J0.3286
G1 X21.1430 Y-18.1970 Z0.4583
G3X21.5211Y-19.5810Z0.4583I1.9122J-0.2212
G1 X21.5211 Y-19.8285 Z0.4583
G1 X21.3925 Y-19.8285 Z0.4583
G2X20.8992Y-18.6686Z0.4583I1.6294J1.3779
G1 X20.8843 Y-18.3160 Z0.4583
G1 X20.9057 Y-18.0668 Z0.4583
G3X21.5250Y-17.2335Z0.4583I-1.1466J1.4989
G1 X21.5613 Y-17.1374 Z0.4583
G1 X21.5668 Y-17.1213 Z0.4583
G3X21.5496Y-16.0401Z0.4583I-1.6571J0.5145
G1 X21.7735 Y-15.7738 Z0.4583
G1 X21.7735 Y-17.0901 Z0.4583
G1 X21.7528 Y-17.1175 Z0.4583
G3X21.4396Y-17.9176Z0.4583I1.6980J-1.1259
G3X21.4237Y-18.4474Z0.4583I2.5372J-0.3415
G3X21.7736Y-19.3380Z0.4583I1.9590J0.2558
G1 X21.7737 Y-19.8285 Z0.4583
G1 X21.5211 Y-19.8285 Z0.4583
G1 X21.5211 Y-20.0760 Z0.4583
G1 X22.0212 Y-20.0760 Z0.4583
G1 X22.0211 Y-19.2524 Z0.4583
G2X21.6636Y-18.3050Z0.4583I1.3267J1.0418
G2X21.6841Y-17.9563Z0.4583I2.5087J0.0276
G2X22.0142Y-17.1823Z0.4583I1.7068J-0.2707
G1 X22.0210 Y-17.1746 Z0.4583
G1 X22.0210 Y-15.1359 Z0.4583
G1 X22.0026 Y-15.1168 Z0.4583
G1 X21.3133 Y-15.9366 Z0.4583
G1 X21.2792 Y-16.0335 Z0.4583
G2X21.3297Y-17.0500Z0.4583I-1.4034J-0.5792
G1 X21.2933 Y-17.1465 Z0.4583
G2X20.6693Y-17.9265Z0.4583I-1.4981J0.5589
G3X21.0163Y-19.7402Z0.4583I2.6049J-0.4418
G1 X21.2431 Y-20.0416 Z0.4583
G1 X21.2766 Y-20.0760 Z0.4583
G1 X21.5211 Y-20.0760 Z0.4583
G1 X21.5211 Y-20.3235 Z0.4583
G1 X21.1722 Y-20.3235 Z0.4583
G1 X21.0548 Y-20.2030 Z0.4583
G2X20.4061Y-18.7250Z0.4583I2.0078J1.7626
G2X20.4460Y-17.7668Z0.4583I3.2202J0.3459
G3X21.0612Y-17.0606Z0.4583I-0.6216J1.1627
G1 X21.0614 Y-17.0602 Z0.4583
G3X21.0111Y-16.0498Z0.4583I-1.1857J0.4475
G1 X21.0948 Y-15.8119 Z0.4583
G1 X21.9901 Y-14.7470 Z0.4583
G1 X22.2685 Y-15.0361 Z0.4583
G1 X22.2685 Y-17.2680 Z0.4583
G1 X22.2672 Y-17.2693 Z0.4583
G3X21.9286Y-17.9942Z0.4583I1.0757J-0.9439
G1 X21.9119 Y-18.2024 Z0.4583
G3X22.2686Y-19.1590Z0.4583I1.4297J-0.0117
G1 X22.2687 Y-20.3235 Z0.4583
G1 X21.5211 Y-20.3235 Z0.4583
G1 X21.5211 Y-20.5710 Z0.4583
G1 X22.5002 Y-20.5710 Z0.4583
G1 X22.5162 Y-20.4596 Z0.4583
G1 X22.5161 Y-19.0551 Z0.4583
G2X22.1669Y-18.1192Z0.4583I0.8257J0.8411
G2X22.5160Y-17.3718Z0.4583I1.1760J-0.0940
G1 X22.5160 Y-14.9363 Z0.4583
G1 X21.9776 Y-14.3773 Z0.4583
G1 X20.8763 Y-15.6871 Z0.4583
G1 X20.7392 Y-16.0770 Z0.4583
G2X20.8288Y-16.9755Z0.4583I-0.8889J-0.5424
G2X20.2277Y-17.5922Z0.4583I-0.9880J0.3616
G3X20.3892Y-19.6146Z0.4583I3.2412J-0.7589
G3X21.0103Y-20.5121Z0.4583I2.5566J1.1057
G1 X21.0804 Y-20.5710 Z0.4583
G1 X21.5211 Y-20.5710 Z0.4583
G0 Z1.9975
G0 X21.5211 Y-20.5710 
G0 Z1.9975
G0 X21.1720 Y-18.3703 
G1 X21.1720 Y-18.3703 Z0.5250 F75.
G1 X21.1720 Y-18.3703 Z0.5000 F50.
G1 X21.1686 Y-18.3006 Z0.4877
G1 X21.1700 Y-18.1759 Z0.4657
G1 X21.1430 Y-18.1970 Z0.4596
G1 X21.1323 Y-18.3214 Z0.4376
G1 X21.1457 Y-18.6403 Z0.3813
G1 X21.2016 Y-18.9377 Z0.3280
G1 X21.2991 Y-19.2172 Z0.2758
G1 X21.4352 Y-19.4737 Z0.2246
G1 X21.5160 Y-19.5810 Z0.2009
G1 X21.5211 Y-19.5810 Z0.2000
G1 X21.5262 Y-19.5810 Z0.2000 F150.
G1 X21.5262 Y-19.4172 Z0.2000
G2X21.1939Y-18.5994Z0.2000I1.8995J1.2482
G2X21.1700Y-18.1759Z0.2000I2.0609J0.3286
G1 X21.1430 Y-18.1970 Z0.2000
G3X21.5211Y-19.5810Z0.2000I1.9122J-0.2212
G1 X21.5211 Y-19.8285 Z0.2000
G1 X21.3925 Y-19.8285 Z0.2000
G2X20.8992Y-18.6686Z0.2000I1.6294J1.3779
G1 X20.8843 Y-18.3160 Z0.2000
G1 X20.9057 Y-18.0668 Z0.2000
G3X21.5250Y-17.2335Z0.2000I-1.1466J1.4989
G1 X21.5613 Y-17.1374 Z0.2000
G1 X21.5668 Y-17.1213 Z0.2000
G3X21.5496Y-16.0401Z0.2000I-1.6571J0.5145
G1 X21.7735 Y-15.7738 Z0.2000
G1 X21.7735 Y-17.0901 Z0.2000
G1 X21.7528 Y-17.1175 Z0.2000
G3X21.4396Y-17.9176Z0.2000I1.6980J-1.1259
G3X21.4237Y-18.4474Z0.2000I2.5372J-0.3415
G3X21.7736Y-19.3380Z0.2000I1.9590J0.2558
G1 X21.7737 Y-19.8285 Z0.2000
G1 X21.5211 Y-19.8285 Z0.2000
G1 X21.5211 Y-20.0760 Z0.2000
G1 X22.0212 Y-20.0760 Z0.2000
G1 X22.0211 Y-19.2524 Z0.2000
G2X21.6636Y-18.3050Z0.2000I1.3267J1.0418
G2X21.6841Y-17.9563Z0.2000I2.5087J0.0276
G2X22.0142Y-17.1823Z0.2000I1.7068J-0.2707
G1 X22.0210 Y-17.1746 Z0.2000
G1 X22.0210 Y-15.1359 Z0.2000
G1 X22.0026 Y-15.1168 Z0.2000
G1 X21.3133 Y-15.9366 Z0.2000
G1 X21.2792 Y-16.0335 Z0.2000
G2X21.3297Y-17.0500Z0.2000I-1.4034J-0.5792
G1 X21.2933 Y-17.1465 Z0.2000
G2X20.6693Y-17.9265Z0.2000I-1.4981J0.5589
G3X21.0163Y-19.7402Z0.2000I2.6049J-0.4418
G1 X21.2431 Y-20.0416 Z0.2000
G1 X21.2766 Y-20.0760 Z0.2000
G1 X21.5211 Y-20.0760 Z0.2000
G1 X21.5211 Y-20.3235 Z0.2000
G1 X21.1722 Y-20.3235 Z0.2000
G1 X21.0548 Y-20.2030 Z0.2000
G2X20.4061Y-18.7250Z0.2000I2.0078J1.7626
G2X20.4460Y-17.7668Z0.2000I3.2202J0.3459
G3X21.0612Y-17.0606Z0.2000I-0.6216J1.1627
G1 X21.0614 Y-17.0602 Z0.2000
G3X21.0111Y-16.0498Z0.2000I-1.1857J0.4475
G1 X21.0948 Y-15.8119 Z0.2000
G1 X21.9901 Y-14.7470 Z0.2000
G1 X22.2685 Y-15.0361 Z0.2000
G1 X22.2685 Y-17.2680 Z0.2000
G1 X22.2672 Y-17.2693 Z0.2000
G3X21.9286Y-17.9942Z0.2000I1.0757J-0.9439
G1 X21.9119 Y-18.2024 Z0.2000
G3X22.2686Y-19.1590Z0.2000I1.4297J-0.0117
G1 X22.2687 Y-20.3235 Z0.2000
G1 X21.5211 Y-20.3235 Z0.2000
G1 X21.5211 Y-20.5710 Z0.2000
G1 X22.5002 Y-20.5710 Z0.2000
G1 X22.5162 Y-20.4596 Z0.2000
G1 X22.5161 Y-19.0551 Z0.2000
G2X22.1669Y-18.1192Z0.2000I0.8257J0.8411
G2X22.5160Y-17.3718Z0.2000I1.1760J-0.0940
G1 X22.5160 Y-14.9363 Z0.2000
G1 X21.9776 Y-14.3773 Z0.2000
G1 X20.8763 Y-15.6871 Z0.2000
G1 X20.7392 Y-16.0770 Z0.2000
G2X20.8288Y-16.9755Z0.2000I-0.8889J-0.5424
G2X20.2277Y-17.5922Z0.2000I-0.9880J0.3616
G3X20.3892Y-19.6146Z0.2000I3.2412J-0.7589
G3X21.0103Y-20.5121Z0.2000I2.5566J1.1057
G1 X21.0804 Y-20.5710 Z0.2000
G1 X21.5211 Y-20.5710 Z0.2000
G0 Z4.0000
G0 X21.5211 Y-20.5710 
M5
G53 Z
( END FILE Rear-control-back-01.nc )
