( BEGIN FILE Rear-control-BladeSwitch-front-02.ncTNUM: -1 )
( Lefty:False Nunits:2 )
( cline: 9.733 delta:15.5 )
( start_unit: 1 num_units: 2)
( MOP:  Rear-control-BladeSwitch-front-02 )
( FILE: G:\Shared drives\AlloyProjectFiles\Customer CAD files\Alloy-Standard-Builds-CAM\s-in\Control\Rear-control-BladeSwitch-front-02.nc)
G90
(  BEGIN TOOL LIST )
(  TOOL 20 - Downcut 2mm - DESC: 0.0787 DIA, 2 FLUTE,  CARBIDE MAT )
(  ENDOF TOOL LIST )
( Rear-control-BladeSwitch-front-02)
T20
S14000
M3
G0 Z4.0000
G0 X13.3898 Y-14.8975 
G1 X13.3898 Y-14.8975 Z1.7750 F75.
G1 X13.7759 Y-15.3130 Z1.6750 F25.
G1 X13.0543 Y-14.5365 Z1.6750 F35.
G0 Z1.9500
G0 X13.0543 Y-14.5365 
G0 Z1.9500
G0 X13.4404 Y-14.9519 
G1 X13.4404 Y-14.9519 Z1.7000 F75.
G1 X13.0543 Y-14.5365 Z1.6000 F25.
G1 X13.7759 Y-15.3130 Z1.6000 F35.
G0 Z1.8750
G0 X13.7759 Y-15.3130 
G0 Z1.8750
G0 X13.3898 Y-14.8975 
G1 X13.3898 Y-14.8975 Z1.6250 F75.
G1 X13.7759 Y-15.3130 Z1.5250 F25.
G1 X13.0543 Y-14.5365 Z1.5250 F35.
G0 Z1.8000
G0 X13.0543 Y-14.5365 
G0 Z1.8000
G0 X13.4404 Y-14.9519 
G1 X13.4404 Y-14.9519 Z1.5500 F75.
G1 X13.0543 Y-14.5365 Z1.4500 F25.
G1 X13.7759 Y-15.3130 Z1.4500 F35.
G0 Z4.0000
G0 X13.7759 Y-15.3130 
M5
G53 Z
( MOP:  Rear-control-BladeSwitch-front-02 )
( FILE: G:\Shared drives\AlloyProjectFiles\Customer CAD files\Alloy-Standard-Builds-CAM\s-in\Control\Rear-control-BladeSwitch-front-02.nc)
G90
(  BEGIN TOOL LIST )
(  TOOL 20 - Downcut 2mm - DESC: 0.0787 DIA, 2 FLUTE,  CARBIDE MAT )
(  ENDOF TOOL LIST )
( Rear-control-BladeSwitch-front-02)
T20
S14000
M3
G0 Z4.0000
G0 X28.8898 Y-14.8975 
G1 X28.8898 Y-14.8975 Z1.7750 F75.
G1 X29.2759 Y-15.3130 Z1.6750 F25.
G1 X28.5543 Y-14.5365 Z1.6750 F35.
G0 Z1.9500
G0 X28.5543 Y-14.5365 
G0 Z1.9500
G0 X28.9404 Y-14.9519 
G1 X28.9404 Y-14.9519 Z1.7000 F75.
G1 X28.5543 Y-14.5365 Z1.6000 F25.
G1 X29.2759 Y-15.3130 Z1.6000 F35.
G0 Z1.8750
G0 X29.2759 Y-15.3130 
G0 Z1.8750
G0 X28.8898 Y-14.8975 
G1 X28.8898 Y-14.8975 Z1.6250 F75.
G1 X29.2759 Y-15.3130 Z1.5250 F25.
G1 X28.5543 Y-14.5365 Z1.5250 F35.
G0 Z1.8000
G0 X28.5543 Y-14.5365 
G0 Z1.8000
G0 X28.9404 Y-14.9519 
G1 X28.9404 Y-14.9519 Z1.5500 F75.
G1 X28.5543 Y-14.5365 Z1.4500 F25.
G1 X29.2759 Y-15.3130 Z1.4500 F35.
G0 Z4.0000
G0 X29.2759 Y-15.3130 
M5
G53 Z
( END FILE Rear-control-BladeSwitch-front-02.nc )
