( BEGIN FILE S-PUP-Neck-front-02.ncTNUM: -1 )
( Lefty:False Nunits:2 )
( cline: 9.733 delta:15.5 )
( start_unit: 1 num_units: 2)
( MOP:  S-PUP-Neck-front-02 )
( FILE: G:\Shared drives\AlloyProjectFiles\Customer CAD files\Alloy-Standard-Builds-CAM\s-in\PUPs\S-PUP-Neck-front-02.nc)
G90
(  BEGIN TOOL LIST )
(  TOOL 4 - Downcut PT500 - DESC: 0.5000 DIA, 2 FLUTE,  CARBIDE MAT )
(  ENDOF TOOL LIST )
( S-PUP-Neck-front-02)
T04
S12000
M3
G0 Z4.0000
G0 X9.9830 Y-10.9939 
G1 X9.9830 Y-10.9939 Z1.1350 F75.
G17
G3X9.7330Y-10.7439Z1.1350I-0.2500J0.0000 F20.
G1 X8.4389 Y-10.7439 Z1.1350 F40.
G3X8.3916Y-11.1028Z1.1350I0.0000J-0.1826
G1 X9.4973 Y-11.3991 Z1.1350
G1 X9.9687 Y-11.3991 Z1.1350
G1 X11.0744 Y-11.1028 Z1.1350
G3X11.0271Y-10.7439Z1.1350I-0.0473J0.1763
G1 X9.7330 Y-10.7439 Z1.1350
G1 X9.2330 Y-10.7439 Z1.1350
G3X8.9830Y-10.9939Z1.1350I0.0000J-0.2500
G0 Z4.0000
G0 X8.9830 Y-10.9939 
M5
G53 Z
( MOP:  S-PUP-Neck-front-02 )
( FILE: G:\Shared drives\AlloyProjectFiles\Customer CAD files\Alloy-Standard-Builds-CAM\s-in\PUPs\S-PUP-Neck-front-02.nc)
G90
(  BEGIN TOOL LIST )
(  TOOL 4 - Downcut PT500 - DESC: 0.5000 DIA, 2 FLUTE,  CARBIDE MAT )
(  ENDOF TOOL LIST )
( S-PUP-Neck-front-02)
T04
S12000
M3
G0 Z4.0000
G0 X25.4830 Y-10.9939 
G1 X25.4830 Y-10.9939 Z1.1350 F75.
G17
G3X25.2330Y-10.7439Z1.1350I-0.2500J0.0000 F20.
G1 X23.9389 Y-10.7439 Z1.1350 F40.
G3X23.8916Y-11.1028Z1.1350I0.0000J-0.1826
G1 X24.9973 Y-11.3991 Z1.1350
G1 X25.4687 Y-11.3991 Z1.1350
G1 X26.5744 Y-11.1028 Z1.1350
G3X26.5271Y-10.7439Z1.1350I-0.0473J0.1763
G1 X25.2330 Y-10.7439 Z1.1350
G1 X24.7330 Y-10.7439 Z1.1350
G3X24.4830Y-10.9939Z1.1350I0.0000J-0.2500
G0 Z4.0000
G0 X24.4830 Y-10.9939 
M5
G53 Z
( END FILE S-PUP-Neck-front-02.nc )
