( BEGIN FILE T24S-PUP-Middle-front-01.ncTNUM: -1 )
( Lefty:False Nunits:2 )
( cline: 9.733 delta:15.5 )
( start_unit: 1 num_units: 2)
( MOP:  S-PUP-Middle-front-01 )
( FILE: G:\Shared drives\AlloyProjectFiles\Customer CAD files\Alloy-Standard-Builds-CAM\s-in\True24 Specific\S-PUP-Middle-front-01.nc)
G90
(  BEGIN TOOL LIST )
(  TOOL 4 - Downcut PT500 - DESC: 0.5000 DIA, 2 FLUTE,  CARBIDE MAT )
(  ENDOF TOOL LIST )
( S-PUP-Middle-front-01)
T04
S12000
M3
G0 Z4.0000
G0 X9.3394 Y-12.5467 
G1 X9.3394 Y-12.5467 Z1.8125 F75.
G1 X9.3394 Y-12.5467 Z1.7875
G1 X8.8371 Y-12.5467 Z1.6989
G1 X9.5282 Y-12.7319 Z1.5728
G1 X9.9378 Y-12.7319 Z1.5006
G1 X10.2833 Y-12.6393 Z1.4375
G1 X10.6288 Y-12.5467 Z1.4375 F100.
G1 X8.8371 Y-12.5467 Z1.4375
G1 X9.5282 Y-12.7319 Z1.4375
G1 X9.9378 Y-12.7319 Z1.4375
G1 X10.2833 Y-12.6393 Z1.4375
G1 X10.3260 Y-12.7987 Z1.4375
G1 X11.1044 Y-12.5901 Z1.4375
G17
G3X11.0770Y-12.3817Z1.4375I-0.0274J0.1024
G1 X8.3890 Y-12.3817 Z1.4375
G3X8.3616Y-12.5901Z1.4375I0.0000J-0.1060
G1 X9.5065 Y-12.8969 Z1.4375
G1 X9.9595 Y-12.8969 Z1.4375
G1 X10.3260 Y-12.7987 Z1.4375
G0 Z1.9975
G0 X10.3260 Y-12.7987 
G0 Z1.9975
G0 X9.3394 Y-12.5467 
G1 X9.3394 Y-12.5467 Z1.5000 F75.
G1 X9.3394 Y-12.5467 Z1.4750
G1 X8.8371 Y-12.5467 Z1.3864
G1 X9.5282 Y-12.7319 Z1.2603
G1 X9.9378 Y-12.7319 Z1.1881
G1 X10.2833 Y-12.6393 Z1.1250
G1 X10.6288 Y-12.5467 Z1.1250 F100.
G1 X8.8371 Y-12.5467 Z1.1250
G1 X9.5282 Y-12.7319 Z1.1250
G1 X9.9378 Y-12.7319 Z1.1250
G1 X10.2833 Y-12.6393 Z1.1250
G1 X10.3260 Y-12.7987 Z1.1250
G1 X11.1044 Y-12.5901 Z1.1250
G3X11.0770Y-12.3817Z1.1250I-0.0274J0.1024
G1 X8.3890 Y-12.3817 Z1.1250
G3X8.3616Y-12.5901Z1.1250I0.0000J-0.1060
G1 X9.5065 Y-12.8969 Z1.1250
G1 X9.9595 Y-12.8969 Z1.1250
G1 X10.3260 Y-12.7987 Z1.1250
G0 Z4.0000
G0 X10.3260 Y-12.7987 
( S-PUP-Middle-front-02)
G0 Z4.0000
G0 X9.9830 Y-12.5617 
G1 X9.9830 Y-12.5617 Z1.1250 F75.
G3X9.7330Y-12.3117Z1.1250I-0.2500J0.0000 F40.
G1 X8.3890 Y-12.3117 Z1.1250
G3X8.3434Y-12.6577Z1.1250I0.0000J-0.1760
G1 X9.4973 Y-12.9669 Z1.1250
G1 X9.9687 Y-12.9669 Z1.1250
G1 X11.1225 Y-12.6577 Z1.1250
G3X11.0770Y-12.3117Z1.1250I-0.0455J0.1700
G1 X9.7330 Y-12.3117 Z1.1250
G1 X9.4830 Y-12.3117 Z1.1250
G3X9.2330Y-12.5617Z1.1250I0.0000J-0.2500
G0 Z4.0000
G0 X9.2330 Y-12.5617 
M5
G53 Z
( MOP:  S-PUP-Middle-front-01 )
( FILE: G:\Shared drives\AlloyProjectFiles\Customer CAD files\Alloy-Standard-Builds-CAM\s-in\True24 Specific\S-PUP-Middle-front-01.nc)
G90
(  BEGIN TOOL LIST )
(  TOOL 4 - Downcut PT500 - DESC: 0.5000 DIA, 2 FLUTE,  CARBIDE MAT )
(  ENDOF TOOL LIST )
( S-PUP-Middle-front-01)
T04
S12000
M3
G0 Z4.0000
G0 X24.8394 Y-12.5467 
G1 X24.8394 Y-12.5467 Z1.8125 F75.
G1 X24.8394 Y-12.5467 Z1.7875
G1 X24.3371 Y-12.5467 Z1.6989
G1 X25.0282 Y-12.7319 Z1.5728
G1 X25.4378 Y-12.7319 Z1.5006
G1 X25.7833 Y-12.6393 Z1.4375
G1 X26.1288 Y-12.5467 Z1.4375 F100.
G1 X24.3371 Y-12.5467 Z1.4375
G1 X25.0282 Y-12.7319 Z1.4375
G1 X25.4378 Y-12.7319 Z1.4375
G1 X25.7833 Y-12.6393 Z1.4375
G1 X25.8260 Y-12.7987 Z1.4375
G1 X26.6044 Y-12.5901 Z1.4375
G17
G3X26.5770Y-12.3817Z1.4375I-0.0274J0.1024
G1 X23.8890 Y-12.3817 Z1.4375
G3X23.8616Y-12.5901Z1.4375I0.0000J-0.1060
G1 X25.0065 Y-12.8969 Z1.4375
G1 X25.4595 Y-12.8969 Z1.4375
G1 X25.8260 Y-12.7987 Z1.4375
G0 Z1.9975
G0 X25.8260 Y-12.7987 
G0 Z1.9975
G0 X24.8394 Y-12.5467 
G1 X24.8394 Y-12.5467 Z1.5000 F75.
G1 X24.8394 Y-12.5467 Z1.4750
G1 X24.3371 Y-12.5467 Z1.3864
G1 X25.0282 Y-12.7319 Z1.2603
G1 X25.4378 Y-12.7319 Z1.1881
G1 X25.7833 Y-12.6393 Z1.1250
G1 X26.1288 Y-12.5467 Z1.1250 F100.
G1 X24.3371 Y-12.5467 Z1.1250
G1 X25.0282 Y-12.7319 Z1.1250
G1 X25.4378 Y-12.7319 Z1.1250
G1 X25.7833 Y-12.6393 Z1.1250
G1 X25.8260 Y-12.7987 Z1.1250
G1 X26.6044 Y-12.5901 Z1.1250
G3X26.5770Y-12.3817Z1.1250I-0.0274J0.1024
G1 X23.8890 Y-12.3817 Z1.1250
G3X23.8616Y-12.5901Z1.1250I0.0000J-0.1060
G1 X25.0065 Y-12.8969 Z1.1250
G1 X25.4595 Y-12.8969 Z1.1250
G1 X25.8260 Y-12.7987 Z1.1250
G0 Z4.0000
G0 X25.8260 Y-12.7987 
( S-PUP-Middle-front-02)
G0 Z4.0000
G0 X25.4830 Y-12.5617 
G1 X25.4830 Y-12.5617 Z1.1250 F75.
G3X25.2330Y-12.3117Z1.1250I-0.2500J0.0000 F40.
G1 X23.8890 Y-12.3117 Z1.1250
G3X23.8434Y-12.6577Z1.1250I0.0000J-0.1760
G1 X24.9973 Y-12.9669 Z1.1250
G1 X25.4687 Y-12.9669 Z1.1250
G1 X26.6225 Y-12.6577 Z1.1250
G3X26.5770Y-12.3117Z1.1250I-0.0455J0.1700
G1 X25.2330 Y-12.3117 Z1.1250
G1 X24.9830 Y-12.3117 Z1.1250
G3X24.7330Y-12.5617Z1.1250I0.0000J-0.2500
G0 Z4.0000
G0 X24.7330 Y-12.5617 
M5
G53 Z
( END FILE T24S-PUP-Middle-front-01.nc )
