( BEGIN FILE T24vint-trem-back-03.ncTNUM: -1 )
( Lefty:False Nunits:2 )
( cline: 9.733 delta:15.5 )
( start_unit: 1 num_units: 2)
( MOP:  vint-trem-back-03 )
( FILE: G:\Shared drives\AlloyProjectFiles\Customer CAD files\Alloy-Standard-Builds-CAM\s-in\True24 Specific\vint-trem-back-03.nc)
G90
(  BEGIN TOOL LIST )
(  TOOL 4 - Downcut PT500 - DESC: 0.5000 DIA, 2 FLUTE,  CARBIDE MAT )
(  ENDOF TOOL LIST )
( vint-trem-back-03)
T04
S12000
M3
G0 Z4.0000
G0 X10.3430 Y-14.6539 
G1 X10.3430 Y-14.6539 Z1.1250 F75.
G17
G3X10.5930Y-14.4039Z1.1250I0.0000J0.2500 F40.
G1 X10.5930 Y-12.5739 Z1.1250
G1 X8.8730 Y-12.5739 Z1.1250
G1 X8.8730 Y-16.2339 Z1.1250
G2X8.6230Y-16.4839Z1.1250I-0.2500J0.0000
G1 X8.2330 Y-16.4839 Z1.1250
G1 X8.2330 Y-16.9839 Z1.1250
G1 X10.8580 Y-16.9839 Z1.1250
G1 X10.8580 Y-16.4839 Z1.1250
G2X10.5930Y-16.2339Z1.1250I-0.0142J0.2503
G1 X10.5930 Y-14.4039 Z1.1250
G3X10.3430Y-14.1539Z1.1250I-0.2500J0.0000
G0 Z4.0000
G0 X10.3430 Y-14.1539 
M5
G53 Z
( MOP:  vint-trem-back-03 )
( FILE: G:\Shared drives\AlloyProjectFiles\Customer CAD files\Alloy-Standard-Builds-CAM\s-in\True24 Specific\vint-trem-back-03.nc)
G90
(  BEGIN TOOL LIST )
(  TOOL 4 - Downcut PT500 - DESC: 0.5000 DIA, 2 FLUTE,  CARBIDE MAT )
(  ENDOF TOOL LIST )
( vint-trem-back-03)
T04
S12000
M3
G0 Z4.0000
G0 X25.8430 Y-14.6539 
G1 X25.8430 Y-14.6539 Z1.1250 F75.
G17
G3X26.0930Y-14.4039Z1.1250I0.0000J0.2500 F40.
G1 X26.0930 Y-12.5739 Z1.1250
G1 X24.3730 Y-12.5739 Z1.1250
G1 X24.3730 Y-16.2339 Z1.1250
G2X24.1230Y-16.4839Z1.1250I-0.2500J0.0000
G1 X23.7330 Y-16.4839 Z1.1250
G1 X23.7330 Y-16.9839 Z1.1250
G1 X26.3580 Y-16.9839 Z1.1250
G1 X26.3580 Y-16.4839 Z1.1250
G2X26.0930Y-16.2339Z1.1250I-0.0142J0.2503
G1 X26.0930 Y-14.4039 Z1.1250
G3X25.8430Y-14.1539Z1.1250I-0.2500J0.0000
G0 Z4.0000
G0 X25.8430 Y-14.1539 
M5
G53 Z
( END FILE T24vint-trem-back-03.nc )
