( BEGIN FILE T24vint-trem-back-01.ncTNUM: -1 )
( Lefty:False Nunits:2 )
( cline: 9.733 delta:15.5 )
( start_unit: 1 num_units: 2)
( MOP:  vint-trem-back-01 )
( FILE: G:\Shared drives\AlloyProjectFiles\Customer CAD files\Alloy-Standard-Builds-CAM\s-in\True24 Specific\vint-trem-back-01.nc)
G90
(  BEGIN TOOL LIST )
(  TOOL 11 - Downcut PT750 ROUGH - DESC: 0.7500 DIA, 2 FLUTE,  CARBIDE MAT )
(  ENDOF TOOL LIST )
( vint-trem-back-01)
T11
S14000
M3
G0 Z4.0000
G0 X9.8630 Y-13.3362 
G1 X9.8630 Y-13.3362 Z1.7125 F75.
G1 X9.8630 Y-13.3362 Z1.6875 F50.
G1 X9.8630 Y-13.3039 Z1.6818
G1 X9.6030 Y-13.3039 Z1.6360
G1 X9.6030 Y-14.4295 Z1.4375
G1 X9.6030 Y-15.5551 Z1.4375 F150.
G1 X9.8630 Y-15.5551 Z1.4375
G1 X9.8630 Y-13.3039 Z1.4375
G1 X9.6030 Y-13.3039 Z1.4375
G1 X9.6030 Y-14.4295 Z1.4375
G1 X9.3255 Y-14.4295 Z1.4375
G1 X9.3255 Y-13.0264 Z1.4375
G1 X10.1405 Y-13.0264 Z1.4375
G1 X10.1405 Y-15.8326 Z1.4375
G1 X9.3255 Y-15.8326 Z1.4375
G1 X9.3255 Y-14.4295 Z1.4375
G1 X9.0480 Y-14.4295 Z1.4375
G1 X9.0480 Y-16.1101 Z1.4375
G1 X10.4180 Y-16.1101 Z1.4375
G1 X10.4180 Y-12.7489 Z1.4375
G1 X9.0480 Y-12.7489 Z1.4375
G1 X9.0480 Y-14.4295 Z1.4375
G0 Z1.9975
G0 X9.0480 Y-14.4295 
G0 Z1.9975
G0 X9.8630 Y-13.6906 
G1 X9.8630 Y-13.6906 Z1.4625 F75.
G1 X9.8630 Y-13.6906 Z1.4375 F50.
G1 X9.8630 Y-13.3039 Z1.3693
G1 X9.6030 Y-13.3039 Z1.3235
G1 X9.6030 Y-14.4295 Z1.1250
G1 X9.6030 Y-15.5551 Z1.1250 F150.
G1 X9.8630 Y-15.5551 Z1.1250
G1 X9.8630 Y-13.3039 Z1.1250
G1 X9.6030 Y-13.3039 Z1.1250
G1 X9.6030 Y-14.4295 Z1.1250
G1 X9.3255 Y-14.4295 Z1.1250
G1 X9.3255 Y-13.0264 Z1.1250
G1 X10.1405 Y-13.0264 Z1.1250
G1 X10.1405 Y-15.8326 Z1.1250
G1 X9.3255 Y-15.8326 Z1.1250
G1 X9.3255 Y-14.4295 Z1.1250
G1 X9.0480 Y-14.4295 Z1.1250
G1 X9.0480 Y-16.1101 Z1.1250
G1 X10.4180 Y-16.1101 Z1.1250
G1 X10.4180 Y-12.7489 Z1.1250
G1 X9.0480 Y-12.7489 Z1.1250
G1 X9.0480 Y-14.4295 Z1.1250
G0 Z4.0000
G0 X9.0480 Y-14.4295 
M5
G53 Z
( MOP:  vint-trem-back-01 )
( FILE: G:\Shared drives\AlloyProjectFiles\Customer CAD files\Alloy-Standard-Builds-CAM\s-in\True24 Specific\vint-trem-back-01.nc)
G90
(  BEGIN TOOL LIST )
(  TOOL 11 - Downcut PT750 ROUGH - DESC: 0.7500 DIA, 2 FLUTE,  CARBIDE MAT )
(  ENDOF TOOL LIST )
( vint-trem-back-01)
T11
S14000
M3
G0 Z4.0000
G0 X25.3630 Y-13.3362 
G1 X25.3630 Y-13.3362 Z1.7125 F75.
G1 X25.3630 Y-13.3362 Z1.6875 F50.
G1 X25.3630 Y-13.3039 Z1.6818
G1 X25.1030 Y-13.3039 Z1.6360
G1 X25.1030 Y-14.4295 Z1.4375
G1 X25.1030 Y-15.5551 Z1.4375 F150.
G1 X25.3630 Y-15.5551 Z1.4375
G1 X25.3630 Y-13.3039 Z1.4375
G1 X25.1030 Y-13.3039 Z1.4375
G1 X25.1030 Y-14.4295 Z1.4375
G1 X24.8255 Y-14.4295 Z1.4375
G1 X24.8255 Y-13.0264 Z1.4375
G1 X25.6405 Y-13.0264 Z1.4375
G1 X25.6405 Y-15.8326 Z1.4375
G1 X24.8255 Y-15.8326 Z1.4375
G1 X24.8255 Y-14.4295 Z1.4375
G1 X24.5480 Y-14.4295 Z1.4375
G1 X24.5480 Y-16.1101 Z1.4375
G1 X25.9180 Y-16.1101 Z1.4375
G1 X25.9180 Y-12.7489 Z1.4375
G1 X24.5480 Y-12.7489 Z1.4375
G1 X24.5480 Y-14.4295 Z1.4375
G0 Z1.9975
G0 X24.5480 Y-14.4295 
G0 Z1.9975
G0 X25.3630 Y-13.6906 
G1 X25.3630 Y-13.6906 Z1.4625 F75.
G1 X25.3630 Y-13.6906 Z1.4375 F50.
G1 X25.3630 Y-13.3039 Z1.3693
G1 X25.1030 Y-13.3039 Z1.3235
G1 X25.1030 Y-14.4295 Z1.1250
G1 X25.1030 Y-15.5551 Z1.1250 F150.
G1 X25.3630 Y-15.5551 Z1.1250
G1 X25.3630 Y-13.3039 Z1.1250
G1 X25.1030 Y-13.3039 Z1.1250
G1 X25.1030 Y-14.4295 Z1.1250
G1 X24.8255 Y-14.4295 Z1.1250
G1 X24.8255 Y-13.0264 Z1.1250
G1 X25.6405 Y-13.0264 Z1.1250
G1 X25.6405 Y-15.8326 Z1.1250
G1 X24.8255 Y-15.8326 Z1.1250
G1 X24.8255 Y-14.4295 Z1.1250
G1 X24.5480 Y-14.4295 Z1.1250
G1 X24.5480 Y-16.1101 Z1.1250
G1 X25.9180 Y-16.1101 Z1.1250
G1 X25.9180 Y-12.7489 Z1.1250
G1 X24.5480 Y-12.7489 Z1.1250
G1 X24.5480 Y-14.4295 Z1.1250
G0 Z4.0000
G0 X24.5480 Y-14.4295 
M5
G53 Z
( END FILE T24vint-trem-back-01.nc )
