( BEGIN FILE top-control-front-01.ncTNUM: -1 )
( Lefty:False Nunits:2 )
( cline: 9.733 delta:15.5 )
( start_unit: 1 num_units: 2)
( MOP:  top-control-front-01 )
( FILE: G:\Shared drives\AlloyProjectFiles\Customer CAD files\Alloy-Standard-Builds-CAM\s-in\Control\top-control-front-01.nc)
G90
(  BEGIN TOOL LIST )
(  TOOL 11 - Downcut PT750 ROUGH - DESC: 0.7500 DIA, 2 FLUTE,  CARBIDE MAT )
(  ENDOF TOOL LIST )
( top-control-front-01)
T11
S14000
M3
G0 Z4.0000
G0 X13.1894 Y-15.7394 
G1 X13.1894 Y-15.7394 Z1.7500 F75.
G1 X12.9525 Y-15.4591 Z1.6164 F50.
G1 X12.7273 Y-15.6944 Z1.4979
G1 X13.0243 Y-15.8550 Z1.3750
G1 X13.3213 Y-16.0157 Z1.3750 F150.
G17
G2X13.3315Y-15.9075Z1.3750I1.7217J-0.1072
G1 X12.9525 Y-15.4591 Z1.3750
G1 X12.7273 Y-15.6944 Z1.3750
G1 X13.0243 Y-15.8550 Z1.3750
G1 X13.0257 Y-15.8525 Z1.3750
G1 X13.1479 Y-15.9310 Z1.3750
G1 X13.2099 Y-15.9691 Z1.3750
G1 X13.2683 Y-16.0117 Z1.3750
G1 X13.3015 Y-16.0282 Z1.3750
G1 X13.3206 Y-16.0317 Z1.3750
G1 X13.3391 Y-16.0305 Z1.3750
G1 X13.3550 Y-16.0238 Z1.3750
G1 X13.3666 Y-16.0111 Z1.3750
G1 X13.3803 Y-15.9750 Z1.3750
G1 X13.3873 Y-15.9377 Z1.3750
G1 X13.3883 Y-15.9022 Z1.3750
G1 X13.3812 Y-15.8668 Z1.3750
G1 X13.3667 Y-15.8330 Z1.3750
G1 X13.1965 Y-15.5975 Z1.3750
G1 X13.1109 Y-15.4801 Z1.3750
G1 X13.0676 Y-15.4218 Z1.3750
G1 X13.0446 Y-15.3937 Z1.3750
G1 X13.0184 Y-15.3682 Z1.3750
G1 X12.9879 Y-15.3478 Z1.3750
G1 X12.9534 Y-15.3367 Z1.3750
G1 X12.9167 Y-15.3372 Z1.3750
G1 X12.8816 Y-15.3479 Z1.3750
G1 X12.8501 Y-15.3660 Z1.3750
G1 X12.8209 Y-15.3880 Z1.3750
G1 X12.7661 Y-15.4356 Z1.3750
G1 X12.6585 Y-15.5332 Z1.3750
G1 X12.6076 Y-15.5851 Z1.3750
G1 X12.5860 Y-15.6144 Z1.3750
G1 X12.5694 Y-15.6468 Z1.3750
G1 X12.5593 Y-15.6819 Z1.3750
G1 X12.5567 Y-15.7183 Z1.3750
G1 X12.5618 Y-15.7544 Z1.3750
G1 X12.5744 Y-15.7887 Z1.3750
G1 X12.5935 Y-15.8198 Z1.3750
G1 X12.6178 Y-15.8468 Z1.3750
G1 X12.6751 Y-15.8916 Z1.3750
G1 X12.9196 Y-16.0486 Z1.3750
G1 X12.9179 Y-16.0519 Z1.3750
G1 X13.3911 Y-16.3352 Z1.3750
G1 X13.5056 Y-16.4110 Z1.3750
G1 X13.5366 Y-16.4331 Z1.3750
G1 X13.5527 Y-16.4405 Z1.3750
G1 X13.5688 Y-16.4427 Z1.3750
G1 X13.5846 Y-16.4383 Z1.3750
G1 X13.5990 Y-16.4283 Z1.3750
G1 X13.6106 Y-16.4143 Z1.3750
G1 X13.6183 Y-16.3981 Z1.3750
G1 X13.6204 Y-16.3638 Z1.3750
G1 X13.6143 Y-16.3288 Z1.3750
G1 X13.6089 Y-16.2600 Z1.3750
G1 X13.6074 Y-16.1223 Z1.3750
G1 X13.6198 Y-15.9851 Z1.3750
G1 X13.6306 Y-15.9170 Z1.3750
G1 X13.6377 Y-15.8484 Z1.3750
G1 X13.6328 Y-15.8142 Z1.3750
G1 X13.6213 Y-15.7814 Z1.3750
G1 X13.6042 Y-15.7513 Z1.3750
G1 X13.5837 Y-15.7237 Z1.3750
G1 X13.4989 Y-15.6150 Z1.3750
G1 X13.1612 Y-15.1792 Z1.3750
G1 X13.0761 Y-15.0709 Z1.3750
G1 X13.0520 Y-15.0459 Z1.3750
G1 X13.0248 Y-15.0244 Z1.3750
G1 X12.9938 Y-15.0091 Z1.3750
G1 X12.9595 Y-15.0021 Z1.3750
G1 X12.9249 Y-15.0042 Z1.3750
G1 X12.8923 Y-15.0155 Z1.3750
G1 X12.8623 Y-15.0334 Z1.3750
G1 X12.8351 Y-15.0548 Z1.3750
G1 X12.7353 Y-15.1497 Z1.3750
G1 X12.3374 Y-15.5313 Z1.3750
G1 X12.2399 Y-15.6287 Z1.3750
G1 X12.2191 Y-15.6562 Z1.3750
G1 X12.2020 Y-15.6863 Z1.3750
G1 X12.1900 Y-15.7188 Z1.3750
G1 X12.1845 Y-15.7530 Z1.3750
G1 X12.1860 Y-15.7877 Z1.3750
G1 X12.1944 Y-15.8213 Z1.3750
G1 X12.2095 Y-15.8526 Z1.3750
G1 X12.2299 Y-15.8806 Z1.3750
G1 X12.2815 Y-15.9263 Z1.3750
G1 X12.3395 Y-15.9636 Z1.3750
G1 X12.8126 Y-16.2465 Z1.3750
G1 X12.8107 Y-16.2501 Z1.3750
G1 X13.2420 Y-16.4978 Z1.3750
G1 X13.3479 Y-16.5629 Z1.3750
G1 X13.4481 Y-16.6365 Z1.3750
G1 X13.6319 Y-16.8039 Z1.3750
G1 X13.9955 Y-17.1433 Z1.3750
G1 X14.1780 Y-17.3126 Z1.3750
G1 X14.2219 Y-17.3559 Z1.3750
G1 X14.2430 Y-17.3779 Z1.3750
G1 X14.2683 Y-17.3967 Z1.3750
G1 X14.3008 Y-17.4087 Z1.3750
G1 X14.3331 Y-17.4086 Z1.3750
G1 X14.3455 Y-17.4021 Z1.3750
G1 X14.3539 Y-17.3908 Z1.3750
G1 X14.3596 Y-17.3587 Z1.3750
G1 X14.3542 Y-17.3243 Z1.3750
G1 X14.3415 Y-17.2954 Z1.3750
G1 X14.3090 Y-17.2440 Z1.3750
G1 X14.2476 Y-17.1355 Z1.3750
G1 X14.1234 Y-16.9202 Z1.3750
G1 X14.0011 Y-16.7036 Z1.3750
G1 X13.9488 Y-16.5908 Z1.3750
G1 X13.9092 Y-16.4730 Z1.3750
G1 X13.8817 Y-16.3518 Z1.3750
G1 X13.8665 Y-16.2284 Z1.3750
G1 X13.8645 Y-16.1041 Z1.3750
G1 X13.8764 Y-15.9804 Z1.3750
G1 X13.9005 Y-15.8583 Z1.3750
G1 X13.9096 Y-15.7969 Z1.3750
G1 X13.9074 Y-15.7656 Z1.3750
G1 X13.8999 Y-15.7351 Z1.3750
G1 X13.8873 Y-15.7067 Z1.3750
G1 X13.8704 Y-15.6806 Z1.3750
G1 X13.8315 Y-15.6317 Z1.3750
G1 X13.7538 Y-15.5347 Z1.3750
G1 X13.1309 Y-14.7592 Z1.3750
G1 X13.0899 Y-14.7126 Z1.3750
G1 X13.0412 Y-14.6730 Z1.3750
G1 X13.0131 Y-14.6594 Z1.3750
G1 X12.9827 Y-14.6524 Z1.3750
G1 X12.9512 Y-14.6526 Z1.3750
G1 X12.9205 Y-14.6593 Z1.3750
G1 X12.8920 Y-14.6720 Z1.3750
G1 X12.8659 Y-14.6891 Z1.3750
G1 X12.8184 Y-14.7297 Z1.3750
G1 X12.7300 Y-14.8170 Z1.3750
G1 X12.3770 Y-15.1674 Z1.3750
G1 X12.0240 Y-15.5178 Z1.3750
G1 X11.9358 Y-15.6054 Z1.3750
G1 X11.8927 Y-15.6503 Z1.3750
G1 X11.8538 Y-15.6988 Z1.3750
G1 X11.8250 Y-15.7541 Z1.3750
G1 X11.8170 Y-15.7843 Z1.3750
G1 X11.8141 Y-15.8155 Z1.3750
G1 X11.8167 Y-15.8467 Z1.3750
G1 X11.8249 Y-15.8769 Z1.3750
G1 X11.8381 Y-15.9053 Z1.3750
G1 X11.8557 Y-15.9312 Z1.3750
G1 X11.9002 Y-15.9748 Z1.3750
G1 X11.9514 Y-16.0102 Z1.3750
G1 X12.0587 Y-16.0729 Z1.3750
G1 X12.2744 Y-16.1967 Z1.3750
G1 X12.7058 Y-16.4443 Z1.3750
G1 X12.7034 Y-16.4487 Z1.3750
G1 X12.8896 Y-16.5493 Z1.3750
G1 X13.2351 Y-16.7361 Z1.3750
G1 X13.3150 Y-16.7920 Z1.3750
G1 X14.6014 Y-17.9332 Z1.3750
G3X14.8108Y-17.7580Z1.3750I0.0916J0.1033
G1 X14.1467 Y-16.6699 Z1.3750
G2X14.0530Y-15.7729Z1.3750I0.8963J0.5470
G3X14.0396Y-15.6995Z1.3750I-0.0707J0.0250
G1 X12.9929 Y-14.4615 Z1.3750
G3X12.9736Y-14.4609Z1.3750I-0.0099J-0.0084
G1 X11.6275 Y-15.8671 Z1.3750
G1 X12.7034 Y-16.4487 Z1.3750
G0 Z1.9975
G0 X12.7034 Y-16.4487 
G0 Z1.9975
G0 X13.1894 Y-15.7394 
G1 X13.1894 Y-15.7394 Z1.3750 F75.
G1 X12.9525 Y-15.4591 Z1.2414 F50.
G1 X12.7273 Y-15.6944 Z1.1229
G1 X13.0243 Y-15.8550 Z1.0000
G1 X13.3213 Y-16.0157 Z1.0000 F150.
G2X13.3315Y-15.9075Z1.0000I1.7217J-0.1072
G1 X12.9525 Y-15.4591 Z1.0000
G1 X12.7273 Y-15.6944 Z1.0000
G1 X13.0243 Y-15.8550 Z1.0000
G1 X13.0257 Y-15.8525 Z1.0000
G1 X13.1479 Y-15.9310 Z1.0000
G1 X13.2099 Y-15.9691 Z1.0000
G1 X13.2683 Y-16.0117 Z1.0000
G1 X13.3015 Y-16.0282 Z1.0000
G1 X13.3206 Y-16.0317 Z1.0000
G1 X13.3391 Y-16.0305 Z1.0000
G1 X13.3550 Y-16.0238 Z1.0000
G1 X13.3666 Y-16.0111 Z1.0000
G1 X13.3803 Y-15.9750 Z1.0000
G1 X13.3873 Y-15.9377 Z1.0000
G1 X13.3883 Y-15.9022 Z1.0000
G1 X13.3812 Y-15.8668 Z1.0000
G1 X13.3667 Y-15.8330 Z1.0000
G1 X13.1965 Y-15.5975 Z1.0000
G1 X13.1109 Y-15.4801 Z1.0000
G1 X13.0676 Y-15.4218 Z1.0000
G1 X13.0446 Y-15.3937 Z1.0000
G1 X13.0184 Y-15.3682 Z1.0000
G1 X12.9879 Y-15.3478 Z1.0000
G1 X12.9534 Y-15.3367 Z1.0000
G1 X12.9167 Y-15.3372 Z1.0000
G1 X12.8816 Y-15.3479 Z1.0000
G1 X12.8501 Y-15.3660 Z1.0000
G1 X12.8209 Y-15.3880 Z1.0000
G1 X12.7661 Y-15.4356 Z1.0000
G1 X12.6585 Y-15.5332 Z1.0000
G1 X12.6076 Y-15.5851 Z1.0000
G1 X12.5860 Y-15.6144 Z1.0000
G1 X12.5694 Y-15.6468 Z1.0000
G1 X12.5593 Y-15.6819 Z1.0000
G1 X12.5567 Y-15.7183 Z1.0000
G1 X12.5618 Y-15.7544 Z1.0000
G1 X12.5744 Y-15.7887 Z1.0000
G1 X12.5935 Y-15.8198 Z1.0000
G1 X12.6178 Y-15.8468 Z1.0000
G1 X12.6751 Y-15.8916 Z1.0000
G1 X12.9196 Y-16.0486 Z1.0000
G1 X12.9179 Y-16.0519 Z1.0000
G1 X13.3911 Y-16.3352 Z1.0000
G1 X13.5056 Y-16.4110 Z1.0000
G1 X13.5366 Y-16.4331 Z1.0000
G1 X13.5527 Y-16.4405 Z1.0000
G1 X13.5688 Y-16.4427 Z1.0000
G1 X13.5846 Y-16.4383 Z1.0000
G1 X13.5990 Y-16.4283 Z1.0000
G1 X13.6106 Y-16.4143 Z1.0000
G1 X13.6183 Y-16.3981 Z1.0000
G1 X13.6204 Y-16.3638 Z1.0000
G1 X13.6143 Y-16.3288 Z1.0000
G1 X13.6089 Y-16.2600 Z1.0000
G1 X13.6074 Y-16.1223 Z1.0000
G1 X13.6198 Y-15.9851 Z1.0000
G1 X13.6306 Y-15.9170 Z1.0000
G1 X13.6377 Y-15.8484 Z1.0000
G1 X13.6328 Y-15.8142 Z1.0000
G1 X13.6213 Y-15.7814 Z1.0000
G1 X13.6042 Y-15.7513 Z1.0000
G1 X13.5837 Y-15.7237 Z1.0000
G1 X13.4989 Y-15.6150 Z1.0000
G1 X13.1612 Y-15.1792 Z1.0000
G1 X13.0761 Y-15.0709 Z1.0000
G1 X13.0520 Y-15.0459 Z1.0000
G1 X13.0248 Y-15.0244 Z1.0000
G1 X12.9938 Y-15.0091 Z1.0000
G1 X12.9595 Y-15.0021 Z1.0000
G1 X12.9249 Y-15.0042 Z1.0000
G1 X12.8923 Y-15.0155 Z1.0000
G1 X12.8623 Y-15.0334 Z1.0000
G1 X12.8351 Y-15.0548 Z1.0000
G1 X12.7353 Y-15.1497 Z1.0000
G1 X12.3374 Y-15.5313 Z1.0000
G1 X12.2399 Y-15.6287 Z1.0000
G1 X12.2191 Y-15.6562 Z1.0000
G1 X12.2020 Y-15.6863 Z1.0000
G1 X12.1900 Y-15.7188 Z1.0000
G1 X12.1845 Y-15.7530 Z1.0000
G1 X12.1860 Y-15.7877 Z1.0000
G1 X12.1944 Y-15.8213 Z1.0000
G1 X12.2095 Y-15.8526 Z1.0000
G1 X12.2299 Y-15.8806 Z1.0000
G1 X12.2815 Y-15.9263 Z1.0000
G1 X12.3395 Y-15.9636 Z1.0000
G1 X12.8126 Y-16.2465 Z1.0000
G1 X12.8107 Y-16.2501 Z1.0000
G1 X13.2420 Y-16.4978 Z1.0000
G1 X13.3479 Y-16.5629 Z1.0000
G1 X13.4481 Y-16.6365 Z1.0000
G1 X13.6319 Y-16.8039 Z1.0000
G1 X13.9955 Y-17.1433 Z1.0000
G1 X14.1780 Y-17.3126 Z1.0000
G1 X14.2219 Y-17.3559 Z1.0000
G1 X14.2430 Y-17.3779 Z1.0000
G1 X14.2683 Y-17.3967 Z1.0000
G1 X14.3008 Y-17.4087 Z1.0000
G1 X14.3331 Y-17.4086 Z1.0000
G1 X14.3455 Y-17.4021 Z1.0000
G1 X14.3539 Y-17.3908 Z1.0000
G1 X14.3596 Y-17.3587 Z1.0000
G1 X14.3542 Y-17.3243 Z1.0000
G1 X14.3415 Y-17.2954 Z1.0000
G1 X14.3090 Y-17.2440 Z1.0000
G1 X14.2476 Y-17.1355 Z1.0000
G1 X14.1234 Y-16.9202 Z1.0000
G1 X14.0011 Y-16.7036 Z1.0000
G1 X13.9488 Y-16.5908 Z1.0000
G1 X13.9092 Y-16.4730 Z1.0000
G1 X13.8817 Y-16.3518 Z1.0000
G1 X13.8665 Y-16.2284 Z1.0000
G1 X13.8645 Y-16.1041 Z1.0000
G1 X13.8764 Y-15.9804 Z1.0000
G1 X13.9005 Y-15.8583 Z1.0000
G1 X13.9096 Y-15.7969 Z1.0000
G1 X13.9074 Y-15.7656 Z1.0000
G1 X13.8999 Y-15.7351 Z1.0000
G1 X13.8873 Y-15.7067 Z1.0000
G1 X13.8704 Y-15.6806 Z1.0000
G1 X13.8315 Y-15.6317 Z1.0000
G1 X13.7538 Y-15.5347 Z1.0000
G1 X13.1309 Y-14.7592 Z1.0000
G1 X13.0899 Y-14.7126 Z1.0000
G1 X13.0412 Y-14.6730 Z1.0000
G1 X13.0131 Y-14.6594 Z1.0000
G1 X12.9827 Y-14.6524 Z1.0000
G1 X12.9512 Y-14.6526 Z1.0000
G1 X12.9205 Y-14.6593 Z1.0000
G1 X12.8920 Y-14.6720 Z1.0000
G1 X12.8659 Y-14.6891 Z1.0000
G1 X12.8184 Y-14.7297 Z1.0000
G1 X12.7300 Y-14.8170 Z1.0000
G1 X12.3770 Y-15.1674 Z1.0000
G1 X12.0240 Y-15.5178 Z1.0000
G1 X11.9358 Y-15.6054 Z1.0000
G1 X11.8927 Y-15.6503 Z1.0000
G1 X11.8538 Y-15.6988 Z1.0000
G1 X11.8250 Y-15.7541 Z1.0000
G1 X11.8170 Y-15.7843 Z1.0000
G1 X11.8141 Y-15.8155 Z1.0000
G1 X11.8167 Y-15.8467 Z1.0000
G1 X11.8249 Y-15.8769 Z1.0000
G1 X11.8381 Y-15.9053 Z1.0000
G1 X11.8557 Y-15.9312 Z1.0000
G1 X11.9002 Y-15.9748 Z1.0000
G1 X11.9514 Y-16.0102 Z1.0000
G1 X12.0587 Y-16.0729 Z1.0000
G1 X12.2744 Y-16.1967 Z1.0000
G1 X12.7058 Y-16.4443 Z1.0000
G1 X12.7034 Y-16.4487 Z1.0000
G1 X12.8896 Y-16.5493 Z1.0000
G1 X13.2351 Y-16.7361 Z1.0000
G1 X13.3150 Y-16.7920 Z1.0000
G1 X14.6014 Y-17.9332 Z1.0000
G3X14.8108Y-17.7580Z1.0000I0.0916J0.1033
G1 X14.1467 Y-16.6699 Z1.0000
G2X14.0530Y-15.7729Z1.0000I0.8963J0.5470
G3X14.0396Y-15.6995Z1.0000I-0.0707J0.0250
G1 X12.9929 Y-14.4615 Z1.0000
G3X12.9736Y-14.4609Z1.0000I-0.0099J-0.0084
G1 X11.6275 Y-15.8671 Z1.0000
G1 X12.7034 Y-16.4487 Z1.0000
G0 Z1.9975
G0 X12.7034 Y-16.4487 
G0 Z1.9975
G0 X13.1894 Y-15.7394 
G1 X13.1894 Y-15.7394 Z1.0000 F75.
G1 X12.9525 Y-15.4591 Z0.8664 F50.
G1 X12.7273 Y-15.6944 Z0.7479
G1 X13.0243 Y-15.8550 Z0.6250
G1 X13.3213 Y-16.0157 Z0.6250 F150.
G2X13.3315Y-15.9075Z0.6250I1.7217J-0.1072
G1 X12.9525 Y-15.4591 Z0.6250
G1 X12.7273 Y-15.6944 Z0.6250
G1 X13.0243 Y-15.8550 Z0.6250
G1 X13.0257 Y-15.8525 Z0.6250
G1 X13.1479 Y-15.9310 Z0.6250
G1 X13.2099 Y-15.9691 Z0.6250
G1 X13.2683 Y-16.0117 Z0.6250
G1 X13.3015 Y-16.0282 Z0.6250
G1 X13.3206 Y-16.0317 Z0.6250
G1 X13.3391 Y-16.0305 Z0.6250
G1 X13.3550 Y-16.0238 Z0.6250
G1 X13.3666 Y-16.0111 Z0.6250
G1 X13.3803 Y-15.9750 Z0.6250
G1 X13.3873 Y-15.9377 Z0.6250
G1 X13.3883 Y-15.9022 Z0.6250
G1 X13.3812 Y-15.8668 Z0.6250
G1 X13.3667 Y-15.8330 Z0.6250
G1 X13.1965 Y-15.5975 Z0.6250
G1 X13.1109 Y-15.4801 Z0.6250
G1 X13.0676 Y-15.4218 Z0.6250
G1 X13.0446 Y-15.3937 Z0.6250
G1 X13.0184 Y-15.3682 Z0.6250
G1 X12.9879 Y-15.3478 Z0.6250
G1 X12.9534 Y-15.3367 Z0.6250
G1 X12.9167 Y-15.3372 Z0.6250
G1 X12.8816 Y-15.3479 Z0.6250
G1 X12.8501 Y-15.3660 Z0.6250
G1 X12.8209 Y-15.3880 Z0.6250
G1 X12.7661 Y-15.4356 Z0.6250
G1 X12.6585 Y-15.5332 Z0.6250
G1 X12.6076 Y-15.5851 Z0.6250
G1 X12.5860 Y-15.6144 Z0.6250
G1 X12.5694 Y-15.6468 Z0.6250
G1 X12.5593 Y-15.6819 Z0.6250
G1 X12.5567 Y-15.7183 Z0.6250
G1 X12.5618 Y-15.7544 Z0.6250
G1 X12.5744 Y-15.7887 Z0.6250
G1 X12.5935 Y-15.8198 Z0.6250
G1 X12.6178 Y-15.8468 Z0.6250
G1 X12.6751 Y-15.8916 Z0.6250
G1 X12.9196 Y-16.0486 Z0.6250
G1 X12.9179 Y-16.0519 Z0.6250
G1 X13.3911 Y-16.3352 Z0.6250
G1 X13.5056 Y-16.4110 Z0.6250
G1 X13.5366 Y-16.4331 Z0.6250
G1 X13.5527 Y-16.4405 Z0.6250
G1 X13.5688 Y-16.4427 Z0.6250
G1 X13.5846 Y-16.4383 Z0.6250
G1 X13.5990 Y-16.4283 Z0.6250
G1 X13.6106 Y-16.4143 Z0.6250
G1 X13.6183 Y-16.3981 Z0.6250
G1 X13.6204 Y-16.3638 Z0.6250
G1 X13.6143 Y-16.3288 Z0.6250
G1 X13.6089 Y-16.2600 Z0.6250
G1 X13.6074 Y-16.1223 Z0.6250
G1 X13.6198 Y-15.9851 Z0.6250
G1 X13.6306 Y-15.9170 Z0.6250
G1 X13.6377 Y-15.8484 Z0.6250
G1 X13.6328 Y-15.8142 Z0.6250
G1 X13.6213 Y-15.7814 Z0.6250
G1 X13.6042 Y-15.7513 Z0.6250
G1 X13.5837 Y-15.7237 Z0.6250
G1 X13.4989 Y-15.6150 Z0.6250
G1 X13.1612 Y-15.1792 Z0.6250
G1 X13.0761 Y-15.0709 Z0.6250
G1 X13.0520 Y-15.0459 Z0.6250
G1 X13.0248 Y-15.0244 Z0.6250
G1 X12.9938 Y-15.0091 Z0.6250
G1 X12.9595 Y-15.0021 Z0.6250
G1 X12.9249 Y-15.0042 Z0.6250
G1 X12.8923 Y-15.0155 Z0.6250
G1 X12.8623 Y-15.0334 Z0.6250
G1 X12.8351 Y-15.0548 Z0.6250
G1 X12.7353 Y-15.1497 Z0.6250
G1 X12.3374 Y-15.5313 Z0.6250
G1 X12.2399 Y-15.6287 Z0.6250
G1 X12.2191 Y-15.6562 Z0.6250
G1 X12.2020 Y-15.6863 Z0.6250
G1 X12.1900 Y-15.7188 Z0.6250
G1 X12.1845 Y-15.7530 Z0.6250
G1 X12.1860 Y-15.7877 Z0.6250
G1 X12.1944 Y-15.8213 Z0.6250
G1 X12.2095 Y-15.8526 Z0.6250
G1 X12.2299 Y-15.8806 Z0.6250
G1 X12.2815 Y-15.9263 Z0.6250
G1 X12.3395 Y-15.9636 Z0.6250
G1 X12.8126 Y-16.2465 Z0.6250
G1 X12.8107 Y-16.2501 Z0.6250
G1 X13.2420 Y-16.4978 Z0.6250
G1 X13.3479 Y-16.5629 Z0.6250
G1 X13.4481 Y-16.6365 Z0.6250
G1 X13.6319 Y-16.8039 Z0.6250
G1 X13.9955 Y-17.1433 Z0.6250
G1 X14.1780 Y-17.3126 Z0.6250
G1 X14.2219 Y-17.3559 Z0.6250
G1 X14.2430 Y-17.3779 Z0.6250
G1 X14.2683 Y-17.3967 Z0.6250
G1 X14.3008 Y-17.4087 Z0.6250
G1 X14.3331 Y-17.4086 Z0.6250
G1 X14.3455 Y-17.4021 Z0.6250
G1 X14.3539 Y-17.3908 Z0.6250
G1 X14.3596 Y-17.3587 Z0.6250
G1 X14.3542 Y-17.3243 Z0.6250
G1 X14.3415 Y-17.2954 Z0.6250
G1 X14.3090 Y-17.2440 Z0.6250
G1 X14.2476 Y-17.1355 Z0.6250
G1 X14.1234 Y-16.9202 Z0.6250
G1 X14.0011 Y-16.7036 Z0.6250
G1 X13.9488 Y-16.5908 Z0.6250
G1 X13.9092 Y-16.4730 Z0.6250
G1 X13.8817 Y-16.3518 Z0.6250
G1 X13.8665 Y-16.2284 Z0.6250
G1 X13.8645 Y-16.1041 Z0.6250
G1 X13.8764 Y-15.9804 Z0.6250
G1 X13.9005 Y-15.8583 Z0.6250
G1 X13.9096 Y-15.7969 Z0.6250
G1 X13.9074 Y-15.7656 Z0.6250
G1 X13.8999 Y-15.7351 Z0.6250
G1 X13.8873 Y-15.7067 Z0.6250
G1 X13.8704 Y-15.6806 Z0.6250
G1 X13.8315 Y-15.6317 Z0.6250
G1 X13.7538 Y-15.5347 Z0.6250
G1 X13.1309 Y-14.7592 Z0.6250
G1 X13.0899 Y-14.7126 Z0.6250
G1 X13.0412 Y-14.6730 Z0.6250
G1 X13.0131 Y-14.6594 Z0.6250
G1 X12.9827 Y-14.6524 Z0.6250
G1 X12.9512 Y-14.6526 Z0.6250
G1 X12.9205 Y-14.6593 Z0.6250
G1 X12.8920 Y-14.6720 Z0.6250
G1 X12.8659 Y-14.6891 Z0.6250
G1 X12.8184 Y-14.7297 Z0.6250
G1 X12.7300 Y-14.8170 Z0.6250
G1 X12.3770 Y-15.1674 Z0.6250
G1 X12.0240 Y-15.5178 Z0.6250
G1 X11.9358 Y-15.6054 Z0.6250
G1 X11.8927 Y-15.6503 Z0.6250
G1 X11.8538 Y-15.6988 Z0.6250
G1 X11.8250 Y-15.7541 Z0.6250
G1 X11.8170 Y-15.7843 Z0.6250
G1 X11.8141 Y-15.8155 Z0.6250
G1 X11.8167 Y-15.8467 Z0.6250
G1 X11.8249 Y-15.8769 Z0.6250
G1 X11.8381 Y-15.9053 Z0.6250
G1 X11.8557 Y-15.9312 Z0.6250
G1 X11.9002 Y-15.9748 Z0.6250
G1 X11.9514 Y-16.0102 Z0.6250
G1 X12.0587 Y-16.0729 Z0.6250
G1 X12.2744 Y-16.1967 Z0.6250
G1 X12.7058 Y-16.4443 Z0.6250
G1 X12.7034 Y-16.4487 Z0.6250
G1 X12.8896 Y-16.5493 Z0.6250
G1 X13.2351 Y-16.7361 Z0.6250
G1 X13.3150 Y-16.7920 Z0.6250
G1 X14.6014 Y-17.9332 Z0.6250
G3X14.8108Y-17.7580Z0.6250I0.0916J0.1033
G1 X14.1467 Y-16.6699 Z0.6250
G2X14.0530Y-15.7729Z0.6250I0.8963J0.5470
G3X14.0396Y-15.6995Z0.6250I-0.0707J0.0250
G1 X12.9929 Y-14.4615 Z0.6250
G3X12.9736Y-14.4609Z0.6250I-0.0099J-0.0084
G1 X11.6275 Y-15.8671 Z0.6250
G1 X12.7034 Y-16.4487 Z0.6250
G0 Z1.9975
G0 X12.7034 Y-16.4487 
G0 Z1.9975
G0 X13.1894 Y-15.7394 
G1 X13.1894 Y-15.7394 Z0.6250 F75.
G1 X12.9525 Y-15.4591 Z0.4914 F50.
G1 X12.7273 Y-15.6944 Z0.3729
G1 X13.0243 Y-15.8550 Z0.2500
G1 X13.3213 Y-16.0157 Z0.2500 F150.
G2X13.3315Y-15.9075Z0.2500I1.7217J-0.1072
G1 X12.9525 Y-15.4591 Z0.2500
G1 X12.7273 Y-15.6944 Z0.2500
G1 X13.0243 Y-15.8550 Z0.2500
G1 X13.0257 Y-15.8525 Z0.2500
G1 X13.1479 Y-15.9310 Z0.2500
G1 X13.2099 Y-15.9691 Z0.2500
G1 X13.2683 Y-16.0117 Z0.2500
G1 X13.3015 Y-16.0282 Z0.2500
G1 X13.3206 Y-16.0317 Z0.2500
G1 X13.3391 Y-16.0305 Z0.2500
G1 X13.3550 Y-16.0238 Z0.2500
G1 X13.3666 Y-16.0111 Z0.2500
G1 X13.3803 Y-15.9750 Z0.2500
G1 X13.3873 Y-15.9377 Z0.2500
G1 X13.3883 Y-15.9022 Z0.2500
G1 X13.3812 Y-15.8668 Z0.2500
G1 X13.3667 Y-15.8330 Z0.2500
G1 X13.1965 Y-15.5975 Z0.2500
G1 X13.1109 Y-15.4801 Z0.2500
G1 X13.0676 Y-15.4218 Z0.2500
G1 X13.0446 Y-15.3937 Z0.2500
G1 X13.0184 Y-15.3682 Z0.2500
G1 X12.9879 Y-15.3478 Z0.2500
G1 X12.9534 Y-15.3367 Z0.2500
G1 X12.9167 Y-15.3372 Z0.2500
G1 X12.8816 Y-15.3479 Z0.2500
G1 X12.8501 Y-15.3660 Z0.2500
G1 X12.8209 Y-15.3880 Z0.2500
G1 X12.7661 Y-15.4356 Z0.2500
G1 X12.6585 Y-15.5332 Z0.2500
G1 X12.6076 Y-15.5851 Z0.2500
G1 X12.5860 Y-15.6144 Z0.2500
G1 X12.5694 Y-15.6468 Z0.2500
G1 X12.5593 Y-15.6819 Z0.2500
G1 X12.5567 Y-15.7183 Z0.2500
G1 X12.5618 Y-15.7544 Z0.2500
G1 X12.5744 Y-15.7887 Z0.2500
G1 X12.5935 Y-15.8198 Z0.2500
G1 X12.6178 Y-15.8468 Z0.2500
G1 X12.6751 Y-15.8916 Z0.2500
G1 X12.9196 Y-16.0486 Z0.2500
G1 X12.9179 Y-16.0519 Z0.2500
G1 X13.3911 Y-16.3352 Z0.2500
G1 X13.5056 Y-16.4110 Z0.2500
G1 X13.5366 Y-16.4331 Z0.2500
G1 X13.5527 Y-16.4405 Z0.2500
G1 X13.5688 Y-16.4427 Z0.2500
G1 X13.5846 Y-16.4383 Z0.2500
G1 X13.5990 Y-16.4283 Z0.2500
G1 X13.6106 Y-16.4143 Z0.2500
G1 X13.6183 Y-16.3981 Z0.2500
G1 X13.6204 Y-16.3638 Z0.2500
G1 X13.6143 Y-16.3288 Z0.2500
G1 X13.6089 Y-16.2600 Z0.2500
G1 X13.6074 Y-16.1223 Z0.2500
G1 X13.6198 Y-15.9851 Z0.2500
G1 X13.6306 Y-15.9170 Z0.2500
G1 X13.6377 Y-15.8484 Z0.2500
G1 X13.6328 Y-15.8142 Z0.2500
G1 X13.6213 Y-15.7814 Z0.2500
G1 X13.6042 Y-15.7513 Z0.2500
G1 X13.5837 Y-15.7237 Z0.2500
G1 X13.4989 Y-15.6150 Z0.2500
G1 X13.1612 Y-15.1792 Z0.2500
G1 X13.0761 Y-15.0709 Z0.2500
G1 X13.0520 Y-15.0459 Z0.2500
G1 X13.0248 Y-15.0244 Z0.2500
G1 X12.9938 Y-15.0091 Z0.2500
G1 X12.9595 Y-15.0021 Z0.2500
G1 X12.9249 Y-15.0042 Z0.2500
G1 X12.8923 Y-15.0155 Z0.2500
G1 X12.8623 Y-15.0334 Z0.2500
G1 X12.8351 Y-15.0548 Z0.2500
G1 X12.7353 Y-15.1497 Z0.2500
G1 X12.3374 Y-15.5313 Z0.2500
G1 X12.2399 Y-15.6287 Z0.2500
G1 X12.2191 Y-15.6562 Z0.2500
G1 X12.2020 Y-15.6863 Z0.2500
G1 X12.1900 Y-15.7188 Z0.2500
G1 X12.1845 Y-15.7530 Z0.2500
G1 X12.1860 Y-15.7877 Z0.2500
G1 X12.1944 Y-15.8213 Z0.2500
G1 X12.2095 Y-15.8526 Z0.2500
G1 X12.2299 Y-15.8806 Z0.2500
G1 X12.2815 Y-15.9263 Z0.2500
G1 X12.3395 Y-15.9636 Z0.2500
G1 X12.8126 Y-16.2465 Z0.2500
G1 X12.8107 Y-16.2501 Z0.2500
G1 X13.2420 Y-16.4978 Z0.2500
G1 X13.3479 Y-16.5629 Z0.2500
G1 X13.4481 Y-16.6365 Z0.2500
G1 X13.6319 Y-16.8039 Z0.2500
G1 X13.9955 Y-17.1433 Z0.2500
G1 X14.1780 Y-17.3126 Z0.2500
G1 X14.2219 Y-17.3559 Z0.2500
G1 X14.2430 Y-17.3779 Z0.2500
G1 X14.2683 Y-17.3967 Z0.2500
G1 X14.3008 Y-17.4087 Z0.2500
G1 X14.3331 Y-17.4086 Z0.2500
G1 X14.3455 Y-17.4021 Z0.2500
G1 X14.3539 Y-17.3908 Z0.2500
G1 X14.3596 Y-17.3587 Z0.2500
G1 X14.3542 Y-17.3243 Z0.2500
G1 X14.3415 Y-17.2954 Z0.2500
G1 X14.3090 Y-17.2440 Z0.2500
G1 X14.2476 Y-17.1355 Z0.2500
G1 X14.1234 Y-16.9202 Z0.2500
G1 X14.0011 Y-16.7036 Z0.2500
G1 X13.9488 Y-16.5908 Z0.2500
G1 X13.9092 Y-16.4730 Z0.2500
G1 X13.8817 Y-16.3518 Z0.2500
G1 X13.8665 Y-16.2284 Z0.2500
G1 X13.8645 Y-16.1041 Z0.2500
G1 X13.8764 Y-15.9804 Z0.2500
G1 X13.9005 Y-15.8583 Z0.2500
G1 X13.9096 Y-15.7969 Z0.2500
G1 X13.9074 Y-15.7656 Z0.2500
G1 X13.8999 Y-15.7351 Z0.2500
G1 X13.8873 Y-15.7067 Z0.2500
G1 X13.8704 Y-15.6806 Z0.2500
G1 X13.8315 Y-15.6317 Z0.2500
G1 X13.7538 Y-15.5347 Z0.2500
G1 X13.1309 Y-14.7592 Z0.2500
G1 X13.0899 Y-14.7126 Z0.2500
G1 X13.0412 Y-14.6730 Z0.2500
G1 X13.0131 Y-14.6594 Z0.2500
G1 X12.9827 Y-14.6524 Z0.2500
G1 X12.9512 Y-14.6526 Z0.2500
G1 X12.9205 Y-14.6593 Z0.2500
G1 X12.8920 Y-14.6720 Z0.2500
G1 X12.8659 Y-14.6891 Z0.2500
G1 X12.8184 Y-14.7297 Z0.2500
G1 X12.7300 Y-14.8170 Z0.2500
G1 X12.3770 Y-15.1674 Z0.2500
G1 X12.0240 Y-15.5178 Z0.2500
G1 X11.9358 Y-15.6054 Z0.2500
G1 X11.8927 Y-15.6503 Z0.2500
G1 X11.8538 Y-15.6988 Z0.2500
G1 X11.8250 Y-15.7541 Z0.2500
G1 X11.8170 Y-15.7843 Z0.2500
G1 X11.8141 Y-15.8155 Z0.2500
G1 X11.8167 Y-15.8467 Z0.2500
G1 X11.8249 Y-15.8769 Z0.2500
G1 X11.8381 Y-15.9053 Z0.2500
G1 X11.8557 Y-15.9312 Z0.2500
G1 X11.9002 Y-15.9748 Z0.2500
G1 X11.9514 Y-16.0102 Z0.2500
G1 X12.0587 Y-16.0729 Z0.2500
G1 X12.2744 Y-16.1967 Z0.2500
G1 X12.7058 Y-16.4443 Z0.2500
G1 X12.7034 Y-16.4487 Z0.2500
G1 X12.8896 Y-16.5493 Z0.2500
G1 X13.2351 Y-16.7361 Z0.2500
G1 X13.3150 Y-16.7920 Z0.2500
G1 X14.6014 Y-17.9332 Z0.2500
G3X14.8108Y-17.7580Z0.2500I0.0916J0.1033
G1 X14.1467 Y-16.6699 Z0.2500
G2X14.0530Y-15.7729Z0.2500I0.8963J0.5470
G3X14.0396Y-15.6995Z0.2500I-0.0707J0.0250
G1 X12.9929 Y-14.4615 Z0.2500
G3X12.9736Y-14.4609Z0.2500I-0.0099J-0.0084
G1 X11.6275 Y-15.8671 Z0.2500
G1 X12.7034 Y-16.4487 Z0.2500
G0 Z4.0000
G0 X12.7034 Y-16.4487 
M5
G53 Z
( MOP:  top-control-front-01 )
( FILE: G:\Shared drives\AlloyProjectFiles\Customer CAD files\Alloy-Standard-Builds-CAM\s-in\Control\top-control-front-01.nc)
G90
(  BEGIN TOOL LIST )
(  TOOL 11 - Downcut PT750 ROUGH - DESC: 0.7500 DIA, 2 FLUTE,  CARBIDE MAT )
(  ENDOF TOOL LIST )
( top-control-front-01)
T11
S14000
M3
G0 Z4.0000
G0 X28.6894 Y-15.7394 
G1 X28.6894 Y-15.7394 Z1.7500 F75.
G1 X28.4525 Y-15.4591 Z1.6164 F50.
G1 X28.2273 Y-15.6944 Z1.4979
G1 X28.5243 Y-15.8550 Z1.3750
G1 X28.8213 Y-16.0157 Z1.3750 F150.
G17
G2X28.8315Y-15.9075Z1.3750I1.7217J-0.1072
G1 X28.4525 Y-15.4591 Z1.3750
G1 X28.2273 Y-15.6944 Z1.3750
G1 X28.5243 Y-15.8550 Z1.3750
G1 X28.5257 Y-15.8525 Z1.3750
G1 X28.6479 Y-15.9310 Z1.3750
G1 X28.7099 Y-15.9691 Z1.3750
G1 X28.7683 Y-16.0117 Z1.3750
G1 X28.8015 Y-16.0282 Z1.3750
G1 X28.8206 Y-16.0317 Z1.3750
G1 X28.8391 Y-16.0305 Z1.3750
G1 X28.8550 Y-16.0238 Z1.3750
G1 X28.8666 Y-16.0111 Z1.3750
G1 X28.8803 Y-15.9750 Z1.3750
G1 X28.8873 Y-15.9377 Z1.3750
G1 X28.8883 Y-15.9022 Z1.3750
G1 X28.8812 Y-15.8668 Z1.3750
G1 X28.8667 Y-15.8330 Z1.3750
G1 X28.6965 Y-15.5975 Z1.3750
G1 X28.6109 Y-15.4801 Z1.3750
G1 X28.5676 Y-15.4218 Z1.3750
G1 X28.5446 Y-15.3937 Z1.3750
G1 X28.5184 Y-15.3682 Z1.3750
G1 X28.4879 Y-15.3478 Z1.3750
G1 X28.4534 Y-15.3367 Z1.3750
G1 X28.4167 Y-15.3372 Z1.3750
G1 X28.3816 Y-15.3479 Z1.3750
G1 X28.3501 Y-15.3660 Z1.3750
G1 X28.3209 Y-15.3880 Z1.3750
G1 X28.2661 Y-15.4356 Z1.3750
G1 X28.1585 Y-15.5332 Z1.3750
G1 X28.1076 Y-15.5851 Z1.3750
G1 X28.0860 Y-15.6144 Z1.3750
G1 X28.0694 Y-15.6468 Z1.3750
G1 X28.0593 Y-15.6819 Z1.3750
G1 X28.0567 Y-15.7183 Z1.3750
G1 X28.0618 Y-15.7544 Z1.3750
G1 X28.0744 Y-15.7887 Z1.3750
G1 X28.0935 Y-15.8198 Z1.3750
G1 X28.1178 Y-15.8468 Z1.3750
G1 X28.1751 Y-15.8916 Z1.3750
G1 X28.4196 Y-16.0486 Z1.3750
G1 X28.4179 Y-16.0519 Z1.3750
G1 X28.8911 Y-16.3352 Z1.3750
G1 X29.0056 Y-16.4110 Z1.3750
G1 X29.0366 Y-16.4331 Z1.3750
G1 X29.0527 Y-16.4405 Z1.3750
G1 X29.0688 Y-16.4427 Z1.3750
G1 X29.0846 Y-16.4383 Z1.3750
G1 X29.0990 Y-16.4283 Z1.3750
G1 X29.1106 Y-16.4143 Z1.3750
G1 X29.1183 Y-16.3981 Z1.3750
G1 X29.1204 Y-16.3638 Z1.3750
G1 X29.1143 Y-16.3288 Z1.3750
G1 X29.1089 Y-16.2600 Z1.3750
G1 X29.1074 Y-16.1223 Z1.3750
G1 X29.1198 Y-15.9851 Z1.3750
G1 X29.1306 Y-15.9170 Z1.3750
G1 X29.1377 Y-15.8484 Z1.3750
G1 X29.1328 Y-15.8142 Z1.3750
G1 X29.1213 Y-15.7814 Z1.3750
G1 X29.1042 Y-15.7513 Z1.3750
G1 X29.0837 Y-15.7237 Z1.3750
G1 X28.9989 Y-15.6150 Z1.3750
G1 X28.6612 Y-15.1792 Z1.3750
G1 X28.5761 Y-15.0709 Z1.3750
G1 X28.5520 Y-15.0459 Z1.3750
G1 X28.5248 Y-15.0244 Z1.3750
G1 X28.4938 Y-15.0091 Z1.3750
G1 X28.4595 Y-15.0021 Z1.3750
G1 X28.4249 Y-15.0042 Z1.3750
G1 X28.3923 Y-15.0155 Z1.3750
G1 X28.3623 Y-15.0334 Z1.3750
G1 X28.3351 Y-15.0548 Z1.3750
G1 X28.2353 Y-15.1497 Z1.3750
G1 X27.8374 Y-15.5313 Z1.3750
G1 X27.7399 Y-15.6287 Z1.3750
G1 X27.7191 Y-15.6562 Z1.3750
G1 X27.7020 Y-15.6863 Z1.3750
G1 X27.6900 Y-15.7188 Z1.3750
G1 X27.6845 Y-15.7530 Z1.3750
G1 X27.6860 Y-15.7877 Z1.3750
G1 X27.6944 Y-15.8213 Z1.3750
G1 X27.7095 Y-15.8526 Z1.3750
G1 X27.7299 Y-15.8806 Z1.3750
G1 X27.7815 Y-15.9263 Z1.3750
G1 X27.8395 Y-15.9636 Z1.3750
G1 X28.3126 Y-16.2465 Z1.3750
G1 X28.3107 Y-16.2501 Z1.3750
G1 X28.7420 Y-16.4978 Z1.3750
G1 X28.8479 Y-16.5629 Z1.3750
G1 X28.9481 Y-16.6365 Z1.3750
G1 X29.1319 Y-16.8039 Z1.3750
G1 X29.4955 Y-17.1433 Z1.3750
G1 X29.6780 Y-17.3126 Z1.3750
G1 X29.7219 Y-17.3559 Z1.3750
G1 X29.7430 Y-17.3779 Z1.3750
G1 X29.7683 Y-17.3967 Z1.3750
G1 X29.8008 Y-17.4087 Z1.3750
G1 X29.8331 Y-17.4086 Z1.3750
G1 X29.8455 Y-17.4021 Z1.3750
G1 X29.8539 Y-17.3908 Z1.3750
G1 X29.8596 Y-17.3587 Z1.3750
G1 X29.8542 Y-17.3243 Z1.3750
G1 X29.8415 Y-17.2954 Z1.3750
G1 X29.8090 Y-17.2440 Z1.3750
G1 X29.7476 Y-17.1355 Z1.3750
G1 X29.6234 Y-16.9202 Z1.3750
G1 X29.5011 Y-16.7036 Z1.3750
G1 X29.4488 Y-16.5908 Z1.3750
G1 X29.4092 Y-16.4730 Z1.3750
G1 X29.3817 Y-16.3518 Z1.3750
G1 X29.3665 Y-16.2284 Z1.3750
G1 X29.3645 Y-16.1041 Z1.3750
G1 X29.3764 Y-15.9804 Z1.3750
G1 X29.4005 Y-15.8583 Z1.3750
G1 X29.4096 Y-15.7969 Z1.3750
G1 X29.4074 Y-15.7656 Z1.3750
G1 X29.3999 Y-15.7351 Z1.3750
G1 X29.3873 Y-15.7067 Z1.3750
G1 X29.3704 Y-15.6806 Z1.3750
G1 X29.3315 Y-15.6317 Z1.3750
G1 X29.2538 Y-15.5347 Z1.3750
G1 X28.6309 Y-14.7592 Z1.3750
G1 X28.5899 Y-14.7126 Z1.3750
G1 X28.5412 Y-14.6730 Z1.3750
G1 X28.5131 Y-14.6594 Z1.3750
G1 X28.4827 Y-14.6524 Z1.3750
G1 X28.4512 Y-14.6526 Z1.3750
G1 X28.4205 Y-14.6593 Z1.3750
G1 X28.3920 Y-14.6720 Z1.3750
G1 X28.3659 Y-14.6891 Z1.3750
G1 X28.3184 Y-14.7297 Z1.3750
G1 X28.2300 Y-14.8170 Z1.3750
G1 X27.8770 Y-15.1674 Z1.3750
G1 X27.5240 Y-15.5178 Z1.3750
G1 X27.4358 Y-15.6054 Z1.3750
G1 X27.3927 Y-15.6503 Z1.3750
G1 X27.3538 Y-15.6988 Z1.3750
G1 X27.3250 Y-15.7541 Z1.3750
G1 X27.3170 Y-15.7843 Z1.3750
G1 X27.3141 Y-15.8155 Z1.3750
G1 X27.3167 Y-15.8467 Z1.3750
G1 X27.3249 Y-15.8769 Z1.3750
G1 X27.3381 Y-15.9053 Z1.3750
G1 X27.3557 Y-15.9312 Z1.3750
G1 X27.4002 Y-15.9748 Z1.3750
G1 X27.4514 Y-16.0102 Z1.3750
G1 X27.5587 Y-16.0729 Z1.3750
G1 X27.7744 Y-16.1967 Z1.3750
G1 X28.2058 Y-16.4443 Z1.3750
G1 X28.2034 Y-16.4487 Z1.3750
G1 X28.3896 Y-16.5493 Z1.3750
G1 X28.7351 Y-16.7361 Z1.3750
G1 X28.8150 Y-16.7920 Z1.3750
G1 X30.1014 Y-17.9332 Z1.3750
G3X30.3108Y-17.7580Z1.3750I0.0916J0.1033
G1 X29.6467 Y-16.6699 Z1.3750
G2X29.5530Y-15.7729Z1.3750I0.8963J0.5470
G3X29.5396Y-15.6995Z1.3750I-0.0707J0.0250
G1 X28.4929 Y-14.4615 Z1.3750
G3X28.4736Y-14.4609Z1.3750I-0.0099J-0.0084
G1 X27.1275 Y-15.8671 Z1.3750
G1 X28.2034 Y-16.4487 Z1.3750
G0 Z1.9975
G0 X28.2034 Y-16.4487 
G0 Z1.9975
G0 X28.6894 Y-15.7394 
G1 X28.6894 Y-15.7394 Z1.3750 F75.
G1 X28.4525 Y-15.4591 Z1.2414 F50.
G1 X28.2273 Y-15.6944 Z1.1229
G1 X28.5243 Y-15.8550 Z1.0000
G1 X28.8213 Y-16.0157 Z1.0000 F150.
G2X28.8315Y-15.9075Z1.0000I1.7217J-0.1072
G1 X28.4525 Y-15.4591 Z1.0000
G1 X28.2273 Y-15.6944 Z1.0000
G1 X28.5243 Y-15.8550 Z1.0000
G1 X28.5257 Y-15.8525 Z1.0000
G1 X28.6479 Y-15.9310 Z1.0000
G1 X28.7099 Y-15.9691 Z1.0000
G1 X28.7683 Y-16.0117 Z1.0000
G1 X28.8015 Y-16.0282 Z1.0000
G1 X28.8206 Y-16.0317 Z1.0000
G1 X28.8391 Y-16.0305 Z1.0000
G1 X28.8550 Y-16.0238 Z1.0000
G1 X28.8666 Y-16.0111 Z1.0000
G1 X28.8803 Y-15.9750 Z1.0000
G1 X28.8873 Y-15.9377 Z1.0000
G1 X28.8883 Y-15.9022 Z1.0000
G1 X28.8812 Y-15.8668 Z1.0000
G1 X28.8667 Y-15.8330 Z1.0000
G1 X28.6965 Y-15.5975 Z1.0000
G1 X28.6109 Y-15.4801 Z1.0000
G1 X28.5676 Y-15.4218 Z1.0000
G1 X28.5446 Y-15.3937 Z1.0000
G1 X28.5184 Y-15.3682 Z1.0000
G1 X28.4879 Y-15.3478 Z1.0000
G1 X28.4534 Y-15.3367 Z1.0000
G1 X28.4167 Y-15.3372 Z1.0000
G1 X28.3816 Y-15.3479 Z1.0000
G1 X28.3501 Y-15.3660 Z1.0000
G1 X28.3209 Y-15.3880 Z1.0000
G1 X28.2661 Y-15.4356 Z1.0000
G1 X28.1585 Y-15.5332 Z1.0000
G1 X28.1076 Y-15.5851 Z1.0000
G1 X28.0860 Y-15.6144 Z1.0000
G1 X28.0694 Y-15.6468 Z1.0000
G1 X28.0593 Y-15.6819 Z1.0000
G1 X28.0567 Y-15.7183 Z1.0000
G1 X28.0618 Y-15.7544 Z1.0000
G1 X28.0744 Y-15.7887 Z1.0000
G1 X28.0935 Y-15.8198 Z1.0000
G1 X28.1178 Y-15.8468 Z1.0000
G1 X28.1751 Y-15.8916 Z1.0000
G1 X28.4196 Y-16.0486 Z1.0000
G1 X28.4179 Y-16.0519 Z1.0000
G1 X28.8911 Y-16.3352 Z1.0000
G1 X29.0056 Y-16.4110 Z1.0000
G1 X29.0366 Y-16.4331 Z1.0000
G1 X29.0527 Y-16.4405 Z1.0000
G1 X29.0688 Y-16.4427 Z1.0000
G1 X29.0846 Y-16.4383 Z1.0000
G1 X29.0990 Y-16.4283 Z1.0000
G1 X29.1106 Y-16.4143 Z1.0000
G1 X29.1183 Y-16.3981 Z1.0000
G1 X29.1204 Y-16.3638 Z1.0000
G1 X29.1143 Y-16.3288 Z1.0000
G1 X29.1089 Y-16.2600 Z1.0000
G1 X29.1074 Y-16.1223 Z1.0000
G1 X29.1198 Y-15.9851 Z1.0000
G1 X29.1306 Y-15.9170 Z1.0000
G1 X29.1377 Y-15.8484 Z1.0000
G1 X29.1328 Y-15.8142 Z1.0000
G1 X29.1213 Y-15.7814 Z1.0000
G1 X29.1042 Y-15.7513 Z1.0000
G1 X29.0837 Y-15.7237 Z1.0000
G1 X28.9989 Y-15.6150 Z1.0000
G1 X28.6612 Y-15.1792 Z1.0000
G1 X28.5761 Y-15.0709 Z1.0000
G1 X28.5520 Y-15.0459 Z1.0000
G1 X28.5248 Y-15.0244 Z1.0000
G1 X28.4938 Y-15.0091 Z1.0000
G1 X28.4595 Y-15.0021 Z1.0000
G1 X28.4249 Y-15.0042 Z1.0000
G1 X28.3923 Y-15.0155 Z1.0000
G1 X28.3623 Y-15.0334 Z1.0000
G1 X28.3351 Y-15.0548 Z1.0000
G1 X28.2353 Y-15.1497 Z1.0000
G1 X27.8374 Y-15.5313 Z1.0000
G1 X27.7399 Y-15.6287 Z1.0000
G1 X27.7191 Y-15.6562 Z1.0000
G1 X27.7020 Y-15.6863 Z1.0000
G1 X27.6900 Y-15.7188 Z1.0000
G1 X27.6845 Y-15.7530 Z1.0000
G1 X27.6860 Y-15.7877 Z1.0000
G1 X27.6944 Y-15.8213 Z1.0000
G1 X27.7095 Y-15.8526 Z1.0000
G1 X27.7299 Y-15.8806 Z1.0000
G1 X27.7815 Y-15.9263 Z1.0000
G1 X27.8395 Y-15.9636 Z1.0000
G1 X28.3126 Y-16.2465 Z1.0000
G1 X28.3107 Y-16.2501 Z1.0000
G1 X28.7420 Y-16.4978 Z1.0000
G1 X28.8479 Y-16.5629 Z1.0000
G1 X28.9481 Y-16.6365 Z1.0000
G1 X29.1319 Y-16.8039 Z1.0000
G1 X29.4955 Y-17.1433 Z1.0000
G1 X29.6780 Y-17.3126 Z1.0000
G1 X29.7219 Y-17.3559 Z1.0000
G1 X29.7430 Y-17.3779 Z1.0000
G1 X29.7683 Y-17.3967 Z1.0000
G1 X29.8008 Y-17.4087 Z1.0000
G1 X29.8331 Y-17.4086 Z1.0000
G1 X29.8455 Y-17.4021 Z1.0000
G1 X29.8539 Y-17.3908 Z1.0000
G1 X29.8596 Y-17.3587 Z1.0000
G1 X29.8542 Y-17.3243 Z1.0000
G1 X29.8415 Y-17.2954 Z1.0000
G1 X29.8090 Y-17.2440 Z1.0000
G1 X29.7476 Y-17.1355 Z1.0000
G1 X29.6234 Y-16.9202 Z1.0000
G1 X29.5011 Y-16.7036 Z1.0000
G1 X29.4488 Y-16.5908 Z1.0000
G1 X29.4092 Y-16.4730 Z1.0000
G1 X29.3817 Y-16.3518 Z1.0000
G1 X29.3665 Y-16.2284 Z1.0000
G1 X29.3645 Y-16.1041 Z1.0000
G1 X29.3764 Y-15.9804 Z1.0000
G1 X29.4005 Y-15.8583 Z1.0000
G1 X29.4096 Y-15.7969 Z1.0000
G1 X29.4074 Y-15.7656 Z1.0000
G1 X29.3999 Y-15.7351 Z1.0000
G1 X29.3873 Y-15.7067 Z1.0000
G1 X29.3704 Y-15.6806 Z1.0000
G1 X29.3315 Y-15.6317 Z1.0000
G1 X29.2538 Y-15.5347 Z1.0000
G1 X28.6309 Y-14.7592 Z1.0000
G1 X28.5899 Y-14.7126 Z1.0000
G1 X28.5412 Y-14.6730 Z1.0000
G1 X28.5131 Y-14.6594 Z1.0000
G1 X28.4827 Y-14.6524 Z1.0000
G1 X28.4512 Y-14.6526 Z1.0000
G1 X28.4205 Y-14.6593 Z1.0000
G1 X28.3920 Y-14.6720 Z1.0000
G1 X28.3659 Y-14.6891 Z1.0000
G1 X28.3184 Y-14.7297 Z1.0000
G1 X28.2300 Y-14.8170 Z1.0000
G1 X27.8770 Y-15.1674 Z1.0000
G1 X27.5240 Y-15.5178 Z1.0000
G1 X27.4358 Y-15.6054 Z1.0000
G1 X27.3927 Y-15.6503 Z1.0000
G1 X27.3538 Y-15.6988 Z1.0000
G1 X27.3250 Y-15.7541 Z1.0000
G1 X27.3170 Y-15.7843 Z1.0000
G1 X27.3141 Y-15.8155 Z1.0000
G1 X27.3167 Y-15.8467 Z1.0000
G1 X27.3249 Y-15.8769 Z1.0000
G1 X27.3381 Y-15.9053 Z1.0000
G1 X27.3557 Y-15.9312 Z1.0000
G1 X27.4002 Y-15.9748 Z1.0000
G1 X27.4514 Y-16.0102 Z1.0000
G1 X27.5587 Y-16.0729 Z1.0000
G1 X27.7744 Y-16.1967 Z1.0000
G1 X28.2058 Y-16.4443 Z1.0000
G1 X28.2034 Y-16.4487 Z1.0000
G1 X28.3896 Y-16.5493 Z1.0000
G1 X28.7351 Y-16.7361 Z1.0000
G1 X28.8150 Y-16.7920 Z1.0000
G1 X30.1014 Y-17.9332 Z1.0000
G3X30.3108Y-17.7580Z1.0000I0.0916J0.1033
G1 X29.6467 Y-16.6699 Z1.0000
G2X29.5530Y-15.7729Z1.0000I0.8963J0.5470
G3X29.5396Y-15.6995Z1.0000I-0.0707J0.0250
G1 X28.4929 Y-14.4615 Z1.0000
G3X28.4736Y-14.4609Z1.0000I-0.0099J-0.0084
G1 X27.1275 Y-15.8671 Z1.0000
G1 X28.2034 Y-16.4487 Z1.0000
G0 Z1.9975
G0 X28.2034 Y-16.4487 
G0 Z1.9975
G0 X28.6894 Y-15.7394 
G1 X28.6894 Y-15.7394 Z1.0000 F75.
G1 X28.4525 Y-15.4591 Z0.8664 F50.
G1 X28.2273 Y-15.6944 Z0.7479
G1 X28.5243 Y-15.8550 Z0.6250
G1 X28.8213 Y-16.0157 Z0.6250 F150.
G2X28.8315Y-15.9075Z0.6250I1.7217J-0.1072
G1 X28.4525 Y-15.4591 Z0.6250
G1 X28.2273 Y-15.6944 Z0.6250
G1 X28.5243 Y-15.8550 Z0.6250
G1 X28.5257 Y-15.8525 Z0.6250
G1 X28.6479 Y-15.9310 Z0.6250
G1 X28.7099 Y-15.9691 Z0.6250
G1 X28.7683 Y-16.0117 Z0.6250
G1 X28.8015 Y-16.0282 Z0.6250
G1 X28.8206 Y-16.0317 Z0.6250
G1 X28.8391 Y-16.0305 Z0.6250
G1 X28.8550 Y-16.0238 Z0.6250
G1 X28.8666 Y-16.0111 Z0.6250
G1 X28.8803 Y-15.9750 Z0.6250
G1 X28.8873 Y-15.9377 Z0.6250
G1 X28.8883 Y-15.9022 Z0.6250
G1 X28.8812 Y-15.8668 Z0.6250
G1 X28.8667 Y-15.8330 Z0.6250
G1 X28.6965 Y-15.5975 Z0.6250
G1 X28.6109 Y-15.4801 Z0.6250
G1 X28.5676 Y-15.4218 Z0.6250
G1 X28.5446 Y-15.3937 Z0.6250
G1 X28.5184 Y-15.3682 Z0.6250
G1 X28.4879 Y-15.3478 Z0.6250
G1 X28.4534 Y-15.3367 Z0.6250
G1 X28.4167 Y-15.3372 Z0.6250
G1 X28.3816 Y-15.3479 Z0.6250
G1 X28.3501 Y-15.3660 Z0.6250
G1 X28.3209 Y-15.3880 Z0.6250
G1 X28.2661 Y-15.4356 Z0.6250
G1 X28.1585 Y-15.5332 Z0.6250
G1 X28.1076 Y-15.5851 Z0.6250
G1 X28.0860 Y-15.6144 Z0.6250
G1 X28.0694 Y-15.6468 Z0.6250
G1 X28.0593 Y-15.6819 Z0.6250
G1 X28.0567 Y-15.7183 Z0.6250
G1 X28.0618 Y-15.7544 Z0.6250
G1 X28.0744 Y-15.7887 Z0.6250
G1 X28.0935 Y-15.8198 Z0.6250
G1 X28.1178 Y-15.8468 Z0.6250
G1 X28.1751 Y-15.8916 Z0.6250
G1 X28.4196 Y-16.0486 Z0.6250
G1 X28.4179 Y-16.0519 Z0.6250
G1 X28.8911 Y-16.3352 Z0.6250
G1 X29.0056 Y-16.4110 Z0.6250
G1 X29.0366 Y-16.4331 Z0.6250
G1 X29.0527 Y-16.4405 Z0.6250
G1 X29.0688 Y-16.4427 Z0.6250
G1 X29.0846 Y-16.4383 Z0.6250
G1 X29.0990 Y-16.4283 Z0.6250
G1 X29.1106 Y-16.4143 Z0.6250
G1 X29.1183 Y-16.3981 Z0.6250
G1 X29.1204 Y-16.3638 Z0.6250
G1 X29.1143 Y-16.3288 Z0.6250
G1 X29.1089 Y-16.2600 Z0.6250
G1 X29.1074 Y-16.1223 Z0.6250
G1 X29.1198 Y-15.9851 Z0.6250
G1 X29.1306 Y-15.9170 Z0.6250
G1 X29.1377 Y-15.8484 Z0.6250
G1 X29.1328 Y-15.8142 Z0.6250
G1 X29.1213 Y-15.7814 Z0.6250
G1 X29.1042 Y-15.7513 Z0.6250
G1 X29.0837 Y-15.7237 Z0.6250
G1 X28.9989 Y-15.6150 Z0.6250
G1 X28.6612 Y-15.1792 Z0.6250
G1 X28.5761 Y-15.0709 Z0.6250
G1 X28.5520 Y-15.0459 Z0.6250
G1 X28.5248 Y-15.0244 Z0.6250
G1 X28.4938 Y-15.0091 Z0.6250
G1 X28.4595 Y-15.0021 Z0.6250
G1 X28.4249 Y-15.0042 Z0.6250
G1 X28.3923 Y-15.0155 Z0.6250
G1 X28.3623 Y-15.0334 Z0.6250
G1 X28.3351 Y-15.0548 Z0.6250
G1 X28.2353 Y-15.1497 Z0.6250
G1 X27.8374 Y-15.5313 Z0.6250
G1 X27.7399 Y-15.6287 Z0.6250
G1 X27.7191 Y-15.6562 Z0.6250
G1 X27.7020 Y-15.6863 Z0.6250
G1 X27.6900 Y-15.7188 Z0.6250
G1 X27.6845 Y-15.7530 Z0.6250
G1 X27.6860 Y-15.7877 Z0.6250
G1 X27.6944 Y-15.8213 Z0.6250
G1 X27.7095 Y-15.8526 Z0.6250
G1 X27.7299 Y-15.8806 Z0.6250
G1 X27.7815 Y-15.9263 Z0.6250
G1 X27.8395 Y-15.9636 Z0.6250
G1 X28.3126 Y-16.2465 Z0.6250
G1 X28.3107 Y-16.2501 Z0.6250
G1 X28.7420 Y-16.4978 Z0.6250
G1 X28.8479 Y-16.5629 Z0.6250
G1 X28.9481 Y-16.6365 Z0.6250
G1 X29.1319 Y-16.8039 Z0.6250
G1 X29.4955 Y-17.1433 Z0.6250
G1 X29.6780 Y-17.3126 Z0.6250
G1 X29.7219 Y-17.3559 Z0.6250
G1 X29.7430 Y-17.3779 Z0.6250
G1 X29.7683 Y-17.3967 Z0.6250
G1 X29.8008 Y-17.4087 Z0.6250
G1 X29.8331 Y-17.4086 Z0.6250
G1 X29.8455 Y-17.4021 Z0.6250
G1 X29.8539 Y-17.3908 Z0.6250
G1 X29.8596 Y-17.3587 Z0.6250
G1 X29.8542 Y-17.3243 Z0.6250
G1 X29.8415 Y-17.2954 Z0.6250
G1 X29.8090 Y-17.2440 Z0.6250
G1 X29.7476 Y-17.1355 Z0.6250
G1 X29.6234 Y-16.9202 Z0.6250
G1 X29.5011 Y-16.7036 Z0.6250
G1 X29.4488 Y-16.5908 Z0.6250
G1 X29.4092 Y-16.4730 Z0.6250
G1 X29.3817 Y-16.3518 Z0.6250
G1 X29.3665 Y-16.2284 Z0.6250
G1 X29.3645 Y-16.1041 Z0.6250
G1 X29.3764 Y-15.9804 Z0.6250
G1 X29.4005 Y-15.8583 Z0.6250
G1 X29.4096 Y-15.7969 Z0.6250
G1 X29.4074 Y-15.7656 Z0.6250
G1 X29.3999 Y-15.7351 Z0.6250
G1 X29.3873 Y-15.7067 Z0.6250
G1 X29.3704 Y-15.6806 Z0.6250
G1 X29.3315 Y-15.6317 Z0.6250
G1 X29.2538 Y-15.5347 Z0.6250
G1 X28.6309 Y-14.7592 Z0.6250
G1 X28.5899 Y-14.7126 Z0.6250
G1 X28.5412 Y-14.6730 Z0.6250
G1 X28.5131 Y-14.6594 Z0.6250
G1 X28.4827 Y-14.6524 Z0.6250
G1 X28.4512 Y-14.6526 Z0.6250
G1 X28.4205 Y-14.6593 Z0.6250
G1 X28.3920 Y-14.6720 Z0.6250
G1 X28.3659 Y-14.6891 Z0.6250
G1 X28.3184 Y-14.7297 Z0.6250
G1 X28.2300 Y-14.8170 Z0.6250
G1 X27.8770 Y-15.1674 Z0.6250
G1 X27.5240 Y-15.5178 Z0.6250
G1 X27.4358 Y-15.6054 Z0.6250
G1 X27.3927 Y-15.6503 Z0.6250
G1 X27.3538 Y-15.6988 Z0.6250
G1 X27.3250 Y-15.7541 Z0.6250
G1 X27.3170 Y-15.7843 Z0.6250
G1 X27.3141 Y-15.8155 Z0.6250
G1 X27.3167 Y-15.8467 Z0.6250
G1 X27.3249 Y-15.8769 Z0.6250
G1 X27.3381 Y-15.9053 Z0.6250
G1 X27.3557 Y-15.9312 Z0.6250
G1 X27.4002 Y-15.9748 Z0.6250
G1 X27.4514 Y-16.0102 Z0.6250
G1 X27.5587 Y-16.0729 Z0.6250
G1 X27.7744 Y-16.1967 Z0.6250
G1 X28.2058 Y-16.4443 Z0.6250
G1 X28.2034 Y-16.4487 Z0.6250
G1 X28.3896 Y-16.5493 Z0.6250
G1 X28.7351 Y-16.7361 Z0.6250
G1 X28.8150 Y-16.7920 Z0.6250
G1 X30.1014 Y-17.9332 Z0.6250
G3X30.3108Y-17.7580Z0.6250I0.0916J0.1033
G1 X29.6467 Y-16.6699 Z0.6250
G2X29.5530Y-15.7729Z0.6250I0.8963J0.5470
G3X29.5396Y-15.6995Z0.6250I-0.0707J0.0250
G1 X28.4929 Y-14.4615 Z0.6250
G3X28.4736Y-14.4609Z0.6250I-0.0099J-0.0084
G1 X27.1275 Y-15.8671 Z0.6250
G1 X28.2034 Y-16.4487 Z0.6250
G0 Z1.9975
G0 X28.2034 Y-16.4487 
G0 Z1.9975
G0 X28.6894 Y-15.7394 
G1 X28.6894 Y-15.7394 Z0.6250 F75.
G1 X28.4525 Y-15.4591 Z0.4914 F50.
G1 X28.2273 Y-15.6944 Z0.3729
G1 X28.5243 Y-15.8550 Z0.2500
G1 X28.8213 Y-16.0157 Z0.2500 F150.
G2X28.8315Y-15.9075Z0.2500I1.7217J-0.1072
G1 X28.4525 Y-15.4591 Z0.2500
G1 X28.2273 Y-15.6944 Z0.2500
G1 X28.5243 Y-15.8550 Z0.2500
G1 X28.5257 Y-15.8525 Z0.2500
G1 X28.6479 Y-15.9310 Z0.2500
G1 X28.7099 Y-15.9691 Z0.2500
G1 X28.7683 Y-16.0117 Z0.2500
G1 X28.8015 Y-16.0282 Z0.2500
G1 X28.8206 Y-16.0317 Z0.2500
G1 X28.8391 Y-16.0305 Z0.2500
G1 X28.8550 Y-16.0238 Z0.2500
G1 X28.8666 Y-16.0111 Z0.2500
G1 X28.8803 Y-15.9750 Z0.2500
G1 X28.8873 Y-15.9377 Z0.2500
G1 X28.8883 Y-15.9022 Z0.2500
G1 X28.8812 Y-15.8668 Z0.2500
G1 X28.8667 Y-15.8330 Z0.2500
G1 X28.6965 Y-15.5975 Z0.2500
G1 X28.6109 Y-15.4801 Z0.2500
G1 X28.5676 Y-15.4218 Z0.2500
G1 X28.5446 Y-15.3937 Z0.2500
G1 X28.5184 Y-15.3682 Z0.2500
G1 X28.4879 Y-15.3478 Z0.2500
G1 X28.4534 Y-15.3367 Z0.2500
G1 X28.4167 Y-15.3372 Z0.2500
G1 X28.3816 Y-15.3479 Z0.2500
G1 X28.3501 Y-15.3660 Z0.2500
G1 X28.3209 Y-15.3880 Z0.2500
G1 X28.2661 Y-15.4356 Z0.2500
G1 X28.1585 Y-15.5332 Z0.2500
G1 X28.1076 Y-15.5851 Z0.2500
G1 X28.0860 Y-15.6144 Z0.2500
G1 X28.0694 Y-15.6468 Z0.2500
G1 X28.0593 Y-15.6819 Z0.2500
G1 X28.0567 Y-15.7183 Z0.2500
G1 X28.0618 Y-15.7544 Z0.2500
G1 X28.0744 Y-15.7887 Z0.2500
G1 X28.0935 Y-15.8198 Z0.2500
G1 X28.1178 Y-15.8468 Z0.2500
G1 X28.1751 Y-15.8916 Z0.2500
G1 X28.4196 Y-16.0486 Z0.2500
G1 X28.4179 Y-16.0519 Z0.2500
G1 X28.8911 Y-16.3352 Z0.2500
G1 X29.0056 Y-16.4110 Z0.2500
G1 X29.0366 Y-16.4331 Z0.2500
G1 X29.0527 Y-16.4405 Z0.2500
G1 X29.0688 Y-16.4427 Z0.2500
G1 X29.0846 Y-16.4383 Z0.2500
G1 X29.0990 Y-16.4283 Z0.2500
G1 X29.1106 Y-16.4143 Z0.2500
G1 X29.1183 Y-16.3981 Z0.2500
G1 X29.1204 Y-16.3638 Z0.2500
G1 X29.1143 Y-16.3288 Z0.2500
G1 X29.1089 Y-16.2600 Z0.2500
G1 X29.1074 Y-16.1223 Z0.2500
G1 X29.1198 Y-15.9851 Z0.2500
G1 X29.1306 Y-15.9170 Z0.2500
G1 X29.1377 Y-15.8484 Z0.2500
G1 X29.1328 Y-15.8142 Z0.2500
G1 X29.1213 Y-15.7814 Z0.2500
G1 X29.1042 Y-15.7513 Z0.2500
G1 X29.0837 Y-15.7237 Z0.2500
G1 X28.9989 Y-15.6150 Z0.2500
G1 X28.6612 Y-15.1792 Z0.2500
G1 X28.5761 Y-15.0709 Z0.2500
G1 X28.5520 Y-15.0459 Z0.2500
G1 X28.5248 Y-15.0244 Z0.2500
G1 X28.4938 Y-15.0091 Z0.2500
G1 X28.4595 Y-15.0021 Z0.2500
G1 X28.4249 Y-15.0042 Z0.2500
G1 X28.3923 Y-15.0155 Z0.2500
G1 X28.3623 Y-15.0334 Z0.2500
G1 X28.3351 Y-15.0548 Z0.2500
G1 X28.2353 Y-15.1497 Z0.2500
G1 X27.8374 Y-15.5313 Z0.2500
G1 X27.7399 Y-15.6287 Z0.2500
G1 X27.7191 Y-15.6562 Z0.2500
G1 X27.7020 Y-15.6863 Z0.2500
G1 X27.6900 Y-15.7188 Z0.2500
G1 X27.6845 Y-15.7530 Z0.2500
G1 X27.6860 Y-15.7877 Z0.2500
G1 X27.6944 Y-15.8213 Z0.2500
G1 X27.7095 Y-15.8526 Z0.2500
G1 X27.7299 Y-15.8806 Z0.2500
G1 X27.7815 Y-15.9263 Z0.2500
G1 X27.8395 Y-15.9636 Z0.2500
G1 X28.3126 Y-16.2465 Z0.2500
G1 X28.3107 Y-16.2501 Z0.2500
G1 X28.7420 Y-16.4978 Z0.2500
G1 X28.8479 Y-16.5629 Z0.2500
G1 X28.9481 Y-16.6365 Z0.2500
G1 X29.1319 Y-16.8039 Z0.2500
G1 X29.4955 Y-17.1433 Z0.2500
G1 X29.6780 Y-17.3126 Z0.2500
G1 X29.7219 Y-17.3559 Z0.2500
G1 X29.7430 Y-17.3779 Z0.2500
G1 X29.7683 Y-17.3967 Z0.2500
G1 X29.8008 Y-17.4087 Z0.2500
G1 X29.8331 Y-17.4086 Z0.2500
G1 X29.8455 Y-17.4021 Z0.2500
G1 X29.8539 Y-17.3908 Z0.2500
G1 X29.8596 Y-17.3587 Z0.2500
G1 X29.8542 Y-17.3243 Z0.2500
G1 X29.8415 Y-17.2954 Z0.2500
G1 X29.8090 Y-17.2440 Z0.2500
G1 X29.7476 Y-17.1355 Z0.2500
G1 X29.6234 Y-16.9202 Z0.2500
G1 X29.5011 Y-16.7036 Z0.2500
G1 X29.4488 Y-16.5908 Z0.2500
G1 X29.4092 Y-16.4730 Z0.2500
G1 X29.3817 Y-16.3518 Z0.2500
G1 X29.3665 Y-16.2284 Z0.2500
G1 X29.3645 Y-16.1041 Z0.2500
G1 X29.3764 Y-15.9804 Z0.2500
G1 X29.4005 Y-15.8583 Z0.2500
G1 X29.4096 Y-15.7969 Z0.2500
G1 X29.4074 Y-15.7656 Z0.2500
G1 X29.3999 Y-15.7351 Z0.2500
G1 X29.3873 Y-15.7067 Z0.2500
G1 X29.3704 Y-15.6806 Z0.2500
G1 X29.3315 Y-15.6317 Z0.2500
G1 X29.2538 Y-15.5347 Z0.2500
G1 X28.6309 Y-14.7592 Z0.2500
G1 X28.5899 Y-14.7126 Z0.2500
G1 X28.5412 Y-14.6730 Z0.2500
G1 X28.5131 Y-14.6594 Z0.2500
G1 X28.4827 Y-14.6524 Z0.2500
G1 X28.4512 Y-14.6526 Z0.2500
G1 X28.4205 Y-14.6593 Z0.2500
G1 X28.3920 Y-14.6720 Z0.2500
G1 X28.3659 Y-14.6891 Z0.2500
G1 X28.3184 Y-14.7297 Z0.2500
G1 X28.2300 Y-14.8170 Z0.2500
G1 X27.8770 Y-15.1674 Z0.2500
G1 X27.5240 Y-15.5178 Z0.2500
G1 X27.4358 Y-15.6054 Z0.2500
G1 X27.3927 Y-15.6503 Z0.2500
G1 X27.3538 Y-15.6988 Z0.2500
G1 X27.3250 Y-15.7541 Z0.2500
G1 X27.3170 Y-15.7843 Z0.2500
G1 X27.3141 Y-15.8155 Z0.2500
G1 X27.3167 Y-15.8467 Z0.2500
G1 X27.3249 Y-15.8769 Z0.2500
G1 X27.3381 Y-15.9053 Z0.2500
G1 X27.3557 Y-15.9312 Z0.2500
G1 X27.4002 Y-15.9748 Z0.2500
G1 X27.4514 Y-16.0102 Z0.2500
G1 X27.5587 Y-16.0729 Z0.2500
G1 X27.7744 Y-16.1967 Z0.2500
G1 X28.2058 Y-16.4443 Z0.2500
G1 X28.2034 Y-16.4487 Z0.2500
G1 X28.3896 Y-16.5493 Z0.2500
G1 X28.7351 Y-16.7361 Z0.2500
G1 X28.8150 Y-16.7920 Z0.2500
G1 X30.1014 Y-17.9332 Z0.2500
G3X30.3108Y-17.7580Z0.2500I0.0916J0.1033
G1 X29.6467 Y-16.6699 Z0.2500
G2X29.5530Y-15.7729Z0.2500I0.8963J0.5470
G3X29.5396Y-15.6995Z0.2500I-0.0707J0.0250
G1 X28.4929 Y-14.4615 Z0.2500
G3X28.4736Y-14.4609Z0.2500I-0.0099J-0.0084
G1 X27.1275 Y-15.8671 Z0.2500
G1 X28.2034 Y-16.4487 Z0.2500
G0 Z4.0000
G0 X28.2034 Y-16.4487 
M5
G53 Z
( END FILE top-control-front-01.nc )
