( MOP:  BackRoundover-PT125-01-back )
( FILE: G:\Shared drives\AlloyProjectFiles\Customer CAD files\Alloy-Standard-Builds-CAM\t-in\EdgeTreatment\BackRoundover-PT125-01-back.nc)
G90
(  BEGIN TOOL LIST )
(  TOOL 11 - Downcut PT750 ROUGH - DESC: 0.7500 DIA, 2 FLUTE,  CARBIDE MAT )
(  ENDOF TOOL LIST )
( BackRoundover-PT125-01-back)
T11
S14000
M3
G0 Z4.0000
G0 X3.6822 Y-19.2256 
G1 X3.6822 Y-19.2256 Z1.4900 F75.
G17
G3X3.9357Y-18.9788Z1.4900I0.0035J0.2500 F50.
G1 X3.9371 Y-18.8748 Z1.4900 F150.
G1 X3.9413 Y-18.7632 Z1.4900
G1 X3.9562 Y-18.5411 Z1.4900
G2X4.0444Y-17.8893Z1.4900I6.4814J-0.5451
G2X4.2255Y-17.1380Z1.4900I8.6617J-1.6909
G2X4.7356Y-15.7156Z1.4900I10.6751J-3.0251
G1 X4.8115 Y-15.5436 Z1.4900
G1 X4.9644 Y-15.2094 Z1.4900
G3X5.4119Y-14.2227Z1.4900I-33.2295J15.6625
G3X5.6636Y-13.5762Z1.4900I-7.5591J3.3156
G1 X5.7135 Y-13.4156 Z1.4900
G3X5.8079Y-12.8804Z1.4900I-2.2710J0.6765
G3X5.7504Y-12.2689Z1.4900I-2.1187J0.1094
G3X5.6861Y-12.0365Z1.4900I-3.0862J-0.7290
G3X5.5072Y-11.5517Z1.4900I-5.7445J-1.8435
G1 X5.2979 Y-11.0429 Z1.4900
G2X5.0367Y-10.3211Z1.4900I8.2114J3.3807
G2X4.8925Y-9.7481Z1.4900I5.2669J1.6293
G2X4.8148Y-9.1631Z1.4900I4.9093J0.9500
G2X4.8545Y-8.2330Z1.4900I3.9248J0.2984
G2X5.0047Y-7.6887Z1.4900I2.6933J-0.4502
G2X5.1383Y-7.4158Z1.4900I1.7861J-0.7056
G2X5.4685Y-7.0381Z1.4900I1.1561J-0.6774
G2X6.4000Y-6.8155Z1.4900I0.7208J-0.9559
G2X6.8219Y-6.9919Z1.4900I-0.2119J-1.0998
G2X7.2465Y-7.4540Z1.4900I-0.8000J-1.1611
G1 X7.3041 Y-7.5619 Z1.4900
G1 X7.3557 Y-7.6780 Z1.4900
G1 X7.3981 Y-7.7902 Z1.4900
G1 X7.4339 Y-7.8989 Z1.4900
G1 X7.5472 Y-8.2849 Z1.4900
G1 X7.6064 Y-8.4681 Z1.4900
G3X7.7717Y-8.8518Z1.4900I2.3336J0.7777
G3X8.0341Y-9.1784Z1.4900I1.0227J0.5528
G3X8.5645Y-9.4398Z1.4900I0.7816J0.9173
G3X8.8157Y-9.4375Z1.4900I0.1206J0.5378
G3X9.0555Y-9.2813Z1.4900I-0.1768J0.5337
G3X9.2204Y-8.9573Z1.4900I-0.4291J0.4223
G3X9.2352Y-8.8392Z1.4900I-1.0254J0.1887
G1 X9.2387 Y-7.2957 Z1.4900
G2X9.8887Y-6.6472Z1.4900I0.6500J-0.0015
G1 X11.5772 Y-6.6472 Z1.4900
G2X12.2272Y-7.2957Z1.4900I0.0000J-0.6500
G3X12.2352Y-7.3118Z1.4900I0.0203J0.0000
G3X12.2496Y-7.3159Z1.4900I0.0124J0.0162
G3X12.4242Y-7.2359Z1.4900I-0.2256J0.7234
G1 X12.5421 Y-7.1627 Z1.4900
G2X12.9278Y-6.9188Z1.4900I4.7671J-7.1131
G2X13.3366Y-6.7202Z1.4900I1.5326J-2.6345
G1 X13.4823 Y-6.6679 Z1.4900
G1 X13.6333 Y-6.6229 Z1.4900
G1 X13.7861 Y-6.5859 Z1.4900
G1 X13.9417 Y-6.5565 Z1.4900
G1 X14.1001 Y-6.5348 Z1.4900
G1 X14.2599 Y-6.5213 Z1.4900
G1 X14.4189 Y-6.5166 Z1.4900
G2X15.3261Y-6.6916Z1.4900I0.0203J-2.3345
G2X16.1873Y-7.4031Z1.4900I-0.7489J-1.7834
G2X16.4748Y-8.0159Z1.4900I-1.9479J-1.2876
G2X16.6006Y-8.7558Z1.4900I-2.8598J-0.8670
G1 X16.6049 Y-8.9363 Z1.4900
G1 X16.6006 Y-9.1156 Z1.4900
G2X16.5107Y-9.8175Z1.4900I-4.5449J0.2260
G2X16.3269Y-10.4877Z1.4900I-5.3927J1.1183
G1 X16.2704 Y-10.6478 Z1.4900
G1 X16.2108 Y-10.8062 Z1.4900
G1 X16.0902 Y-11.1104 Z1.4900
G1 X15.9688 Y-11.4087 Z1.4900
G1 X15.8505 Y-11.7044 Z1.4900
G3X15.7032Y-12.1282Z1.4900I4.8232J-1.9138
G3X15.6190Y-13.0140Z1.4900I2.2183J-0.6577
G3X15.6787Y-13.3538Z1.4900I2.4670J0.2584
G1 X15.7169 Y-13.4932 Z1.4900
G3X15.9273Y-14.0568Z1.4900I5.2755J1.6483
G1 X15.9894 Y-14.2005 Z1.4900
G1 X16.1206 Y-14.4927 Z1.4900
G1 X16.2548 Y-14.7853 Z1.4900
G1 X16.5281 Y-15.3759 Z1.4900
G2X16.7942Y-15.9854Z1.4900I-12.9022J-5.9946
G2X17.3053Y-17.5899Z1.4900I-9.8260J-4.0139
G2X17.4628Y-18.9632Z1.4900I-6.1220J-1.3979
G2X17.4109Y-19.6707Z1.4900I-4.7113J-0.0096
G1 X17.3791 Y-19.8489 Z1.4900
G1 X17.3386 Y-20.0261 Z1.4900
G1 X17.2894 Y-20.2007 Z1.4900
G1 X17.2317 Y-20.3725 Z1.4900
G1 X17.1658 Y-20.5412 Z1.4900
G1 X17.0919 Y-20.7062 Z1.4900
G1 X17.0105 Y-20.8674 Z1.4900
G1 X16.9216 Y-21.0243 Z1.4900
G1 X16.8257 Y-21.1769 Z1.4900
G1 X16.7229 Y-21.3247 Z1.4900
G1 X16.6137 Y-21.4675 Z1.4900
G1 X16.4983 Y-21.6050 Z1.4900
G2X15.9810Y-22.0995Z1.4900I-3.0915J2.7161
G2X15.3897Y-22.4973Z1.4900I-2.6694J3.3293
G2X14.7483Y-22.7932Z1.4900I-2.2584J4.0532
G2X14.0824Y-22.9939Z1.4900I-1.9312J5.2011
G2X13.0754Y-23.1584Z1.4900I-1.7639J7.6349
G2X12.0725Y-23.2161Z1.4900I-1.1770J11.7028
G1 X11.7454 Y-23.2191 Z1.4900
G1 X11.0986 Y-23.2192 Z1.4900
G1 X9.8010 Y-23.2218 Z1.4900
G2X8.9460Y-23.2032Z1.4900I-0.0482J17.5072
G2X7.7316Y-23.0754Z1.4900I0.4435J10.0414
G2X6.8628Y-22.8617Z1.4900I1.0608J6.1847
G2X6.0256Y-22.4969Z1.4900I1.4704J4.5181
G2X5.5660Y-22.1985Z1.4900I2.0707J3.6934
G1 X5.4247 Y-22.0877 Z1.4900
G1 X5.2907 Y-21.9720 Z1.4900
G1 X5.1644 Y-21.8515 Z1.4900
G1 X5.0460 Y-21.7263 Z1.4900
G1 X4.9371 Y-21.5982 Z1.4900
G1 X4.8325 Y-21.4628 Z1.4900
G1 X4.6915 Y-21.2703 Z1.4900
G1 X4.6729 Y-21.2392 Z1.4900
G1 X4.2562 Y-20.4452 Z1.4900
G1 X4.2412 Y-20.4089 Z1.4900
G1 X4.1024 Y-19.9897 Z1.4900
G2X3.9808Y-19.5190Z1.4900I3.6275J1.1882
G2X3.9357Y-18.9788Z1.4900I2.9284J0.5164
G1 X3.9371 Y-18.8748 Z1.4900
G1 X3.9413 Y-18.7632 Z1.4900
G1 X3.9562 Y-18.5411 Z1.4900
G1 X3.9624 Y-18.4797 Z1.4900
G3X3.7390Y-18.2060Z1.4900I-0.2487J0.0250
G0 Z4.0000
G0 X3.7390 Y-18.2060 
M5
G53 Z
X2Y0
