( MOP:  FrontRoundover-PT125-02-front )
( FILE: G:\Shared drives\AlloyProjectFiles\Customer CAD files\Alloy-Standard-Builds-CAM\t-in\EdgeTreatment\FrontRoundover-PT125-02-front.nc)
G90
(  BEGIN TOOL LIST )
(  TOOL 15 - Roundover PT125 Accusize - DESC: 0.2625 DIA, 2 FLUTE,  CARBIDE MAT )
(  ENDOF TOOL LIST )
( FrontRoundover-PT125-02-front)
( Accusize 1011-0018 Depth .1822 diameter .2625 but added .001 since there was a line in test cuts)
T15
S9000
M3
G0 Z4.0000
G0 X4.3910 Y-17.7766 
G1 X4.3910 Y-17.7766 Z1.9125 F75.
G1 X4.3670 Y-17.8969 Z1.8909 F25.
G1 X4.3363 Y-18.0788 Z1.8583
G1 X4.3109 Y-18.2616 Z1.8258
G1 X4.2911 Y-18.4452 Z1.7932
G1 X4.2770 Y-18.6294 Z1.7607
G1 X4.2688 Y-18.8142 Z1.7280
G1 X4.2671 Y-18.9994 Z1.6954
G1 X4.2722 Y-19.1858 Z1.6625
G17
G3X4.3722Y-19.9180Z1.6625I3.9366J0.1649 F80.
G3X4.7652Y-20.8797Z1.6625I3.3912J0.8244
G3X5.5237Y-21.7880Z1.6625I3.2216J1.9196
G3X6.3842Y-22.3617Z1.6625I2.6378J3.0242
G3X7.2095Y-22.6765Z1.6625I2.0909J4.2429
G3X8.0683Y-22.8537Z1.6625I1.7524J6.3248
G3X8.5014Y-22.9042Z1.6625I1.2664J8.9629
G3X9.3683Y-22.9519Z1.6625I1.0621J11.4114
G1 X9.6571 Y-22.9551 Z1.6625
G1 X10.5172 Y-22.9554 Z1.6625
G1 X11.6619 Y-22.9580 Z1.6625
G3X12.5037Y-22.9400Z1.6625I0.0507J17.2733
G3X13.6829Y-22.8166Z1.6625I-0.4296J9.8050
G3X14.5124Y-22.6139Z1.6625I-1.0136J5.9450
G3X15.3019Y-22.2722Z1.6625I-1.3842J4.2814
G3X15.7329Y-21.9943Z1.6625I-1.9362J3.4753
G1 X15.8645 Y-21.8918 Z1.6625
G1 X15.9888 Y-21.7851 Z1.6625
G1 X16.1056 Y-21.6746 Z1.6625
G1 X16.2147 Y-21.5602 Z1.6625
G1 X16.3160 Y-21.4421 Z1.6625
G1 X16.4191 Y-21.3090 Z1.6625
G1 X16.5560 Y-21.1225 Z1.6625
G1 X16.9729 Y-20.3290 Z1.6625
G1 X17.0606 Y-20.0682 Z1.6625
G3X17.1939Y-19.6233Z1.6625I-5.4771J1.8834
G3X17.2666Y-18.9917Z1.6625I-2.5426J0.6124
G3X17.1825Y-18.0501Z1.6625I-5.9849J-0.0599
G1 X17.1418 Y-17.8337 Z1.6625
G3X16.7342Y-16.4320Z1.6625I-10.1617J-2.1947
G3X16.4196Y-15.6643Z1.6625I-11.0305J-4.0723
G1 X16.3343 Y-15.4761 Z1.6625
G1 X16.1612 Y-15.1034 Z1.6625
G2X15.7464Y-14.1722Z1.6625I23.5512J11.0490
G2X15.5351Y-13.6073Z1.6625I6.9969J2.9393
G2X15.4064Y-13.0368Z1.6625I2.8010J0.9313
G2X15.4460Y-12.2656Z1.6625I2.3510J0.2660
G2X15.5511Y-11.8870Z1.6625I3.4566J-0.7554
G1 X15.6181 Y-11.6979 Z1.6625
G1 X15.6911 Y-11.5100 Z1.6625
G1 X15.9241 Y-10.9426 Z1.6625
G3X16.2027Y-10.1585Z1.6625I-7.5796J3.1349
G1 X16.2575 Y-9.9560 Z1.6625
G3X16.3982Y-8.8061Z1.6625I-4.4630J1.1296
G3X16.3000Y-8.0402Z1.6625I-3.2179J-0.0233
G3X16.1355Y-7.6116Z1.6625I-1.9630J-0.5074
G3X15.8919Y-7.2927Z1.6625I-1.0332J-0.5369
G3X15.0685Y-7.0849Z1.6625I-0.6135J-0.6954
G3X14.7105Y-7.2715Z1.6625I0.2252J-0.8686
G3X14.4551Y-7.5733Z1.6625I0.7601J-0.9022
G1 X14.4037 Y-7.6680 Z1.6625
G3X14.2866Y-7.9686Z1.6625I1.7893J-0.8703
G1 X14.1708 Y-8.3626 Z1.6625
G1 X14.1092 Y-8.5532 Z1.6625
G2X13.9246Y-8.9806Z1.6625I-2.5835J0.8628
G2X13.6676Y-9.3205Z1.6625I-1.2894J0.7077
G2X12.9549Y-9.6982Z1.6625I-1.0167J1.0572
G2X12.6163Y-9.7009Z1.6625I-0.1760J0.8153
G2X12.3168Y-9.5524Z1.6625I0.1725J0.7239
G2X12.0207Y-9.1394Z1.6625I0.5580J0.7128
G2X11.9671Y-8.8509Z1.6625I1.0937J0.3523
G1 X11.9636 Y-7.2963 Z1.6625
G3X11.5773Y-6.9109Z1.6625I-0.3863J-0.0009
G1 X9.8888 Y-6.9109 Z1.6625
G3X9.5025Y-7.2812Z1.6625I-0.0006J-0.3861
G1 X9.5025 Y-7.3094 Z1.6625
G2X9.3904Y-7.5217Z1.6625I-0.2853J0.0148
G2X9.1463Y-7.5704Z1.6625I-0.1720J0.2260
G2X8.9080Y-7.4633Z1.6625I0.2955J0.9759
G1 X8.7818 Y-7.3849 Z1.6625
G3X8.4150Y-7.1522Z1.6625I-4.8171J-7.1875
G3X8.0452Y-6.9705Z1.6625I-1.4211J-2.4246
G1 X7.9130 Y-6.9223 Z1.6625
G3X7.3499Y-6.7983Z1.6625I-0.8836J-2.6718
G1 X7.2038 Y-6.7853 Z1.6625
G1 X7.0565 Y-6.7804 Z1.6625
G3X6.2518Y-6.9306Z1.6625I-0.0287J-2.0771
G3X5.4621Y-7.6051Z1.6625I0.6409J-1.5499
G3X5.2187Y-8.1785Z1.6625I1.8382J-1.1187
G3X5.1248Y-8.9289Z1.6625I2.7937J-0.7308
G3X5.1533Y-9.3955Z1.6625I3.8361J0.0006
G3X5.3012Y-10.1224Z1.6625I4.7421J0.5864
G3X5.5429Y-10.8182Z1.6625I6.9915J2.0387
G1 X5.6105 Y-10.9872 Z1.6625
G1 X5.7465 Y-11.3216 Z1.6625
G1 X5.8790 Y-11.6544 Z1.6625
G2X6.0199Y-12.0680Z1.6625I-4.5761J-1.7902
G2X6.1133Y-13.0003Z1.6625I-2.4808J-0.7192
G2X5.9698Y-13.6707Z1.6625I-2.8974J0.2697
G2X5.7079Y-14.3298Z1.6625I-7.2759J2.5091
G1 X5.5596 Y-14.6586 Z1.6625
G1 X5.1064 Y-15.6421 Z1.6625
G3X4.4437Y-17.5371Z1.6625I9.8171J-4.4964
G3X4.2688Y-18.8142Z1.6625I6.0066J-1.4733
G1 X4.2671 Y-18.9994 Z1.6625
G1 X4.2722 Y-19.1858 Z1.6625
G3X4.3249Y-19.6827Z1.6625I3.8823J0.1606
G2X4.1209Y-19.9721Z1.6625I-0.2463J-0.0430
G0 Z2.0650
G0 X4.1209 Y-19.9721 
G0 Z2.0650
G0 X4.3910 Y-17.7766 
G1 X4.3910 Y-17.7766 Z1.8150 F75.
G1 X4.3670 Y-17.8969 Z1.7934 F25.
G1 X4.3363 Y-18.0788 Z1.7608
G1 X4.3109 Y-18.2616 Z1.7283
G1 X4.2911 Y-18.4452 Z1.6957
G1 X4.2770 Y-18.6294 Z1.6632
G1 X4.2688 Y-18.8142 Z1.6305
G1 X4.2671 Y-18.9994 Z1.5979
G1 X4.2722 Y-19.1858 Z1.5650
G3X4.3722Y-19.9180Z1.5650I3.9366J0.1649 F80.
G3X4.7652Y-20.8797Z1.5650I3.3912J0.8244
G3X5.5237Y-21.7880Z1.5650I3.2216J1.9196
G3X6.3842Y-22.3617Z1.5650I2.6378J3.0242
G3X7.2095Y-22.6765Z1.5650I2.0909J4.2429
G3X8.0683Y-22.8537Z1.5650I1.7524J6.3248
G3X8.5014Y-22.9042Z1.5650I1.2664J8.9629
G3X9.3683Y-22.9519Z1.5650I1.0621J11.4114
G1 X9.6571 Y-22.9551 Z1.5650
G1 X10.5172 Y-22.9554 Z1.5650
G1 X11.6619 Y-22.9580 Z1.5650
G3X12.5037Y-22.9400Z1.5650I0.0507J17.2733
G3X13.6829Y-22.8166Z1.5650I-0.4296J9.8050
G3X14.5124Y-22.6139Z1.5650I-1.0136J5.9450
G3X15.3019Y-22.2722Z1.5650I-1.3842J4.2814
G3X15.7329Y-21.9943Z1.5650I-1.9362J3.4753
G1 X15.8645 Y-21.8918 Z1.5650
G1 X15.9888 Y-21.7851 Z1.5650
G1 X16.1056 Y-21.6746 Z1.5650
G1 X16.2147 Y-21.5602 Z1.5650
G1 X16.3160 Y-21.4421 Z1.5650
G1 X16.4191 Y-21.3090 Z1.5650
G1 X16.5560 Y-21.1225 Z1.5650
G1 X16.9729 Y-20.3290 Z1.5650
G1 X17.0606 Y-20.0682 Z1.5650
G3X17.1939Y-19.6233Z1.5650I-5.4771J1.8834
G3X17.2666Y-18.9917Z1.5650I-2.5426J0.6124
G3X17.1825Y-18.0501Z1.5650I-5.9849J-0.0599
G1 X17.1418 Y-17.8337 Z1.5650
G3X16.7342Y-16.4320Z1.5650I-10.1617J-2.1947
G3X16.4196Y-15.6643Z1.5650I-11.0305J-4.0723
G1 X16.3343 Y-15.4761 Z1.5650
G1 X16.1612 Y-15.1034 Z1.5650
G2X15.7464Y-14.1722Z1.5650I23.5512J11.0490
G2X15.5351Y-13.6073Z1.5650I6.9969J2.9393
G2X15.4064Y-13.0368Z1.5650I2.8010J0.9313
G2X15.4460Y-12.2656Z1.5650I2.3510J0.2660
G2X15.5511Y-11.8870Z1.5650I3.4566J-0.7554
G1 X15.6181 Y-11.6979 Z1.5650
G1 X15.6911 Y-11.5100 Z1.5650
G1 X15.9241 Y-10.9426 Z1.5650
G3X16.2027Y-10.1585Z1.5650I-7.5796J3.1349
G1 X16.2575 Y-9.9560 Z1.5650
G3X16.3982Y-8.8061Z1.5650I-4.4630J1.1296
G3X16.3000Y-8.0402Z1.5650I-3.2179J-0.0233
G3X16.1355Y-7.6116Z1.5650I-1.9630J-0.5074
G3X15.8919Y-7.2927Z1.5650I-1.0332J-0.5369
G3X15.0685Y-7.0849Z1.5650I-0.6135J-0.6954
G3X14.7105Y-7.2715Z1.5650I0.2252J-0.8686
G3X14.4551Y-7.5733Z1.5650I0.7601J-0.9022
G1 X14.4037 Y-7.6680 Z1.5650
G3X14.2866Y-7.9686Z1.5650I1.7893J-0.8703
G1 X14.1708 Y-8.3626 Z1.5650
G1 X14.1092 Y-8.5532 Z1.5650
G2X13.9246Y-8.9806Z1.5650I-2.5835J0.8628
G2X13.6676Y-9.3205Z1.5650I-1.2894J0.7077
G2X12.9549Y-9.6982Z1.5650I-1.0167J1.0572
G2X12.6163Y-9.7009Z1.5650I-0.1760J0.8153
G2X12.3168Y-9.5524Z1.5650I0.1725J0.7239
G2X12.0207Y-9.1394Z1.5650I0.5580J0.7128
G2X11.9671Y-8.8509Z1.5650I1.0937J0.3523
G1 X11.9636 Y-7.2963 Z1.5650
G3X11.5773Y-6.9109Z1.5650I-0.3863J-0.0009
G1 X9.8888 Y-6.9109 Z1.5650
G3X9.5025Y-7.2812Z1.5650I-0.0006J-0.3861
G1 X9.5025 Y-7.3094 Z1.5650
G2X9.3904Y-7.5217Z1.5650I-0.2853J0.0148
G2X9.1463Y-7.5704Z1.5650I-0.1720J0.2260
G2X8.9080Y-7.4633Z1.5650I0.2955J0.9759
G1 X8.7818 Y-7.3849 Z1.5650
G3X8.4150Y-7.1522Z1.5650I-4.8171J-7.1875
G3X8.0452Y-6.9705Z1.5650I-1.4211J-2.4246
G1 X7.9130 Y-6.9223 Z1.5650
G3X7.3499Y-6.7983Z1.5650I-0.8836J-2.6718
G1 X7.2038 Y-6.7853 Z1.5650
G1 X7.0565 Y-6.7804 Z1.5650
G3X6.2518Y-6.9306Z1.5650I-0.0287J-2.0771
G3X5.4621Y-7.6051Z1.5650I0.6409J-1.5499
G3X5.2187Y-8.1785Z1.5650I1.8382J-1.1187
G3X5.1248Y-8.9289Z1.5650I2.7937J-0.7308
G3X5.1533Y-9.3955Z1.5650I3.8361J0.0006
G3X5.3012Y-10.1224Z1.5650I4.7421J0.5864
G3X5.5429Y-10.8182Z1.5650I6.9915J2.0387
G1 X5.6105 Y-10.9872 Z1.5650
G1 X5.7465 Y-11.3216 Z1.5650
G1 X5.8790 Y-11.6544 Z1.5650
G2X6.0199Y-12.0680Z1.5650I-4.5761J-1.7902
G2X6.1133Y-13.0003Z1.5650I-2.4808J-0.7192
G2X5.9698Y-13.6707Z1.5650I-2.8974J0.2697
G2X5.7079Y-14.3298Z1.5650I-7.2759J2.5091
G1 X5.5596 Y-14.6586 Z1.5650
G1 X5.1064 Y-15.6421 Z1.5650
G3X4.4437Y-17.5371Z1.5650I9.8171J-4.4964
G3X4.2688Y-18.8142Z1.5650I6.0066J-1.4733
G1 X4.2671 Y-18.9994 Z1.5650
G1 X4.2722 Y-19.1858 Z1.5650
G3X4.3249Y-19.6827Z1.5650I3.8823J0.1606
G2X4.1209Y-19.9721Z1.5650I-0.2463J-0.0430
G0 Z4.0000
G0 X4.1209 Y-19.9721 
M5
G53 Z
X2Y0
