( MOP:  body-blank-t-style-neck-front-01 )
( FILE: G:\Shared drives\AlloyProjectFiles\Customer CAD files\Alloy-Standard-Builds-CAM\t-in\NeckPocket\body-blank-t-style-neck-front-01.nc)
G90
(  BEGIN TOOL LIST )
(  TOOL 3 - Downcut PT750 - DESC: 0.7500 DIA, 2 FLUTE,  CARBIDE MAT )
(  ENDOF TOOL LIST )
( body-blank-t-style-neck-front-01)
T03
S14000
M3
G0 Z4.0000
G0 X10.6161 Y-7.2557 
G1 X10.6161 Y-7.2557 Z1.8225 F75.
G1 X10.6161 Y-7.2557 Z1.7975 F50.
G1 X10.5922 Y-9.0992 Z1.4724
G1 X10.7334 Y-9.0992 Z1.4475
G1 X10.8747 Y-9.0992 Z1.4475 F150.
G1 X10.8238 Y-4.7603 Z1.4475
G1 X10.6484 Y-4.7603 Z1.4475
G1 X10.5922 Y-9.0992 Z1.4475
G1 X10.7334 Y-9.0992 Z1.4475
G1 X10.7334 Y-9.3617 Z1.4475
G1 X11.1403 Y-9.3617 Z1.4475
G1 X11.0833 Y-4.4978 Z1.4475
G1 X10.3893 Y-4.4978 Z1.4475
G1 X10.3262 Y-9.3617 Z1.4475
G1 X10.7334 Y-9.3617 Z1.4475
G1 X10.7334 Y-9.6242 Z1.4475
G1 X11.4059 Y-9.6242 Z1.4475
G1 X11.3427 Y-4.2353 Z1.4475
G1 X10.7367 Y-4.2353 Z1.4475
G1 X10.1302 Y-4.2353 Z1.4475
G1 X10.0603 Y-9.6242 Z1.4475
G1 X10.7334 Y-9.6242 Z1.4475
G0 Z1.7600
G0 X10.7334 Y-9.6242 
G0 Z1.7600
G0 X10.6161 Y-7.2557 
G1 X10.6161 Y-7.2557 Z1.5100 F75.
G1 X10.6161 Y-7.2557 Z1.4850 F50.
G1 X10.5922 Y-9.0992 Z1.1599
G1 X10.7334 Y-9.0992 Z1.1350
G1 X10.8747 Y-9.0992 Z1.1350 F150.
G1 X10.8238 Y-4.7603 Z1.1350
G1 X10.6484 Y-4.7603 Z1.1350
G1 X10.5922 Y-9.0992 Z1.1350
G1 X10.7334 Y-9.0992 Z1.1350
G1 X10.7334 Y-9.3617 Z1.1350
G1 X11.1403 Y-9.3617 Z1.1350
G1 X11.0833 Y-4.4978 Z1.1350
G1 X10.3893 Y-4.4978 Z1.1350
G1 X10.3262 Y-9.3617 Z1.1350
G1 X10.7334 Y-9.3617 Z1.1350
G1 X10.7334 Y-9.6242 Z1.1350
G1 X11.4059 Y-9.6242 Z1.1350
G1 X11.3427 Y-4.2353 Z1.1350
G1 X10.7367 Y-4.2353 Z1.1350
G1 X10.1302 Y-4.2353 Z1.1350
G1 X10.0603 Y-9.6242 Z1.1350
G1 X10.7334 Y-9.6242 Z1.1350
G0 Z4.0000
G0 X10.7334 Y-9.6242 
M5
G53 Z
X2Y0
