( MOP:  body-blank-s-style-neck-front-02 )
( FILE: G:\Shared drives\AlloyProjectFiles\Customer CAD files\Alloy-Standard-Builds-CAM\t-in\NeckPocket\body-blank-s-style-neck-front-02.nc)
G90
(  BEGIN TOOL LIST )
(  TOOL 5 - Downcut PT375 - DESC: 0.3750 DIA, 2 FLUTE,  CARBIDE MAT )
(  ENDOF TOOL LIST )
( body-blank-s-style-neck-front-02)
( Max Depth 1.75)
T05
S12000
M3
G0 Z4.0000
G0 X11.2987 Y-7.0216 
G1 X11.2987 Y-7.0216 Z1.1350 F75.
G17
G3X11.5457Y-6.7687Z1.1350I-0.0030J0.2500 F25.
G1 X11.5138 Y-4.0614 Z1.1350 F60.
G1 X9.9532 Y-4.0614 Z1.1350
G1 X9.8855 Y-9.7204 Z1.1350
G3X11.5805Y-9.7204Z1.1350I0.8475J4.6712
G1 X11.5457 Y-6.7687 Z1.1350
G1 X11.5957 Y-6.7681 Z1.1350
G1 X11.5633 Y-4.0114 Z1.1350
G1 X9.9038 Y-4.0114 Z1.1350
G1 X9.8355 Y-9.7228 Z1.1350
G3X9.8745Y-9.7693Z1.1350I0.0475J0.0003
G3X11.5915Y-9.7693Z1.1350I0.8585J4.7201
G3X11.6305Y-9.7232Z1.1350I-0.0085J0.0468
G1 X11.5957 Y-6.7681 Z1.1350
G1 X11.5898 Y-6.2681 Z1.1350
G3X11.3369Y-6.0211Z1.1350I-0.2500J-0.0030 F75.
G0 Z4.0000
G0 X11.3369 Y-6.0211 
M5
G53 Z
X2Y0
