( MOP:  body-blank-t-style-neck-front-02 )
( FILE: G:\Shared drives\AlloyProjectFiles\Customer CAD files\Alloy-Standard-Builds-CAM\t-in\NeckPocket\body-blank-t-style-neck-front-02.nc)
G90
(  BEGIN TOOL LIST )
(  TOOL 5 - Downcut PT375 - DESC: 0.3750 DIA, 2 FLUTE,  CARBIDE MAT )
(  ENDOF TOOL LIST )
( body-blank-t-style-neck-front-02)
( Max Depth 1.75)
T05
S12000
M3
G0 Z4.0000
G0 X10.9867 Y-4.3128 
G1 X10.9867 Y-4.3128 Z1.1350 F75.
G17
G3X10.7367Y-4.0628Z1.1350I-0.2500J0.0000 F25.
G1 X9.9599 Y-4.0628 Z1.1350 F60.
G1 X9.8855 Y-9.7967 Z1.1350
G1 X11.5804 Y-9.7967 Z1.1350
G1 X11.5132 Y-4.0628 Z1.1350
G1 X10.7367 Y-4.0628 Z1.1350
G1 X10.7367 Y-4.0128 Z1.1350
G1 X9.9106 Y-4.0128 Z1.1350
G1 X9.8355 Y-9.7998 Z1.1350
G3X9.8636Y-9.8426Z1.1350I0.0474J0.0006
G1 X9.8636 Y-9.8426 Z1.1350
G3X9.8830Y-9.8467Z1.1350I0.0194J0.0435
G1 X11.5830 Y-9.8467 Z1.1350
G3X11.6133Y-9.8358Z1.1350I0.0000J0.0475
G1 X11.6133 Y-9.8358 Z1.1350
G3X11.6305Y-9.8000Z1.1350I-0.0302J0.0366
G1 X11.5626 Y-4.0128 Z1.1350
G1 X10.7367 Y-4.0128 Z1.1350
G1 X10.2367 Y-4.0128 Z1.1350
G3X9.9867Y-4.2628Z1.1350I0.0000J-0.2500
G0 Z4.0000
G0 X9.9867 Y-4.2628 
M5
G53 Z
X2Y0
