( MOP:  body-blank-s-style-neck-front-01 )
( FILE: G:\Shared drives\AlloyProjectFiles\Customer CAD files\Alloy-Standard-Builds-CAM\t-in\NeckPocket\body-blank-s-style-neck-front-01.nc)
G90
(  BEGIN TOOL LIST )
(  TOOL 3 - Downcut PT750 - DESC: 0.7500 DIA, 2 FLUTE,  CARBIDE MAT )
(  ENDOF TOOL LIST )
( body-blank-s-style-neck-front-01)
T03
S14000
M3
G0 Z4.0000
G0 X10.8421 Y-6.9017 
G1 X10.8421 Y-6.9017 Z1.8225 F75.
G1 X10.8421 Y-6.9017 Z1.7975 F50.
G1 X10.7330 Y-6.5428 Z1.7314
G1 X10.8500 Y-6.9278 Z1.6604
G1 X10.7330 Y-6.5428 Z1.5894
G1 X10.8500 Y-6.9278 Z1.5185
G1 X10.7330 Y-6.5428 Z1.4475
G1 X10.8500 Y-6.9278 Z1.4475 F150.
G1 X10.8245 Y-4.7589 Z1.4475
G1 X10.6424 Y-4.7589 Z1.4475
G1 X10.5905 Y-9.0967 Z1.4475
G17
G3X10.8756Y-9.0967Z1.4475I0.1425J4.0475
G1 X10.8500 Y-6.9278 Z1.4475
G1 X11.1125 Y-6.9247 Z1.4475
G1 X11.0839 Y-4.4964 Z1.4475
G1 X10.3830 Y-4.4964 Z1.4475
G1 X10.3251 Y-9.3424 Z1.4475
G3X11.1410Y-9.3424Z1.4475I0.4079J4.2932
G1 X11.1125 Y-6.9247 Z1.4475
G1 X11.3750 Y-6.9216 Z1.4475
G1 X11.3434 Y-4.2339 Z1.4475
G1 X10.1236 Y-4.2339 Z1.4475
G1 X10.0598 Y-9.5744 Z1.4475
G3X11.4062Y-9.5744Z1.4475I0.6732J4.5252
G1 X11.3750 Y-6.9216 Z1.4475
G1 X11.2500 Y-6.9231 Z1.4810
G1 X11.1585 Y-6.9242 Z1.5725
G1 X11.1250 Y-6.9246 Z1.6975
G0 Z1.6975
G0 X10.8421 Y-6.9017 
G1 X10.8421 Y-6.9017 Z1.5100 F75.
G1 X10.8421 Y-6.9017 Z1.4850 F50.
G1 X10.7330 Y-6.5428 Z1.4189
G1 X10.8500 Y-6.9278 Z1.3479
G1 X10.7330 Y-6.5428 Z1.2769
G1 X10.8500 Y-6.9278 Z1.2060
G1 X10.7330 Y-6.5428 Z1.1350
G1 X10.8500 Y-6.9278 Z1.1350 F150.
G1 X10.8245 Y-4.7589 Z1.1350
G1 X10.6424 Y-4.7589 Z1.1350
G1 X10.5905 Y-9.0967 Z1.1350
G3X10.8756Y-9.0967Z1.1350I0.1425J4.0475
G1 X10.8500 Y-6.9278 Z1.1350
G1 X11.1125 Y-6.9247 Z1.1350
G1 X11.0839 Y-4.4964 Z1.1350
G1 X10.3830 Y-4.4964 Z1.1350
G1 X10.3251 Y-9.3424 Z1.1350
G3X11.1410Y-9.3424Z1.1350I0.4079J4.2932
G1 X11.1125 Y-6.9247 Z1.1350
G1 X11.3750 Y-6.9216 Z1.1350
G1 X11.3434 Y-4.2339 Z1.1350
G1 X10.1236 Y-4.2339 Z1.1350
G1 X10.0598 Y-9.5744 Z1.1350
G3X11.4062Y-9.5744Z1.1350I0.6732J4.5252
G1 X11.3750 Y-6.9216 Z1.1350
G1 X11.2500 Y-6.9231 Z1.1685
G1 X11.1585 Y-6.9242 Z1.2600
G1 X11.1250 Y-6.9246 Z1.3850
G0 Z4.0000
G0 X11.1250 Y-6.9246 
M5
G53 Z
X2Y0
