( MOP:  body-blank-s-style-neck-front-03 )
( FILE: G:\Shared drives\AlloyProjectFiles\Customer CAD files\Alloy-Standard-Builds-CAM\t-in\NeckPocket\body-blank-s-style-neck-front-03.nc)
G90
(  BEGIN TOOL LIST )
(  TOOL 5 - Downcut PT375 - DESC: 0.3750 DIA, 2 FLUTE,  CARBIDE MAT )
(  ENDOF TOOL LIST )
( body-blank-s-style-neck-front-03)
( Max Depth 1.75)
T05
S12000
M3
G0 Z4.0000
G0 X11.3628 Y-6.5208 
G1 X11.3628 Y-6.5208 Z1.1350 F75.
G17
G2X11.6157Y-6.7679Z1.1350I0.0029J-0.2500 F25.
G1 X11.6505 Y-9.7233 Z1.1350 F60.
G2X11.5951Y-9.7889Z1.1350I-0.0675J0.0008
G2X9.8709Y-9.7889Z1.1350I-0.8621J4.7397
G2X9.8155Y-9.7227Z1.1350I0.0121J0.0664
G1 X9.8840 Y-3.9914 Z1.1350
G1 X11.5830 Y-3.9914 Z1.1350
G1 X11.6157 Y-6.7679 Z1.1350
G1 X11.6186 Y-7.0179 Z1.1350
G2X11.3716Y-7.2708Z1.1350I-0.2499J-0.0029
G0 Z4.0000
G0 X11.3716 Y-7.2708 
M5
G53 Z
X2Y0
