( MOP:  body-blank-t-style-neck-front-03 )
( FILE: G:\Shared drives\AlloyProjectFiles\Customer CAD files\Alloy-Standard-Builds-CAM\t-in\NeckPocket\body-blank-t-style-neck-front-03.nc)
G90
(  BEGIN TOOL LIST )
(  TOOL 5 - Downcut PT375 - DESC: 0.3750 DIA, 2 FLUTE,  CARBIDE MAT )
(  ENDOF TOOL LIST )
( body-blank-t-style-neck-front-03)
( Max Depth 1.75)
T05
S12000
M3
G0 Z4.0000
G0 X10.4867 Y-4.2428 
G1 X10.4867 Y-4.2428 Z1.1350 F75.
G17
G2X10.7367Y-3.9928Z1.1350I0.2500J0.0000 F25.
G1 X11.5824 Y-3.9928 Z1.1350 F60.
G1 X11.6505 Y-9.8000 Z1.1350
G2X11.6261Y-9.8512Z1.1350I-0.0674J0.0008
G1 X11.6261 Y-9.8512 Z1.1350
G2X11.5830Y-9.8667Z1.1350I-0.0431J0.0520
G1 X9.8830 Y-9.8667 Z1.1350
G2X9.8555Y-9.8608Z1.1350I0.0000J0.0676
G1 X9.8555 Y-9.8608 Z1.1350
G2X9.8155Y-9.7998Z1.1350I0.0274J0.0616
G1 X9.8908 Y-3.9928 Z1.1350
G1 X10.7367 Y-3.9928 Z1.1350
G1 X10.9867 Y-3.9928 Z1.1350
G2X11.2367Y-4.2428Z1.1350I0.0000J-0.2500
G0 Z4.0000
G0 X11.2367 Y-4.2428 
M5
G53 Z
X2Y0
