( MOP:  NeckPilotHoles-back )
( FILE: G:\Shared drives\AlloyProjectFiles\Customer CAD files\Alloy-Standard-Builds-CAM\t-in\NeckPocket\NeckPilotHoles-back.nc)
G90
(  BEGIN TOOL LIST )
(  TOOL 9 - Drill PT1575 4mm - DESC: 0.1570 DIA, 2 FLUTE,  CARBIDE MAT )
(  ENDOF TOOL LIST )
( NeckPilotHoles-back)
T09
S6000
M3
G0 Z4.0000
G0 X9.9830 Y-7.4226 
G0 Z1.9500
G81 X9.9830 Y-7.4226 Z0.5500 R1.9500 F40.0
G80
G0 Z2.0000
G0 X11.4830 Y-7.4226 
G0 Z1.9500
G81 X11.4830 Y-7.4226 Z0.5500 R1.9500 F40.0
G80
G0 Z2.0000
G0 X11.4830 Y-9.4226 
G0 Z1.9500
G81 X11.4830 Y-9.4226 Z0.5500 R1.9500 F40.0
G80
G0 Z2.0000
G0 X9.9830 Y-9.4226 
G0 Z1.9500
G81 X9.9830 Y-9.4226 Z0.5500 R1.9500 F40.0
G80
G0 Z4.0000
G0 X9.9830 Y-9.4226 
M5
G53 Z
X2Y0
