( MOP:  S-style-Neck-front-03 )
( FILE: G:\Shared drives\AlloyProjectFiles\Customer CAD files\Alloy-Standard-Builds-CAM\t-in\NeckPocket\S-style-Neck-front-03.nc)
G90
(  BEGIN TOOL LIST )
(  TOOL 5 - Downcut PT375 - DESC: 0.3750 DIA, 2 FLUTE,  CARBIDE MAT )
(  ENDOF TOOL LIST )
( S-style-Neck-front-03)
( Max Depth 1.75)
T05
S12000
M3
G0 Z4.0000
G0 X10.5985 Y-6.4817 
G1 X10.5985 Y-6.4817 Z1.1350 F75.
G17
G2X10.8485Y-6.2317Z1.1350I0.2500J0.0000 F25.
G1 X12.3896 Y-6.2317 Z1.1350 F80.
G1 X12.3896 Y-8.6119 Z1.1350
G1 X11.8221 Y-8.6119 Z1.1350
G3X11.6396Y-8.7965Z1.1350I0.0000J-0.1825
G1 X11.6505 Y-9.7233 Z1.1350
G2X11.5951Y-9.7889Z1.1350I-0.0675J0.0008
G2X9.8709Y-9.7889Z1.1350I-0.8621J4.7397
G2X9.8155Y-9.7227Z1.1350I0.0121J0.0664
G1 X9.8445 Y-7.2949 Z1.1350
G3X9.6620Y-7.1103Z1.1350I-0.1825J0.0021
G1 X9.3075 Y-7.1103 Z1.1350
G1 X9.3075 Y-6.2317 Z1.1350
G1 X10.8485 Y-6.2317 Z1.1350
G1 X11.0985 Y-6.2317 Z1.1350
G2X11.3485Y-6.4817Z1.1350I0.0000J-0.2500 F75.
G0 Z4.0000
G0 X11.3485 Y-6.4817 
M5
G53 Z
X2Y0
