( MOP:  S-style-Neck-front-01 )
( FILE: G:\Shared drives\AlloyProjectFiles\Customer CAD files\Alloy-Standard-Builds-CAM\t-in\NeckPocket\S-style-Neck-front-01.nc)
G90
(  BEGIN TOOL LIST )
(  TOOL 3 - Downcut PT750 - DESC: 0.7500 DIA, 2 FLUTE,  CARBIDE MAT )
(  ENDOF TOOL LIST )
( S-style-Neck-front-01)
T03
S14000
M3
G0 Z4.0000
G0 X10.9779 Y-7.0864 
G1 X10.9779 Y-7.0864 Z1.7975 F75.
G1 X11.2630 Y-7.7195 Z1.6751 F50.
G1 X10.7330 Y-6.5428 Z1.4475
G1 X11.2630 Y-7.7195 Z1.4475 F150.
G1 X11.2836 Y-7.7084 Z1.4475
G1 X11.3250 Y-7.6891 Z1.4475
G1 X11.3596 Y-7.6750 Z1.4475
G1 X11.3596 Y-7.2617 Z1.4475
G1 X10.8731 Y-7.2617 Z1.4475
G1 X10.8744 Y-7.3072 Z1.4475
G1 X10.8656 Y-8.0499 Z1.4475
G1 X10.8921 Y-8.0173 Z1.4475
G1 X10.9204 Y-7.9861 Z1.4475
G1 X11.0187 Y-7.8876 Z1.4475
G1 X11.0539 Y-7.8567 Z1.4475
G1 X11.0899 Y-7.8286 Z1.4475
G1 X11.1245 Y-7.8045 Z1.4475
G1 X11.2424 Y-7.7306 Z1.4475
G1 X11.2630 Y-7.7195 Z1.4475
G1 X11.3897 Y-7.9491 Z1.4475
G1 X11.3965 Y-7.9454 Z1.4475
G1 X11.4251 Y-7.9318 Z1.4475
G1 X11.4511 Y-7.9211 Z1.4475
G1 X11.5677 Y-7.8802 Z1.4475
G1 X11.5977 Y-7.8716 Z1.4475
G1 X11.6221 Y-7.8662 Z1.4475
G1 X11.6221 Y-6.9992 Z1.4475
G1 X10.5623 Y-6.9992 Z1.4475
G1 X10.5792 Y-7.0492 Z1.4475
G1 X10.5874 Y-7.0793 Z1.4475
G1 X10.5939 Y-7.1103 Z1.4475
G1 X10.5981 Y-7.1370 Z1.4475
G1 X10.6104 Y-7.2596 Z1.4475
G1 X10.6120 Y-7.3041 Z1.4475
G1 X10.5905 Y-9.0973 Z1.4475
G1 X10.6563 Y-9.0994 Z1.4475
G1 X10.7586 Y-9.1000 Z1.4475
G1 X10.8756 Y-9.0974 Z1.4475
G1 X10.8724 Y-8.7907 Z1.4475
G1 X10.8749 Y-8.7452 Z1.4475
G1 X10.8867 Y-8.6341 Z1.4475
G1 X10.8917 Y-8.6040 Z1.4475
G1 X10.8986 Y-8.5732 Z1.4475
G1 X10.9063 Y-8.5461 Z1.4475
G1 X10.9462 Y-8.4292 Z1.4475
G1 X10.9580 Y-8.4003 Z1.4475
G1 X10.9717 Y-8.3718 Z1.4475
G1 X10.9852 Y-8.3471 Z1.4475
G1 X11.0504 Y-8.2421 Z1.4475
G1 X11.0683 Y-8.2166 Z1.4475
G1 X11.0881 Y-8.1919 Z1.4475
G1 X11.1068 Y-8.1709 Z1.4475
G1 X11.1938 Y-8.0832 Z1.4475
G1 X11.2170 Y-8.0624 Z1.4475
G1 X11.2418 Y-8.0427 Z1.4475
G1 X11.2648 Y-8.0264 Z1.4475
G1 X11.3692 Y-7.9604 Z1.4475
G1 X11.3897 Y-7.9491 Z1.4475
G1 X11.5094 Y-8.1824 Z1.4475
G1 X11.5380 Y-8.1688 Z1.4475
G1 X11.6546 Y-8.1279 Z1.4475
G1 X11.6855 Y-8.1210 Z1.4475
G1 X11.7925 Y-8.1086 Z1.4475
G1 X11.8221 Y-8.1069 Z1.4475
G1 X11.8846 Y-8.1069 Z1.4475
G1 X11.8846 Y-6.7367 Z1.4475
G1 X10.0638 Y-6.7367 Z1.4475
G1 X10.0888 Y-6.7538 Z1.4475
G1 X10.1126 Y-6.7745 Z1.4475
G1 X10.1936 Y-6.8571 Z1.4475
G1 X10.2130 Y-6.8821 Z1.4475
G1 X10.2777 Y-6.9874 Z1.4475
G1 X10.2910 Y-7.0161 Z1.4475
G1 X10.3305 Y-7.1332 Z1.4475
G1 X10.3370 Y-7.1642 Z1.4475
G1 X10.3482 Y-7.2713 Z1.4475
G1 X10.3495 Y-7.3010 Z1.4475
G1 X10.3251 Y-9.3433 Z1.4475
G1 X10.4337 Y-9.3522 Z1.4475
G1 X10.5424 Y-9.3584 Z1.4475
G1 X10.6513 Y-9.3619 Z1.4475
G1 X10.7603 Y-9.3625 Z1.4475
G1 X10.8692 Y-9.3605 Z1.4475
G1 X10.9780 Y-9.3557 Z1.4475
G1 X11.0867 Y-9.3481 Z1.4475
G1 X11.1410 Y-9.3433 Z1.4475
G1 X11.1346 Y-8.8025 Z1.4475
G1 X11.1360 Y-8.7728 Z1.4475
G1 X11.1477 Y-8.6618 Z1.4475
G1 X11.1547 Y-8.6309 Z1.4475
G1 X11.1946 Y-8.5140 Z1.4475
G1 X11.2083 Y-8.4855 Z1.4475
G1 X11.2734 Y-8.3805 Z1.4475
G1 X11.2932 Y-8.3558 Z1.4475
G1 X11.3802 Y-8.2680 Z1.4475
G1 X11.4050 Y-8.2484 Z1.4475
G1 X11.5094 Y-8.1824 Z1.4475
G1 X11.6364 Y-8.4121 Z1.4475
G1 X11.7268 Y-8.3802 Z1.4475
G1 X11.8221 Y-8.3694 Z1.4475
G1 X12.1471 Y-8.3694 Z1.4475
G1 X12.1471 Y-6.4742 Z1.4475
G1 X9.5500 Y-6.4742 Z1.4475
G1 X9.5500 Y-6.8678 Z1.4475
G1 X9.6620 Y-6.8678 Z1.4475
G1 X9.7573 Y-6.8786 Z1.4475
G1 X9.8477 Y-6.9105 Z1.4475
G1 X9.9287 Y-6.9618 Z1.4475
G1 X9.9961 Y-7.0300 Z1.4475
G1 X10.0465 Y-7.1116 Z1.4475
G1 X10.0773 Y-7.2024 Z1.4475
G1 X10.0870 Y-7.2978 Z1.4475
G1 X10.0598 Y-9.5744 Z1.4475
G17
G3X11.4062Y-9.5744Z1.4475I0.6732J4.5252
G1 X11.3971 Y-8.7994 Z1.4475
G1 X11.4068 Y-8.7040 Z1.4475
G1 X11.4376 Y-8.6132 Z1.4475
G1 X11.4880 Y-8.5317 Z1.4475
G1 X11.5554 Y-8.4635 Z1.4475
G1 X11.6364 Y-8.4121 Z1.4475
G1 X11.5695 Y-8.3065 Z1.4810
G1 X11.5204 Y-8.2293 Z1.5725
G1 X11.5025 Y-8.2010 Z1.6975
G0 Z1.9475
G0 X11.5025 Y-8.2010 
G0 Z1.9475
G0 X10.9779 Y-7.0864 
G1 X10.9779 Y-7.0864 Z1.4850 F75.
G1 X11.2630 Y-7.7195 Z1.3626 F50.
G1 X10.7330 Y-6.5428 Z1.1350
G1 X11.2630 Y-7.7195 Z1.1350 F150.
G1 X11.2836 Y-7.7084 Z1.1350
G1 X11.3250 Y-7.6891 Z1.1350
G1 X11.3596 Y-7.6750 Z1.1350
G1 X11.3596 Y-7.2617 Z1.1350
G1 X10.8731 Y-7.2617 Z1.1350
G1 X10.8744 Y-7.3072 Z1.1350
G1 X10.8656 Y-8.0499 Z1.1350
G1 X10.8921 Y-8.0173 Z1.1350
G1 X10.9204 Y-7.9861 Z1.1350
G1 X11.0187 Y-7.8876 Z1.1350
G1 X11.0539 Y-7.8567 Z1.1350
G1 X11.0899 Y-7.8286 Z1.1350
G1 X11.1245 Y-7.8045 Z1.1350
G1 X11.2424 Y-7.7306 Z1.1350
G1 X11.2630 Y-7.7195 Z1.1350
G1 X11.3897 Y-7.9491 Z1.1350
G1 X11.3965 Y-7.9454 Z1.1350
G1 X11.4251 Y-7.9318 Z1.1350
G1 X11.4511 Y-7.9211 Z1.1350
G1 X11.5677 Y-7.8802 Z1.1350
G1 X11.5977 Y-7.8716 Z1.1350
G1 X11.6221 Y-7.8662 Z1.1350
G1 X11.6221 Y-6.9992 Z1.1350
G1 X10.5623 Y-6.9992 Z1.1350
G1 X10.5792 Y-7.0492 Z1.1350
G1 X10.5874 Y-7.0793 Z1.1350
G1 X10.5939 Y-7.1103 Z1.1350
G1 X10.5981 Y-7.1370 Z1.1350
G1 X10.6104 Y-7.2596 Z1.1350
G1 X10.6120 Y-7.3041 Z1.1350
G1 X10.5905 Y-9.0973 Z1.1350
G1 X10.6563 Y-9.0994 Z1.1350
G1 X10.7586 Y-9.1000 Z1.1350
G1 X10.8756 Y-9.0974 Z1.1350
G1 X10.8724 Y-8.7907 Z1.1350
G1 X10.8749 Y-8.7452 Z1.1350
G1 X10.8867 Y-8.6341 Z1.1350
G1 X10.8917 Y-8.6040 Z1.1350
G1 X10.8986 Y-8.5732 Z1.1350
G1 X10.9063 Y-8.5461 Z1.1350
G1 X10.9462 Y-8.4292 Z1.1350
G1 X10.9580 Y-8.4003 Z1.1350
G1 X10.9717 Y-8.3718 Z1.1350
G1 X10.9852 Y-8.3471 Z1.1350
G1 X11.0504 Y-8.2421 Z1.1350
G1 X11.0683 Y-8.2166 Z1.1350
G1 X11.0881 Y-8.1919 Z1.1350
G1 X11.1068 Y-8.1709 Z1.1350
G1 X11.1938 Y-8.0832 Z1.1350
G1 X11.2170 Y-8.0624 Z1.1350
G1 X11.2418 Y-8.0427 Z1.1350
G1 X11.2648 Y-8.0264 Z1.1350
G1 X11.3692 Y-7.9604 Z1.1350
G1 X11.3897 Y-7.9491 Z1.1350
G1 X11.5094 Y-8.1824 Z1.1350
G1 X11.5380 Y-8.1688 Z1.1350
G1 X11.6546 Y-8.1279 Z1.1350
G1 X11.6855 Y-8.1210 Z1.1350
G1 X11.7925 Y-8.1086 Z1.1350
G1 X11.8221 Y-8.1069 Z1.1350
G1 X11.8846 Y-8.1069 Z1.1350
G1 X11.8846 Y-6.7367 Z1.1350
G1 X10.0638 Y-6.7367 Z1.1350
G1 X10.0888 Y-6.7538 Z1.1350
G1 X10.1126 Y-6.7745 Z1.1350
G1 X10.1936 Y-6.8571 Z1.1350
G1 X10.2130 Y-6.8821 Z1.1350
G1 X10.2777 Y-6.9874 Z1.1350
G1 X10.2910 Y-7.0161 Z1.1350
G1 X10.3305 Y-7.1332 Z1.1350
G1 X10.3370 Y-7.1642 Z1.1350
G1 X10.3482 Y-7.2713 Z1.1350
G1 X10.3495 Y-7.3010 Z1.1350
G1 X10.3251 Y-9.3433 Z1.1350
G1 X10.4337 Y-9.3522 Z1.1350
G1 X10.5424 Y-9.3584 Z1.1350
G1 X10.6513 Y-9.3619 Z1.1350
G1 X10.7603 Y-9.3625 Z1.1350
G1 X10.8692 Y-9.3605 Z1.1350
G1 X10.9780 Y-9.3557 Z1.1350
G1 X11.0867 Y-9.3481 Z1.1350
G1 X11.1410 Y-9.3433 Z1.1350
G1 X11.1346 Y-8.8025 Z1.1350
G1 X11.1360 Y-8.7728 Z1.1350
G1 X11.1477 Y-8.6618 Z1.1350
G1 X11.1547 Y-8.6309 Z1.1350
G1 X11.1946 Y-8.5140 Z1.1350
G1 X11.2083 Y-8.4855 Z1.1350
G1 X11.2734 Y-8.3805 Z1.1350
G1 X11.2932 Y-8.3558 Z1.1350
G1 X11.3802 Y-8.2680 Z1.1350
G1 X11.4050 Y-8.2484 Z1.1350
G1 X11.5094 Y-8.1824 Z1.1350
G1 X11.6364 Y-8.4121 Z1.1350
G1 X11.7268 Y-8.3802 Z1.1350
G1 X11.8221 Y-8.3694 Z1.1350
G1 X12.1471 Y-8.3694 Z1.1350
G1 X12.1471 Y-6.4742 Z1.1350
G1 X9.5500 Y-6.4742 Z1.1350
G1 X9.5500 Y-6.8678 Z1.1350
G1 X9.6620 Y-6.8678 Z1.1350
G1 X9.7573 Y-6.8786 Z1.1350
G1 X9.8477 Y-6.9105 Z1.1350
G1 X9.9287 Y-6.9618 Z1.1350
G1 X9.9961 Y-7.0300 Z1.1350
G1 X10.0465 Y-7.1116 Z1.1350
G1 X10.0773 Y-7.2024 Z1.1350
G1 X10.0870 Y-7.2978 Z1.1350
G1 X10.0598 Y-9.5744 Z1.1350
G3X11.4062Y-9.5744Z1.1350I0.6732J4.5252
G1 X11.3971 Y-8.7994 Z1.1350
G1 X11.4068 Y-8.7040 Z1.1350
G1 X11.4376 Y-8.6132 Z1.1350
G1 X11.4880 Y-8.5317 Z1.1350
G1 X11.5554 Y-8.4635 Z1.1350
G1 X11.6364 Y-8.4121 Z1.1350
G1 X11.5695 Y-8.3065 Z1.1685
G1 X11.5204 Y-8.2293 Z1.2600
G1 X11.5025 Y-8.2010 Z1.3850
G0 Z4.0000
G0 X11.5025 Y-8.2010 
M5
G53 Z
X2Y0
