( MOP:  S-style-Neck-front-02 )
( FILE: G:\Shared drives\AlloyProjectFiles\Customer CAD files\Alloy-Standard-Builds-CAM\t-in\NeckPocket\S-style-Neck-front-02.nc)
G90
(  BEGIN TOOL LIST )
(  TOOL 5 - Downcut PT375 - DESC: 0.3750 DIA, 2 FLUTE,  CARBIDE MAT )
(  ENDOF TOOL LIST )
( S-style-Neck-front-02)
( Max Depth 1.75)
T05
S12000
M3
G0 Z4.0000
G0 X11.0985 Y-6.5517 
G1 X11.0985 Y-6.5517 Z1.1350 F75.
G17
G3X10.8485Y-6.3017Z1.1350I-0.2500J0.0000 F25.
G1 X9.3775 Y-6.3017 Z1.1350 F60.
G1 X9.3775 Y-7.0403 Z1.1350
G1 X9.6620 Y-7.0403 Z1.1350
G2X9.9145Y-7.2958Z1.1350I-0.0002J-0.2526
G1 X9.8855 Y-9.7204 Z1.1350
G3X11.5179Y-9.7318Z1.1350I0.8489J4.6865
G1 X11.5805 Y-9.7204 Z1.1350
G1 X11.5696 Y-8.7974 Z1.1350
G2X11.8221Y-8.5419Z1.1350I0.2527J0.0028
G1 X12.3196 Y-8.5419 Z1.1350
G1 X12.3196 Y-6.3017 Z1.1350
G1 X10.8485 Y-6.3017 Z1.1350
G1 X10.8485 Y-6.2517 Z1.1350
G1 X9.3275 Y-6.2517 Z1.1350
G1 X9.3275 Y-7.0903 Z1.1350
G1 X9.6620 Y-7.0903 Z1.1350
G2X9.8645Y-7.2952Z1.1350I0.0000J-0.2025
G1 X9.8355 Y-9.7228 Z1.1350
G3X9.8745Y-9.7693Z1.1350I0.0475J0.0003
G3X11.5915Y-9.7693Z1.1350I0.8585J4.7201
G3X11.6305Y-9.7232Z1.1350I-0.0085J0.0468
G1 X11.6196 Y-8.7968 Z1.1350
G2X11.8221Y-8.5919Z1.1350I0.2025J0.0024
G1 X12.3696 Y-8.5919 Z1.1350
G1 X12.3696 Y-6.2517 Z1.1350
G1 X10.8485 Y-6.2517 Z1.1350
G1 X10.3485 Y-6.2517 Z1.1350
G3X10.0985Y-6.5017Z1.1350I0.0000J-0.2500 F75.
G0 Z4.0000
G0 X10.0985 Y-6.5017 
M5
G53 Z
X2Y0
