( MOP:  T-style-Neck-front-01 )
( FILE: G:\Shared drives\AlloyProjectFiles\Customer CAD files\Alloy-Standard-Builds-CAM\t-in\NeckPocket\T-style-Neck-front-01.nc)
G90
(  BEGIN TOOL LIST )
(  TOOL 3 - Downcut PT750 - DESC: 0.7500 DIA, 2 FLUTE,  CARBIDE MAT )
(  ENDOF TOOL LIST )
( T-style-Neck-front-01)
T03
S14000
M3
G0 Z3.0031
G0 X11.3596 Y-7.4651 
G1 X11.3596 Y-7.4651 Z1.8225 F75.
G1 X11.3596 Y-7.4651 Z1.7975 F50.
G1 X11.3596 Y-7.2617 Z1.7616
G1 X10.8766 Y-7.2617 Z1.6765
G1 X10.8779 Y-7.3085 Z1.6682
G1 X10.8683 Y-8.0454 Z1.5383
G1 X10.8912 Y-8.0173 Z1.5319
G1 X10.9196 Y-7.9861 Z1.5244
G1 X11.0179 Y-7.8876 Z1.4999
G1 X11.0530 Y-7.8567 Z1.4917
G1 X11.0891 Y-7.8286 Z1.4836
G1 X11.1237 Y-7.8045 Z1.4762
G1 X11.2416 Y-7.7306 Z1.4516
G1 X11.2622 Y-7.7195 Z1.4475
G17
G2X11.3596Y-7.6747Z1.4475I0.3255J-0.5795 F150.
G1 X11.3596 Y-7.2617 Z1.4475
G1 X10.8766 Y-7.2617 Z1.4475
G1 X10.8779 Y-7.3085 Z1.4475
G1 X10.8683 Y-8.0454 Z1.4475
G2X11.2622Y-7.7195Z1.4475I0.9424J-0.7380
G1 X11.3888 Y-7.9491 Z1.4475
G2X11.6221Y-7.8660Z1.4475I0.4644J-0.9337
G1 X11.6221 Y-6.9992 Z1.4475
G1 X10.5658 Y-6.9992 Z1.4475
G2X10.6154Y-7.3051Z1.4475I-0.7940J-0.2858
G1 X10.5921 Y-9.0992 Z1.4475
G1 X10.8747 Y-9.0992 Z1.4475
G2X10.8978Y-8.5731Z1.4475I1.8940J0.1806
G2X11.3888Y-7.9491Z1.4475I0.9217J-0.2202
G1 X11.5086 Y-8.1824 Z1.4475
G2X11.8846Y-8.1069Z1.4475I0.3270J-0.6548
G1 X11.8846 Y-6.7367 Z1.4475
G1 X10.0673 Y-6.7367 Z1.4475
G2X10.3529Y-7.3017Z1.4475I-0.3971J-0.5555
G1 X10.3262 Y-9.3617 Z1.4475
G1 X11.1403 Y-9.3617 Z1.4475
G1 X11.1338 Y-8.8024 Z1.4475
G2X11.5086Y-8.1824Z1.4475I0.6889J0.0068
G1 X11.6356 Y-8.4121 Z1.4475
G1 X11.7260 Y-8.3802 Z1.4475
G1 X11.8212 Y-8.3694 Z1.4475
G1 X12.1471 Y-8.3694 Z1.4475
G1 X12.1471 Y-6.4742 Z1.4475
G1 X9.5500 Y-6.4742 Z1.4475
G1 X9.5500 Y-6.8678 Z1.4475
G2X10.0809Y-7.2028Z1.4475I0.0906J-0.4445
G1 X10.0905 Y-7.2983 Z1.4475
G1 X10.0603 Y-9.6242 Z1.4475
G1 X11.4059 Y-9.6242 Z1.4475
G1 X11.3963 Y-8.7994 Z1.4475
G2X11.6356Y-8.4121Z1.4475I0.4249J0.0050
G1 X11.5686 Y-8.3065 Z1.4810
G1 X11.5196 Y-8.2293 Z1.5725
G1 X11.5017 Y-8.2010 Z1.6975
G0 Z1.9475
G0 X11.5017 Y-8.2010 
G0 Z1.9475
G0 X11.3596 Y-7.4651 
G1 X11.3596 Y-7.4651 Z1.5100 F75.
G1 X11.3596 Y-7.4651 Z1.4850 F50.
G1 X11.3596 Y-7.2617 Z1.4491
G1 X10.8766 Y-7.2617 Z1.3640
G1 X10.8779 Y-7.3085 Z1.3557
G1 X10.8683 Y-8.0454 Z1.2258
G1 X10.8912 Y-8.0173 Z1.2194
G1 X10.9196 Y-7.9861 Z1.2119
G1 X11.0179 Y-7.8876 Z1.1874
G1 X11.0530 Y-7.8567 Z1.1792
G1 X11.0891 Y-7.8286 Z1.1711
G1 X11.1237 Y-7.8045 Z1.1637
G1 X11.2416 Y-7.7306 Z1.1391
G1 X11.2622 Y-7.7195 Z1.1350
G2X11.3596Y-7.6747Z1.1350I0.3255J-0.5795 F150.
G1 X11.3596 Y-7.2617 Z1.1350
G1 X10.8766 Y-7.2617 Z1.1350
G1 X10.8779 Y-7.3085 Z1.1350
G1 X10.8683 Y-8.0454 Z1.1350
G2X11.2622Y-7.7195Z1.1350I0.9424J-0.7380
G1 X11.3888 Y-7.9491 Z1.1350
G2X11.6221Y-7.8660Z1.1350I0.4644J-0.9337
G1 X11.6221 Y-6.9992 Z1.1350
G1 X10.5658 Y-6.9992 Z1.1350
G2X10.6154Y-7.3051Z1.1350I-0.7940J-0.2858
G1 X10.5921 Y-9.0992 Z1.1350
G1 X10.8747 Y-9.0992 Z1.1350
G2X10.8978Y-8.5731Z1.1350I1.8940J0.1806
G2X11.3888Y-7.9491Z1.1350I0.9217J-0.2202
G1 X11.5086 Y-8.1824 Z1.1350
G2X11.8846Y-8.1069Z1.1350I0.3270J-0.6548
G1 X11.8846 Y-6.7367 Z1.1350
G1 X10.0673 Y-6.7367 Z1.1350
G2X10.3529Y-7.3017Z1.1350I-0.3971J-0.5555
G1 X10.3262 Y-9.3617 Z1.1350
G1 X11.1403 Y-9.3617 Z1.1350
G1 X11.1338 Y-8.8024 Z1.1350
G2X11.5086Y-8.1824Z1.1350I0.6889J0.0068
G1 X11.6356 Y-8.4121 Z1.1350
G1 X11.7260 Y-8.3802 Z1.1350
G1 X11.8212 Y-8.3694 Z1.1350
G1 X12.1471 Y-8.3694 Z1.1350
G1 X12.1471 Y-6.4742 Z1.1350
G1 X9.5500 Y-6.4742 Z1.1350
G1 X9.5500 Y-6.8678 Z1.1350
G2X10.0809Y-7.2028Z1.1350I0.0906J-0.4445
G1 X10.0905 Y-7.2983 Z1.1350
G1 X10.0603 Y-9.6242 Z1.1350
G1 X11.4059 Y-9.6242 Z1.1350
G1 X11.3963 Y-8.7994 Z1.1350
G2X11.6356Y-8.4121Z1.1350I0.4249J0.0050
G1 X11.5686 Y-8.3065 Z1.1685
G1 X11.5196 Y-8.2293 Z1.2600
G1 X11.5017 Y-8.2010 Z1.3850
G0 Z3.0031
G0 X11.5017 Y-8.2010 
M5
G53 Z
X2Y0
