( MOP:  T-style-Neck-front-03 )
( FILE: G:\Shared drives\AlloyProjectFiles\Customer CAD files\Alloy-Standard-Builds-CAM\t-in\NeckPocket\T-style-Neck-front-03.nc)
G90
(  BEGIN TOOL LIST )
(  TOOL 5 - Downcut PT375 - DESC: 0.3750 DIA, 2 FLUTE,  CARBIDE MAT )
(  ENDOF TOOL LIST )
( T-style-Neck-front-03)
( Max Depth 1.75)
T05
S12000
M3
G0 Z4.0000
G0 X10.5985 Y-6.4792 
G1 X10.5985 Y-6.4792 Z1.1350 F75.
G17
G2X10.8485Y-6.2292Z1.1350I0.2500J0.0000 F25.
G1 X12.3921 Y-6.2292 Z1.1350 F60.
G1 X12.3921 Y-8.6144 Z1.1350
G1 X11.8212 Y-8.6144 Z1.1350
G3X11.6412Y-8.7965Z1.1350I0.0000J-0.1800
G1 X11.6530 Y-9.7999 Z1.1350
G2X11.6277Y-9.8531Z1.1350I-0.0700J0.0007
G2X11.5830Y-9.8692Z1.1350I-0.0447J0.0539
G1 X9.8830 Y-9.8692 Z1.1350
G2X9.8545Y-9.8631Z1.1350I0.0000J0.0700
G2X9.8130Y-9.7997Z1.1350I0.0285J0.0639
G1 X9.8455 Y-7.2951 Z1.1350
G3X9.6655Y-7.1128Z1.1350I-0.1800J0.0023
G1 X9.3050 Y-7.1128 Z1.1350
G1 X9.3050 Y-6.2292 Z1.1350
G1 X10.8485 Y-6.2292 Z1.1350
G1 X11.0985 Y-6.2292 Z1.1350
G2X11.3485Y-6.4792Z1.1350I0.0000J-0.2500
G0 Z4.0000
G0 X11.3485 Y-6.4792 
M5
G53 Z
X2Y0
