( MOP:  T-style-Neck-front-02 )
( FILE: G:\Shared drives\AlloyProjectFiles\Customer CAD files\Alloy-Standard-Builds-CAM\t-in\NeckPocket\T-style-Neck-front-02.nc)
G90
(  BEGIN TOOL LIST )
(  TOOL 5 - Downcut PT375 - DESC: 0.3750 DIA, 2 FLUTE,  CARBIDE MAT )
(  ENDOF TOOL LIST )
( T-style-Neck-front-02)
( Max Depth 1.75)
T05
S12000
M3
G0 Z4.0000
G0 X11.0985 Y-6.5517 
G1 X11.0985 Y-6.5517 Z1.1350 F75.
G17
G3X10.8485Y-6.3017Z1.1350I-0.2500J0.0000 F25.
G1 X9.3775 Y-6.3017 Z1.1350 F60.
G1 X9.3775 Y-7.0403 Z1.1350
G1 X9.6655 Y-7.0403 Z1.1350
G2X9.9180Y-7.2960Z1.1350I-0.0002J-0.2526
G1 X9.8855 Y-9.7967 Z1.1350
G1 X11.5805 Y-9.7967 Z1.1350
G1 X11.5688 Y-8.7974 Z1.1350
G2X11.8212Y-8.5419Z1.1350I0.2526J0.0028
G1 X12.3196 Y-8.5419 Z1.1350
G1 X12.3196 Y-6.3017 Z1.1350
G1 X10.8485 Y-6.3017 Z1.1350
G1 X10.8485 Y-6.2517 Z1.1350
G1 X9.3275 Y-6.2517 Z1.1350
G1 X9.3275 Y-7.0903 Z1.1350
G1 X9.6655 Y-7.0903 Z1.1350
G2X9.8680Y-7.2954Z1.1350I0.0000J-0.2025
G1 X9.8355 Y-9.7997 Z1.1350
G3X9.8636Y-9.8426Z1.1350I0.0475J0.0005
G3X9.8830Y-9.8467Z1.1350I0.0194J0.0434
G1 X11.5830 Y-9.8467 Z1.1350
G3X11.6133Y-9.8358Z1.1350I0.0000J0.0475
G3X11.6305Y-9.7999Z1.1350I-0.0303J0.0366
G1 X11.6187 Y-8.7968 Z1.1350
G2X11.8212Y-8.5919Z1.1350I0.2025J0.0024
G1 X12.3696 Y-8.5919 Z1.1350
G1 X12.3696 Y-6.2517 Z1.1350
G1 X10.8485 Y-6.2517 Z1.1350
G1 X10.3485 Y-6.2517 Z1.1350
G3X10.0985Y-6.5017Z1.1350I0.0000J-0.2500
G0 Z4.0000
G0 X10.0985 Y-6.5017 
M5
G53 Z
X2Y0
