( BEGIN FILE 02-BodyBlank-01.ncTNUM: -1 )
( Lefty:False Nunits:1 )
( cline: 9.733 delta:15.5 )
( start_unit: 1 num_units: 1)
( MOP:  02-BodyBlank-01 )
( FILE: G:\Shared drives\AlloyProjectFiles\Customer CAD files\Alloy-Standard-Builds-CAM\s-in\Full or Blank\02-BodyBlank-01.nc)
G90
(  BEGIN TOOL LIST )
(  TOOL 2 - Drill PT3937 10mm - DESC: 0.3937 DIA, 2 FLUTE,  CARBIDE MAT )
(  ENDOF TOOL LIST )
( 02-BodyBlank-01)
T02
S6000
M3
G0 Z4.4163
G0 X3.4830 Y-4.5516 
G0 Z1.9000
G81 X3.4830 Y-4.5516 Z0.8000 R1.9000 F40.0
G80
G0 Z2.0500
G0 X15.9830 Y-4.5516 
G0 Z1.9000
G81 X15.9830 Y-4.5516 Z0.8000 R1.9000 F40.0
G80
G0 Z4.4163
G0 X15.9830 Y-4.5516 
M5
G53 Z
G0 X2Y0
( END FILE 02-BodyBlank-01.nc )
