( BEGIN FILE 02-FullBody-01.ncTNUM: -1 )
( Lefty:False Nunits:1 )
( cline: 9.733 delta:15.5 )
( start_unit: 1 num_units: 1)
( MOP:  02-FullBody-01 )
( FILE: G:\Shared drives\AlloyProjectFiles\Customer CAD files\Alloy-Standard-Builds-CAM\s-in\Full or Blank\02-FullBody-01.nc)
G90
(  BEGIN TOOL LIST )
(  TOOL 2 - Drill PT3937 10mm - DESC: 0.3937 DIA, 2 FLUTE,  CARBIDE MAT )
(  ENDOF TOOL LIST )
( 02-FullBody-01)
T02
S6000
M3
G0 Z6.0000
G0 X3.4830 Y-22.5516 
G0 Z1.9000
G83 X3.4830 Y-22.5516 Z0.8000 R1.9000 Q0.34 F30.0
G80
G0 Z2.0500
G0 X4.4830 Y-23.5516 
G0 Z1.9000
G83 X4.4830 Y-23.5516 Z0.8000 R1.9000 Q0.34 F30.0
G80
G0 Z2.0500
G0 X14.9830 Y-23.5516 
G0 Z1.9000
G83 X14.9830 Y-23.5516 Z0.8000 R1.9000 Q0.34 F30.0
G80
G0 Z2.0500
G0 X15.9830 Y-22.5516 
G0 Z1.9000
G83 X15.9830 Y-22.5516 Z0.8000 R1.9000 Q0.34 F30.0
G80
G0 Z2.0500
G0 X15.9830 Y-12.4266 
G0 Z1.9000
G83 X15.9830 Y-12.4266 Z0.8000 R1.9000 Q0.34 F30.0
G80
G0 Z2.0500
G0 X15.9830 Y-4.5516 
G0 Z1.9000
G83 X15.9830 Y-4.5516 Z0.8000 R1.9000 Q0.34 F30.0
G80
G0 Z2.0500
G0 X11.7330 Y-5.5516 
G0 Z1.9000
G83 X11.7330 Y-5.5516 Z0.8000 R1.9000 Q0.34 F30.0
G80
G0 Z2.0500
G0 X7.7330 Y-5.5516 
G0 Z1.9000
G83 X7.7330 Y-5.5516 Z0.8000 R1.9000 Q0.34 F30.0
G80
G0 Z2.0500
G0 X3.4830 Y-4.5516 
G0 Z1.9000
G83 X3.4830 Y-4.5516 Z0.8000 R1.9000 Q0.34 F30.0
G80
G0 Z2.0500
G0 X3.4830 Y-12.4266 
G0 Z1.9000
G83 X3.4830 Y-12.4266 Z0.8000 R1.9000 Q0.34 F30.0
G80
G0 Z6.0000
G0 X3.4830 Y-12.4266 
M5
G53 Z
G0 X2Y0
( END FILE 02-FullBody-01.nc )
