( BEGIN FILE 04-Chambered-03.ncTNUM: -1 )
( Lefty:False Nunits:1 )
( cline: 9.733 delta:15.5 )
( start_unit: 1 num_units: 1)
( MOP:  04-Chambered-03 )
( FILE: G:\Shared drives\AlloyProjectFiles\Customer CAD files\Alloy-Standard-Builds-CAM\s-in\Chambering\04-Chambered-03.nc)
G90
(  BEGIN TOOL LIST )
(  TOOL 11 - Downcut PT750 ROUGH - DESC: 0.7500 DIA, 2 FLUTE,  CARBIDE MAT )
(  ENDOF TOOL LIST )
( 04-Chambered-03)
T11
S14000
M3
G0 Z6.0000
G0 X4.7435 Y-20.5710 
G1 X4.7435 Y-20.5710 Z1.3250 F75.
G1 X4.7435 Y-20.5710 Z1.3000 F50.
G1 X7.0007 Y-20.5710 Z1.3000 F150.
G0 Z1.3000
G0 X7.0160 Y-20.3835 
G1 X4.6180 Y-20.3835 Z1.3000 F150.
G1 X4.6180 Y-20.3835 Z1.3250
G0 Z2.0000
G0 X4.6180 Y-20.3835 
G0 Z2.0000
G0 X4.5166 Y-20.1960 
G1 X4.5166 Y-20.1960 Z1.3250 F75.
G1 X4.5166 Y-20.1960 Z1.3000 F50.
G1 X7.0166 Y-20.1960 Z1.3000 F150.
G1 X7.0166 Y-20.1960 Z1.3250
G0 Z2.0000
G0 X7.0166 Y-20.1960 
G0 Z2.0000
G0 X7.0160 Y-20.0085 
G1 X7.0160 Y-20.0085 Z1.3250 F75.
G1 X7.0160 Y-20.0085 Z1.3000 F50.
G1 X4.4328 Y-20.0085 Z1.3000 F150.
G1 X4.4328 Y-20.0085 Z1.3250
G0 Z2.0000
G0 X4.4328 Y-20.0085 
G0 Z2.0000
G0 X4.3664 Y-19.8210 
G1 X4.3664 Y-19.8210 Z1.3250 F75.
G1 X4.3664 Y-19.8210 Z1.3000 F50.
G1 X7.0166 Y-19.8210 Z1.3000 F150.
G1 X7.0166 Y-19.8210 Z1.3250
G0 Z2.0000
G0 X7.0166 Y-19.8210 
G0 Z2.0000
G0 X7.0160 Y-19.6335 
G1 X7.0160 Y-19.6335 Z1.3250 F75.
G1 X7.0160 Y-19.6335 Z1.3000 F50.
G1 X4.3190 Y-19.6335 Z1.3000 F150.
G1 X4.3190 Y-19.6335 Z1.3250
G0 Z2.0000
G0 X4.3190 Y-19.6335 
G0 Z2.0000
G0 X4.2858 Y-19.4460 
G1 X4.2858 Y-19.4460 Z1.3250 F75.
G1 X4.2858 Y-19.4460 Z1.3000 F50.
G1 X7.0166 Y-19.4460 Z1.3000 F150.
G1 X7.0166 Y-19.4460 Z1.3250
G0 Z2.0000
G0 X7.0166 Y-19.4460 
G0 Z2.0000
G0 X7.0159 Y-19.2585 
G1 X7.0159 Y-19.2585 Z1.3250 F75.
G1 X7.0159 Y-19.2585 Z1.3000 F50.
G1 X4.2661 Y-19.2585 Z1.3000 F150.
G1 X4.2661 Y-19.2585 Z1.3250
G0 Z2.0000
G0 X4.2661 Y-19.2585 
G0 Z2.0000
G0 X4.2593 Y-19.0710 
G1 X4.2593 Y-19.0710 Z1.3250 F75.
G1 X4.2593 Y-19.0710 Z1.3000 F50.
G1 X7.0163 Y-19.0710 Z1.3000 F150.
G1 X7.0163 Y-19.0710 Z1.3250
G0 Z2.0000
G0 X7.0163 Y-19.0710 
G0 Z2.0000
G0 X6.8723 Y-18.8835 
G1 X6.8723 Y-18.8835 Z1.3250 F75.
G1 X6.8723 Y-18.8835 Z1.3000 F50.
G1 X4.2623 Y-18.8835 Z1.3000 F150.
G1 X4.2623 Y-18.8835 Z1.3250
G0 Z2.0000
G0 X4.2623 Y-18.8835 
G0 Z2.0000
G0 X4.2760 Y-18.6960 
G1 X4.2760 Y-18.6960 Z1.3250 F75.
G1 X4.2760 Y-18.6960 Z1.3000 F50.
G1 X6.7672 Y-18.6960 Z1.3000 F150.
G1 X6.7672 Y-18.6960 Z1.3250
G0 Z2.0000
G0 X6.7672 Y-18.6960 
G0 Z2.0000
G0 X6.7011 Y-18.5085 
G1 X6.7011 Y-18.5085 Z1.3250 F75.
G1 X6.7011 Y-18.5085 Z1.3000 F50.
G1 X4.2977 Y-18.5085 Z1.3000 F150.
G1 X4.2977 Y-18.5085 Z1.3250
G0 Z2.0000
G0 X4.2977 Y-18.5085 
G0 Z2.0000
G0 X4.3268 Y-18.3210 
G1 X4.3268 Y-18.3210 Z1.3250 F75.
G1 X4.3268 Y-18.3210 Z1.3000 F50.
G1 X6.6681 Y-18.3210 Z1.3000 F150.
G1 X6.6681 Y-18.3210 Z1.3250
G0 Z2.0000
G0 X6.6681 Y-18.3210 
G0 Z2.0000
G0 X6.6660 Y-18.1335 
G1 X6.6660 Y-18.1335 Z1.3250 F75.
G1 X6.6660 Y-18.1335 Z1.3000 F50.
G1 X4.3630 Y-18.1335 Z1.3000 F150.
G1 X4.3630 Y-18.1335 Z1.3250
G0 Z2.0000
G0 X4.3630 Y-18.1335 
G0 Z2.0000
G0 X4.4051 Y-17.9460 
G1 X4.4051 Y-17.9460 Z1.3250 F75.
G1 X4.4051 Y-17.9460 Z1.3000 F50.
G1 X6.6945 Y-17.9460 Z1.3000 F150.
G1 X6.6945 Y-17.9460 Z1.3250
G0 Z2.0000
G0 X6.6945 Y-17.9460 
G0 Z2.0000
G0 X6.7552 Y-17.7585 
G1 X6.7552 Y-17.7585 Z1.3250 F75.
G1 X6.7552 Y-17.7585 Z1.3000 F50.
G1 X4.4522 Y-17.7585 Z1.3000 F150.
G1 X4.4522 Y-17.7585 Z1.3250
G0 Z2.0000
G0 X4.4522 Y-17.7585 
G0 Z2.0000
G0 X4.7737 Y-17.5710 
G1 X4.7737 Y-17.5710 Z1.3250 F75.
G1 X4.7737 Y-17.5710 Z1.3000 F50.
G1 X6.8545 Y-17.5710 Z1.3000 F150.
G1 X6.8545 Y-17.5710 Z1.3250
G0 Z2.0000
G0 X6.8545 Y-17.5710 
G0 Z2.0000
G0 X7.0050 Y-17.3835 
G1 X7.0050 Y-17.3835 Z1.3250 F75.
G1 X7.0050 Y-17.3835 Z1.3000 F50.
G1 X5.0572 Y-17.3835 Z1.3000 F150.
G1 X5.0572 Y-17.3835 Z1.3250
G0 Z2.0000
G0 X5.0572 Y-17.3835 
G0 Z2.0000
G0 X5.2165 Y-17.1960 
G1 X5.2165 Y-17.1960 Z1.3250 F75.
G1 X5.2165 Y-17.1960 Z1.3000 F50.
G1 X7.0161 Y-17.1960 Z1.3000 F150.
G1 X7.0161 Y-17.1960 Z1.3250
G0 Z2.0000
G0 X7.0161 Y-17.1960 
G0 Z2.0000
G0 X7.0158 Y-17.0085 
G1 X7.0158 Y-17.0085 Z1.3250 F75.
G1 X7.0158 Y-17.0085 Z1.3000 F50.
G1 X5.3149 Y-17.0085 Z1.3000 F150.
G1 X5.3149 Y-17.0085 Z1.3250
G0 Z2.0000
G0 X5.3149 Y-17.0085 
G0 Z2.0000
G0 X5.3716 Y-16.8210 
G1 X5.3716 Y-16.8210 Z1.3250 F75.
G1 X5.3716 Y-16.8210 Z1.3000 F50.
G1 X7.0165 Y-16.8210 Z1.3000 F150.
G1 X7.0165 Y-16.8210 Z1.3250
G0 Z2.0000
G0 X7.0165 Y-16.8210 
G0 Z2.0000
G0 X7.0158 Y-16.6335 
G1 X7.0158 Y-16.6335 Z1.3250 F75.
G1 X7.0158 Y-16.6335 Z1.3000 F50.
G1 X5.3911 Y-16.6335 Z1.3000 F150.
G1 X5.3911 Y-16.6335 Z1.3250
G0 Z2.0000
G0 X5.3911 Y-16.6335 
G0 Z2.0000
G0 X5.3764 Y-16.4460 
G1 X5.3764 Y-16.4460 Z1.3250 F75.
G1 X5.3764 Y-16.4460 Z1.3000 F50.
G1 X7.0161 Y-16.4460 Z1.3000 F150.
G1 X7.0161 Y-16.4460 Z1.3250
G0 Z2.0000
G0 X7.0161 Y-16.4460 
G0 Z2.0000
G0 X7.0158 Y-16.2585 
G1 X7.0158 Y-16.2585 Z1.3250 F75.
G1 X7.0158 Y-16.2585 Z1.3000 F50.
G1 X5.3261 Y-16.2585 Z1.3000 F150.
G1 X5.3261 Y-16.2585 Z1.3250
G0 Z2.0000
G0 X5.3261 Y-16.2585 
G0 Z2.0000
G0 X5.2348 Y-16.0710 
G1 X5.2348 Y-16.0710 Z1.3250 F75.
G1 X5.2348 Y-16.0710 Z1.3000 F50.
G1 X7.0163 Y-16.0710 Z1.3000 F150.
G1 X7.0163 Y-16.0710 Z1.3250
G0 Z2.0000
G0 X7.0163 Y-16.0710 
G0 Z2.0000
G0 X7.0159 Y-15.8835 
G1 X7.0159 Y-15.8835 Z1.3250 F75.
G1 X7.0159 Y-15.8835 Z1.3000 F50.
G1 X5.0871 Y-15.8835 Z1.3000 F150.
G0 Z1.3000
G0 X5.1561 Y-15.6960 
G1 X7.0163 Y-15.6960 Z1.3000 F150.
G1 X7.0163 Y-15.6960 Z1.3250
G0 Z2.0000
G0 X7.0163 Y-15.6960 
G0 Z2.0000
G0 X7.0158 Y-15.5085 
G1 X7.0158 Y-15.5085 Z1.3250 F75.
G1 X7.0158 Y-15.5085 Z1.3000 F50.
G1 X5.2497 Y-15.5085 Z1.3000 F150.
G1 X5.2497 Y-15.5085 Z1.3250
G0 Z2.0000
G0 X5.2497 Y-15.5085 
G0 Z2.0000
G0 X5.3508 Y-15.3210 
G1 X5.3508 Y-15.3210 Z1.3250 F75.
G1 X5.3508 Y-15.3210 Z1.3000 F50.
G1 X7.0161 Y-15.3210 Z1.3000 F150.
G1 X7.0161 Y-15.3210 Z1.3250
G0 Z2.0000
G0 X7.0161 Y-15.3210 
G0 Z2.0000
G0 X7.0158 Y-15.1335 
G1 X7.0158 Y-15.1335 Z1.3250 F75.
G1 X7.0158 Y-15.1335 Z1.3000 F50.
G1 X5.4517 Y-15.1335 Z1.3000 F150.
G1 X5.4517 Y-15.1335 Z1.3250
G0 Z2.0000
G0 X5.4517 Y-15.1335 
G0 Z2.0000
G0 X5.5473 Y-14.9460 
G1 X5.5473 Y-14.9460 Z1.3250 F75.
G1 X5.5473 Y-14.9460 Z1.3000 F50.
G1 X7.0161 Y-14.9460 Z1.3000 F150.
G1 X7.0161 Y-14.9460 Z1.3250
G0 Z2.0000
G0 X7.0161 Y-14.9460 
G0 Z2.0000
G0 X6.8449 Y-14.7585 
G1 X6.8449 Y-14.7585 Z1.3250 F75.
G1 X6.8449 Y-14.7585 Z1.3000 F50.
G1 X5.6363 Y-14.7585 Z1.3000 F150.
G1 X5.6363 Y-14.7585 Z1.3250
G0 Z2.0000
G0 X5.6363 Y-14.7585 
G0 Z2.0000
G0 X5.7193 Y-14.5710 
G1 X5.7193 Y-14.5710 Z1.3250 F75.
G1 X5.7193 Y-14.5710 Z1.3000 F50.
G1 X6.6647 Y-14.5710 Z1.3000 F150.
G1 X6.6647 Y-14.5710 Z1.3250
G0 Z2.0000
G0 X6.6647 Y-14.5710 
G0 Z2.0000
G0 X6.4838 Y-14.3835 
G1 X6.4838 Y-14.3835 Z1.3250 F75.
G1 X6.4838 Y-14.3835 Z1.3000 F50.
G1 X5.7954 Y-14.3835 Z1.3000 F150.
G1 X5.7954 Y-14.3835 Z1.3250
G0 Z2.0000
G0 X5.7954 Y-14.3835 
G0 Z2.0000
G0 X5.8642 Y-14.1960 
G1 X5.8642 Y-14.1960 Z1.3250 F75.
G1 X5.8642 Y-14.1960 Z1.3000 F50.
G1 X6.3035 Y-14.1960 Z1.3000 F150.
G1 X6.3035 Y-14.1960 Z1.3250
G0 Z2.0000
G0 X6.3035 Y-14.1960 
G0 Z2.0000
G0 X6.1236 Y-14.0085 
G1 X6.1236 Y-14.0085 Z1.3250 F75.
G1 X6.1236 Y-14.0085 Z1.3000 F50.
G1 X5.9251 Y-14.0085 Z1.3000 F150.
G1 X5.9251 Y-14.0085 Z1.3250
G0 Z2.0000
G0 X5.9251 Y-14.0085 
G0 Z2.0000
G0 X4.7435 Y-20.5710 
G1 X4.7435 Y-20.5710 Z1.3250 F75.
G1 X4.7435 Y-20.5710 Z1.3000 F50.
G1 X4.7437 Y-20.5710 Z0.9250 F150.
G1 X7.0006 Y-20.5710 Z0.9250
G1 X7.0007 Y-20.5710 Z1.3000
G0 Z1.3000
G0 X7.0160 Y-20.3835 
G1 X7.0158 Y-20.3835 Z0.9250 F150.
G1 X4.6182 Y-20.3835 Z0.9250
G1 X4.6180 Y-20.3835 Z1.3000
G1 X4.6180 Y-20.3835 Z1.3250
G0 Z2.0000
G0 X4.6180 Y-20.3835 
G0 Z2.0000
G0 X4.5166 Y-20.1960 
G1 X4.5166 Y-20.1960 Z1.3250 F75.
G1 X4.5166 Y-20.1960 Z1.3000 F50.
G1 X4.5168 Y-20.1960 Z0.9250 F150.
G1 X7.0164 Y-20.1960 Z0.9250
G1 X7.0166 Y-20.1960 Z1.3000
G1 X7.0166 Y-20.1960 Z1.3250
G0 Z2.0000
G0 X7.0166 Y-20.1960 
G0 Z2.0000
G0 X7.0160 Y-20.0085 
G1 X7.0160 Y-20.0085 Z1.3250 F75.
G1 X7.0160 Y-20.0085 Z1.3000 F50.
G1 X7.0158 Y-20.0085 Z0.9250 F150.
G1 X4.4330 Y-20.0085 Z0.9250
G1 X4.4328 Y-20.0085 Z1.3000
G1 X4.4328 Y-20.0085 Z1.3250
G0 Z2.0000
G0 X4.4328 Y-20.0085 
G0 Z2.0000
G0 X4.3664 Y-19.8210 
G1 X4.3664 Y-19.8210 Z1.3250 F75.
G1 X4.3664 Y-19.8210 Z1.3000 F50.
G1 X4.3666 Y-19.8210 Z0.9250 F150.
G1 X7.0164 Y-19.8210 Z0.9250
G1 X7.0166 Y-19.8210 Z1.3000
G1 X7.0166 Y-19.8210 Z1.3250
G0 Z2.0000
G0 X7.0166 Y-19.8210 
G0 Z2.0000
G0 X7.0160 Y-19.6335 
G1 X7.0160 Y-19.6335 Z1.3250 F75.
G1 X7.0160 Y-19.6335 Z1.3000 F50.
G1 X7.0158 Y-19.6335 Z0.9250 F150.
G1 X4.3192 Y-19.6335 Z0.9250
G1 X4.3190 Y-19.6335 Z1.3000
G1 X4.3190 Y-19.6335 Z1.3250
G0 Z2.0000
G0 X4.3190 Y-19.6335 
G0 Z2.0000
G0 X4.2858 Y-19.4460 
G1 X4.2858 Y-19.4460 Z1.3250 F75.
G1 X4.2858 Y-19.4460 Z1.3000 F50.
G1 X4.2860 Y-19.4460 Z0.9250 F150.
G1 X7.0164 Y-19.4460 Z0.9250
G1 X7.0166 Y-19.4460 Z1.3000
G1 X7.0166 Y-19.4460 Z1.3250
G0 Z2.0000
G0 X7.0166 Y-19.4460 
G0 Z2.0000
G0 X7.0159 Y-19.2585 
G1 X7.0159 Y-19.2585 Z1.3250 F75.
G1 X7.0159 Y-19.2585 Z1.3000 F50.
G1 X7.0157 Y-19.2585 Z0.9250 F150.
G1 X4.2663 Y-19.2585 Z0.9250
G1 X4.2661 Y-19.2585 Z1.3000
G1 X4.2661 Y-19.2585 Z1.3250
G0 Z2.0000
G0 X4.2661 Y-19.2585 
G0 Z2.0000
G0 X4.2593 Y-19.0710 
G1 X4.2593 Y-19.0710 Z1.3250 F75.
G1 X4.2593 Y-19.0710 Z1.3000 F50.
G1 X4.2595 Y-19.0710 Z0.9250 F150.
G1 X7.0161 Y-19.0710 Z0.9250
G1 X7.0163 Y-19.0710 Z1.3000
G1 X7.0163 Y-19.0710 Z1.3250
G0 Z2.0000
G0 X7.0163 Y-19.0710 
G0 Z2.0000
G0 X6.8723 Y-18.8835 
G1 X6.8723 Y-18.8835 Z1.3250 F75.
G1 X6.8723 Y-18.8835 Z1.3000 F50.
G1 X6.8721 Y-18.8835 Z0.9250 F150.
G1 X4.2626 Y-18.8835 Z0.9250
G1 X4.2623 Y-18.8835 Z1.3000
G1 X4.2623 Y-18.8835 Z1.3250
G0 Z2.0000
G0 X4.2623 Y-18.8835 
G0 Z2.0000
G0 X4.2760 Y-18.6960 
G1 X4.2760 Y-18.6960 Z1.3250 F75.
G1 X4.2760 Y-18.6960 Z1.3000 F50.
G1 X4.2762 Y-18.6960 Z0.9250 F150.
G1 X6.7670 Y-18.6960 Z0.9250
G1 X6.7672 Y-18.6960 Z1.3000
G1 X6.7672 Y-18.6960 Z1.3250
G0 Z2.0000
G0 X6.7672 Y-18.6960 
G0 Z2.0000
G0 X6.7011 Y-18.5085 
G1 X6.7011 Y-18.5085 Z1.3250 F75.
G1 X6.7011 Y-18.5085 Z1.3000 F50.
G1 X6.7009 Y-18.5085 Z0.9250 F150.
G1 X4.2979 Y-18.5085 Z0.9250
G1 X4.2977 Y-18.5085 Z1.3000
G1 X4.2977 Y-18.5085 Z1.3250
G0 Z2.0000
G0 X4.2977 Y-18.5085 
G0 Z2.0000
G0 X4.3268 Y-18.3210 
G1 X4.3268 Y-18.3210 Z1.3250 F75.
G1 X4.3268 Y-18.3210 Z1.3000 F50.
G1 X4.3270 Y-18.3210 Z0.9250 F150.
G1 X6.6680 Y-18.3210 Z0.9250
G1 X6.6681 Y-18.3210 Z1.3000
G1 X6.6681 Y-18.3210 Z1.3250
G0 Z2.0000
G0 X6.6681 Y-18.3210 
G0 Z2.0000
G0 X6.6660 Y-18.1335 
G1 X6.6660 Y-18.1335 Z1.3250 F75.
G1 X6.6660 Y-18.1335 Z1.3000 F50.
G1 X6.6658 Y-18.1335 Z0.9250 F150.
G1 X4.3632 Y-18.1335 Z0.9250
G1 X4.3630 Y-18.1335 Z1.3000
G1 X4.3630 Y-18.1335 Z1.3250
G0 Z2.0000
G0 X4.3630 Y-18.1335 
G0 Z2.0000
G0 X4.4051 Y-17.9460 
G1 X4.4051 Y-17.9460 Z1.3250 F75.
G1 X4.4051 Y-17.9460 Z1.3000 F50.
G1 X4.4053 Y-17.9460 Z0.9250 F150.
G1 X6.6943 Y-17.9460 Z0.9250
G1 X6.6945 Y-17.9460 Z1.3000
G1 X6.6945 Y-17.9460 Z1.3250
G0 Z2.0000
G0 X6.6945 Y-17.9460 
G0 Z2.0000
G0 X6.7552 Y-17.7585 
G1 X6.7552 Y-17.7585 Z1.3250 F75.
G1 X6.7552 Y-17.7585 Z1.3000 F50.
G1 X6.7550 Y-17.7585 Z0.9250 F150.
G1 X4.4523 Y-17.7585 Z0.9250
G1 X4.4522 Y-17.7585 Z1.3000
G1 X4.4522 Y-17.7585 Z1.3250
G0 Z2.0000
G0 X4.4522 Y-17.7585 
G0 Z2.0000
G0 X4.7737 Y-17.5710 
G1 X4.7737 Y-17.5710 Z1.3250 F75.
G1 X4.7737 Y-17.5710 Z1.3000 F50.
G1 X4.7740 Y-17.5710 Z0.9250 F150.
G1 X6.8543 Y-17.5710 Z0.9250
G1 X6.8545 Y-17.5710 Z1.3000
G1 X6.8545 Y-17.5710 Z1.3250
G0 Z2.0000
G0 X6.8545 Y-17.5710 
G0 Z2.0000
G0 X7.0050 Y-17.3835 
G1 X7.0050 Y-17.3835 Z1.3250 F75.
G1 X7.0050 Y-17.3835 Z1.3000 F50.
G1 X7.0048 Y-17.3835 Z0.9250 F150.
G1 X5.0575 Y-17.3835 Z0.9250
G1 X5.0572 Y-17.3835 Z1.3000
G1 X5.0572 Y-17.3835 Z1.3250
G0 Z2.0000
G0 X5.0572 Y-17.3835 
G0 Z2.0000
G0 X5.2165 Y-17.1960 
G1 X5.2165 Y-17.1960 Z1.3250 F75.
G1 X5.2165 Y-17.1960 Z1.3000 F50.
G1 X5.2166 Y-17.1960 Z0.9250 F150.
G1 X7.0159 Y-17.1960 Z0.9250
G1 X7.0161 Y-17.1960 Z1.3000
G1 X7.0161 Y-17.1960 Z1.3250
G0 Z2.0000
G0 X7.0161 Y-17.1960 
G0 Z2.0000
G0 X7.0158 Y-17.0085 
G1 X7.0158 Y-17.0085 Z1.3250 F75.
G1 X7.0158 Y-17.0085 Z1.3000 F50.
G1 X7.0156 Y-17.0085 Z0.9250 F150.
G1 X5.3151 Y-17.0085 Z0.9250
G1 X5.3149 Y-17.0085 Z1.3000
G1 X5.3149 Y-17.0085 Z1.3250
G0 Z2.0000
G0 X5.3149 Y-17.0085 
G0 Z2.0000
G0 X5.3716 Y-16.8210 
G1 X5.3716 Y-16.8210 Z1.3250 F75.
G1 X5.3716 Y-16.8210 Z1.3000 F50.
G1 X5.3720 Y-16.8210 Z0.9250 F150.
G1 X7.0163 Y-16.8210 Z0.9250
G1 X7.0165 Y-16.8210 Z1.3000
G1 X7.0165 Y-16.8210 Z1.3250
G0 Z2.0000
G0 X7.0165 Y-16.8210 
G0 Z2.0000
G0 X7.0158 Y-16.6335 
G1 X7.0158 Y-16.6335 Z1.3250 F75.
G1 X7.0158 Y-16.6335 Z1.3000 F50.
G1 X7.0156 Y-16.6335 Z0.9250 F150.
G1 X5.3913 Y-16.6335 Z0.9250
G1 X5.3911 Y-16.6335 Z1.3000
G1 X5.3911 Y-16.6335 Z1.3250
G0 Z2.0000
G0 X5.3911 Y-16.6335 
G0 Z2.0000
G0 X5.3764 Y-16.4460 
G1 X5.3764 Y-16.4460 Z1.3250 F75.
G1 X5.3764 Y-16.4460 Z1.3000 F50.
G1 X5.3766 Y-16.4460 Z0.9250 F150.
G1 X7.0159 Y-16.4460 Z0.9250
G1 X7.0161 Y-16.4460 Z1.3000
G1 X7.0161 Y-16.4460 Z1.3250
G0 Z2.0000
G0 X7.0161 Y-16.4460 
G0 Z2.0000
G0 X7.0158 Y-16.2585 
G1 X7.0158 Y-16.2585 Z1.3250 F75.
G1 X7.0158 Y-16.2585 Z1.3000 F50.
G1 X7.0156 Y-16.2585 Z0.9250 F150.
G1 X5.3264 Y-16.2585 Z0.9250
G1 X5.3261 Y-16.2585 Z1.3000
G1 X5.3261 Y-16.2585 Z1.3250
G0 Z2.0000
G0 X5.3261 Y-16.2585 
G0 Z2.0000
G0 X5.2348 Y-16.0710 
G1 X5.2348 Y-16.0710 Z1.3250 F75.
G1 X5.2348 Y-16.0710 Z1.3000 F50.
G1 X5.2350 Y-16.0710 Z0.9250 F150.
G1 X7.0161 Y-16.0710 Z0.9250
G1 X7.0163 Y-16.0710 Z1.3000
G1 X7.0163 Y-16.0710 Z1.3250
G0 Z2.0000
G0 X7.0163 Y-16.0710 
G0 Z2.0000
G0 X7.0159 Y-15.8835 
G1 X7.0159 Y-15.8835 Z1.3250 F75.
G1 X7.0159 Y-15.8835 Z1.3000 F50.
G1 X7.0157 Y-15.8835 Z0.9250 F150.
G1 X5.0874 Y-15.8835 Z0.9250
G1 X5.0871 Y-15.8835 Z1.3000
G0 Z1.3000
G0 X5.1561 Y-15.6960 
G1 X5.1562 Y-15.6960 Z0.9250 F150.
G1 X7.0161 Y-15.6960 Z0.9250
G1 X7.0163 Y-15.6960 Z1.3000
G1 X7.0163 Y-15.6960 Z1.3250
G0 Z2.0000
G0 X7.0163 Y-15.6960 
G0 Z2.0000
G0 X7.0158 Y-15.5085 
G1 X7.0158 Y-15.5085 Z1.3250 F75.
G1 X7.0158 Y-15.5085 Z1.3000 F50.
G1 X7.0156 Y-15.5085 Z0.9250 F150.
G1 X5.2500 Y-15.5085 Z0.9250
G1 X5.2497 Y-15.5085 Z1.3000
G1 X5.2497 Y-15.5085 Z1.3250
G0 Z2.0000
G0 X5.2497 Y-15.5085 
G0 Z2.0000
G0 X5.3508 Y-15.3210 
G1 X5.3508 Y-15.3210 Z1.3250 F75.
G1 X5.3508 Y-15.3210 Z1.3000 F50.
G1 X5.3510 Y-15.3210 Z0.9250 F150.
G1 X7.0159 Y-15.3210 Z0.9250
G1 X7.0161 Y-15.3210 Z1.3000
G1 X7.0161 Y-15.3210 Z1.3250
G0 Z2.0000
G0 X7.0161 Y-15.3210 
G0 Z2.0000
G0 X7.0158 Y-15.1335 
G1 X7.0158 Y-15.1335 Z1.3250 F75.
G1 X7.0158 Y-15.1335 Z1.3000 F50.
G1 X7.0156 Y-15.1335 Z0.9250 F150.
G1 X5.4519 Y-15.1335 Z0.9250
G1 X5.4517 Y-15.1335 Z1.3000
G1 X5.4517 Y-15.1335 Z1.3250
G0 Z2.0000
G0 X5.4517 Y-15.1335 
G0 Z2.0000
G0 X5.5473 Y-14.9460 
G1 X5.5473 Y-14.9460 Z1.3250 F75.
G1 X5.5473 Y-14.9460 Z1.3000 F50.
G1 X5.5476 Y-14.9460 Z0.9250 F150.
G1 X7.0157 Y-14.9460 Z0.9250
G1 X7.0160 Y-14.9460 Z0.9853
G1 X7.0161 Y-14.9460 Z1.3000
G1 X7.0161 Y-14.9460 Z1.3250
G0 Z2.0000
G0 X7.0161 Y-14.9460 
G0 Z2.0000
G0 X6.8449 Y-14.7585 
G1 X6.8449 Y-14.7585 Z1.3250 F75.
G1 X6.8449 Y-14.7585 Z1.3000 F50.
G1 X6.8447 Y-14.7585 Z0.9250 F150.
G1 X5.6363 Y-14.7585 Z0.9250
G1 X5.6363 Y-14.7585 Z1.3000
G1 X5.6363 Y-14.7585 Z1.3250
G0 Z2.0000
G0 X5.6363 Y-14.7585 
G0 Z2.0000
G0 X5.7193 Y-14.5710 
G1 X5.7193 Y-14.5710 Z1.3250 F75.
G1 X5.7193 Y-14.5710 Z1.3000 F50.
G1 X5.7194 Y-14.5710 Z0.9250 F150.
G1 X6.6645 Y-14.5710 Z0.9250
G1 X6.6647 Y-14.5710 Z1.3000
G1 X6.6647 Y-14.5710 Z1.3250
G0 Z2.0000
G0 X6.6647 Y-14.5710 
G0 Z2.0000
G0 X6.4838 Y-14.3835 
G1 X6.4838 Y-14.3835 Z1.3250 F75.
G1 X6.4838 Y-14.3835 Z1.3000 F50.
G1 X6.4836 Y-14.3835 Z0.9250 F150.
G1 X5.7955 Y-14.3835 Z0.9250
G1 X5.7954 Y-14.3835 Z1.3000
G1 X5.7954 Y-14.3835 Z1.3250
G0 Z2.0000
G0 X5.7954 Y-14.3835 
G0 Z2.0000
G0 X5.8642 Y-14.1960 
G1 X5.8642 Y-14.1960 Z1.3250 F75.
G1 X5.8642 Y-14.1960 Z1.3000 F50.
G1 X5.8643 Y-14.1960 Z0.9250 F150.
G1 X6.3033 Y-14.1960 Z0.9250
G1 X6.3035 Y-14.1960 Z1.3000
G1 X6.3035 Y-14.1960 Z1.3250
G0 Z2.0000
G0 X6.3035 Y-14.1960 
G0 Z2.0000
G0 X6.1236 Y-14.0085 
G1 X6.1236 Y-14.0085 Z1.3250 F75.
G1 X6.1236 Y-14.0085 Z1.3000 F50.
G1 X6.1234 Y-14.0085 Z0.9250 F150.
G1 X5.9252 Y-14.0085 Z0.9250
G1 X5.9251 Y-14.0085 Z1.3000
G1 X5.9251 Y-14.0085 Z1.3250
G0 Z2.0000
G0 X5.9251 Y-14.0085 
G0 Z2.0000
G0 X4.7437 Y-20.5710 
G1 X4.7437 Y-20.5710 Z0.9500 F75.
G1 X4.7437 Y-20.5710 Z0.9250 F50.
G1 X4.7439 Y-20.5710 Z0.5500 F150.
G1 X7.0004 Y-20.5710 Z0.5500
G1 X7.0006 Y-20.5710 Z0.9250
G0 Z0.9250
G0 X7.0158 Y-20.3835 
G1 X7.0157 Y-20.3835 Z0.5500 F150.
G1 X4.6184 Y-20.3835 Z0.5500
G1 X4.6182 Y-20.3835 Z0.9250
G1 X4.6182 Y-20.3835 Z0.9500
G0 Z2.0000
G0 X4.6182 Y-20.3835 
G0 Z2.0000
G0 X4.5168 Y-20.1960 
G1 X4.5168 Y-20.1960 Z0.9500 F75.
G1 X4.5168 Y-20.1960 Z0.9250 F50.
G1 X4.5169 Y-20.1960 Z0.5500 F150.
G1 X7.0163 Y-20.1960 Z0.5500
G1 X7.0164 Y-20.1960 Z0.9250
G1 X7.0164 Y-20.1960 Z0.9500
G0 Z2.0000
G0 X7.0164 Y-20.1960 
G0 Z2.0000
G0 X7.0158 Y-20.0085 
G1 X7.0158 Y-20.0085 Z0.9500 F75.
G1 X7.0158 Y-20.0085 Z0.9250 F50.
G1 X7.0156 Y-20.0085 Z0.5500 F150.
G1 X4.4331 Y-20.0085 Z0.5500
G1 X4.4330 Y-20.0085 Z0.9250
G1 X4.4330 Y-20.0085 Z0.9500
G0 Z2.0000
G0 X4.4330 Y-20.0085 
G0 Z2.0000
G0 X4.3666 Y-19.8210 
G1 X4.3666 Y-19.8210 Z0.9500 F75.
G1 X4.3666 Y-19.8210 Z0.9250 F50.
G1 X4.3667 Y-19.8210 Z0.5500 F150.
G1 X7.0162 Y-19.8210 Z0.5500
G1 X7.0164 Y-19.8210 Z0.9250
G1 X7.0164 Y-19.8210 Z0.9500
G0 Z2.0000
G0 X7.0164 Y-19.8210 
G0 Z2.0000
G0 X7.0158 Y-19.6335 
G1 X7.0158 Y-19.6335 Z0.9500 F75.
G1 X7.0158 Y-19.6335 Z0.9250 F50.
G1 X7.0156 Y-19.6335 Z0.5500 F150.
G1 X4.3194 Y-19.6335 Z0.5500
G1 X4.3192 Y-19.6335 Z0.9250
G0 Z0.9250
G0 X4.2860 Y-19.4460 
G1 X4.2862 Y-19.4460 Z0.5500 F150.
G1 X7.0162 Y-19.4460 Z0.5500
G1 X7.0164 Y-19.4460 Z0.9250
G1 X7.0164 Y-19.4460 Z0.9500
G0 Z2.0000
G0 X7.0164 Y-19.4460 
G0 Z2.0000
G0 X7.0157 Y-19.2585 
G1 X7.0157 Y-19.2585 Z0.9500 F75.
G1 X7.0157 Y-19.2585 Z0.9250 F50.
G1 X7.0156 Y-19.2585 Z0.5500 F150.
G1 X4.2665 Y-19.2585 Z0.5500
G1 X4.2663 Y-19.2585 Z0.9250
G1 X4.2663 Y-19.2585 Z0.9500
G0 Z1.4323
G0 X4.2663 Y-19.2585 
G0 Z1.4323
G0 X4.2595 Y-19.0710 
G1 X4.2595 Y-19.0710 Z0.9500 F75.
G1 X4.2595 Y-19.0710 Z0.9250 F50.
G1 X4.2597 Y-19.0710 Z0.5500 F150.
G1 X7.0159 Y-19.0710 Z0.5500
G1 X7.0161 Y-19.0710 Z0.9250
G1 X7.0161 Y-19.0710 Z0.9500
G0 Z2.0000
G0 X7.0161 Y-19.0710 
G0 Z2.0000
G0 X6.8721 Y-18.8835 
G1 X6.8721 Y-18.8835 Z0.9500 F75.
G1 X6.8721 Y-18.8835 Z0.9250 F50.
G1 X6.8720 Y-18.8835 Z0.5500 F150.
G1 X4.2628 Y-18.8835 Z0.5500
G1 X4.2626 Y-18.8835 Z0.9250
G1 X4.2626 Y-18.8835 Z0.9500
G0 Z2.0000
G0 X4.2626 Y-18.8835 
G0 Z2.0000
G0 X4.2762 Y-18.6960 
G1 X4.2762 Y-18.6960 Z0.9500 F75.
G1 X4.2762 Y-18.6960 Z0.9250 F50.
G1 X4.2765 Y-18.6960 Z0.5500 F150.
G1 X6.7667 Y-18.6960 Z0.5500
G1 X6.7670 Y-18.6960 Z0.9250
G1 X6.7670 Y-18.6960 Z0.9500
G0 Z2.0000
G0 X6.7670 Y-18.6960 
G0 Z2.0000
G0 X6.7009 Y-18.5085 
G1 X6.7009 Y-18.5085 Z0.9500 F75.
G1 X6.7009 Y-18.5085 Z0.9250 F50.
G1 X6.7007 Y-18.5085 Z0.5500 F150.
G1 X4.2980 Y-18.5085 Z0.5500
G1 X4.2979 Y-18.5085 Z0.9250
G1 X4.2979 Y-18.5085 Z0.9500
G0 Z2.0000
G0 X4.2979 Y-18.5085 
G0 Z2.0000
G0 X4.3270 Y-18.3210 
G1 X4.3270 Y-18.3210 Z0.9500 F75.
G1 X4.3270 Y-18.3210 Z0.9250 F50.
G1 X4.3273 Y-18.3210 Z0.5500 F150.
G1 X6.6679 Y-18.3210 Z0.5500
G1 X6.6680 Y-18.3210 Z0.9250
G1 X6.6680 Y-18.3210 Z0.9500
G0 Z2.0000
G0 X6.6680 Y-18.3210 
G0 Z2.0000
G0 X6.6658 Y-18.1335 
G1 X6.6658 Y-18.1335 Z0.9500 F75.
G1 X6.6658 Y-18.1335 Z0.9250 F50.
G1 X6.6656 Y-18.1335 Z0.5500 F150.
G1 X4.3635 Y-18.1335 Z0.5500
G1 X4.3632 Y-18.1335 Z0.9250
G0 Z0.9250
G0 X4.4053 Y-17.9460 
G1 X4.4055 Y-17.9460 Z0.5500 F150.
G1 X6.6941 Y-17.9460 Z0.5500
G1 X6.6943 Y-17.9460 Z0.9250
G1 X6.6943 Y-17.9460 Z0.9500
G0 Z2.0000
G0 X6.6943 Y-17.9460 
G0 Z2.0000
G0 X6.7550 Y-17.7585 
G1 X6.7550 Y-17.7585 Z0.9500 F75.
G1 X6.7550 Y-17.7585 Z0.9250 F50.
G1 X6.7548 Y-17.7585 Z0.5500 F150.
G1 X4.4525 Y-17.7585 Z0.5500
G1 X4.4523 Y-17.7585 Z0.9250
G1 X4.4523 Y-17.7585 Z0.9500
G0 Z2.0000
G0 X4.4523 Y-17.7585 
G0 Z2.0000
G0 X4.7740 Y-17.5710 
G1 X4.7740 Y-17.5710 Z0.9500 F75.
G1 X4.7740 Y-17.5710 Z0.9250 F50.
G1 X4.7742 Y-17.5710 Z0.5500 F150.
G1 X6.8541 Y-17.5710 Z0.5500
G1 X6.8543 Y-17.5710 Z0.9250
G1 X6.8543 Y-17.5710 Z0.9500
G0 Z2.0000
G0 X6.8543 Y-17.5710 
G0 Z2.0000
G0 X7.0048 Y-17.3835 
G1 X7.0048 Y-17.3835 Z0.9500 F75.
G1 X7.0048 Y-17.3835 Z0.9250 F50.
G1 X7.0046 Y-17.3835 Z0.5500 F150.
G1 X5.0577 Y-17.3835 Z0.5500
G1 X5.0575 Y-17.3835 Z0.9250
G1 X5.0575 Y-17.3835 Z0.9500
G0 Z2.0000
G0 X5.0575 Y-17.3835 
G0 Z2.0000
G0 X5.2165 Y-17.1960 
G1 X5.2165 Y-17.1960 Z0.9500 F75.
G1 X5.2165 Y-17.1960 Z0.9250 F50.
G1 X5.2166 Y-17.1960 Z0.5500 F150.
G1 X7.0158 Y-17.1960 Z0.5500
G1 X7.0159 Y-17.1960 Z0.9250
G0 Z0.9250
G0 X7.0156 Y-17.0085 
G1 X7.0155 Y-17.0085 Z0.5500 F150.
G1 X5.3153 Y-17.0085 Z0.5500
G1 X5.3151 Y-17.0085 Z0.9250
G1 X5.3151 Y-17.0085 Z0.9500
G0 Z2.0000
G0 X5.3151 Y-17.0085 
G0 Z2.0000
G0 X5.3720 Y-16.8210 
G1 X5.3720 Y-16.8210 Z0.9500 F75.
G1 X5.3720 Y-16.8210 Z0.9250 F50.
G1 X5.3724 Y-16.8210 Z0.5500 F150.
G1 X7.0161 Y-16.8210 Z0.5500
G1 X7.0163 Y-16.8210 Z0.9250
G1 X7.0163 Y-16.8210 Z0.9500
G0 Z2.0000
G0 X7.0163 Y-16.8210 
G0 Z2.0000
G0 X7.0156 Y-16.6335 
G1 X7.0156 Y-16.6335 Z0.9500 F75.
G1 X7.0156 Y-16.6335 Z0.9250 F50.
G1 X7.0155 Y-16.6335 Z0.5500 F150.
G1 X5.3915 Y-16.6335 Z0.5500
G1 X5.3913 Y-16.6335 Z0.9250
G1 X5.3913 Y-16.6335 Z0.9500
G0 Z2.0000
G0 X5.3913 Y-16.6335 
G0 Z2.0000
G0 X5.3766 Y-16.4460 
G1 X5.3766 Y-16.4460 Z0.9500 F75.
G1 X5.3766 Y-16.4460 Z0.9250 F50.
G1 X5.3769 Y-16.4460 Z0.5666 F150.
G1 X5.4505 Y-16.4460 Z0.5500
G1 X7.0157 Y-16.4460 Z0.5500
G1 X7.0159 Y-16.4460 Z0.9250
G0 Z0.9250
G0 X7.0156 Y-16.2585 
G1 X7.0155 Y-16.2585 Z0.5500 F150.
G1 X5.5707 Y-16.2585 Z0.5500
G1 X5.3267 Y-16.2585 Z0.6064
G1 X5.3264 Y-16.2585 Z0.9250
G1 X5.3264 Y-16.2585 Z0.9500
G0 Z2.0000
G0 X5.3264 Y-16.2585 
G0 Z2.0000
G0 X5.2350 Y-16.0710 
G1 X5.2350 Y-16.0710 Z0.9500 F75.
G1 X5.2350 Y-16.0710 Z0.9250 F50.
G1 X5.2352 Y-16.0710 Z0.6565 F150.
G1 X5.5781 Y-16.0710 Z0.5751
G1 X5.6850 Y-16.0710 Z0.5500
G1 X7.0160 Y-16.0710 Z0.5500
G1 X7.0161 Y-16.0710 Z0.9250
G1 X7.0161 Y-16.0710 Z0.9500
G0 Z2.0000
G0 X7.0161 Y-16.0710 
G0 Z2.0000
G0 X7.0157 Y-15.8835 
G1 X7.0157 Y-15.8835 Z0.9500 F75.
G1 X7.0157 Y-15.8835 Z0.9250 F50.
G1 X7.0156 Y-15.8835 Z0.5500 F150.
G1 X5.7913 Y-15.8835 Z0.5500
G1 X5.5160 Y-15.8835 Z0.6167
G1 X5.3051 Y-15.8835 Z0.6672
G1 X5.0876 Y-15.8835 Z0.7187
G1 X5.0874 Y-15.8835 Z0.9250
G0 Z0.9250
G0 X5.1562 Y-15.6960 
G1 X5.1562 Y-15.6960 Z0.7317 F150.
G1 X5.8940 Y-15.6960 Z0.5500
G1 X7.0160 Y-15.6960 Z0.5500
G1 X7.0161 Y-15.6960 Z0.9250
G1 X7.0161 Y-15.6960 Z0.9500
G0 Z2.0000
G0 X7.0161 Y-15.6960 
G0 Z2.0000
G0 X7.0156 Y-15.5085 
G1 X7.0156 Y-15.5085 Z0.9500 F75.
G1 X7.0156 Y-15.5085 Z0.9250 F50.
G1 X7.0154 Y-15.5085 Z0.5500 F150.
G1 X5.9892 Y-15.5085 Z0.5500
G1 X5.8910 Y-15.5085 Z0.5752
G1 X5.7973 Y-15.5085 Z0.5989
G1 X5.2502 Y-15.5085 Z0.7380
G1 X5.2500 Y-15.5085 Z0.9250
G0 Z0.9250
G0 X5.3509 Y-15.3210 
G1 X5.3510 Y-15.3210 Z0.7394 F150.
G1 X5.4877 Y-15.3210 Z0.7046
G1 X5.6284 Y-15.3210 Z0.6682
G1 X5.8627 Y-15.3210 Z0.6068
G1 X6.0806 Y-15.3210 Z0.5500
G1 X7.0157 Y-15.3210 Z0.5500
G1 X7.0159 Y-15.3210 Z0.9250
G0 Z0.9250
G0 X7.0156 Y-15.1335 
G1 X7.0154 Y-15.1335 Z0.5500 F150.
G1 X6.1680 Y-15.1335 Z0.5500
G1 X5.8910 Y-15.1335 Z0.6238
G1 X5.5160 Y-15.1335 Z0.7248
G1 X5.4519 Y-15.1335 Z0.7418
G1 X5.4519 Y-15.1335 Z0.9250
G1 X5.4519 Y-15.1335 Z0.9500
G0 Z2.0000
G0 X5.4519 Y-15.1335 
G0 Z2.0000
G0 X5.5476 Y-14.9460 
G1 X5.5476 Y-14.9460 Z0.9500 F75.
G1 X5.5476 Y-14.9460 Z0.9250 F50.
G1 X5.5477 Y-14.9460 Z0.7415 F150.
G1 X5.7828 Y-14.9460 Z0.6779
G1 X5.8766 Y-14.9460 Z0.6522
G1 X6.2466 Y-14.9460 Z0.5500
G1 X7.0150 Y-14.9460 Z0.5500
G1 X7.0155 Y-14.9460 Z0.8738
G1 X7.0157 Y-14.9460 Z0.9250
G1 X7.0157 Y-14.9460 Z0.9500
G0 Z1.1799
G0 X7.0157 Y-14.9460 
G0 Z1.1799
G0 X6.8447 Y-14.7585 
G1 X6.8447 Y-14.7585 Z0.9500 F75.
G1 X6.8447 Y-14.7585 Z0.9250 F50.
G1 X6.8444 Y-14.7585 Z0.5500 F150.
G1 X6.3240 Y-14.7585 Z0.5500
G1 X6.2211 Y-14.7585 Z0.5789
G1 X6.0336 Y-14.7585 Z0.6320
G1 X5.7784 Y-14.7585 Z0.7050
G1 X5.7106 Y-14.7585 Z0.7242
G1 X5.6364 Y-14.7585 Z0.7449
G1 X5.6363 Y-14.7585 Z0.9250
G1 X5.6363 Y-14.7585 Z0.9500
G0 Z2.0000
G0 X5.6363 Y-14.7585 
G0 Z2.0000
G0 X5.7194 Y-14.5710 
G1 X5.7194 Y-14.5710 Z0.9500 F75.
G1 X5.7194 Y-14.5710 Z0.9250 F50.
G1 X5.7194 Y-14.5710 Z0.7449 F150.
G1 X6.3412 Y-14.5710 Z0.5659
G1 X6.3958 Y-14.5710 Z0.5500
G1 X6.6643 Y-14.5710 Z0.5500
G1 X6.6645 Y-14.5710 Z0.9250
G1 X6.6645 Y-14.5710 Z0.9500
G0 Z2.0000
G0 X6.6645 Y-14.5710 
G0 Z2.0000
G0 X6.4836 Y-14.3835 
G1 X6.4836 Y-14.3835 Z0.9500 F75.
G1 X6.4836 Y-14.3835 Z0.9250 F50.
G1 X6.4833 Y-14.3835 Z0.5500 F150.
G1 X6.4598 Y-14.3835 Z0.5500
G1 X5.7956 Y-14.3835 Z0.7486
G1 X5.7955 Y-14.3835 Z0.9250
G1 X5.7955 Y-14.3835 Z0.9500
G0 Z2.0000
G0 X5.7955 Y-14.3835 
G0 Z2.0000
G0 X5.8643 Y-14.1960 
G1 X5.8643 Y-14.1960 Z0.9500 F75.
G1 X5.8643 Y-14.1960 Z0.9250 F50.
G1 X5.8643 Y-14.1960 Z0.7537 F150.
G1 X6.3031 Y-14.1960 Z0.6172
G1 X6.3033 Y-14.1960 Z0.9250
G1 X6.3033 Y-14.1960 Z0.9500
G0 Z2.0000
G0 X6.3033 Y-14.1960 
G0 Z2.0000
G0 X6.1234 Y-14.0085 
G1 X6.1234 Y-14.0085 Z0.9500 F75.
G1 X6.1234 Y-14.0085 Z0.9250 F50.
G1 X6.1232 Y-14.0085 Z0.6944 F150.
G1 X5.9252 Y-14.0085 Z0.7568
G1 X5.9252 Y-14.0085 Z0.9250
G1 X5.9252 Y-14.0085 Z0.9500
G0 Z1.0068
G0 X5.9252 Y-14.0085 
G0 Z1.0068
G0 X4.7439 Y-20.5710 
G1 X4.7439 Y-20.5710 Z0.5750 F75.
G1 X4.7439 Y-20.5710 Z0.5500 F50.
G1 X4.7440 Y-20.5710 Z0.2500 F150.
G1 X7.0002 Y-20.5710 Z0.2500
G1 X7.0004 Y-20.5710 Z0.5500
G0 Z0.5500
G0 X7.0157 Y-20.3835 
G1 X7.0155 Y-20.3835 Z0.2500 F150.
G1 X4.6185 Y-20.3835 Z0.2500
G1 X4.6184 Y-20.3835 Z0.5500
G0 Z0.5500
G0 X4.5169 Y-20.1960 
G1 X4.5171 Y-20.1960 Z0.2500 F150.
G1 X7.0161 Y-20.1960 Z0.2500
G1 X7.0163 Y-20.1960 Z0.5500
G1 X7.0163 Y-20.1960 Z0.5750
G0 Z2.0000
G0 X7.0163 Y-20.1960 
G0 Z2.0000
G0 X7.0156 Y-20.0085 
G1 X7.0156 Y-20.0085 Z0.5750 F75.
G1 X7.0156 Y-20.0085 Z0.5500 F50.
G1 X7.0155 Y-20.0085 Z0.2500 F150.
G1 X4.4332 Y-20.0085 Z0.2500
G1 X4.4331 Y-20.0085 Z0.5500
G0 Z0.5500
G0 X4.3667 Y-19.8210 
G1 X4.3669 Y-19.8210 Z0.2500 F150.
G1 X7.0161 Y-19.8210 Z0.2500
G1 X7.0162 Y-19.8210 Z0.5500
G1 X7.0162 Y-19.8210 Z0.5750
G0 Z2.0000
G0 X7.0162 Y-19.8210 
G0 Z2.0000
G0 X7.0156 Y-19.6335 
G1 X7.0156 Y-19.6335 Z0.5750 F75.
G1 X7.0156 Y-19.6335 Z0.5500 F50.
G1 X7.0154 Y-19.6335 Z0.2500 F150.
G1 X4.3195 Y-19.6335 Z0.2500
G1 X4.3194 Y-19.6335 Z0.5500
G0 Z0.5500
G0 X4.2862 Y-19.4460 
G1 X4.2863 Y-19.4460 Z0.2500 F150.
G1 X7.0161 Y-19.4460 Z0.2500
G1 X7.0162 Y-19.4460 Z0.5500
G1 X7.0162 Y-19.4460 Z0.5750
G0 Z2.0000
G0 X7.0162 Y-19.4460 
G0 Z2.0000
G0 X7.0156 Y-19.2585 
G1 X7.0156 Y-19.2585 Z0.5750 F75.
G1 X7.0156 Y-19.2585 Z0.5500 F50.
G1 X7.0154 Y-19.2585 Z0.2500 F150.
G1 X4.4600 Y-19.2585 Z0.2501
G1 X4.2666 Y-19.2585 Z0.2803
G1 X4.2665 Y-19.2585 Z0.5500
G1 X4.2665 Y-19.2585 Z0.5750
G0 Z0.8054
G0 X4.2665 Y-19.2585 
G0 Z0.8054
G0 X4.2597 Y-19.0710 
G1 X4.2597 Y-19.0710 Z0.5750 F75.
G1 X4.2597 Y-19.0710 Z0.5500 F50.
G1 X4.2598 Y-19.0710 Z0.3196 F150.
G1 X4.3885 Y-19.0710 Z0.2992
G1 X4.6912 Y-19.0710 Z0.2500
G1 X7.0157 Y-19.0710 Z0.2500
G1 X7.0159 Y-19.0710 Z0.5500
G1 X7.0159 Y-19.0710 Z0.5750
G0 Z2.0000
G0 X7.0159 Y-19.0710 
G0 Z2.0000
G0 X6.8720 Y-18.8835 
G1 X6.8720 Y-18.8835 Z0.5750 F75.
G1 X6.8720 Y-18.8835 Z0.5500 F50.
G1 X6.8718 Y-18.8835 Z0.2500 F150.
G1 X4.9045 Y-18.8835 Z0.2500
G1 X4.6072 Y-18.8835 Z0.3003
G1 X4.3061 Y-18.8835 Z0.3498
G1 X4.2629 Y-18.8835 Z0.3568
G1 X4.2628 Y-18.8835 Z0.5500
G0 Z0.5500
G0 X4.2764 Y-18.6960 
G1 X4.2765 Y-18.6960 Z0.3918 F150.
G1 X4.6143 Y-18.6960 Z0.3351
G1 X4.9423 Y-18.6960 Z0.2786
G1 X5.1049 Y-18.6960 Z0.2500
G1 X6.7666 Y-18.6960 Z0.2500
G1 X6.7667 Y-18.6960 Z0.5500
G1 X6.7667 Y-18.6960 Z0.5750
G0 Z2.0000
G0 X6.7667 Y-18.6960 
G0 Z2.0000
G0 X6.7007 Y-18.5085 
G1 X6.7007 Y-18.5085 Z0.5750 F75.
G1 X6.7007 Y-18.5085 Z0.5500 F50.
G1 X6.7006 Y-18.5085 Z0.2500 F150.
G1 X5.2921 Y-18.5085 Z0.2500
G1 X4.9384 Y-18.5085 Z0.3137
G1 X4.8446 Y-18.5085 Z0.3302
G1 X4.5399 Y-18.5085 Z0.3835
G1 X4.2981 Y-18.5085 Z0.4247
G1 X4.2980 Y-18.5085 Z0.5500
G0 Z0.5500
G0 X4.3272 Y-18.3210 
G1 X4.3273 Y-18.3210 Z0.4559 F150.
G1 X4.5353 Y-18.3210 Z0.4195
G1 X4.8612 Y-18.3210 Z0.3616
G1 X5.0722 Y-18.3210 Z0.3229
G1 X5.2128 Y-18.3210 Z0.2975
G1 X5.4677 Y-18.3210 Z0.2500
G1 X6.6678 Y-18.3210 Z0.2500
G1 X6.6679 Y-18.3210 Z0.5500
G1 X6.6679 Y-18.3210 Z0.5750
G0 Z2.0000
G0 X6.6679 Y-18.3210 
G0 Z2.0000
G0 X6.6656 Y-18.1335 
G1 X6.6656 Y-18.1335 Z0.5750 F75.
G1 X6.6656 Y-18.1335 Z0.5500 F50.
G1 X6.6655 Y-18.1335 Z0.2500 F150.
G1 X5.6328 Y-18.1335 Z0.2500
G1 X5.5310 Y-18.1335 Z0.2696
G1 X5.2028 Y-18.1335 Z0.3319
G1 X5.1208 Y-18.1335 Z0.3472
G1 X4.9333 Y-18.1335 Z0.3817
G1 X4.7810 Y-18.1335 Z0.4100
G1 X4.3635 Y-18.1335 Z0.4852
G1 X4.3635 Y-18.1335 Z0.5500
G0 Z0.5500
G0 X4.4055 Y-17.9460 
G1 X4.4055 Y-17.9460 Z0.5128 F150.
G1 X4.7232 Y-17.9460 Z0.4542
G1 X5.0982 Y-17.9460 Z0.3839
G1 X5.3795 Y-17.9460 Z0.3296
G1 X5.5201 Y-17.9460 Z0.3028
G1 X5.7881 Y-17.9460 Z0.2500
G1 X6.6939 Y-17.9460 Z0.2500
G1 X6.6941 Y-17.9460 Z0.5500
G1 X6.6941 Y-17.9460 Z0.5750
G0 Z2.0000
G0 X6.6941 Y-17.9460 
G0 Z2.0000
G0 X6.7548 Y-17.7585 
G1 X6.7548 Y-17.7585 Z0.5750 F75.
G1 X6.7548 Y-17.7585 Z0.5500 F50.
G1 X6.7547 Y-17.7585 Z0.2500 F150.
G1 X5.9344 Y-17.7585 Z0.2500
G1 X5.4920 Y-17.7585 Z0.3389
G1 X5.2107 Y-17.7585 Z0.3936
G1 X5.0701 Y-17.7585 Z0.4213
G1 X4.5838 Y-17.7585 Z0.5139
G1 X4.4525 Y-17.7585 Z0.5387
G1 X4.4525 Y-17.7585 Z0.5500
G0 Z0.5500
G0 X4.7742 Y-17.5710 
G1 X4.7742 Y-17.5710 Z0.5106 F150.
G1 X5.0042 Y-17.5710 Z0.4659
G1 X5.1448 Y-17.5710 Z0.4379
G1 X5.4261 Y-17.5710 Z0.3823
G1 X5.7307 Y-17.5710 Z0.3201
G1 X5.8479 Y-17.5710 Z0.2965
G1 X6.0721 Y-17.5710 Z0.2500
G1 X6.8540 Y-17.5710 Z0.2500
G1 X6.8541 Y-17.5710 Z0.5500
G1 X6.8541 Y-17.5710 Z0.5750
G0 Z2.0000
G0 X6.8541 Y-17.5710 
G0 Z2.0000
G0 X7.0046 Y-17.3835 
G1 X7.0046 Y-17.3835 Z0.5750 F75.
G1 X7.0046 Y-17.3835 Z0.5500 F50.
G1 X7.0045 Y-17.3835 Z0.2500 F150.
G1 X6.2018 Y-17.3835 Z0.2500
G1 X5.7967 Y-17.3835 Z0.3357
G1 X5.5623 Y-17.3835 Z0.3836
G1 X5.3748 Y-17.3835 Z0.4226
G1 X5.2811 Y-17.3835 Z0.4416
G1 X5.0577 Y-17.3835 Z0.4864
G1 X5.0577 Y-17.3835 Z0.5500
G1 X5.0577 Y-17.3835 Z0.5750
G0 Z2.0000
G0 X5.0577 Y-17.3835 
G0 Z2.0000
G0 X5.2166 Y-17.1960 
G1 X5.2166 Y-17.1960 Z0.5750 F75.
G1 X5.2166 Y-17.1960 Z0.5500 F50.
G1 X5.2166 Y-17.1960 Z0.4850 F150.
G1 X5.3171 Y-17.1960 Z0.4642
G1 X5.4343 Y-17.1960 Z0.4394
G1 X5.7156 Y-17.1960 Z0.3810
G1 X5.8093 Y-17.1960 Z0.3610
G1 X6.1140 Y-17.1960 Z0.2954
G1 X6.2191 Y-17.1960 Z0.2730
G1 X6.3242 Y-17.1960 Z0.2500
G1 X7.0156 Y-17.1960 Z0.2500
G1 X7.0158 Y-17.1960 Z0.5500
G0 Z0.5500
G0 X7.0155 Y-17.0085 
G1 X7.0153 Y-17.0085 Z0.2500 F150.
G1 X6.4389 Y-17.0085 Z0.2500
G1 X6.1723 Y-17.0085 Z0.3094
G1 X6.0785 Y-17.0085 Z0.3299
G1 X5.9379 Y-17.0085 Z0.3602
G1 X5.6567 Y-17.0085 Z0.4217
G1 X5.3154 Y-17.0085 Z0.4938
G1 X5.3153 Y-17.0085 Z0.5500
G1 X5.3153 Y-17.0085 Z0.5750
G0 Z2.0000
G0 X5.3153 Y-17.0085 
G0 Z2.0000
G0 X5.3723 Y-16.8210 
G1 X5.3723 Y-16.8210 Z0.5750 F75.
G1 X5.3723 Y-16.8210 Z0.5500 F50.
G1 X5.3724 Y-16.8210 Z0.5108 F150.
G1 X5.5474 Y-16.8210 Z0.4732
G1 X5.6412 Y-16.8210 Z0.4526
G1 X5.8053 Y-16.8210 Z0.4161
G1 X6.0162 Y-16.8210 Z0.3700
G1 X6.1334 Y-16.8210 Z0.3439
G1 X6.5479 Y-16.8210 Z0.2500
G1 X7.0159 Y-16.8210 Z0.2500
G1 X7.0161 Y-16.8210 Z0.5500
G1 X7.0161 Y-16.8210 Z0.5750
G0 Z2.0000
G0 X7.0161 Y-16.8210 
G0 Z2.0000
G0 X7.0155 Y-16.6335 
G1 X7.0155 Y-16.6335 Z0.5750 F75.
G1 X7.0155 Y-16.6335 Z0.5500 F50.
G1 X7.0153 Y-16.6335 Z0.2500 F150.
G1 X6.6498 Y-16.6335 Z0.2500
G1 X6.5473 Y-16.6335 Z0.2740
G1 X6.3598 Y-16.6335 Z0.3169
G1 X6.0317 Y-16.6335 Z0.3925
G1 X5.9379 Y-16.6335 Z0.4137
G1 X5.6098 Y-16.6335 Z0.4867
G1 X5.5160 Y-16.6335 Z0.5079
G1 X5.3915 Y-16.6335 Z0.5352
G1 X5.3915 Y-16.6335 Z0.5500
G0 Z0.5500
G0 X5.4505 Y-16.4460 
G1 X5.8832 Y-16.4460 Z0.4522 F150.
G1 X5.9770 Y-16.4460 Z0.4305
G1 X6.2348 Y-16.4460 Z0.3700
G1 X6.3989 Y-16.4460 Z0.3323
G1 X6.5241 Y-16.4460 Z0.3028
G1 X6.7453 Y-16.4460 Z0.2500
G1 X7.0156 Y-16.4460 Z0.2500
G1 X7.0157 Y-16.4460 Z0.5500
G0 Z0.5500
G0 X7.0155 Y-16.2585 
G1 X7.0153 Y-16.2585 Z0.2500 F150.
G1 X6.8351 Y-16.2585 Z0.2500
G1 X6.4067 Y-16.2585 Z0.3540
G1 X6.2895 Y-16.2585 Z0.3819
G1 X6.0317 Y-16.2585 Z0.4422
G1 X5.8910 Y-16.2585 Z0.4758
G1 X5.7738 Y-16.2585 Z0.5033
G1 X5.5707 Y-16.2585 Z0.5500
G1 X5.5707 Y-16.2585 Z0.5750
G0 Z0.8003
G0 X5.5707 Y-16.2585 
G0 Z0.8003
G0 X5.6850 Y-16.0710 
G1 X5.6850 Y-16.0710 Z0.5750 F75.
G1 X5.6850 Y-16.0710 Z0.5500 F50.
G1 X5.8827 Y-16.0710 Z0.5026 F150.
G1 X6.2109 Y-16.0710 Z0.4245
G1 X6.3281 Y-16.0710 Z0.3961
G1 X6.8833 Y-16.0710 Z0.2591
G1 X6.9199 Y-16.0710 Z0.2500
G1 X7.0158 Y-16.0710 Z0.2500
G1 X7.0160 Y-16.0710 Z0.5500
G0 Z0.5500
G0 X7.0156 Y-15.8835 
G1 X7.0155 Y-15.8835 Z0.2500 F150.
G1 X6.9977 Y-15.8835 Z0.2501
G1 X6.8194 Y-15.8835 Z0.2957
G1 X6.7302 Y-15.8835 Z0.3182
G1 X6.5356 Y-15.8835 Z0.3664
G1 X6.2192 Y-15.8835 Z0.4459
G1 X6.1020 Y-15.8835 Z0.4748
G1 X5.7913 Y-15.8835 Z0.5500
G1 X5.7913 Y-15.8835 Z0.5750
G0 Z0.8004
G0 X5.7913 Y-15.8835 
G0 Z0.8004
G0 X5.8940 Y-15.6960 
G1 X5.8940 Y-15.6960 Z0.5750 F75.
G1 X5.8940 Y-15.6960 Z0.5500 F50.
G1 X5.9626 Y-15.6960 Z0.5331 F150.
G1 X6.0563 Y-15.6960 Z0.5098
G1 X6.3142 Y-15.6960 Z0.4441
G1 X6.5720 Y-15.6960 Z0.3794
G1 X6.6188 Y-15.6960 Z0.3675
G1 X6.7595 Y-15.6960 Z0.3311
G1 X7.0158 Y-15.6960 Z0.2644
G1 X7.0160 Y-15.6960 Z0.5500
G0 Z0.5500
G0 X7.0154 Y-15.5085 
G1 X7.0153 Y-15.5085 Z0.2828 F150.
G1 X6.5473 Y-15.5085 Z0.4068
G1 X6.4125 Y-15.5085 Z0.4417
G1 X5.9892 Y-15.5085 Z0.5500
G1 X5.9892 Y-15.5085 Z0.5750
G0 Z0.8006
G0 X5.9892 Y-15.5085 
G0 Z0.8006
G0 X6.0806 Y-15.3210 
G1 X6.0806 Y-15.3210 Z0.5750 F75.
G1 X6.0806 Y-15.3210 Z0.5500 F50.
G1 X6.3315 Y-15.3210 Z0.4846 F150.
G1 X6.4721 Y-15.3210 Z0.4472
G1 X6.8272 Y-15.3210 Z0.3514
G1 X6.9079 Y-15.3210 Z0.3300
G1 X7.0156 Y-15.3210 Z0.3011
G1 X7.0157 Y-15.3210 Z0.5500
G0 Z0.5500
G0 X7.0154 Y-15.1335 
G1 X7.0153 Y-15.1335 Z0.3186 F150.
G1 X6.9217 Y-15.1335 Z0.3448
G1 X6.7814 Y-15.1335 Z0.3833
G1 X6.5004 Y-15.1335 Z0.4593
G1 X6.3129 Y-15.1335 Z0.5108
G1 X6.1680 Y-15.1335 Z0.5500
G1 X6.1680 Y-15.1335 Z0.5750
G0 Z0.8006
G0 X6.1680 Y-15.1335 
G0 Z0.8006
G0 X6.2466 Y-14.9460 
G1 X6.2466 Y-14.9460 Z0.5750 F75.
G1 X6.2466 Y-14.9460 Z0.5500 F50.
G1 X6.6266 Y-14.9460 Z0.4452 F150.
G1 X6.8141 Y-14.9460 Z0.3927
G1 X7.0147 Y-14.9460 Z0.3353
G1 X7.0150 Y-14.9460 Z0.5500
G0 Z0.5500
G0 X6.8445 Y-14.7585 
G1 X6.8444 Y-14.7585 Z0.4008 F150.
G1 X6.6582 Y-14.7585 Z0.4551
G1 X6.5961 Y-14.7585 Z0.4730
G1 X6.4555 Y-14.7585 Z0.5130
G1 X6.3240 Y-14.7585 Z0.5500
G1 X6.3240 Y-14.7585 Z0.5750
G0 Z0.8003
G0 X6.3240 Y-14.7585 
G0 Z0.8003
G0 X6.3958 Y-14.5710 
G1 X6.3958 Y-14.5710 Z0.5750 F75.
G1 X6.3958 Y-14.5710 Z0.5500 F50.
G1 X6.4350 Y-14.5710 Z0.5386 F150.
G1 X6.6642 Y-14.5710 Z0.4706
G1 X6.6643 Y-14.5710 Z0.5500
G0 Z0.5500
G0 X6.4833 Y-14.3835 
G1 X6.4833 Y-14.3835 Z0.5430 F150.
G1 X6.4598 Y-14.3835 Z0.5500
G1 X6.4598 Y-14.3835 Z0.5750
G0 Z6.0000
G0 X6.4598 Y-14.3835 
M5
G53 Z
G0 X2Y0
( END FILE 04-Chambered-03.nc )
