( BEGIN FILE 09-FullBody-Adcock-04-end.ncTNUM: -1 )
( Lefty:False Nunits:1 )
( cline: 9.733 delta:15.5 )
( start_unit: 1 num_units: 1)
( MOP:  09-FullBody-Adcock-04-end )
( FILE: G:\Shared drives\AlloyProjectFiles\Customer CAD files\Alloy-Standard-Builds-CAM\s-in\FullAdcock-Specific\09-FullBody-Adcock-04-end.nc)
G90
(  BEGIN TOOL LIST )
(  TOOL 11 - Downcut PT750 ROUGH - DESC: 0.7500 DIA, 2 FLUTE,  CARBIDE MAT )
(  ENDOF TOOL LIST )
( 09-FullBody-Adcock-04-end)
T11
S14000
M3
G0 Z6.0000
G0 X3.3766 Y-20.8229 
G1 X3.3766 Y-20.8229 Z1.8500 F75.
G1 X3.3736 Y-20.8173 Z1.8489 F50.
G1 X3.2884 Y-20.6389 Z1.8140
G1 X3.2387 Y-20.5239 Z1.7919
G1 X3.1879 Y-20.3936 Z1.7673
G1 X3.1387 Y-20.2504 Z1.7406
G1 X3.0932 Y-20.0961 Z1.7122
G1 X3.0528 Y-19.9327 Z1.6825
G1 X3.0190 Y-19.7617 Z1.6518
G1 X2.9923 Y-19.5850 Z1.6203
G1 X2.9733 Y-19.4039 Z1.5882
G1 X2.9621 Y-19.2200 Z1.5557
G1 X2.9586 Y-19.0382 Z1.5236
G1 X2.9598 Y-18.9333 Z1.5051
G1 X2.9637 Y-18.8242 Z1.4859
G1 X2.9770 Y-18.6212 Z1.4500
G1 X2.9878 Y-18.5082 Z1.4500 F150.
G1 X3.0012 Y-18.3938 Z1.4500
G17
G2X3.1580Y-17.5711Z1.4500I7.2335J-0.9524
G2X3.2998Y-17.0476Z1.4500I12.0253J-2.9751
G2X3.6810Y-15.8700Z1.4500I20.4590J-5.9732
G2X4.0171Y-15.0643Z1.4500I7.7033J-2.7400
G2X4.2561Y-14.6132Z1.4500I9.2104J-4.5907
G3X4.5596Y-13.9742Z1.4500I-5.3018J2.9094
G3X4.7603Y-13.3299Z1.4500I-3.7600J1.5247
G3X4.8252Y-12.6425Z1.4500I-2.7235J0.6042
G3X4.7667Y-12.1893Z1.4500I-2.4728J-0.0892
G3X4.6080Y-11.6905Z1.4500I-3.1194J-0.7177
G1 X4.5619 Y-11.5801 Z1.4500
G1 X4.5153 Y-11.4751 Z1.4500
G1 X4.4203 Y-11.2724 Z1.4500
G1 X4.2478 Y-10.9132 Z1.4500
G2X4.0475Y-10.4445Z1.4500I5.9575J2.8232
G2X3.8781Y-9.8719Z1.4500I3.6187J1.3815
G1 X3.8598 Y-9.7750 Z1.4500
G1 X3.8364 Y-9.6143 Z1.4500
G1 X3.8235 Y-9.4739 Z1.4500
G1 X3.8176 Y-9.3512 Z1.4500
G1 X3.8158 Y-9.1647 Z1.4500
G1 X3.8195 Y-8.8818 Z1.4500
G1 X3.8266 Y-8.6350 Z1.4500
G2X3.9711Y-7.6930Z1.4500I4.6211J-0.2269
G2X4.3004Y-6.7650Z1.4500I5.1293J-1.2980
G2X4.4273Y-6.5260Z1.4500I2.6949J-1.2780
G2X5.1517Y-6.2948Z1.4500I0.4934J-0.2953
G2X5.4756Y-6.9727Z1.4500I-0.2312J-0.5267
G3X5.3707Y-8.2719Z1.4500I2.9346J-0.8907
G3X5.5376Y-8.8681Z1.4500I2.1843J0.2898
G3X5.8644Y-9.3330Z1.4500I1.3362J0.5921
G3X6.9486Y-9.7916Z1.4500I1.1733J1.2630
G3X7.9333Y-9.4658Z1.4500I0.0641J1.4577
G3X8.0861Y-9.3079Z1.4500I-0.6023J0.7357
G3X8.2020Y-9.0624Z1.4500I-0.4790J0.3762
G3X8.2088Y-8.9786Z1.4500I-0.4148J0.0758
G1 X8.2113 Y-7.1935 Z1.4500
G2X8.2324Y-7.0584Z1.4500I0.6026J-0.0248
G1 X8.2497 Y-7.0029 Z1.4500
G1 X8.2645 Y-6.9669 Z1.4500
G1 X8.2975 Y-6.9039 Z1.4500
G1 X8.3189 Y-6.8700 Z1.4500
G2X8.4081Y-6.7673Z1.4500I0.6317J-0.4588
G1 X8.4646 Y-6.7214 Z1.4500
G1 X8.4976 Y-6.6987 Z1.4500
G2X8.6171Y-6.6408Z1.4500I0.3993J-0.6719
G1 X8.6883 Y-6.6202 Z1.4500
G1 X8.7246 Y-6.6130 Z1.4500
G1 X8.7509 Y-6.6098 Z1.4500
G1 X8.8104 Y-6.6051 Z1.4500
G1 X10.6291 Y-6.6054 Z1.4500
G2X10.9229Y-6.6916Z1.4500I-0.0191J-0.6087
G1 X10.9752 Y-6.7263 Z1.4500
G2X11.0829Y-6.8286Z1.4500I-0.3741J-0.5015
G1 X11.1241 Y-6.8845 Z1.4500
G1 X11.1431 Y-6.9159 Z1.4500
G1 X11.1739 Y-6.9788 Z1.4500
G1 X11.1878 Y-7.0149 Z1.4500
G1 X11.1957 Y-7.0414 Z1.4500
G1 X11.2096 Y-7.0973 Z1.4500
G1 X11.2364 Y-7.2498 Z1.4500
G3X11.2966Y-7.4551Z1.4500I0.9837J0.1772
G1 X11.3148 Y-7.4920 Z1.4500
G3X11.7847Y-7.8700Z1.4500I0.7490J0.4503
G3X12.1959Y-7.9208Z1.4500I0.3297J0.9785
G3X12.4131Y-7.8907Z1.4500I-0.1669J2.0044
G3X13.0403Y-7.4869Z1.4500I-0.2360J1.0555
G3X13.1961Y-7.2293Z1.4500I-1.1894J0.8953
G3X13.5478Y-5.4699Z1.4500I-2.9709J1.5087
G3X13.2525Y-4.3717Z1.4500I-3.0994J-0.2443
G2X13.4405Y-3.6189Z1.4500I0.5539J0.2616
G2X14.2179Y-3.6564Z1.4500I0.3659J-0.4912
G2X14.6095Y-4.0801Z1.4500I-2.4731J-2.6787
G2X15.4141Y-5.4933Z1.4500I-4.3143J-3.3920
G1 X15.4435 Y-5.5919 Z1.4500
G1 X15.4750 Y-5.7183 Z1.4500
G2X15.5884Y-6.3254Z1.4500I-6.1583J-1.4637
G2X15.6352Y-7.0546Z1.4500I-5.3189J-0.7076
G2X15.5784Y-8.1597Z1.4500I-12.9050J0.1088
G2X15.5346Y-8.4683Z1.4500I-2.8469J0.2469
G1 X15.4940 Y-8.6270 Z1.4500
G1 X15.3525 Y-9.1423 Z1.4500
G1 X15.2230 Y-9.5883 Z1.4500
G1 X15.1050 Y-9.9782 Z1.4500
G1 X14.9016 Y-10.6406 Z1.4500
G3X14.7460Y-11.1974Z1.4500I11.5502J-3.5286
G3X14.6304Y-11.8059Z1.4500I4.7972J-1.2266
G3X14.6170Y-12.3176Z1.4500I2.6564J-0.3256
G3X14.6983Y-12.7495Z1.4500I2.0763J0.1675
G3X14.7862Y-13.0144Z1.4500I3.6033J1.0474
G3X15.0004Y-13.5463Z1.4500I11.3553J4.2654
G1 X15.1476 Y-13.8872 Z1.4500
G2X15.5286Y-14.7720Z1.4500I-42.4660J-18.8113
G2X16.2309Y-16.8604Z1.4500I-15.0247J-6.2150
G2X16.4088Y-17.6633Z1.4500I-11.3957J-2.9456
G1 X16.4538 Y-17.9305 Z1.4500
G2X16.5420Y-19.0010Z1.4500I-6.9647J-1.1126
G2X16.4857Y-19.7234Z1.4500I-4.4835J-0.0137
G2X15.8861Y-21.2132Z1.4500I-3.6229J0.5926
G2X14.6305Y-22.3918Z1.4500I-3.2786J2.2346
G2X13.9038Y-22.7393Z1.4500I-2.3218J3.9212
G2X12.4061Y-23.1162Z1.4500I-2.4338J6.5076
G1 X12.1670 Y-23.1439 Z1.4500
G1 X11.9233 Y-23.1642 Z1.4500
G1 X11.6710 Y-23.1783 Z1.4500
G1 X11.4058 Y-23.1874 Z1.4500
G1 X11.1218 Y-23.1928 Z1.4500
G1 X10.4857 Y-23.1967 Z1.4500
G1 X10.1202 Y-23.1974 Z1.4500
G1 X8.7299 Y-23.1973 Z1.4500
G1 X8.2570 Y-23.1938 Z1.4500
G2X7.2230Y-23.1456Z1.4500I0.1602J14.5396
G2X6.3405Y-23.0107Z1.4500I0.5589J6.6107
G2X5.3932Y-22.6849Z1.4500I1.0413J4.5674
G2X4.2109Y-21.9274Z1.4500I2.2312J4.7839
G2X3.8359Y-21.5497Z1.4500I2.0380J2.3981
G2X3.6309Y-21.2614Z1.4500I2.0863J1.7013
G2X3.3736Y-20.8173Z1.4500I5.1474J3.2783
G1 X3.2884 Y-20.6389 Z1.4500
G2X3.0528Y-19.9327Z1.4500I3.2737J1.4844
G1 X3.0190 Y-19.7617 Z1.4500
G1 X2.9923 Y-19.5850 Z1.4500
G1 X2.9733 Y-19.4039 Z1.4500
G2X2.9637Y-18.8242Z1.4500I4.5109J0.3644
G1 X2.9770 Y-18.6212 Z1.4500
G2X3.0419Y-18.1256Z1.4500I5.6177J-0.4839
G0 Z3.0500
G0 X3.0419 Y-18.1256 
G0 Z3.0500
G0 X3.3766 Y-20.8229 
G1 X3.3766 Y-20.8229 Z1.5500 F75.
G1 X3.3736 Y-20.8173 Z1.5489 F50.
G1 X3.2884 Y-20.6389 Z1.5140
G1 X3.2387 Y-20.5239 Z1.4919
G1 X3.1879 Y-20.3936 Z1.4673
G1 X3.1387 Y-20.2504 Z1.4406
G1 X3.0932 Y-20.0961 Z1.4122
G1 X3.0528 Y-19.9327 Z1.3825
G1 X3.0190 Y-19.7617 Z1.3518
G1 X2.9923 Y-19.5850 Z1.3203
G1 X2.9733 Y-19.4039 Z1.2882
G1 X2.9621 Y-19.2200 Z1.2557
G1 X2.9586 Y-19.0382 Z1.2236
G1 X2.9598 Y-18.9333 Z1.2051
G1 X2.9637 Y-18.8242 Z1.1859
G1 X2.9770 Y-18.6212 Z1.1500
G1 X2.9878 Y-18.5082 Z1.1500 F150.
G1 X3.0012 Y-18.3938 Z1.1500
G2X3.1580Y-17.5711Z1.1500I7.2335J-0.9524
G2X3.2998Y-17.0476Z1.1500I12.0253J-2.9751
G2X3.6810Y-15.8700Z1.1500I20.4590J-5.9732
G2X4.0171Y-15.0643Z1.1500I7.7033J-2.7400
G2X4.2561Y-14.6132Z1.1500I9.2104J-4.5907
G3X4.5596Y-13.9742Z1.1500I-5.3018J2.9094
G3X4.7603Y-13.3299Z1.1500I-3.7600J1.5247
G3X4.8252Y-12.6425Z1.1500I-2.7235J0.6042
G3X4.7667Y-12.1893Z1.1500I-2.4728J-0.0892
G3X4.6080Y-11.6905Z1.1500I-3.1194J-0.7177
G1 X4.5619 Y-11.5801 Z1.1500
G1 X4.5153 Y-11.4751 Z1.1500
G1 X4.4203 Y-11.2724 Z1.1500
G1 X4.2478 Y-10.9132 Z1.1500
G2X4.0475Y-10.4445Z1.1500I5.9575J2.8232
G2X3.8781Y-9.8719Z1.1500I3.6187J1.3815
G1 X3.8598 Y-9.7750 Z1.1500
G1 X3.8364 Y-9.6143 Z1.1500
G1 X3.8235 Y-9.4739 Z1.1500
G1 X3.8176 Y-9.3512 Z1.1500
G1 X3.8158 Y-9.1647 Z1.1500
G1 X3.8195 Y-8.8818 Z1.1500
G1 X3.8266 Y-8.6350 Z1.1500
G2X3.9711Y-7.6930Z1.1500I4.6211J-0.2269
G2X4.3004Y-6.7650Z1.1500I5.1293J-1.2980
G2X4.4273Y-6.5260Z1.1500I2.6949J-1.2780
G2X5.1517Y-6.2948Z1.1500I0.4934J-0.2953
G2X5.4756Y-6.9727Z1.1500I-0.2312J-0.5267
G3X5.3707Y-8.2719Z1.1500I2.9346J-0.8907
G3X5.5376Y-8.8681Z1.1500I2.1843J0.2898
G3X5.8644Y-9.3330Z1.1500I1.3362J0.5921
G3X6.9486Y-9.7916Z1.1500I1.1733J1.2630
G3X7.9333Y-9.4658Z1.1500I0.0641J1.4577
G3X8.0861Y-9.3079Z1.1500I-0.6023J0.7357
G3X8.2020Y-9.0624Z1.1500I-0.4790J0.3762
G3X8.2088Y-8.9786Z1.1500I-0.4148J0.0758
G1 X8.2113 Y-7.1935 Z1.1500
G2X8.2324Y-7.0584Z1.1500I0.6026J-0.0248
G1 X8.2497 Y-7.0029 Z1.1500
G1 X8.2645 Y-6.9669 Z1.1500
G1 X8.2975 Y-6.9039 Z1.1500
G1 X8.3189 Y-6.8700 Z1.1500
G2X8.4081Y-6.7673Z1.1500I0.6317J-0.4588
G1 X8.4646 Y-6.7214 Z1.1500
G1 X8.4976 Y-6.6987 Z1.1500
G2X8.6171Y-6.6408Z1.1500I0.3993J-0.6719
G1 X8.6883 Y-6.6202 Z1.1500
G1 X8.7246 Y-6.6130 Z1.1500
G1 X8.7509 Y-6.6098 Z1.1500
G1 X8.8104 Y-6.6051 Z1.1500
G1 X10.6291 Y-6.6054 Z1.1500
G2X10.9229Y-6.6916Z1.1500I-0.0191J-0.6087
G1 X10.9752 Y-6.7263 Z1.1500
G2X11.0829Y-6.8286Z1.1500I-0.3741J-0.5015
G1 X11.1241 Y-6.8845 Z1.1500
G1 X11.1431 Y-6.9159 Z1.1500
G1 X11.1739 Y-6.9788 Z1.1500
G1 X11.1878 Y-7.0149 Z1.1500
G1 X11.1957 Y-7.0414 Z1.1500
G1 X11.2096 Y-7.0973 Z1.1500
G1 X11.2364 Y-7.2498 Z1.1500
G3X11.2966Y-7.4551Z1.1500I0.9837J0.1772
G1 X11.3148 Y-7.4920 Z1.1500
G3X11.7847Y-7.8700Z1.1500I0.7490J0.4503
G3X12.1959Y-7.9208Z1.1500I0.3297J0.9785
G3X12.4131Y-7.8907Z1.1500I-0.1669J2.0044
G3X13.0403Y-7.4869Z1.1500I-0.2360J1.0555
G3X13.1961Y-7.2293Z1.1500I-1.1894J0.8953
G3X13.5478Y-5.4699Z1.1500I-2.9709J1.5087
G3X13.2525Y-4.3717Z1.1500I-3.0994J-0.2443
G2X13.4405Y-3.6189Z1.1500I0.5539J0.2616
G2X14.2179Y-3.6564Z1.1500I0.3659J-0.4912
G2X14.6095Y-4.0801Z1.1500I-2.4731J-2.6787
G2X15.4141Y-5.4933Z1.1500I-4.3143J-3.3920
G1 X15.4435 Y-5.5919 Z1.1500
G1 X15.4750 Y-5.7183 Z1.1500
G2X15.5884Y-6.3254Z1.1500I-6.1583J-1.4637
G2X15.6352Y-7.0546Z1.1500I-5.3189J-0.7076
G2X15.5784Y-8.1597Z1.1500I-12.9050J0.1088
G2X15.5346Y-8.4683Z1.1500I-2.8469J0.2469
G1 X15.4940 Y-8.6270 Z1.1500
G1 X15.3525 Y-9.1423 Z1.1500
G1 X15.2230 Y-9.5883 Z1.1500
G1 X15.1050 Y-9.9782 Z1.1500
G1 X14.9016 Y-10.6406 Z1.1500
G3X14.7460Y-11.1974Z1.1500I11.5502J-3.5286
G3X14.6304Y-11.8059Z1.1500I4.7972J-1.2266
G3X14.6170Y-12.3176Z1.1500I2.6564J-0.3256
G3X14.6983Y-12.7495Z1.1500I2.0763J0.1675
G3X14.7862Y-13.0144Z1.1500I3.6033J1.0474
G3X15.0004Y-13.5463Z1.1500I11.3553J4.2654
G1 X15.1476 Y-13.8872 Z1.1500
G2X15.5286Y-14.7720Z1.1500I-42.4660J-18.8113
G2X16.2309Y-16.8604Z1.1500I-15.0247J-6.2150
G2X16.4088Y-17.6633Z1.1500I-11.3957J-2.9456
G1 X16.4538 Y-17.9305 Z1.1500
G2X16.5420Y-19.0010Z1.1500I-6.9647J-1.1126
G2X16.4857Y-19.7234Z1.1500I-4.4835J-0.0137
G2X15.8861Y-21.2132Z1.1500I-3.6229J0.5926
G2X14.6305Y-22.3918Z1.1500I-3.2786J2.2346
G2X13.9038Y-22.7393Z1.1500I-2.3218J3.9212
G2X12.4061Y-23.1162Z1.1500I-2.4338J6.5076
G1 X12.1670 Y-23.1439 Z1.1500
G1 X11.9233 Y-23.1642 Z1.1500
G1 X11.6710 Y-23.1783 Z1.1500
G1 X11.4058 Y-23.1874 Z1.1500
G1 X11.1218 Y-23.1928 Z1.1500
G1 X10.4857 Y-23.1967 Z1.1500
G1 X10.1202 Y-23.1974 Z1.1500
G1 X8.7299 Y-23.1973 Z1.1500
G1 X8.2570 Y-23.1938 Z1.1500
G2X7.2230Y-23.1456Z1.1500I0.1602J14.5396
G2X6.3405Y-23.0107Z1.1500I0.5589J6.6107
G2X5.3932Y-22.6849Z1.1500I1.0413J4.5674
G2X4.2109Y-21.9274Z1.1500I2.2312J4.7839
G2X3.8359Y-21.5497Z1.1500I2.0380J2.3981
G2X3.6309Y-21.2614Z1.1500I2.0863J1.7013
G2X3.3736Y-20.8173Z1.1500I5.1474J3.2783
G1 X3.2884 Y-20.6389 Z1.1500
G2X3.0528Y-19.9327Z1.1500I3.2737J1.4844
G1 X3.0190 Y-19.7617 Z1.1500
G1 X2.9923 Y-19.5850 Z1.1500
G1 X2.9733 Y-19.4039 Z1.1500
G2X2.9637Y-18.8242Z1.1500I4.5109J0.3644
G1 X2.9770 Y-18.6212 Z1.1500
G2X3.0419Y-18.1256Z1.1500I5.6177J-0.4839
G0 Z2.7500
G0 X3.0419 Y-18.1256 
G0 Z2.7500
G0 X3.3766 Y-20.8229 
G1 X3.3766 Y-20.8229 Z1.2500 F75.
G1 X3.3736 Y-20.8173 Z1.2489 F50.
G1 X3.2884 Y-20.6389 Z1.2140
G1 X3.2387 Y-20.5239 Z1.1919
G1 X3.1879 Y-20.3936 Z1.1673
G1 X3.1387 Y-20.2504 Z1.1406
G1 X3.0932 Y-20.0961 Z1.1122
G1 X3.0528 Y-19.9327 Z1.0825
G1 X3.0190 Y-19.7617 Z1.0518
G1 X2.9923 Y-19.5850 Z1.0203
G1 X2.9733 Y-19.4039 Z0.9882
G1 X2.9621 Y-19.2200 Z0.9557
G1 X2.9586 Y-19.0382 Z0.9236
G1 X2.9598 Y-18.9333 Z0.9051
G1 X2.9637 Y-18.8242 Z0.8859
G1 X2.9770 Y-18.6212 Z0.8500
G1 X2.9878 Y-18.5082 Z0.8500 F150.
G1 X3.0012 Y-18.3938 Z0.8500
G2X3.1580Y-17.5711Z0.8500I7.2335J-0.9524
G2X3.2998Y-17.0476Z0.8500I12.0253J-2.9751
G2X3.6810Y-15.8700Z0.8500I20.4590J-5.9732
G2X4.0171Y-15.0643Z0.8500I7.7033J-2.7400
G2X4.2561Y-14.6132Z0.8500I9.2104J-4.5907
G3X4.5596Y-13.9742Z0.8500I-5.3018J2.9094
G3X4.7603Y-13.3299Z0.8500I-3.7600J1.5247
G3X4.8252Y-12.6425Z0.8500I-2.7235J0.6042
G3X4.7667Y-12.1893Z0.8500I-2.4728J-0.0892
G3X4.6080Y-11.6905Z0.8500I-3.1194J-0.7177
G1 X4.5619 Y-11.5801 Z0.8500
G1 X4.5153 Y-11.4751 Z0.8500
G1 X4.4203 Y-11.2724 Z0.8500
G1 X4.2478 Y-10.9132 Z0.8500
G2X4.0475Y-10.4445Z0.8500I5.9575J2.8232
G2X3.8781Y-9.8719Z0.8500I3.6187J1.3815
G1 X3.8598 Y-9.7750 Z0.8500
G1 X3.8364 Y-9.6143 Z0.8500
G1 X3.8235 Y-9.4739 Z0.8500
G1 X3.8176 Y-9.3512 Z0.8500
G1 X3.8158 Y-9.1647 Z0.8500
G1 X3.8195 Y-8.8818 Z0.8500
G1 X3.8266 Y-8.6350 Z0.8500
G2X3.9711Y-7.6930Z0.8500I4.6211J-0.2269
G2X4.3004Y-6.7650Z0.8500I5.1293J-1.2980
G2X4.4273Y-6.5260Z0.8500I2.6949J-1.2780
G2X5.1517Y-6.2948Z0.8500I0.4934J-0.2953
G2X5.4756Y-6.9727Z0.8500I-0.2312J-0.5267
G3X5.3707Y-8.2719Z0.8500I2.9346J-0.8907
G3X5.5376Y-8.8681Z0.8500I2.1843J0.2898
G3X5.8644Y-9.3330Z0.8500I1.3362J0.5921
G3X6.9486Y-9.7916Z0.8500I1.1733J1.2630
G3X7.9333Y-9.4658Z0.8500I0.0641J1.4577
G3X8.0861Y-9.3079Z0.8500I-0.6023J0.7357
G3X8.2020Y-9.0624Z0.8500I-0.4790J0.3762
G3X8.2088Y-8.9786Z0.8500I-0.4148J0.0758
G1 X8.2113 Y-7.1935 Z0.8500
G2X8.2324Y-7.0584Z0.8500I0.6026J-0.0248
G1 X8.2497 Y-7.0029 Z0.8500
G1 X8.2645 Y-6.9669 Z0.8500
G1 X8.2975 Y-6.9039 Z0.8500
G1 X8.3189 Y-6.8700 Z0.8500
G2X8.4081Y-6.7673Z0.8500I0.6317J-0.4588
G1 X8.4646 Y-6.7214 Z0.8500
G1 X8.4976 Y-6.6987 Z0.8500
G2X8.6171Y-6.6408Z0.8500I0.3993J-0.6719
G1 X8.6883 Y-6.6202 Z0.8500
G1 X8.7246 Y-6.6130 Z0.8500
G1 X8.7509 Y-6.6098 Z0.8500
G1 X8.8104 Y-6.6051 Z0.8500
G1 X10.6291 Y-6.6054 Z0.8500
G2X10.9229Y-6.6916Z0.8500I-0.0191J-0.6087
G1 X10.9752 Y-6.7263 Z0.8500
G2X11.0829Y-6.8286Z0.8500I-0.3741J-0.5015
G1 X11.1241 Y-6.8845 Z0.8500
G1 X11.1431 Y-6.9159 Z0.8500
G1 X11.1739 Y-6.9788 Z0.8500
G1 X11.1878 Y-7.0149 Z0.8500
G1 X11.1957 Y-7.0414 Z0.8500
G1 X11.2096 Y-7.0973 Z0.8500
G1 X11.2364 Y-7.2498 Z0.8500
G3X11.2966Y-7.4551Z0.8500I0.9837J0.1772
G1 X11.3148 Y-7.4920 Z0.8500
G3X11.7847Y-7.8700Z0.8500I0.7490J0.4503
G3X12.1959Y-7.9208Z0.8500I0.3297J0.9785
G3X12.4131Y-7.8907Z0.8500I-0.1669J2.0044
G3X13.0403Y-7.4869Z0.8500I-0.2360J1.0555
G3X13.1961Y-7.2293Z0.8500I-1.1894J0.8953
G3X13.5478Y-5.4699Z0.8500I-2.9709J1.5087
G3X13.2525Y-4.3717Z0.8500I-3.0994J-0.2443
G2X13.4405Y-3.6189Z0.8500I0.5539J0.2616
G2X14.2179Y-3.6564Z0.8500I0.3659J-0.4912
G2X14.6095Y-4.0801Z0.8500I-2.4731J-2.6787
G2X15.4141Y-5.4933Z0.8500I-4.3143J-3.3920
G1 X15.4435 Y-5.5919 Z0.8500
G1 X15.4750 Y-5.7183 Z0.8500
G2X15.5884Y-6.3254Z0.8500I-6.1583J-1.4637
G2X15.6352Y-7.0546Z0.8500I-5.3189J-0.7076
G2X15.5784Y-8.1597Z0.8500I-12.9050J0.1088
G2X15.5346Y-8.4683Z0.8500I-2.8469J0.2469
G1 X15.4940 Y-8.6270 Z0.8500
G1 X15.3525 Y-9.1423 Z0.8500
G1 X15.2230 Y-9.5883 Z0.8500
G1 X15.1050 Y-9.9782 Z0.8500
G1 X14.9016 Y-10.6406 Z0.8500
G3X14.7460Y-11.1974Z0.8500I11.5502J-3.5286
G3X14.6304Y-11.8059Z0.8500I4.7972J-1.2266
G3X14.6170Y-12.3176Z0.8500I2.6564J-0.3256
G3X14.6983Y-12.7495Z0.8500I2.0763J0.1675
G3X14.7862Y-13.0144Z0.8500I3.6033J1.0474
G3X15.0004Y-13.5463Z0.8500I11.3553J4.2654
G1 X15.1476 Y-13.8872 Z0.8500
G2X15.5286Y-14.7720Z0.8500I-42.4660J-18.8113
G2X16.2309Y-16.8604Z0.8500I-15.0247J-6.2150
G2X16.4088Y-17.6633Z0.8500I-11.3957J-2.9456
G1 X16.4538 Y-17.9305 Z0.8500
G2X16.5420Y-19.0010Z0.8500I-6.9647J-1.1126
G2X16.4857Y-19.7234Z0.8500I-4.4835J-0.0137
G2X15.8861Y-21.2132Z0.8500I-3.6229J0.5926
G2X14.6305Y-22.3918Z0.8500I-3.2786J2.2346
G2X13.9038Y-22.7393Z0.8500I-2.3218J3.9212
G2X12.4061Y-23.1162Z0.8500I-2.4338J6.5076
G1 X12.1670 Y-23.1439 Z0.8500
G1 X11.9233 Y-23.1642 Z0.8500
G1 X11.6710 Y-23.1783 Z0.8500
G1 X11.4058 Y-23.1874 Z0.8500
G1 X11.1218 Y-23.1928 Z0.8500
G1 X10.4857 Y-23.1967 Z0.8500
G1 X10.1202 Y-23.1974 Z0.8500
G1 X8.7299 Y-23.1973 Z0.8500
G1 X8.2570 Y-23.1938 Z0.8500
G2X7.2230Y-23.1456Z0.8500I0.1602J14.5396
G2X6.3405Y-23.0107Z0.8500I0.5589J6.6107
G2X5.3932Y-22.6849Z0.8500I1.0413J4.5674
G2X4.2109Y-21.9274Z0.8500I2.2312J4.7839
G2X3.8359Y-21.5497Z0.8500I2.0380J2.3981
G2X3.6309Y-21.2614Z0.8500I2.0863J1.7013
G2X3.3736Y-20.8173Z0.8500I5.1474J3.2783
G1 X3.2884 Y-20.6389 Z0.8500
G2X3.0528Y-19.9327Z0.8500I3.2737J1.4844
G1 X3.0190 Y-19.7617 Z0.8500
G1 X2.9923 Y-19.5850 Z0.8500
G1 X2.9733 Y-19.4039 Z0.8500
G2X2.9637Y-18.8242Z0.8500I4.5109J0.3644
G1 X2.9770 Y-18.6212 Z0.8500
G2X3.0419Y-18.1256Z0.8500I5.6177J-0.4839
G0 Z2.4500
G0 X3.0419 Y-18.1256 
G0 Z2.4500
G0 X3.3766 Y-20.8229 
G1 X3.3766 Y-20.8229 Z0.9500 F75.
G1 X3.3736 Y-20.8173 Z0.9489 F50.
G1 X3.2884 Y-20.6389 Z0.9140
G1 X3.2387 Y-20.5239 Z0.8919
G1 X3.1879 Y-20.3936 Z0.8673
G1 X3.1387 Y-20.2504 Z0.8406
G1 X3.0932 Y-20.0961 Z0.8122
G1 X3.0528 Y-19.9327 Z0.7825
G1 X3.0190 Y-19.7617 Z0.7518
G1 X2.9923 Y-19.5850 Z0.7203
G1 X2.9733 Y-19.4039 Z0.6882
G1 X2.9621 Y-19.2200 Z0.6557
G1 X2.9586 Y-19.0382 Z0.6236
G1 X2.9598 Y-18.9333 Z0.6051
G1 X2.9637 Y-18.8242 Z0.5859
G1 X2.9770 Y-18.6212 Z0.5500
G1 X2.9878 Y-18.5082 Z0.5500 F150.
G1 X3.0012 Y-18.3938 Z0.5500
G2X3.1580Y-17.5711Z0.5500I7.2335J-0.9524
G2X3.2998Y-17.0476Z0.5500I12.0253J-2.9751
G2X3.6810Y-15.8700Z0.5500I20.4590J-5.9732
G2X4.0171Y-15.0643Z0.5500I7.7033J-2.7400
G2X4.2561Y-14.6132Z0.5500I9.2104J-4.5907
G3X4.5596Y-13.9742Z0.5500I-5.3018J2.9094
G3X4.7603Y-13.3299Z0.5500I-3.7600J1.5247
G3X4.8252Y-12.6425Z0.5500I-2.7235J0.6042
G3X4.7667Y-12.1893Z0.5500I-2.4728J-0.0892
G3X4.6080Y-11.6905Z0.5500I-3.1194J-0.7177
G1 X4.5619 Y-11.5801 Z0.5500
G1 X4.5153 Y-11.4751 Z0.5500
G1 X4.4203 Y-11.2724 Z0.5500
G1 X4.2478 Y-10.9132 Z0.5500
G2X4.0475Y-10.4445Z0.5500I5.9575J2.8232
G2X3.8781Y-9.8719Z0.5500I3.6187J1.3815
G1 X3.8598 Y-9.7750 Z0.5500
G1 X3.8364 Y-9.6143 Z0.5500
G1 X3.8235 Y-9.4739 Z0.5500
G1 X3.8176 Y-9.3512 Z0.5500
G1 X3.8158 Y-9.1647 Z0.5500
G1 X3.8195 Y-8.8818 Z0.5500
G1 X3.8266 Y-8.6350 Z0.5500
G2X3.9711Y-7.6930Z0.5500I4.6211J-0.2269
G2X4.3004Y-6.7650Z0.5500I5.1293J-1.2980
G2X4.4273Y-6.5260Z0.5500I2.6949J-1.2780
G2X5.1517Y-6.2948Z0.5500I0.4934J-0.2953
G2X5.4756Y-6.9727Z0.5500I-0.2312J-0.5267
G3X5.3707Y-8.2719Z0.5500I2.9346J-0.8907
G3X5.5376Y-8.8681Z0.5500I2.1843J0.2898
G3X5.8644Y-9.3330Z0.5500I1.3362J0.5921
G3X6.9486Y-9.7916Z0.5500I1.1733J1.2630
G3X7.9333Y-9.4658Z0.5500I0.0641J1.4577
G3X8.0861Y-9.3079Z0.5500I-0.6023J0.7357
G3X8.2020Y-9.0624Z0.5500I-0.4790J0.3762
G3X8.2088Y-8.9786Z0.5500I-0.4148J0.0758
G1 X8.2113 Y-7.1935 Z0.5500
G2X8.2324Y-7.0584Z0.5500I0.6026J-0.0248
G1 X8.2497 Y-7.0029 Z0.5500
G1 X8.2645 Y-6.9669 Z0.5500
G1 X8.2975 Y-6.9039 Z0.5500
G1 X8.3189 Y-6.8700 Z0.5500
G2X8.4081Y-6.7673Z0.5500I0.6317J-0.4588
G1 X8.4646 Y-6.7214 Z0.5500
G1 X8.4976 Y-6.6987 Z0.5500
G2X8.6171Y-6.6408Z0.5500I0.3993J-0.6719
G1 X8.6883 Y-6.6202 Z0.5500
G1 X8.7246 Y-6.6130 Z0.5500
G1 X8.7509 Y-6.6098 Z0.5500
G1 X8.8104 Y-6.6051 Z0.5500
G1 X10.6291 Y-6.6054 Z0.5500
G2X10.9229Y-6.6916Z0.5500I-0.0191J-0.6087
G1 X10.9752 Y-6.7263 Z0.5500
G2X11.0829Y-6.8286Z0.5500I-0.3741J-0.5015
G1 X11.1241 Y-6.8845 Z0.5500
G1 X11.1431 Y-6.9159 Z0.5500
G1 X11.1739 Y-6.9788 Z0.5500
G1 X11.1878 Y-7.0149 Z0.5500
G1 X11.1957 Y-7.0414 Z0.5500
G1 X11.2096 Y-7.0973 Z0.5500
G1 X11.2364 Y-7.2498 Z0.5500
G3X11.2966Y-7.4551Z0.5500I0.9837J0.1772
G1 X11.3148 Y-7.4920 Z0.5500
G3X11.7847Y-7.8700Z0.5500I0.7490J0.4503
G3X12.1959Y-7.9208Z0.5500I0.3297J0.9785
G3X12.4131Y-7.8907Z0.5500I-0.1669J2.0044
G3X13.0403Y-7.4869Z0.5500I-0.2360J1.0555
G3X13.1961Y-7.2293Z0.5500I-1.1894J0.8953
G3X13.5478Y-5.4699Z0.5500I-2.9709J1.5087
G3X13.2525Y-4.3717Z0.5500I-3.0994J-0.2443
G2X13.4405Y-3.6189Z0.5500I0.5539J0.2616
G2X14.2179Y-3.6564Z0.5500I0.3659J-0.4912
G2X14.6095Y-4.0801Z0.5500I-2.4731J-2.6787
G2X15.4141Y-5.4933Z0.5500I-4.3143J-3.3920
G1 X15.4435 Y-5.5919 Z0.5500
G1 X15.4750 Y-5.7183 Z0.5500
G2X15.5884Y-6.3254Z0.5500I-6.1583J-1.4637
G2X15.6352Y-7.0546Z0.5500I-5.3189J-0.7076
G2X15.5784Y-8.1597Z0.5500I-12.9050J0.1088
G2X15.5346Y-8.4683Z0.5500I-2.8469J0.2469
G1 X15.4940 Y-8.6270 Z0.5500
G1 X15.3525 Y-9.1423 Z0.5500
G1 X15.2230 Y-9.5883 Z0.5500
G1 X15.1050 Y-9.9782 Z0.5500
G1 X14.9016 Y-10.6406 Z0.5500
G3X14.7460Y-11.1974Z0.5500I11.5502J-3.5286
G3X14.6304Y-11.8059Z0.5500I4.7972J-1.2266
G3X14.6170Y-12.3176Z0.5500I2.6564J-0.3256
G3X14.6983Y-12.7495Z0.5500I2.0763J0.1675
G3X14.7862Y-13.0144Z0.5500I3.6033J1.0474
G3X15.0004Y-13.5463Z0.5500I11.3553J4.2654
G1 X15.1476 Y-13.8872 Z0.5500
G2X15.5286Y-14.7720Z0.5500I-42.4660J-18.8113
G2X16.2309Y-16.8604Z0.5500I-15.0247J-6.2150
G2X16.4088Y-17.6633Z0.5500I-11.3957J-2.9456
G1 X16.4538 Y-17.9305 Z0.5500
G2X16.5420Y-19.0010Z0.5500I-6.9647J-1.1126
G2X16.4857Y-19.7234Z0.5500I-4.4835J-0.0137
G2X15.8861Y-21.2132Z0.5500I-3.6229J0.5926
G2X14.6305Y-22.3918Z0.5500I-3.2786J2.2346
G2X13.9038Y-22.7393Z0.5500I-2.3218J3.9212
G2X12.4061Y-23.1162Z0.5500I-2.4338J6.5076
G1 X12.1670 Y-23.1439 Z0.5500
G1 X11.9233 Y-23.1642 Z0.5500
G1 X11.6710 Y-23.1783 Z0.5500
G1 X11.4058 Y-23.1874 Z0.5500
G1 X11.1218 Y-23.1928 Z0.5500
G1 X10.4857 Y-23.1967 Z0.5500
G1 X10.1202 Y-23.1974 Z0.5500
G1 X8.7299 Y-23.1973 Z0.5500
G1 X8.2570 Y-23.1938 Z0.5500
G2X7.2230Y-23.1456Z0.5500I0.1602J14.5396
G2X6.3405Y-23.0107Z0.5500I0.5589J6.6107
G2X5.3932Y-22.6849Z0.5500I1.0413J4.5674
G2X4.2109Y-21.9274Z0.5500I2.2312J4.7839
G2X3.8359Y-21.5497Z0.5500I2.0380J2.3981
G2X3.6309Y-21.2614Z0.5500I2.0863J1.7013
G2X3.3736Y-20.8173Z0.5500I5.1474J3.2783
G1 X3.2884 Y-20.6389 Z0.5500
G2X3.0528Y-19.9327Z0.5500I3.2737J1.4844
G1 X3.0190 Y-19.7617 Z0.5500
G1 X2.9923 Y-19.5850 Z0.5500
G1 X2.9733 Y-19.4039 Z0.5500
G2X2.9637Y-18.8242Z0.5500I4.5109J0.3644
G1 X2.9770 Y-18.6212 Z0.5500
G2X3.0419Y-18.1256Z0.5500I5.6177J-0.4839
G0 Z2.1500
G0 X3.0419 Y-18.1256 
G0 Z2.1500
G0 X3.3766 Y-20.8229 
G1 X3.3766 Y-20.8229 Z0.6500 F75.
G1 X3.3736 Y-20.8173 Z0.6489 F50.
G1 X3.2884 Y-20.6389 Z0.6140
G1 X3.2387 Y-20.5239 Z0.5919
G1 X3.1879 Y-20.3936 Z0.5673
G1 X3.1387 Y-20.2504 Z0.5406
G1 X3.0932 Y-20.0961 Z0.5122
G1 X3.0528 Y-19.9327 Z0.4825
G1 X3.0190 Y-19.7617 Z0.4518
G1 X2.9923 Y-19.5850 Z0.4203
G1 X2.9733 Y-19.4039 Z0.3882
G1 X2.9621 Y-19.2200 Z0.3557
G1 X2.9586 Y-19.0382 Z0.3236
G1 X2.9598 Y-18.9333 Z0.3051
G1 X2.9637 Y-18.8242 Z0.2859
G1 X2.9770 Y-18.6212 Z0.2500
G1 X2.9878 Y-18.5082 Z0.2500 F150.
G1 X3.0012 Y-18.3938 Z0.2500
G2X3.1580Y-17.5711Z0.2500I7.2335J-0.9524
G2X3.2998Y-17.0476Z0.2500I12.0253J-2.9751
G2X3.6810Y-15.8700Z0.2500I20.4590J-5.9732
G2X4.0171Y-15.0643Z0.2500I7.7033J-2.7400
G2X4.2561Y-14.6132Z0.2500I9.2104J-4.5907
G3X4.5596Y-13.9742Z0.2500I-5.3018J2.9094
G3X4.7603Y-13.3299Z0.2500I-3.7600J1.5247
G3X4.8252Y-12.6425Z0.2500I-2.7235J0.6042
G3X4.7667Y-12.1893Z0.2500I-2.4728J-0.0892
G3X4.6080Y-11.6905Z0.2500I-3.1194J-0.7177
G1 X4.5619 Y-11.5801 Z0.2500
G1 X4.5153 Y-11.4751 Z0.2500
G1 X4.4203 Y-11.2724 Z0.2500
G1 X4.2478 Y-10.9132 Z0.2500
G2X4.0475Y-10.4445Z0.2500I5.9575J2.8232
G2X3.8781Y-9.8719Z0.2500I3.6187J1.3815
G1 X3.8598 Y-9.7750 Z0.2500
G1 X3.8364 Y-9.6143 Z0.2500
G1 X3.8235 Y-9.4739 Z0.2500
G1 X3.8176 Y-9.3512 Z0.2500
G1 X3.8158 Y-9.1647 Z0.2500
G1 X3.8195 Y-8.8818 Z0.2500
G1 X3.8266 Y-8.6350 Z0.2500
G2X3.9711Y-7.6930Z0.2500I4.6211J-0.2269
G2X4.3004Y-6.7650Z0.2500I5.1293J-1.2980
G2X4.4273Y-6.5260Z0.2500I2.6949J-1.2780
G2X5.1517Y-6.2948Z0.2500I0.4934J-0.2953
G2X5.4756Y-6.9727Z0.2500I-0.2312J-0.5267
G3X5.3707Y-8.2719Z0.2500I2.9346J-0.8907
G3X5.5376Y-8.8681Z0.2500I2.1843J0.2898
G3X5.8644Y-9.3330Z0.2500I1.3362J0.5921
G3X6.9486Y-9.7916Z0.2500I1.1733J1.2630
G3X7.9333Y-9.4658Z0.2500I0.0641J1.4577
G3X8.0861Y-9.3079Z0.2500I-0.6023J0.7357
G3X8.2020Y-9.0624Z0.2500I-0.4790J0.3762
G3X8.2088Y-8.9786Z0.2500I-0.4148J0.0758
G1 X8.2113 Y-7.1935 Z0.2500
G2X8.2324Y-7.0584Z0.2500I0.6026J-0.0248
G1 X8.2497 Y-7.0029 Z0.2500
G1 X8.2645 Y-6.9669 Z0.2500
G1 X8.2975 Y-6.9039 Z0.2500
G1 X8.3189 Y-6.8700 Z0.2500
G2X8.4081Y-6.7673Z0.2500I0.6317J-0.4588
G1 X8.4646 Y-6.7214 Z0.2500
G1 X8.4976 Y-6.6987 Z0.2500
G2X8.6171Y-6.6408Z0.2500I0.3993J-0.6719
G1 X8.6883 Y-6.6202 Z0.2500
G1 X8.7246 Y-6.6130 Z0.2500
G1 X8.7509 Y-6.6098 Z0.2500
G1 X8.8104 Y-6.6051 Z0.2500
G1 X10.6291 Y-6.6054 Z0.2500
G2X10.9229Y-6.6916Z0.2500I-0.0191J-0.6087
G1 X10.9752 Y-6.7263 Z0.2500
G2X11.0829Y-6.8286Z0.2500I-0.3741J-0.5015
G1 X11.1241 Y-6.8845 Z0.2500
G1 X11.1431 Y-6.9159 Z0.2500
G1 X11.1739 Y-6.9788 Z0.2500
G1 X11.1878 Y-7.0149 Z0.2500
G1 X11.1957 Y-7.0414 Z0.2500
G1 X11.2096 Y-7.0973 Z0.2500
G1 X11.2364 Y-7.2498 Z0.2500
G3X11.2966Y-7.4551Z0.2500I0.9837J0.1772
G1 X11.3148 Y-7.4920 Z0.2500
G3X11.7847Y-7.8700Z0.2500I0.7490J0.4503
G3X12.1959Y-7.9208Z0.2500I0.3297J0.9785
G3X12.4131Y-7.8907Z0.2500I-0.1669J2.0044
G3X13.0403Y-7.4869Z0.2500I-0.2360J1.0555
G3X13.1961Y-7.2293Z0.2500I-1.1894J0.8953
G3X13.5478Y-5.4699Z0.2500I-2.9709J1.5087
G3X13.2525Y-4.3717Z0.2500I-3.0994J-0.2443
G2X13.4405Y-3.6189Z0.2500I0.5539J0.2616
G2X14.2179Y-3.6564Z0.2500I0.3659J-0.4912
G2X14.6095Y-4.0801Z0.2500I-2.4731J-2.6787
G2X15.4141Y-5.4933Z0.2500I-4.3143J-3.3920
G1 X15.4435 Y-5.5919 Z0.2500
G1 X15.4750 Y-5.7183 Z0.2500
G2X15.5884Y-6.3254Z0.2500I-6.1583J-1.4637
G2X15.6352Y-7.0546Z0.2500I-5.3189J-0.7076
G2X15.5784Y-8.1597Z0.2500I-12.9050J0.1088
G2X15.5346Y-8.4683Z0.2500I-2.8469J0.2469
G1 X15.4940 Y-8.6270 Z0.2500
G1 X15.3525 Y-9.1423 Z0.2500
G1 X15.2230 Y-9.5883 Z0.2500
G1 X15.1050 Y-9.9782 Z0.2500
G1 X14.9016 Y-10.6406 Z0.2500
G3X14.7460Y-11.1974Z0.2500I11.5502J-3.5286
G3X14.6304Y-11.8059Z0.2500I4.7972J-1.2266
G3X14.6170Y-12.3176Z0.2500I2.6564J-0.3256
G3X14.6983Y-12.7495Z0.2500I2.0763J0.1675
G3X14.7862Y-13.0144Z0.2500I3.6033J1.0474
G3X15.0004Y-13.5463Z0.2500I11.3553J4.2654
G1 X15.1476 Y-13.8872 Z0.2500
G2X15.5286Y-14.7720Z0.2500I-42.4660J-18.8113
G2X16.2309Y-16.8604Z0.2500I-15.0247J-6.2150
G2X16.4088Y-17.6633Z0.2500I-11.3957J-2.9456
G1 X16.4538 Y-17.9305 Z0.2500
G2X16.5420Y-19.0010Z0.2500I-6.9647J-1.1126
G2X16.4857Y-19.7234Z0.2500I-4.4835J-0.0137
G2X15.8861Y-21.2132Z0.2500I-3.6229J0.5926
G2X14.6305Y-22.3918Z0.2500I-3.2786J2.2346
G2X13.9038Y-22.7393Z0.2500I-2.3218J3.9212
G2X12.4061Y-23.1162Z0.2500I-2.4338J6.5076
G1 X12.1670 Y-23.1439 Z0.2500
G1 X11.9233 Y-23.1642 Z0.2500
G1 X11.6710 Y-23.1783 Z0.2500
G1 X11.4058 Y-23.1874 Z0.2500
G1 X11.1218 Y-23.1928 Z0.2500
G1 X10.4857 Y-23.1967 Z0.2500
G1 X10.1202 Y-23.1974 Z0.2500
G1 X8.7299 Y-23.1973 Z0.2500
G1 X8.2570 Y-23.1938 Z0.2500
G2X7.2230Y-23.1456Z0.2500I0.1602J14.5396
G2X6.3405Y-23.0107Z0.2500I0.5589J6.6107
G2X5.3932Y-22.6849Z0.2500I1.0413J4.5674
G2X4.2109Y-21.9274Z0.2500I2.2312J4.7839
G2X3.8359Y-21.5497Z0.2500I2.0380J2.3981
G2X3.6309Y-21.2614Z0.2500I2.0863J1.7013
G2X3.3736Y-20.8173Z0.2500I5.1474J3.2783
G1 X3.2884 Y-20.6389 Z0.2500
G2X3.0528Y-19.9327Z0.2500I3.2737J1.4844
G1 X3.0190 Y-19.7617 Z0.2500
G1 X2.9923 Y-19.5850 Z0.2500
G1 X2.9733 Y-19.4039 Z0.2500
G2X2.9637Y-18.8242Z0.2500I4.5109J0.3644
G1 X2.9770 Y-18.6212 Z0.2500
G2X3.0419Y-18.1256Z0.2500I5.6177J-0.4839
G0 Z6.0000
G0 X3.0419 Y-18.1256 
M5
G53 Z
G0 X2Y0
( END FILE 09-FullBody-Adcock-04-end.nc )
