( BEGIN FILE 09-FullBody-DStyle-04-end.ncTNUM: -1 )
( Lefty:False Nunits:1 )
( cline: 9.733 delta:15.5 )
( start_unit: 1 num_units: 1)
( MOP:  09-FullBody-DStyle-04-end )
( FILE: G:\Shared drives\AlloyProjectFiles\Customer CAD files\Alloy-Standard-Builds-CAM\s-in\FullD-Style-Specific\09-FullBody-DStyle-04-end.nc)
G90
(  BEGIN TOOL LIST )
(  TOOL 11 - Downcut PT750 ROUGH - DESC: 0.7500 DIA, 2 FLUTE,  CARBIDE MAT )
(  ENDOF TOOL LIST )
( 09-FullBody-DStyle-04-end)
T11
S14000
M3
G0 Z4.1450
G0 X3.6822 Y-20.8102 
G1 X3.6822 Y-20.8102 Z1.8000 F75.
G1 X3.6209 Y-20.7061 Z1.7787 F50.
G1 X3.5423 Y-20.5575 Z1.7490
G1 X3.4706 Y-20.4057 Z1.7194
G1 X3.4058 Y-20.2513 Z1.6899
G1 X3.3478 Y-20.0947 Z1.6605
G1 X3.2967 Y-19.9361 Z1.6311
G1 X3.2522 Y-19.7760 Z1.6018
G1 X3.2143 Y-19.6147 Z1.5726
G1 X3.1828 Y-19.4526 Z1.5435
G1 X3.1575 Y-19.2899 Z1.5144
G1 X3.1382 Y-19.1268 Z1.4855
G1 X3.1247 Y-18.9636 Z1.4566
G1 X3.1169 Y-18.8006 Z1.4278
G1 X3.1144 Y-18.6429 Z1.4000
G1 X3.1192 Y-18.4237 Z1.4000 F150.
G1 X3.1324 Y-18.2129 Z1.4000
G17
G2X3.2583Y-17.3883Z1.4000I6.2302J-0.5295
G2X3.4695Y-16.6017Z1.4000I9.1658J-2.0394
G1 X3.5304 Y-16.4109 Z1.4000
G1 X3.5939 Y-16.2202 Z1.4000
G2X4.0006Y-15.1026Z1.4000I27.5359J-9.3893
G1 X4.0795 Y-14.9137 Z1.4000
G1 X4.1630 Y-14.7294 Z1.4000
G1 X4.3330 Y-14.3774 Z1.4000
G1 X4.6136 Y-13.8183 Z1.4000
G3X4.9728Y-12.9940Z1.4000I-10.0840J4.8849
G3X5.0701Y-12.6823Z1.4000I-2.1730J0.8496
G3X5.0899Y-12.3273Z1.4000I-1.0910J0.2388
G3X5.0300Y-12.0130Z1.4000I-1.9343J-0.2058
G1 X5.0069 Y-11.9302 Z1.4000
G1 X4.9524 Y-11.7539 Z1.4000
G1 X4.8932 Y-11.5762 Z1.4000
G1 X4.7660 Y-11.2129 Z1.4000
G1 X4.5008 Y-10.4783 Z1.4000
G2X4.1957Y-9.5021Z1.4000I9.3883J3.4708
G2X4.0768Y-8.8843Z1.4000I5.6307J1.4034
G2X4.0491Y-7.9129Z1.4000I4.4321J0.6127
G2X4.1548Y-7.3439Z1.4000I2.8423J-0.2339
G1 X4.1939 Y-7.2288 Z1.4000
G1 X4.2417 Y-7.1136 Z1.4000
G1 X4.3005 Y-6.9973 Z1.4000
G2X4.5229Y-6.7030Z1.4000I1.1315J-0.6240
G2X4.7237Y-6.5528Z1.4000I0.6802J-0.6996
G2X4.9998Y-6.4565Z1.4000I0.4156J-0.7476
G2X5.1402Y-6.4475Z1.4000I0.1285J-0.9048
G1 X5.2132 Y-6.4522 Z1.4000
G2X5.3539Y-6.4830Z1.4000I-0.1195J-0.8820
G1 X5.4232 Y-6.5086 Z1.4000
G2X5.5548Y-6.5822Z1.4000I-0.3328J-0.7497
G1 X5.6115 Y-6.6248 Z1.4000
G2X5.7510Y-6.7746Z1.4000I-0.5366J-0.6395
G1 X5.7991 Y-6.8480 Z1.4000
G2X5.9200Y-7.1448Z1.4000I-1.0373J-0.5957
G2X5.9848Y-7.4793Z1.4000I-2.4897J-0.6556
G1 X6.0329 Y-7.8610 Z1.4000
G1 X6.0603 Y-8.0413 Z1.4000
G3X6.2208Y-8.5966Z1.4000I2.3982J0.3922
G3X6.6201Y-9.1712Z1.4000I1.5891J0.6782
G3X7.3507Y-9.5486Z1.4000I1.0221J1.0827
G3X7.7056Y-9.5639Z1.4000I0.2276J1.1578
G3X7.8587Y-9.5310Z1.4000I-0.0936J0.8087
G3X8.0945Y-9.3642Z1.4000I-0.1598J0.4760
G1 X8.1347 Y-9.3104 Z1.4000
G1 X8.1734 Y-9.2489 Z1.4000
G3X8.2129Y-9.0972Z1.4000I-0.2839J0.1551
G1 X8.2359 Y-7.2513 Z1.4000
G2X8.6188Y-6.6736Z1.4000I0.6731J-0.0304
G2X8.9190Y-6.6051Z1.4000I0.2998J-0.6224
G1 X10.5635 Y-6.6055 Z1.4000
G2X11.1851Y-7.0388Z1.4000I-0.0151J-0.6842
G2X11.2303Y-7.2683Z1.4000I-0.6145J-0.2405
G1 X11.2314 Y-7.3548 Z1.4000
G3X11.2462Y-7.4479Z1.4000I0.3261J0.0041
G3X11.3300Y-7.6495Z1.4000I1.1570J0.3629
G3X11.4994Y-7.8011Z1.4000I0.2833J0.1460
G3X11.7047Y-7.8351Z1.4000I0.1887J0.5033
G3X12.0053Y-7.7799Z1.4000I-0.0147J0.9273
G3X12.5167Y-7.4827Z1.4000I-0.5810J1.5878
G3X12.7851Y-7.2191Z1.4000I-1.4318J1.7267
G3X13.1360Y-6.6888Z1.4000I-1.8952J1.6355
G3X13.3256Y-6.2003Z1.4000I-2.7935J1.3654
G3X13.4804Y-5.4029Z1.4000I-4.1086J1.2109
G1 X13.4923 Y-5.2655 Z1.4000
G1 X13.5010 Y-5.1246 Z1.4000
G1 X13.5162 Y-4.8186 Z1.4000
G1 X13.5289 Y-4.6530 Z1.4000
G2X13.5665Y-4.4346Z1.4000I1.2548J-0.1036
G2X13.6482Y-4.2414Z1.4000I0.7654J-0.2099
G2X13.9921Y-3.9424Z1.4000I0.6292J-0.3764
G2X14.3017Y-3.8795Z1.4000I0.3133J-0.7486
G2X14.7261Y-3.9897Z1.4000I0.0007J-0.8698
G2X14.9372Y-4.1465Z1.4000I-0.4994J-0.8930
G1 X15.0073 Y-4.2184 Z1.4000
G2X15.3191Y-4.7054Z1.4000I-1.4834J-1.2930
G2X15.4441Y-5.0360Z1.4000I-2.5429J-1.1504
G2X15.5874Y-5.6868Z1.4000I-3.7765J-1.1723
G2X15.6263Y-6.3387Z1.4000I-4.5354J-0.5983
G2X15.5248Y-7.4449Z1.4000I-6.6998J0.0574
G2X15.3153Y-8.3616Z1.4000I-8.8456J1.5394
G1 X15.2278 Y-8.6564 Z1.4000
G2X14.9358Y-9.5212Z1.4000I-18.9908J5.9297
G1 X14.7298 Y-10.0803 Z1.4000
G3X14.5374Y-10.6257Z1.4000I11.6507J-4.4153
G3X14.3676Y-11.2910Z1.4000I4.9986J-1.6300
G3X14.3267Y-11.9376Z1.4000I2.7942J-0.5016
G3X14.4036Y-12.4502Z1.4000I2.7861J0.1560
G3X14.6114Y-13.1158Z1.4000I6.1746J1.5627
G3X14.8767Y-13.7951Z1.4000I16.4035J6.0154
G1 X15.3317 Y-14.8986 Z1.4000
G2X15.7711Y-16.0282Z1.4000I-28.1016J-11.5815
G2X16.0153Y-16.7560Z1.4000I-14.1013J-5.1372
G2X16.2640Y-17.8353Z1.4000I-7.1874J-2.2244
G2X16.3131Y-18.9691Z1.4000I-5.2093J-0.7933
G2X16.1800Y-19.7836Z1.4000I-4.4033J0.3011
G2X15.8821Y-20.5653Z1.4000I-3.7574J0.9843
G2X15.6198Y-20.9989Z1.4000I-3.2249J1.6548
G1 X15.5189 Y-21.1349 Z1.4000
G1 X15.4115 Y-21.2661 Z1.4000
G1 X15.2980 Y-21.3919 Z1.4000
G1 X15.1786 Y-21.5121 Z1.4000
G1 X15.0538 Y-21.6263 Z1.4000
G2X14.5095Y-22.0194Z1.4000I-2.4330J2.7953
G2X13.9179Y-22.3106Z1.4000I-2.1987J3.7206
G2X12.9908Y-22.5879Z1.4000I-2.0160J5.0524
G2X11.8911Y-22.7227Z1.4000I-1.3898J6.7844
G1 X11.5881 Y-22.7345 Z1.4000
G2X9.1882Y-22.7667Z1.4000I-2.1297J69.2829
G2X7.6848Y-22.7440Z1.4000I0.1126J57.1471
G2X6.7399Y-22.6618Z1.4000I0.1643J7.3572
G2X5.6461Y-22.3841Z1.4000I0.8510J5.6460
G2X4.8998Y-22.0278Z1.4000I1.5055J4.1127
G2X4.4859Y-21.7371Z1.4000I1.9141J3.1661
G1 X4.3569 Y-21.6272 Z1.4000
G1 X4.2332 Y-21.5112 Z1.4000
G1 X4.1153 Y-21.3894 Z1.4000
G1 X4.0034 Y-21.2622 Z1.4000
G1 X3.8979 Y-21.1298 Z1.4000
G1 X3.7988 Y-20.9927 Z1.4000
G2X3.4706Y-20.4057Z1.4000I3.0379J2.0838
G2X3.2522Y-19.7760Z1.4000I3.6127J1.6055
G2X3.1169Y-18.8006Z1.4000I4.3641J1.1027
G1 X3.1144 Y-18.6429 Z1.4000
G1 X3.1192 Y-18.4237 Z1.4000
G1 X3.1324 Y-18.2129 Z1.4000
G1 X3.1394 Y-18.1437 Z1.4000
G0 Z2.0445
G0 X3.1394 Y-18.1437 
G0 Z2.0445
G0 X3.6822 Y-20.8102 
G1 X3.6822 Y-20.8102 Z1.4500 F75.
G1 X3.6209 Y-20.7061 Z1.4287 F50.
G1 X3.5423 Y-20.5575 Z1.3990
G1 X3.4706 Y-20.4057 Z1.3694
G1 X3.4058 Y-20.2513 Z1.3399
G1 X3.3478 Y-20.0947 Z1.3105
G1 X3.2967 Y-19.9361 Z1.2811
G1 X3.2522 Y-19.7760 Z1.2518
G1 X3.2143 Y-19.6147 Z1.2226
G1 X3.1828 Y-19.4526 Z1.1935
G1 X3.1575 Y-19.2899 Z1.1644
G1 X3.1382 Y-19.1268 Z1.1355
G1 X3.1247 Y-18.9636 Z1.1066
G1 X3.1169 Y-18.8006 Z1.0778
G1 X3.1144 Y-18.6429 Z1.0500
G1 X3.1192 Y-18.4237 Z1.0500 F150.
G1 X3.1324 Y-18.2129 Z1.0500
G2X3.2583Y-17.3883Z1.0500I6.2302J-0.5295
G2X3.4695Y-16.6017Z1.0500I9.1658J-2.0394
G1 X3.5304 Y-16.4109 Z1.0500
G1 X3.5939 Y-16.2202 Z1.0500
G2X4.0006Y-15.1026Z1.0500I27.5359J-9.3893
G1 X4.0795 Y-14.9137 Z1.0500
G1 X4.1630 Y-14.7294 Z1.0500
G1 X4.3330 Y-14.3774 Z1.0500
G1 X4.6136 Y-13.8183 Z1.0500
G3X4.9728Y-12.9940Z1.0500I-10.0840J4.8849
G3X5.0701Y-12.6823Z1.0500I-2.1730J0.8496
G3X5.0899Y-12.3273Z1.0500I-1.0910J0.2388
G3X5.0300Y-12.0130Z1.0500I-1.9343J-0.2058
G1 X5.0069 Y-11.9302 Z1.0500
G1 X4.9524 Y-11.7539 Z1.0500
G1 X4.8932 Y-11.5762 Z1.0500
G1 X4.7660 Y-11.2129 Z1.0500
G1 X4.5008 Y-10.4783 Z1.0500
G2X4.1957Y-9.5021Z1.0500I9.3883J3.4708
G2X4.0768Y-8.8843Z1.0500I5.6307J1.4034
G2X4.0491Y-7.9129Z1.0500I4.4321J0.6127
G2X4.1548Y-7.3439Z1.0500I2.8423J-0.2339
G1 X4.1939 Y-7.2288 Z1.0500
G1 X4.2417 Y-7.1136 Z1.0500
G1 X4.3005 Y-6.9973 Z1.0500
G2X4.5229Y-6.7030Z1.0500I1.1315J-0.6240
G2X4.7237Y-6.5528Z1.0500I0.6802J-0.6996
G2X4.9998Y-6.4565Z1.0500I0.4156J-0.7476
G2X5.1402Y-6.4475Z1.0500I0.1285J-0.9048
G1 X5.2132 Y-6.4522 Z1.0500
G2X5.3539Y-6.4830Z1.0500I-0.1195J-0.8820
G1 X5.4232 Y-6.5086 Z1.0500
G2X5.5548Y-6.5822Z1.0500I-0.3328J-0.7497
G1 X5.6115 Y-6.6248 Z1.0500
G2X5.7510Y-6.7746Z1.0500I-0.5366J-0.6395
G1 X5.7991 Y-6.8480 Z1.0500
G2X5.9200Y-7.1448Z1.0500I-1.0373J-0.5957
G2X5.9848Y-7.4793Z1.0500I-2.4897J-0.6556
G1 X6.0329 Y-7.8610 Z1.0500
G1 X6.0603 Y-8.0413 Z1.0500
G3X6.2208Y-8.5966Z1.0500I2.3982J0.3922
G3X6.6201Y-9.1712Z1.0500I1.5891J0.6782
G3X7.3507Y-9.5486Z1.0500I1.0221J1.0827
G3X7.7056Y-9.5639Z1.0500I0.2276J1.1578
G3X7.8587Y-9.5310Z1.0500I-0.0936J0.8087
G3X8.0945Y-9.3642Z1.0500I-0.1598J0.4760
G1 X8.1347 Y-9.3104 Z1.0500
G1 X8.1734 Y-9.2489 Z1.0500
G3X8.2129Y-9.0972Z1.0500I-0.2839J0.1551
G1 X8.2359 Y-7.2513 Z1.0500
G2X8.6188Y-6.6736Z1.0500I0.6731J-0.0304
G2X8.9190Y-6.6051Z1.0500I0.2998J-0.6224
G1 X10.5635 Y-6.6055 Z1.0500
G2X11.1851Y-7.0388Z1.0500I-0.0151J-0.6842
G2X11.2303Y-7.2683Z1.0500I-0.6145J-0.2405
G1 X11.2314 Y-7.3548 Z1.0500
G3X11.2462Y-7.4479Z1.0500I0.3261J0.0041
G3X11.3300Y-7.6495Z1.0500I1.1570J0.3629
G3X11.4994Y-7.8011Z1.0500I0.2833J0.1460
G3X11.7047Y-7.8351Z1.0500I0.1887J0.5033
G3X12.0053Y-7.7799Z1.0500I-0.0147J0.9273
G3X12.5167Y-7.4827Z1.0500I-0.5810J1.5878
G3X12.7851Y-7.2191Z1.0500I-1.4318J1.7267
G3X13.1360Y-6.6888Z1.0500I-1.8952J1.6355
G3X13.3256Y-6.2003Z1.0500I-2.7935J1.3654
G3X13.4804Y-5.4029Z1.0500I-4.1086J1.2109
G1 X13.4923 Y-5.2655 Z1.0500
G1 X13.5010 Y-5.1246 Z1.0500
G1 X13.5162 Y-4.8186 Z1.0500
G1 X13.5289 Y-4.6530 Z1.0500
G2X13.5665Y-4.4346Z1.0500I1.2548J-0.1036
G2X13.6482Y-4.2414Z1.0500I0.7654J-0.2099
G2X13.9921Y-3.9424Z1.0500I0.6292J-0.3764
G2X14.3017Y-3.8795Z1.0500I0.3133J-0.7486
G2X14.7261Y-3.9897Z1.0500I0.0007J-0.8698
G2X14.9372Y-4.1465Z1.0500I-0.4994J-0.8930
G1 X15.0073 Y-4.2184 Z1.0500
G2X15.3191Y-4.7054Z1.0500I-1.4834J-1.2930
G2X15.4441Y-5.0360Z1.0500I-2.5429J-1.1504
G2X15.5874Y-5.6868Z1.0500I-3.7765J-1.1723
G2X15.6263Y-6.3387Z1.0500I-4.5354J-0.5983
G2X15.5248Y-7.4449Z1.0500I-6.6998J0.0574
G2X15.3153Y-8.3616Z1.0500I-8.8456J1.5394
G1 X15.2278 Y-8.6564 Z1.0500
G2X14.9358Y-9.5212Z1.0500I-18.9908J5.9297
G1 X14.7298 Y-10.0803 Z1.0500
G3X14.5374Y-10.6257Z1.0500I11.6507J-4.4153
G3X14.3676Y-11.2910Z1.0500I4.9986J-1.6300
G3X14.3267Y-11.9376Z1.0500I2.7942J-0.5016
G3X14.4036Y-12.4502Z1.0500I2.7861J0.1560
G3X14.6114Y-13.1158Z1.0500I6.1746J1.5627
G3X14.8767Y-13.7951Z1.0500I16.4035J6.0154
G1 X15.3317 Y-14.8986 Z1.0500
G2X15.7711Y-16.0282Z1.0500I-28.1016J-11.5815
G2X16.0153Y-16.7560Z1.0500I-14.1013J-5.1372
G2X16.2640Y-17.8353Z1.0500I-7.1874J-2.2244
G2X16.3131Y-18.9691Z1.0500I-5.2093J-0.7933
G2X16.1800Y-19.7836Z1.0500I-4.4033J0.3011
G2X15.8821Y-20.5653Z1.0500I-3.7574J0.9843
G2X15.6198Y-20.9989Z1.0500I-3.2249J1.6548
G1 X15.5189 Y-21.1349 Z1.0500
G1 X15.4115 Y-21.2661 Z1.0500
G1 X15.2980 Y-21.3919 Z1.0500
G1 X15.1786 Y-21.5121 Z1.0500
G1 X15.0538 Y-21.6263 Z1.0500
G2X14.5095Y-22.0194Z1.0500I-2.4330J2.7953
G2X13.9179Y-22.3106Z1.0500I-2.1987J3.7206
G2X12.9908Y-22.5879Z1.0500I-2.0160J5.0524
G2X11.8911Y-22.7227Z1.0500I-1.3898J6.7844
G1 X11.5881 Y-22.7345 Z1.0500
G2X9.1882Y-22.7667Z1.0500I-2.1297J69.2829
G2X7.6848Y-22.7440Z1.0500I0.1126J57.1471
G2X6.7399Y-22.6618Z1.0500I0.1643J7.3572
G2X5.6461Y-22.3841Z1.0500I0.8510J5.6460
G2X4.8998Y-22.0278Z1.0500I1.5055J4.1127
G2X4.4859Y-21.7371Z1.0500I1.9141J3.1661
G1 X4.3569 Y-21.6272 Z1.0500
G1 X4.2332 Y-21.5112 Z1.0500
G1 X4.1153 Y-21.3894 Z1.0500
G1 X4.0034 Y-21.2622 Z1.0500
G1 X3.8979 Y-21.1298 Z1.0500
G1 X3.7988 Y-20.9927 Z1.0500
G2X3.4706Y-20.4057Z1.0500I3.0379J2.0838
G2X3.2522Y-19.7760Z1.0500I3.6127J1.6055
G2X3.1169Y-18.8006Z1.0500I4.3641J1.1027
G1 X3.1144 Y-18.6429 Z1.0500
G1 X3.1192 Y-18.4237 Z1.0500
G1 X3.1324 Y-18.2129 Z1.0500
G1 X3.1394 Y-18.1437 Z1.0500
G0 Z2.0445
G0 X3.1394 Y-18.1437 
G0 Z2.0445
G0 X3.6822 Y-20.8102 
G1 X3.6822 Y-20.8102 Z1.1000 F75.
G1 X3.6209 Y-20.7061 Z1.0787 F50.
G1 X3.5423 Y-20.5575 Z1.0490
G1 X3.4706 Y-20.4057 Z1.0194
G1 X3.4058 Y-20.2513 Z0.9899
G1 X3.3478 Y-20.0947 Z0.9605
G1 X3.2967 Y-19.9361 Z0.9311
G1 X3.2522 Y-19.7760 Z0.9018
G1 X3.2143 Y-19.6147 Z0.8726
G1 X3.1828 Y-19.4526 Z0.8435
G1 X3.1575 Y-19.2899 Z0.8144
G1 X3.1382 Y-19.1268 Z0.7855
G1 X3.1247 Y-18.9636 Z0.7566
G1 X3.1169 Y-18.8006 Z0.7278
G1 X3.1144 Y-18.6429 Z0.7000
G1 X3.1192 Y-18.4237 Z0.7000 F150.
G1 X3.1324 Y-18.2129 Z0.7000
G2X3.2583Y-17.3883Z0.7000I6.2302J-0.5295
G2X3.4695Y-16.6017Z0.7000I9.1658J-2.0394
G1 X3.5304 Y-16.4109 Z0.7000
G1 X3.5939 Y-16.2202 Z0.7000
G2X4.0006Y-15.1026Z0.7000I27.5359J-9.3893
G1 X4.0795 Y-14.9137 Z0.7000
G1 X4.1630 Y-14.7294 Z0.7000
G1 X4.3330 Y-14.3774 Z0.7000
G1 X4.6136 Y-13.8183 Z0.7000
G3X4.9728Y-12.9940Z0.7000I-10.0840J4.8849
G3X5.0701Y-12.6823Z0.7000I-2.1730J0.8496
G3X5.0899Y-12.3273Z0.7000I-1.0910J0.2388
G3X5.0300Y-12.0130Z0.7000I-1.9343J-0.2058
G1 X5.0069 Y-11.9302 Z0.7000
G1 X4.9524 Y-11.7539 Z0.7000
G1 X4.8932 Y-11.5762 Z0.7000
G1 X4.7660 Y-11.2129 Z0.7000
G1 X4.5008 Y-10.4783 Z0.7000
G2X4.1957Y-9.5021Z0.7000I9.3883J3.4708
G2X4.0768Y-8.8843Z0.7000I5.6307J1.4034
G2X4.0491Y-7.9129Z0.7000I4.4321J0.6127
G2X4.1548Y-7.3439Z0.7000I2.8423J-0.2339
G1 X4.1939 Y-7.2288 Z0.7000
G1 X4.2417 Y-7.1136 Z0.7000
G1 X4.3005 Y-6.9973 Z0.7000
G2X4.5229Y-6.7030Z0.7000I1.1315J-0.6240
G2X4.7237Y-6.5528Z0.7000I0.6802J-0.6996
G2X4.9998Y-6.4565Z0.7000I0.4156J-0.7476
G2X5.1402Y-6.4475Z0.7000I0.1285J-0.9048
G1 X5.2132 Y-6.4522 Z0.7000
G2X5.3539Y-6.4830Z0.7000I-0.1195J-0.8820
G1 X5.4232 Y-6.5086 Z0.7000
G2X5.5548Y-6.5822Z0.7000I-0.3328J-0.7497
G1 X5.6115 Y-6.6248 Z0.7000
G2X5.7510Y-6.7746Z0.7000I-0.5366J-0.6395
G1 X5.7991 Y-6.8480 Z0.7000
G2X5.9200Y-7.1448Z0.7000I-1.0373J-0.5957
G2X5.9848Y-7.4793Z0.7000I-2.4897J-0.6556
G1 X6.0329 Y-7.8610 Z0.7000
G1 X6.0603 Y-8.0413 Z0.7000
G3X6.2208Y-8.5966Z0.7000I2.3982J0.3922
G3X6.6201Y-9.1712Z0.7000I1.5891J0.6782
G3X7.3507Y-9.5486Z0.7000I1.0221J1.0827
G3X7.7056Y-9.5639Z0.7000I0.2276J1.1578
G3X7.8587Y-9.5310Z0.7000I-0.0936J0.8087
G3X8.0945Y-9.3642Z0.7000I-0.1598J0.4760
G1 X8.1347 Y-9.3104 Z0.7000
G1 X8.1734 Y-9.2489 Z0.7000
G3X8.2129Y-9.0972Z0.7000I-0.2839J0.1551
G1 X8.2359 Y-7.2513 Z0.7000
G2X8.6188Y-6.6736Z0.7000I0.6731J-0.0304
G2X8.9190Y-6.6051Z0.7000I0.2998J-0.6224
G1 X10.5635 Y-6.6055 Z0.7000
G2X11.1851Y-7.0388Z0.7000I-0.0151J-0.6842
G2X11.2303Y-7.2683Z0.7000I-0.6145J-0.2405
G1 X11.2314 Y-7.3548 Z0.7000
G3X11.2462Y-7.4479Z0.7000I0.3261J0.0041
G3X11.3300Y-7.6495Z0.7000I1.1570J0.3629
G3X11.4994Y-7.8011Z0.7000I0.2833J0.1460
G3X11.7047Y-7.8351Z0.7000I0.1887J0.5033
G3X12.0053Y-7.7799Z0.7000I-0.0147J0.9273
G3X12.5167Y-7.4827Z0.7000I-0.5810J1.5878
G3X12.7851Y-7.2191Z0.7000I-1.4318J1.7267
G3X13.1360Y-6.6888Z0.7000I-1.8952J1.6355
G3X13.3256Y-6.2003Z0.7000I-2.7935J1.3654
G3X13.4804Y-5.4029Z0.7000I-4.1086J1.2109
G1 X13.4923 Y-5.2655 Z0.7000
G1 X13.5010 Y-5.1246 Z0.7000
G1 X13.5162 Y-4.8186 Z0.7000
G1 X13.5289 Y-4.6530 Z0.7000
G2X13.5665Y-4.4346Z0.7000I1.2548J-0.1036
G2X13.6482Y-4.2414Z0.7000I0.7654J-0.2099
G2X13.9921Y-3.9424Z0.7000I0.6292J-0.3764
G2X14.3017Y-3.8795Z0.7000I0.3133J-0.7486
G2X14.7261Y-3.9897Z0.7000I0.0007J-0.8698
G2X14.9372Y-4.1465Z0.7000I-0.4994J-0.8930
G1 X15.0073 Y-4.2184 Z0.7000
G2X15.3191Y-4.7054Z0.7000I-1.4834J-1.2930
G2X15.4441Y-5.0360Z0.7000I-2.5429J-1.1504
G2X15.5874Y-5.6868Z0.7000I-3.7765J-1.1723
G2X15.6263Y-6.3387Z0.7000I-4.5354J-0.5983
G2X15.5248Y-7.4449Z0.7000I-6.6998J0.0574
G2X15.3153Y-8.3616Z0.7000I-8.8456J1.5394
G1 X15.2278 Y-8.6564 Z0.7000
G2X14.9358Y-9.5212Z0.7000I-18.9908J5.9297
G1 X14.7298 Y-10.0803 Z0.7000
G3X14.5374Y-10.6257Z0.7000I11.6507J-4.4153
G3X14.3676Y-11.2910Z0.7000I4.9986J-1.6300
G3X14.3267Y-11.9376Z0.7000I2.7942J-0.5016
G3X14.4036Y-12.4502Z0.7000I2.7861J0.1560
G3X14.6114Y-13.1158Z0.7000I6.1746J1.5627
G3X14.8767Y-13.7951Z0.7000I16.4035J6.0154
G1 X15.3317 Y-14.8986 Z0.7000
G2X15.7711Y-16.0282Z0.7000I-28.1016J-11.5815
G2X16.0153Y-16.7560Z0.7000I-14.1013J-5.1372
G2X16.2640Y-17.8353Z0.7000I-7.1874J-2.2244
G2X16.3131Y-18.9691Z0.7000I-5.2093J-0.7933
G2X16.1800Y-19.7836Z0.7000I-4.4033J0.3011
G2X15.8821Y-20.5653Z0.7000I-3.7574J0.9843
G2X15.6198Y-20.9989Z0.7000I-3.2249J1.6548
G1 X15.5189 Y-21.1349 Z0.7000
G1 X15.4115 Y-21.2661 Z0.7000
G1 X15.2980 Y-21.3919 Z0.7000
G1 X15.1786 Y-21.5121 Z0.7000
G1 X15.0538 Y-21.6263 Z0.7000
G2X14.5095Y-22.0194Z0.7000I-2.4330J2.7953
G2X13.9179Y-22.3106Z0.7000I-2.1987J3.7206
G2X12.9908Y-22.5879Z0.7000I-2.0160J5.0524
G2X11.8911Y-22.7227Z0.7000I-1.3898J6.7844
G1 X11.5881 Y-22.7345 Z0.7000
G2X9.1882Y-22.7667Z0.7000I-2.1297J69.2829
G2X7.6848Y-22.7440Z0.7000I0.1126J57.1471
G2X6.7399Y-22.6618Z0.7000I0.1643J7.3572
G2X5.6461Y-22.3841Z0.7000I0.8510J5.6460
G2X4.8998Y-22.0278Z0.7000I1.5055J4.1127
G2X4.4859Y-21.7371Z0.7000I1.9141J3.1661
G1 X4.3569 Y-21.6272 Z0.7000
G1 X4.2332 Y-21.5112 Z0.7000
G1 X4.1153 Y-21.3894 Z0.7000
G1 X4.0034 Y-21.2622 Z0.7000
G1 X3.8979 Y-21.1298 Z0.7000
G1 X3.7988 Y-20.9927 Z0.7000
G2X3.4706Y-20.4057Z0.7000I3.0379J2.0838
G2X3.2522Y-19.7760Z0.7000I3.6127J1.6055
G2X3.1169Y-18.8006Z0.7000I4.3641J1.1027
G1 X3.1144 Y-18.6429 Z0.7000
G1 X3.1192 Y-18.4237 Z0.7000
G1 X3.1324 Y-18.2129 Z0.7000
G1 X3.1394 Y-18.1437 Z0.7000
G0 Z2.0445
G0 X3.1394 Y-18.1437 
G0 Z2.0445
G0 X3.6822 Y-20.8102 
G1 X3.6822 Y-20.8102 Z0.7500 F75.
G1 X3.6209 Y-20.7061 Z0.7287 F50.
G1 X3.5423 Y-20.5575 Z0.6990
G1 X3.4706 Y-20.4057 Z0.6694
G1 X3.4058 Y-20.2513 Z0.6399
G1 X3.3478 Y-20.0947 Z0.6105
G1 X3.2967 Y-19.9361 Z0.5811
G1 X3.2522 Y-19.7760 Z0.5518
G1 X3.2143 Y-19.6147 Z0.5226
G1 X3.1828 Y-19.4526 Z0.4935
G1 X3.1575 Y-19.2899 Z0.4644
G1 X3.1382 Y-19.1268 Z0.4355
G1 X3.1247 Y-18.9636 Z0.4066
G1 X3.1169 Y-18.8006 Z0.3778
G1 X3.1144 Y-18.6429 Z0.3500
G1 X3.1192 Y-18.4237 Z0.3500 F150.
G1 X3.1324 Y-18.2129 Z0.3500
G2X3.2583Y-17.3883Z0.3500I6.2302J-0.5295
G2X3.4695Y-16.6017Z0.3500I9.1658J-2.0394
G1 X3.5304 Y-16.4109 Z0.3500
G1 X3.5939 Y-16.2202 Z0.3500
G2X4.0006Y-15.1026Z0.3500I27.5359J-9.3893
G1 X4.0795 Y-14.9137 Z0.3500
G1 X4.1630 Y-14.7294 Z0.3500
G1 X4.3330 Y-14.3774 Z0.3500
G1 X4.6136 Y-13.8183 Z0.3500
G3X4.9728Y-12.9940Z0.3500I-10.0840J4.8849
G3X5.0701Y-12.6823Z0.3500I-2.1730J0.8496
G3X5.0899Y-12.3273Z0.3500I-1.0910J0.2388
G3X5.0300Y-12.0130Z0.3500I-1.9343J-0.2058
G1 X5.0069 Y-11.9302 Z0.3500
G1 X4.9524 Y-11.7539 Z0.3500
G1 X4.8932 Y-11.5762 Z0.3500
G1 X4.7660 Y-11.2129 Z0.3500
G1 X4.5008 Y-10.4783 Z0.3500
G2X4.1957Y-9.5021Z0.3500I9.3883J3.4708
G2X4.0768Y-8.8843Z0.3500I5.6307J1.4034
G2X4.0491Y-7.9129Z0.3500I4.4321J0.6127
G2X4.1548Y-7.3439Z0.3500I2.8423J-0.2339
G1 X4.1939 Y-7.2288 Z0.3500
G1 X4.2417 Y-7.1136 Z0.3500
G1 X4.3005 Y-6.9973 Z0.3500
G2X4.5229Y-6.7030Z0.3500I1.1315J-0.6240
G2X4.7237Y-6.5528Z0.3500I0.6802J-0.6996
G2X4.9998Y-6.4565Z0.3500I0.4156J-0.7476
G2X5.1402Y-6.4475Z0.3500I0.1285J-0.9048
G1 X5.2132 Y-6.4522 Z0.3500
G2X5.3539Y-6.4830Z0.3500I-0.1195J-0.8820
G1 X5.4232 Y-6.5086 Z0.3500
G2X5.5548Y-6.5822Z0.3500I-0.3328J-0.7497
G1 X5.6115 Y-6.6248 Z0.3500
G2X5.7510Y-6.7746Z0.3500I-0.5366J-0.6395
G1 X5.7991 Y-6.8480 Z0.3500
G2X5.9200Y-7.1448Z0.3500I-1.0373J-0.5957
G2X5.9848Y-7.4793Z0.3500I-2.4897J-0.6556
G1 X6.0329 Y-7.8610 Z0.3500
G1 X6.0603 Y-8.0413 Z0.3500
G3X6.2208Y-8.5966Z0.3500I2.3982J0.3922
G3X6.6201Y-9.1712Z0.3500I1.5891J0.6782
G3X7.3507Y-9.5486Z0.3500I1.0221J1.0827
G3X7.7056Y-9.5639Z0.3500I0.2276J1.1578
G3X7.8587Y-9.5310Z0.3500I-0.0936J0.8087
G3X8.0945Y-9.3642Z0.3500I-0.1598J0.4760
G1 X8.1347 Y-9.3104 Z0.3500
G1 X8.1734 Y-9.2489 Z0.3500
G3X8.2129Y-9.0972Z0.3500I-0.2839J0.1551
G1 X8.2359 Y-7.2513 Z0.3500
G2X8.6188Y-6.6736Z0.3500I0.6731J-0.0304
G2X8.9190Y-6.6051Z0.3500I0.2998J-0.6224
G1 X10.5635 Y-6.6055 Z0.3500
G2X11.1851Y-7.0388Z0.3500I-0.0151J-0.6842
G2X11.2303Y-7.2683Z0.3500I-0.6145J-0.2405
G1 X11.2314 Y-7.3548 Z0.3500
G3X11.2462Y-7.4479Z0.3500I0.3261J0.0041
G3X11.3300Y-7.6495Z0.3500I1.1570J0.3629
G3X11.4994Y-7.8011Z0.3500I0.2833J0.1460
G3X11.7047Y-7.8351Z0.3500I0.1887J0.5033
G3X12.0053Y-7.7799Z0.3500I-0.0147J0.9273
G3X12.5167Y-7.4827Z0.3500I-0.5810J1.5878
G3X12.7851Y-7.2191Z0.3500I-1.4318J1.7267
G3X13.1360Y-6.6888Z0.3500I-1.8952J1.6355
G3X13.3256Y-6.2003Z0.3500I-2.7935J1.3654
G3X13.4804Y-5.4029Z0.3500I-4.1086J1.2109
G1 X13.4923 Y-5.2655 Z0.3500
G1 X13.5010 Y-5.1246 Z0.3500
G1 X13.5162 Y-4.8186 Z0.3500
G1 X13.5289 Y-4.6530 Z0.3500
G2X13.5665Y-4.4346Z0.3500I1.2548J-0.1036
G2X13.6482Y-4.2414Z0.3500I0.7654J-0.2099
G2X13.9921Y-3.9424Z0.3500I0.6292J-0.3764
G2X14.3017Y-3.8795Z0.3500I0.3133J-0.7486
G2X14.7261Y-3.9897Z0.3500I0.0007J-0.8698
G2X14.9372Y-4.1465Z0.3500I-0.4994J-0.8930
G1 X15.0073 Y-4.2184 Z0.3500
G2X15.3191Y-4.7054Z0.3500I-1.4834J-1.2930
G2X15.4441Y-5.0360Z0.3500I-2.5429J-1.1504
G2X15.5874Y-5.6868Z0.3500I-3.7765J-1.1723
G2X15.6263Y-6.3387Z0.3500I-4.5354J-0.5983
G2X15.5248Y-7.4449Z0.3500I-6.6998J0.0574
G2X15.3153Y-8.3616Z0.3500I-8.8456J1.5394
G1 X15.2278 Y-8.6564 Z0.3500
G2X14.9358Y-9.5212Z0.3500I-18.9908J5.9297
G1 X14.7298 Y-10.0803 Z0.3500
G3X14.5374Y-10.6257Z0.3500I11.6507J-4.4153
G3X14.3676Y-11.2910Z0.3500I4.9986J-1.6300
G3X14.3267Y-11.9376Z0.3500I2.7942J-0.5016
G3X14.4036Y-12.4502Z0.3500I2.7861J0.1560
G3X14.6114Y-13.1158Z0.3500I6.1746J1.5627
G3X14.8767Y-13.7951Z0.3500I16.4035J6.0154
G1 X15.3317 Y-14.8986 Z0.3500
G2X15.7711Y-16.0282Z0.3500I-28.1016J-11.5815
G2X16.0153Y-16.7560Z0.3500I-14.1013J-5.1372
G2X16.2640Y-17.8353Z0.3500I-7.1874J-2.2244
G2X16.3131Y-18.9691Z0.3500I-5.2093J-0.7933
G2X16.1800Y-19.7836Z0.3500I-4.4033J0.3011
G2X15.8821Y-20.5653Z0.3500I-3.7574J0.9843
G2X15.6198Y-20.9989Z0.3500I-3.2249J1.6548
G1 X15.5189 Y-21.1349 Z0.3500
G1 X15.4115 Y-21.2661 Z0.3500
G1 X15.2980 Y-21.3919 Z0.3500
G1 X15.1786 Y-21.5121 Z0.3500
G1 X15.0538 Y-21.6263 Z0.3500
G2X14.5095Y-22.0194Z0.3500I-2.4330J2.7953
G2X13.9179Y-22.3106Z0.3500I-2.1987J3.7206
G2X12.9908Y-22.5879Z0.3500I-2.0160J5.0524
G2X11.8911Y-22.7227Z0.3500I-1.3898J6.7844
G1 X11.5881 Y-22.7345 Z0.3500
G2X9.1882Y-22.7667Z0.3500I-2.1297J69.2829
G2X7.6848Y-22.7440Z0.3500I0.1126J57.1471
G2X6.7399Y-22.6618Z0.3500I0.1643J7.3572
G2X5.6461Y-22.3841Z0.3500I0.8510J5.6460
G2X4.8998Y-22.0278Z0.3500I1.5055J4.1127
G2X4.4859Y-21.7371Z0.3500I1.9141J3.1661
G1 X4.3569 Y-21.6272 Z0.3500
G1 X4.2332 Y-21.5112 Z0.3500
G1 X4.1153 Y-21.3894 Z0.3500
G1 X4.0034 Y-21.2622 Z0.3500
G1 X3.8979 Y-21.1298 Z0.3500
G1 X3.7988 Y-20.9927 Z0.3500
G2X3.4706Y-20.4057Z0.3500I3.0379J2.0838
G2X3.2522Y-19.7760Z0.3500I3.6127J1.6055
G2X3.1169Y-18.8006Z0.3500I4.3641J1.1027
G1 X3.1144 Y-18.6429 Z0.3500
G1 X3.1192 Y-18.4237 Z0.3500
G1 X3.1324 Y-18.2129 Z0.3500
G1 X3.1394 Y-18.1437 Z0.3500
G0 Z2.0445
G0 X3.1394 Y-18.1437 
G0 Z2.0445
G0 X3.6822 Y-20.8102 
G1 X3.6822 Y-20.8102 Z0.4000 F75.
G1 X3.6209 Y-20.7061 Z0.3787 F50.
G1 X3.5423 Y-20.5575 Z0.3490
G1 X3.4706 Y-20.4057 Z0.3194
G1 X3.4058 Y-20.2513 Z0.2899
G1 X3.3478 Y-20.0947 Z0.2605
G1 X3.2967 Y-19.9361 Z0.2311
G1 X3.2522 Y-19.7760 Z0.2018
G1 X3.2143 Y-19.6147 Z0.1726
G1 X3.1828 Y-19.4526 Z0.1435
G1 X3.1575 Y-19.2899 Z0.1144
G1 X3.1382 Y-19.1268 Z0.0855
G1 X3.1247 Y-18.9636 Z0.0566
G1 X3.1169 Y-18.8006 Z0.0278
G1 X3.1144 Y-18.6429 Z-0.0000
G1 X3.1192 Y-18.4237 Z-0.0000 F150.
G1 X3.1324 Y-18.2129 Z-0.0000
G2X3.2583Y-17.3883Z-0.0000I6.2302J-0.5295
G2X3.4695Y-16.6017Z-0.0000I9.1658J-2.0394
G1 X3.5304 Y-16.4109 Z-0.0000
G1 X3.5939 Y-16.2202 Z-0.0000
G2X4.0006Y-15.1026Z-0.0000I27.5359J-9.3893
G1 X4.0795 Y-14.9137 Z-0.0000
G1 X4.1630 Y-14.7294 Z-0.0000
G1 X4.3330 Y-14.3774 Z-0.0000
G1 X4.6136 Y-13.8183 Z-0.0000
G3X4.9728Y-12.9940Z-0.0000I-10.0840J4.8849
G3X5.0701Y-12.6823Z-0.0000I-2.1730J0.8496
G3X5.0899Y-12.3273Z-0.0000I-1.0910J0.2388
G3X5.0300Y-12.0130Z-0.0000I-1.9343J-0.2058
G1 X5.0069 Y-11.9302 Z-0.0000
G1 X4.9524 Y-11.7539 Z-0.0000
G1 X4.8932 Y-11.5762 Z-0.0000
G1 X4.7660 Y-11.2129 Z-0.0000
G1 X4.5008 Y-10.4783 Z-0.0000
G2X4.1957Y-9.5021Z-0.0000I9.3883J3.4708
G2X4.0768Y-8.8843Z-0.0000I5.6307J1.4034
G2X4.0491Y-7.9129Z-0.0000I4.4321J0.6127
G2X4.1548Y-7.3439Z-0.0000I2.8423J-0.2339
G1 X4.1939 Y-7.2288 Z-0.0000
G1 X4.2417 Y-7.1136 Z-0.0000
G1 X4.3005 Y-6.9973 Z-0.0000
G2X4.5229Y-6.7030Z-0.0000I1.1315J-0.6240
G2X4.7237Y-6.5528Z-0.0000I0.6802J-0.6996
G2X4.9998Y-6.4565Z-0.0000I0.4156J-0.7476
G2X5.1402Y-6.4475Z-0.0000I0.1285J-0.9048
G1 X5.2132 Y-6.4522 Z-0.0000
G2X5.3539Y-6.4830Z-0.0000I-0.1195J-0.8820
G1 X5.4232 Y-6.5086 Z-0.0000
G2X5.5548Y-6.5822Z-0.0000I-0.3328J-0.7497
G1 X5.6115 Y-6.6248 Z-0.0000
G2X5.7510Y-6.7746Z-0.0000I-0.5366J-0.6395
G1 X5.7991 Y-6.8480 Z-0.0000
G2X5.9200Y-7.1448Z-0.0000I-1.0373J-0.5957
G2X5.9848Y-7.4793Z-0.0000I-2.4897J-0.6556
G1 X6.0329 Y-7.8610 Z-0.0000
G1 X6.0603 Y-8.0413 Z-0.0000
G3X6.2208Y-8.5966Z-0.0000I2.3982J0.3922
G3X6.6201Y-9.1712Z-0.0000I1.5891J0.6782
G3X7.3507Y-9.5486Z-0.0000I1.0221J1.0827
G3X7.7056Y-9.5639Z-0.0000I0.2276J1.1578
G3X7.8587Y-9.5310Z-0.0000I-0.0936J0.8087
G3X8.0945Y-9.3642Z-0.0000I-0.1598J0.4760
G1 X8.1347 Y-9.3104 Z-0.0000
G1 X8.1734 Y-9.2489 Z-0.0000
G3X8.2129Y-9.0972Z-0.0000I-0.2839J0.1551
G1 X8.2359 Y-7.2513 Z-0.0000
G2X8.6188Y-6.6736Z-0.0000I0.6731J-0.0304
G2X8.9190Y-6.6051Z-0.0000I0.2998J-0.6224
G1 X10.5635 Y-6.6055 Z-0.0000
G2X11.1851Y-7.0388Z-0.0000I-0.0151J-0.6842
G2X11.2303Y-7.2683Z-0.0000I-0.6145J-0.2405
G1 X11.2314 Y-7.3548 Z-0.0000
G3X11.2462Y-7.4479Z-0.0000I0.3261J0.0041
G3X11.3300Y-7.6495Z-0.0000I1.1570J0.3629
G3X11.4994Y-7.8011Z-0.0000I0.2833J0.1460
G3X11.7047Y-7.8351Z-0.0000I0.1887J0.5033
G3X12.0053Y-7.7799Z-0.0000I-0.0147J0.9273
G3X12.5167Y-7.4827Z-0.0000I-0.5810J1.5878
G3X12.7851Y-7.2191Z-0.0000I-1.4318J1.7267
G3X13.1360Y-6.6888Z-0.0000I-1.8952J1.6355
G3X13.3256Y-6.2003Z-0.0000I-2.7935J1.3654
G3X13.4804Y-5.4029Z-0.0000I-4.1086J1.2109
G1 X13.4923 Y-5.2655 Z-0.0000
G1 X13.5010 Y-5.1246 Z-0.0000
G1 X13.5162 Y-4.8186 Z-0.0000
G1 X13.5289 Y-4.6530 Z-0.0000
G2X13.5665Y-4.4346Z-0.0000I1.2548J-0.1036
G2X13.6482Y-4.2414Z-0.0000I0.7654J-0.2099
G2X13.9921Y-3.9424Z-0.0000I0.6292J-0.3764
G2X14.3017Y-3.8795Z-0.0000I0.3133J-0.7486
G2X14.7261Y-3.9897Z-0.0000I0.0007J-0.8698
G2X14.9372Y-4.1465Z-0.0000I-0.4994J-0.8930
G1 X15.0073 Y-4.2184 Z-0.0000
G2X15.3191Y-4.7054Z-0.0000I-1.4834J-1.2930
G2X15.4441Y-5.0360Z-0.0000I-2.5429J-1.1504
G2X15.5874Y-5.6868Z-0.0000I-3.7765J-1.1723
G2X15.6263Y-6.3387Z-0.0000I-4.5354J-0.5983
G2X15.5248Y-7.4449Z-0.0000I-6.6998J0.0574
G2X15.3153Y-8.3616Z-0.0000I-8.8456J1.5394
G1 X15.2278 Y-8.6564 Z-0.0000
G2X14.9358Y-9.5212Z-0.0000I-18.9908J5.9297
G1 X14.7298 Y-10.0803 Z-0.0000
G3X14.5374Y-10.6257Z-0.0000I11.6507J-4.4153
G3X14.3676Y-11.2910Z-0.0000I4.9986J-1.6300
G3X14.3267Y-11.9376Z-0.0000I2.7942J-0.5016
G3X14.4036Y-12.4502Z-0.0000I2.7861J0.1560
G3X14.6114Y-13.1158Z-0.0000I6.1746J1.5627
G3X14.8767Y-13.7951Z-0.0000I16.4035J6.0154
G1 X15.3317 Y-14.8986 Z-0.0000
G2X15.7711Y-16.0282Z-0.0000I-28.1016J-11.5815
G2X16.0153Y-16.7560Z-0.0000I-14.1013J-5.1372
G2X16.2640Y-17.8353Z-0.0000I-7.1874J-2.2244
G2X16.3131Y-18.9691Z-0.0000I-5.2093J-0.7933
G2X16.1800Y-19.7836Z-0.0000I-4.4033J0.3011
G2X15.8821Y-20.5653Z-0.0000I-3.7574J0.9843
G2X15.6198Y-20.9989Z-0.0000I-3.2249J1.6548
G1 X15.5189 Y-21.1349 Z-0.0000
G1 X15.4115 Y-21.2661 Z-0.0000
G1 X15.2980 Y-21.3919 Z-0.0000
G1 X15.1786 Y-21.5121 Z-0.0000
G1 X15.0538 Y-21.6263 Z-0.0000
G2X14.5095Y-22.0194Z-0.0000I-2.4330J2.7953
G2X13.9179Y-22.3106Z-0.0000I-2.1987J3.7206
G2X12.9908Y-22.5879Z-0.0000I-2.0160J5.0524
G2X11.8911Y-22.7227Z-0.0000I-1.3898J6.7844
G1 X11.5881 Y-22.7345 Z-0.0000
G2X9.1882Y-22.7667Z-0.0000I-2.1297J69.2829
G2X7.6848Y-22.7440Z-0.0000I0.1126J57.1471
G2X6.7399Y-22.6618Z-0.0000I0.1643J7.3572
G2X5.6461Y-22.3841Z-0.0000I0.8510J5.6460
G2X4.8998Y-22.0278Z-0.0000I1.5055J4.1127
G2X4.4859Y-21.7371Z-0.0000I1.9141J3.1661
G1 X4.3569 Y-21.6272 Z-0.0000
G1 X4.2332 Y-21.5112 Z-0.0000
G1 X4.1153 Y-21.3894 Z-0.0000
G1 X4.0034 Y-21.2622 Z-0.0000
G1 X3.8979 Y-21.1298 Z-0.0000
G1 X3.7988 Y-20.9927 Z-0.0000
G2X3.4706Y-20.4057Z-0.0000I3.0379J2.0838
G2X3.2522Y-19.7760Z-0.0000I3.6127J1.6055
G2X3.1169Y-18.8006Z-0.0000I4.3641J1.1027
G1 X3.1144 Y-18.6429 Z-0.0000
G1 X3.1192 Y-18.4237 Z-0.0000
G1 X3.1324 Y-18.2129 Z-0.0000
G1 X3.1394 Y-18.1437 Z-0.0000
G0 Z4.1450
G0 X3.1394 Y-18.1437 
M5
G53 Z
G0 X2Y0
( END FILE 09-FullBody-DStyle-04-end.nc )
