( BEGIN FILE BackRoundover-Adcock-PT125-02-back.ncTNUM: -1 )
( Lefty:False Nunits:1 )
( cline: 9.733 delta:15.5 )
( start_unit: 1 num_units: 1)
( MOP:  BackRoundover-Adcock-PT125-02-back )
( FILE: G:\Shared drives\AlloyProjectFiles\Customer CAD files\Alloy-Standard-Builds-CAM\s-in\FullAdcock-Specific\BackRoundover-Adcock-PT125-02-back.nc)
G90
(  BEGIN TOOL LIST )
(  TOOL 15 - Roundover PT125 Accusize - DESC: 0.2625 DIA, 2 FLUTE,  CARBIDE MAT )
(  ENDOF TOOL LIST )
( BackRoundover-Adcock-PT125-02-back)
( Accusize 1011-0018 Depth .1822 diameter .2625 but added .001 since there was a line in test cuts)
T15
S9000
M3
G0 Z4.0000
G0 X3.1532 Y-18.5109 
G1 X3.1532 Y-18.5109 Z1.5778 F75.
G17
G2X3.2696Y-18.6475Z1.5778I-0.0081J-0.1247 F25.
G1 X3.2568 Y-18.8432 Z1.5778 F80.
G3X3.2843Y-19.5536Z1.5778I4.1664J-0.1943
G3X3.3782Y-20.0250Z1.5778I3.4749J0.4465
G3X3.5579Y-20.5219Z1.5778I3.1805J0.8693
G1 X3.6385 Y-20.6903 Z1.5778
G1 X3.6907 Y-20.7881 Z1.5778
G3X3.9416Y-21.2000Z1.5778I5.5733J3.1130
G3X4.2211Y-21.5367Z1.5778I1.8120J1.2198
G3X4.6186Y-21.8788Z1.5778I2.6777J2.7092
G3X5.8091Y-22.5429Z1.5778I3.0218J4.0185
G3X6.5693Y-22.7591Z1.5778I1.6042J4.1944
G3X7.2523Y-22.8533Z1.5778I1.2432J6.4931
G3X8.0435Y-22.8957Z1.5778I1.0646J12.4765
G1 X8.2630 Y-22.9001 Z1.5778
G1 X8.7320 Y-22.9036 Z1.5778
G3X11.1200Y-22.8990Z1.5778I0.7083J256.0207
G3X11.9068Y-22.8709Z1.5778I-0.1477J15.1304
G3X12.4871Y-22.8079Z1.5778I-0.4715J7.0540
G3X13.8025Y-22.4636Z1.5778I-1.0272J6.6085
G3X14.5864Y-22.0738Z1.5778I-1.4729J3.9450
G3X15.9229Y-20.5593Z1.5778I-1.9700J3.0855
G3X16.2145Y-19.5496Z1.5778I-3.0721J1.4340
G3X16.2426Y-18.7464Z1.5778I-4.6236J0.5637
G3X16.1632Y-17.9730Z1.5778I-7.2463J-0.3532
G3X15.9457Y-16.9307Z1.5778I-10.6397J-1.6760
G3X15.2563Y-14.8822Z1.5778I-15.3157J-4.0141
G1 X15.1794 Y-14.6978 Z1.5778
G1 X15.0277 Y-14.3456 Z1.5778
G2X14.6564Y-13.4851Z1.5778I46.4349J20.5507
G2X14.4770Y-13.0224Z1.5778I8.6972J3.6366
G2X14.3484Y-12.5386Z1.5778I2.9209J1.0359
G2X14.3188Y-12.0180Z1.5778I2.4306J0.3990
G2X14.3759Y-11.5201Z1.5778I3.7281J-0.1746
G2X14.5344Y-10.8502Z1.5778I6.7417J-1.2420
G1 X14.6202 Y-10.5563 Z1.5778
G1 X14.8242 Y-9.8920 Z1.5778
G3X15.2108Y-8.5492Z1.5778I-35.1579J10.8477
G1 X15.2486 Y-8.4012 Z1.5778
G1 X15.2608 Y-8.3370 Z1.5778
G1 X15.2731 Y-8.2498 Z1.5778
G3X15.3283Y-7.5322Z1.5778I-11.0200J1.2078
G3X15.3402Y-6.9310Z1.5778I-8.9269J0.4779
G3X15.2634Y-6.1466Z1.5778I-4.9744J-0.0912
G3X15.1586Y-5.6635Z1.5778I-6.1364J-1.0787
G1 X15.1381 Y-5.5943 Z1.5778
G3X14.3771Y-4.2598Z1.5778I-4.8533J-1.8834
G3X14.0205Y-3.8740Z1.5778I-2.6196J-2.0636
G3X13.6159Y-3.8545Z1.5778I-0.2141J-0.2361
G3X13.5184Y-4.2468Z1.5778I0.1905J-0.2556
G2X13.8337Y-6.0810Z1.5778I-3.1030J-1.4776
G2X13.3707Y-7.5231Z1.5778I-3.6356J0.3720
G2X12.9560Y-7.9688Z1.5778I-1.2403J0.7383
G2X12.3081Y-8.2045Z1.5778I-0.7789J1.1325
G2X11.8603Y-8.1936Z1.5778I-0.1903J1.3795
G2X11.3804Y-7.9887Z1.5778I0.2251J1.1915
G2X11.0567Y-7.6329Z1.5778I0.6679J0.9330
G2X10.9635Y-7.3769Z1.5778I0.9225J0.4806
G1 X10.9481 Y-7.3065 Z1.5778
G1 X10.9220 Y-7.1573 Z1.5778
G3X10.8824Y-7.0517Z1.5778I-0.3097J-0.0561
G1 X10.8493 Y-7.0070 Z1.5778
G1 X10.8161 Y-6.9750 Z1.5778
G1 X10.8056 Y-6.9662 Z1.5778
G1 X10.7599 Y-6.9365 Z1.5778
G1 X10.7111 Y-6.9155 Z1.5778
G1 X10.6614 Y-6.9030 Z1.5778
G1 X10.6194 Y-6.8991 Z1.5778
G1 X8.8224 Y-6.8987 Z1.5778
G1 X8.7662 Y-6.9038 Z1.5778
G3X8.6616Y-6.9432Z1.5778I0.0626J-0.3252
G1 X8.6493 Y-6.9503 Z1.5778
G3X8.5661Y-7.0297Z1.5778I0.1848J-0.2769
G1 X8.5577 Y-7.0411 Z1.5778
G1 X8.5338 Y-7.0848 Z1.5778
G1 X8.5274 Y-7.0989 Z1.5778
G1 X8.5108 Y-7.1542 Z1.5778
G1 X8.5050 Y-7.2036 Z1.5778
G1 X8.5025 Y-8.9825 Z1.5778
G2X8.4183Y-9.3283Z1.5778I-0.7492J-0.0006
G2X8.2615Y-9.5568Z1.5778I-0.9316J0.4711
G2X7.9637Y-9.8072Z1.5778I-1.0756J0.9768
G2X6.8370Y-10.0783Z1.5778I-0.9528J1.4833
G2X5.6621Y-9.5461Z1.5778I0.2040J2.0134
G2X5.3130Y-9.0783Z1.5778I1.1807J1.2453
G2X5.1154Y-8.5139Z1.5778I2.0328J1.0283
G2X5.0984Y-7.2960Z1.5778I3.1833J0.6537
G2X5.1939Y-6.8895Z1.5778I3.4325J-0.5920
G3X5.0337Y-6.5638Z1.5778I-0.2736J0.0677
G3X4.6794Y-6.6769Z1.5778I-0.1130J-0.2575
G3X4.4512Y-7.1570Z1.5778I2.8496J-1.6492
G3X4.1648Y-8.2050Z1.5778I4.7881J-1.8713
G3X4.1198Y-8.6525Z1.5778I4.0958J-0.6379
G3X4.1113Y-9.3482Z1.5778I14.6110J-0.5266
G1 X4.1169 Y-9.4588 Z1.5778
G1 X4.1287 Y-9.5850 Z1.5778
G1 X4.1504 Y-9.7318 Z1.5778
G3X4.2793Y-10.2211Z1.5778I3.1236J0.5611
G3X4.5120Y-10.7847Z1.5778I5.1963J1.8157
G1 X4.6856 Y-11.1462 Z1.5778
G2X4.8806Y-11.5810Z1.5778I-6.6927J-3.2633
G2X5.0691Y-12.2003Z1.5778I-3.1684J-1.3028
G2X5.1042Y-13.0402Z1.5778I-2.7416J-0.5352
G2X4.9818Y-13.6513Z1.5778I-3.4669J0.3764
G2X4.7668Y-14.2397Z1.5778I-4.6240J1.3559
G2X4.5151Y-14.7517Z1.5778I-5.9954J2.6297
G3X4.2791Y-15.1972Z1.5778I11.3984J-6.3256
G1 X4.2027 Y-15.3587 Z1.5778
G3X3.9566Y-15.9719Z1.5778I7.7233J-3.4564
G3X3.4885Y-17.4644Z1.5778I19.0882J-6.8063
G3X3.3219Y-18.2286Z1.5778I7.7483J-2.0892
G3X3.2696Y-18.6475Z1.5778I5.5001J-0.8999
G1 X3.2568 Y-18.8432 Z1.5778
G3X3.2843Y-19.5536Z1.5778I4.1664J-0.1943
G1 X3.2982 Y-19.6446 Z1.5778
G2X3.1935Y-19.7871Z1.5778I-0.1235J-0.0190 F75.
G0 Z4.0000
G0 X3.1935 Y-19.7871 
M5
G53 Z
G0 X2Y0
( END FILE BackRoundover-Adcock-PT125-02-back.nc )
