( BEGIN FILE boat-route-front-03.ncTNUM: -1 )
( Lefty:False Nunits:1 )
( cline: 9.733 delta:15.5 )
( start_unit: 1 num_units: 1)
( MOP:  boat-route-front-03 )
( FILE: G:\Shared drives\AlloyProjectFiles\Customer CAD files\Alloy-Standard-Builds-CAM\s-in\PUPs\boat-route-front-03.nc)
G90
(  BEGIN TOOL LIST )
(  TOOL 5 - Downcut PT375 - DESC: 0.3750 DIA, 2 FLUTE,  CARBIDE MAT )
(  ENDOF TOOL LIST )
( boat-route-front-03)
( Max Depth 1.75)
T05
S12000
M3
G0 Z4.0000
G0 X8.3764 Y-12.0649 
G1 X8.3764 Y-12.0649 Z1.0100 F75.
G1 X8.3764 Y-10.6471 Z0.7600 F25.
G1 X8.1608 Y-10.6471 Z0.7600 F80.
G1 X8.1608 Y-16.0317 Z0.7600
G1 X8.3764 Y-16.0317 Z0.7600
G1 X8.3764 Y-10.6471 Z0.7600
G0 Z1.0100
G0 X8.3764 Y-10.6471 
G0 Z1.0100
G0 X8.3764 Y-12.0649 
G1 X8.3764 Y-12.0649 Z0.7600 F75.
G1 X8.3764 Y-10.6471 Z0.5100 F25.
G1 X8.1608 Y-10.6471 Z0.5100 F80.
G1 X8.1608 Y-16.0317 Z0.5100
G1 X8.3764 Y-16.0317 Z0.5100
G1 X8.3764 Y-10.6471 Z0.5100
G0 Z1.2600
G0 X8.3764 Y-10.6471 
G0 Z1.2600
G0 X11.3059 Y-11.8494 
G1 X11.3059 Y-11.8494 Z1.0100 F75.
G1 X11.3059 Y-10.6471 Z0.7980 F25.
G1 X11.0903 Y-10.6471 Z0.7600
G1 X11.0903 Y-16.0317 Z0.7600 F80.
G1 X11.3059 Y-16.0317 Z0.7600
G1 X11.3059 Y-10.6471 Z0.7600
G1 X11.0903 Y-10.6471 Z0.7600
G0 Z1.0100
G0 X11.0903 Y-10.6471 
G0 Z1.0100
G0 X11.3059 Y-11.8494 
G1 X11.3059 Y-11.8494 Z0.7600 F75.
G1 X11.3059 Y-10.6471 Z0.5480 F25.
G1 X11.0903 Y-10.6471 Z0.5100
G1 X11.0903 Y-16.0317 Z0.5100 F80.
G1 X11.3059 Y-16.0317 Z0.5100
G1 X11.3059 Y-10.6471 Z0.5100
G1 X11.0903 Y-10.6471 Z0.5100
G0 Z4.0000
G0 X11.0903 Y-10.6471 
M5
G53 Z
G0 X2Y0
( END FILE boat-route-front-03.nc )
