( BEGIN FILE DStyle-BellyCarve-back-04.ncTNUM: -1 )
( Lefty:False Nunits:1 )
( cline: 9.733 delta:15.5 )
( start_unit: 1 num_units: 1)
( MOP:  DStyle-BellyCarve-back-04 )
( FILE: G:\Shared drives\AlloyProjectFiles\Customer CAD files\Alloy-Standard-Builds-CAM\s-in\FullD-Style-Specific\DStyle-BellyCarve-back-04.nc)
G90
(  BEGIN TOOL LIST )
(  TOOL 12 - Ball PT750 - DESC: 0.7500 DIA, 2 FLUTE,  CARBIDE MAT )
(  ENDOF TOOL LIST )
( DStyle-BellyCarve-back-04)
T12
S12000
M3
G0 Z4.0000
G0 X15.2937 Y-6.9939 
G1 X15.2937 Y-6.9939 Z1.8461 F75.
G1 X15.2962 Y-6.9978 Z1.8159 F25.
G1 X15.3036 Y-7.0092 Z1.7886
G1 X15.3151 Y-7.0269 Z1.7666
G1 X15.3296 Y-7.0494 Z1.7520
G1 X15.3468 Y-7.0759 Z1.7406 F150.
G1 X15.3639 Y-7.1024 Z1.7275
G1 X15.3725 Y-7.1157 Z1.7202
G1 X15.3811 Y-7.1289 Z1.7124
G1 X15.3896 Y-7.1422 Z1.7040
G1 X15.3982 Y-7.1554 Z1.6947
G1 X15.4068 Y-7.1687 Z1.6847
G1 X15.4154 Y-7.1820 Z1.6737
G1 X15.4239 Y-7.1952 Z1.6619
G1 X15.4325 Y-7.2085 Z1.6489
G1 X15.4411 Y-7.2217 Z1.6347
G1 X15.4497 Y-7.2350 Z1.6189
G1 X15.4540 Y-7.2416 Z1.6103
G1 X15.4582 Y-7.2482 Z1.6012
G1 X15.4625 Y-7.2549 Z1.5914
G1 X15.4668 Y-7.2615 Z1.5808
G1 X15.4789 Y-7.2802 Z1.5591 F159.
G1 X15.4941 Y-7.3036 Z1.5453
G1 X15.5108 Y-7.3295 Z1.5407
G1 X15.5275 Y-7.3552 Z1.5458
G1 X15.5425 Y-7.3784 Z1.5601
G1 X15.5544 Y-7.3969 Z1.5822
G1 X15.5620 Y-7.4087 Z1.6099
G1 X15.5647 Y-7.4127 Z1.6407
G0 Z1.9091
G0 X15.5647 Y-7.4127 
G0 Z1.9091
G0 X15.2044 Y-6.9329 
G1 X15.2044 Y-6.9329 Z1.8827 F75.
G1 X15.2077 Y-6.9379 Z1.8484 F25.
G1 X15.2172 Y-6.9525 Z1.8183
G1 X15.2319 Y-6.9748 Z1.7960
G1 X15.2498 Y-7.0021 Z1.7841
G1 X15.2644 Y-7.0243 Z1.7795 F150.
G1 X15.2789 Y-7.0465 Z1.7740
G1 X15.2935 Y-7.0687 Z1.7676
G1 X15.3080 Y-7.0909 Z1.7602
G1 X15.3226 Y-7.1131 Z1.7517
G1 X15.3372 Y-7.1353 Z1.7422
G1 X15.3517 Y-7.1575 Z1.7310
G1 X15.3663 Y-7.1797 Z1.7183
G1 X15.3808 Y-7.2019 Z1.7040
G1 X15.3881 Y-7.2130 Z1.6961
G1 X15.3954 Y-7.2241 Z1.6877
G1 X15.4027 Y-7.2352 Z1.6787
G1 X15.4100 Y-7.2463 Z1.6691
G1 X15.4172 Y-7.2574 Z1.6588
G1 X15.4245 Y-7.2685 Z1.6477
G1 X15.4318 Y-7.2796 Z1.6356
G1 X15.4391 Y-7.2907 Z1.6225
G1 X15.4463 Y-7.3018 Z1.6080
G1 X15.4536 Y-7.3128 Z1.5918
G1 X15.4573 Y-7.3184 Z1.5830
G1 X15.4609 Y-7.3239 Z1.5735
G1 X15.4645 Y-7.3295 Z1.5632
G1 X15.4682 Y-7.3350 Z1.5520
G1 X15.4718 Y-7.3406 Z1.5396
G1 X15.4755 Y-7.3461 Z1.5255
G1 X15.4773 Y-7.3489 Z1.5177
G1 X15.4791 Y-7.3517 Z1.5091
G1 X15.4809 Y-7.3545 Z1.4995
G1 X15.4827 Y-7.3572 Z1.4885
G1 X15.4916 Y-7.3707 Z1.4570 F159.
G1 X15.5059 Y-7.3925 Z1.4330
G1 X15.5239 Y-7.4199 Z1.4197
G1 X15.5433 Y-7.4495 Z1.4186
G1 X15.5617 Y-7.4776 Z1.4299
G1 X15.5768 Y-7.5006 Z1.4522
G1 X15.5867 Y-7.5156 Z1.4826
G1 X15.5901 Y-7.5209 Z1.5175
G0 Z1.9192
G0 X15.5901 Y-7.5209 
G0 Z1.9192
G0 X15.1340 Y-6.9026 
G1 X15.1340 Y-6.9026 Z1.8941 F75.
G1 X15.1379 Y-6.9084 Z1.8572 F25.
G1 X15.1490 Y-6.9252 Z1.8255
G1 X15.1659 Y-6.9505 Z1.8035
G1 X15.1860 Y-6.9809 Z1.7942
G1 X15.2044 Y-7.0084 Z1.7923 F150.
G1 X15.2227 Y-7.0360 Z1.7890
G1 X15.2410 Y-7.0636 Z1.7845
G1 X15.2594 Y-7.0911 Z1.7786
G1 X15.2777 Y-7.1187 Z1.7714
G1 X15.2869 Y-7.1325 Z1.7672
G1 X15.2961 Y-7.1463 Z1.7624
G1 X15.3144 Y-7.1739 Z1.7516
G1 X15.3236 Y-7.1876 Z1.7455
G1 X15.3327 Y-7.2014 Z1.7389
G1 X15.3418 Y-7.2151 Z1.7318
G1 X15.3510 Y-7.2288 Z1.7242
G1 X15.3601 Y-7.2425 Z1.7159
G1 X15.3692 Y-7.2563 Z1.7069
G1 X15.3783 Y-7.2700 Z1.6973
G1 X15.3874 Y-7.2837 Z1.6868
G1 X15.3965 Y-7.2974 Z1.6754
G1 X15.4056 Y-7.3111 Z1.6630
G1 X15.4148 Y-7.3248 Z1.6494
G1 X15.4239 Y-7.3385 Z1.6344
G1 X15.4330 Y-7.3522 Z1.6176
G1 X15.4375 Y-7.3590 Z1.6084
G1 X15.4421 Y-7.3659 Z1.5985
G1 X15.4467 Y-7.3727 Z1.5879
G1 X15.4512 Y-7.3796 Z1.5763
G1 X15.4558 Y-7.3865 Z1.5634
G1 X15.4603 Y-7.3933 Z1.5490
G1 X15.4626 Y-7.3967 Z1.5410
G1 X15.4649 Y-7.4002 Z1.5324
G1 X15.4672 Y-7.4036 Z1.5229
G1 X15.4694 Y-7.4070 Z1.5123
G1 X15.4717 Y-7.4104 Z1.5000
G1 X15.4729 Y-7.4122 Z1.4931
G1 X15.4740 Y-7.4139 Z1.4853
G1 X15.4757 Y-7.4164 Z1.4713
G1 X15.4769 Y-7.4181 Z1.4591
G1 X15.4777 Y-7.4194 Z1.4465
G1 X15.4783 Y-7.4203 Z1.4321
G1 X15.4786 Y-7.4207 Z1.4010
G1 X15.4788 Y-7.4211 Z1.3850
G1 X15.4794 Y-7.4220 Z1.3848
G1 X15.5037 Y-7.4585 Z1.3859 F159.
G1 X15.5253 Y-7.4911 Z1.4056
G1 X15.5403 Y-7.5135 Z1.4401
G1 X15.5456 Y-7.5215 Z1.4829
G0 Z1.9200
G0 X15.5456 Y-7.5215 
G0 Z1.9200
G0 X15.0740 Y-6.8891 
G1 X15.0740 Y-6.8891 Z1.8950 F75.
G1 X15.0782 Y-6.8954 Z1.8567 F25.
G1 X15.0903 Y-6.9134 Z1.8243
G1 X15.1085 Y-6.9403 Z1.8026
G1 X15.1298 Y-6.9720 Z1.7950
G1 X15.1617 Y-7.0193 Z1.7950 F150.
G1 X15.1723 Y-7.0351 Z1.7946
G1 X15.1936 Y-7.0666 Z1.7927
G1 X15.2149 Y-7.0981 Z1.7891
G1 X15.2361 Y-7.1296 Z1.7838
G1 X15.2574 Y-7.1612 Z1.7764
G1 X15.2680 Y-7.1769 Z1.7719
G1 X15.2786 Y-7.1927 Z1.7669
G1 X15.2892 Y-7.2085 Z1.7613
G1 X15.2999 Y-7.2242 Z1.7552
G1 X15.3104 Y-7.2399 Z1.7485
G1 X15.3210 Y-7.2556 Z1.7411
G1 X15.3316 Y-7.2712 Z1.7331
G1 X15.3421 Y-7.2869 Z1.7243
G1 X15.3527 Y-7.3026 Z1.7146
G1 X15.3633 Y-7.3182 Z1.7041
G1 X15.3738 Y-7.3339 Z1.6926
G1 X15.3844 Y-7.3496 Z1.6800
G1 X15.3950 Y-7.3652 Z1.6660
G1 X15.4055 Y-7.3809 Z1.6502
G1 X15.4108 Y-7.3887 Z1.6416
G1 X15.4161 Y-7.3966 Z1.6323
G1 X15.4214 Y-7.4044 Z1.6222
G1 X15.4266 Y-7.4123 Z1.6111
G1 X15.4319 Y-7.4201 Z1.5987
G1 X15.4372 Y-7.4279 Z1.5849
G1 X15.4399 Y-7.4318 Z1.5774
G1 X15.4425 Y-7.4358 Z1.5693
G1 X15.4451 Y-7.4397 Z1.5606
G1 X15.4478 Y-7.4436 Z1.5511
G1 X15.4504 Y-7.4475 Z1.5407
G1 X15.4531 Y-7.4514 Z1.5291
G1 X15.4557 Y-7.4553 Z1.5160
G1 X15.4570 Y-7.4573 Z1.5085
G1 X15.4583 Y-7.4593 Z1.5004
G1 X15.4597 Y-7.4612 Z1.4912
G1 X15.4610 Y-7.4632 Z1.4805
G1 X15.4623 Y-7.4651 Z1.4674
G1 X15.4633 Y-7.4666 Z1.4544
G1 X15.4641 Y-7.4678 Z1.4395
G1 X15.4656 Y-7.4700 Z1.4267
G1 X15.4669 Y-7.4720 Z1.4128
G1 X15.4679 Y-7.4735 Z1.3995
G1 X15.4687 Y-7.4747 Z1.3832
G1 X15.4692 Y-7.4754 Z1.3678
G1 X15.4699 Y-7.4764 Z1.3674
G1 X15.4961 Y-7.5152 Z1.3632 F159.
G1 X15.5204 Y-7.5513 Z1.3809
G1 X15.5375 Y-7.5767 Z1.4165
G1 X15.5437 Y-7.5859 Z1.4621
G0 Z1.9200
G0 X15.5437 Y-7.5859 
G0 Z1.9200
G0 X15.0222 Y-6.8888 
G1 X15.0222 Y-6.8888 Z1.8950 F75.
G1 X15.0265 Y-6.8951 Z1.8567 F25.
G1 X15.0387 Y-6.9130 Z1.8243
G1 X15.0570 Y-6.9398 Z1.8026
G1 X15.0786 Y-6.9713 Z1.7950
G1 X15.1561 Y-7.0847 Z1.7949 F150.
G1 X15.1621 Y-7.0935 Z1.7948
G1 X15.1740 Y-7.1109 Z1.7940
G1 X15.1859 Y-7.1284 Z1.7927
G1 X15.1979 Y-7.1458 Z1.7908
G1 X15.2098 Y-7.1633 Z1.7884
G1 X15.2217 Y-7.1807 Z1.7854
G1 X15.2336 Y-7.1982 Z1.7818
G1 X15.2456 Y-7.2156 Z1.7775
G1 X15.2575 Y-7.2330 Z1.7727
G1 X15.2694 Y-7.2505 Z1.7671
G1 X15.2813 Y-7.2679 Z1.7609
G1 X15.2932 Y-7.2853 Z1.7540
G1 X15.3050 Y-7.3026 Z1.7463
G1 X15.3169 Y-7.3200 Z1.7377
G1 X15.3288 Y-7.3374 Z1.7283
G1 X15.3407 Y-7.3548 Z1.7179
G1 X15.3526 Y-7.3721 Z1.7062
G1 X15.3644 Y-7.3895 Z1.6930
G1 X15.3704 Y-7.3982 Z1.6856
G1 X15.3763 Y-7.4069 Z1.6776
G1 X15.3822 Y-7.4156 Z1.6689
G1 X15.3882 Y-7.4243 Z1.6593
G1 X15.3941 Y-7.4330 Z1.6489
G1 X15.4001 Y-7.4417 Z1.6375
G1 X15.4060 Y-7.4504 Z1.6249
G1 X15.4119 Y-7.4590 Z1.6109
G1 X15.4179 Y-7.4677 Z1.5952
G1 X15.4208 Y-7.4721 Z1.5865
G1 X15.4238 Y-7.4764 Z1.5772
G1 X15.4268 Y-7.4808 Z1.5671
G1 X15.4298 Y-7.4851 Z1.5561
G1 X15.4327 Y-7.4895 Z1.5438
G1 X15.4357 Y-7.4938 Z1.5300
G1 X15.4372 Y-7.4960 Z1.5222
G1 X15.4387 Y-7.4981 Z1.5138
G1 X15.4401 Y-7.5003 Z1.5044
G1 X15.4416 Y-7.5025 Z1.4938
G1 X15.4431 Y-7.5047 Z1.4812
G1 X15.4476 Y-7.5112 Z1.4590
G1 X15.4505 Y-7.5155 Z1.4423
G1 X15.4520 Y-7.5177 Z1.4330
G1 X15.4535 Y-7.5199 Z1.4228
G1 X15.4557 Y-7.5231 Z1.4050
G1 X15.4572 Y-7.5253 Z1.3902
G1 X15.4583 Y-7.5269 Z1.3760
G1 X15.4593 Y-7.5283 Z1.3584
G1 X15.4598 Y-7.5291 Z1.3429
G1 X15.4602 Y-7.5297 Z1.3427
G1 X15.4872 Y-7.5691 Z1.3363 F159.
G1 X15.5127 Y-7.6064 Z1.3530
G1 X15.5308 Y-7.6330 Z1.3889
G1 X15.5374 Y-7.6426 Z1.4356
G0 Z1.9200
G0 X15.5374 Y-7.6426 
G0 Z1.9200
G0 X14.9744 Y-6.8949 
G1 X14.9744 Y-6.8949 Z1.8950 F75.
G1 X14.9788 Y-6.9011 Z1.8567 F25.
G1 X14.9911 Y-6.9189 Z1.8243
G1 X15.0096 Y-6.9456 Z1.8026
G1 X15.0314 Y-6.9770 Z1.7950
G1 X15.1493 Y-7.1472 Z1.7949 F150.
G1 X15.1624 Y-7.1661 Z1.7943
G1 X15.1755 Y-7.1851 Z1.7929
G1 X15.1886 Y-7.2040 Z1.7909
G1 X15.2017 Y-7.2229 Z1.7883
G1 X15.2148 Y-7.2418 Z1.7849
G1 X15.2279 Y-7.2607 Z1.7808
G1 X15.2410 Y-7.2796 Z1.7759
G1 X15.2540 Y-7.2984 Z1.7703
G1 X15.2670 Y-7.3172 Z1.7639
G1 X15.2801 Y-7.3360 Z1.7567
G1 X15.2931 Y-7.3548 Z1.7485
G1 X15.3061 Y-7.3736 Z1.7392
G1 X15.3126 Y-7.3830 Z1.7340
G1 X15.3191 Y-7.3924 Z1.7283
G1 X15.3256 Y-7.4018 Z1.7220
G1 X15.3322 Y-7.4112 Z1.7151
G1 X15.3387 Y-7.4206 Z1.7076
G1 X15.3452 Y-7.4300 Z1.6995
G1 X15.3517 Y-7.4394 Z1.6906
G1 X15.3582 Y-7.4488 Z1.6810
G1 X15.3647 Y-7.4582 Z1.6704
G1 X15.3712 Y-7.4676 Z1.6588
G1 X15.3777 Y-7.4770 Z1.6461
G1 X15.3843 Y-7.4864 Z1.6320
G1 X15.3908 Y-7.4958 Z1.6162
G1 X15.3940 Y-7.5005 Z1.6075
G1 X15.3973 Y-7.5052 Z1.5982
G1 X15.4005 Y-7.5099 Z1.5883
G1 X15.4038 Y-7.5146 Z1.5775
G1 X15.4071 Y-7.5193 Z1.5657
G1 X15.4103 Y-7.5240 Z1.5525
G1 X15.4136 Y-7.5287 Z1.5377
G1 X15.4152 Y-7.5311 Z1.5294
G1 X15.4172 Y-7.5340 Z1.5181
G1 X15.4201 Y-7.5381 Z1.5086
G1 X15.4233 Y-7.5428 Z1.4973
G1 X15.4266 Y-7.5475 Z1.4852
G1 X15.4298 Y-7.5522 Z1.4724
G1 X15.4331 Y-7.5569 Z1.4585
G1 X15.4364 Y-7.5616 Z1.4433
G1 X15.4396 Y-7.5663 Z1.4263
G1 X15.4412 Y-7.5687 Z1.4169
G1 X15.4429 Y-7.5710 Z1.4066
G1 X15.4445 Y-7.5734 Z1.3947
G1 X15.4461 Y-7.5757 Z1.3809
G1 X15.4469 Y-7.5769 Z1.3728
G1 X15.4482 Y-7.5787 Z1.3581
G1 X15.4490 Y-7.5799 Z1.3447
G1 X15.4494 Y-7.5804 Z1.3347
G1 X15.4498 Y-7.5810 Z1.3184
G1 X15.4506 Y-7.5822 Z1.3178
G1 X15.4778 Y-7.6214 Z1.3117 F159.
G1 X15.5034 Y-7.6584 Z1.3285
G1 X15.5216 Y-7.6847 Z1.3644
G1 X15.5282 Y-7.6942 Z1.4110
G0 Z1.9200
G0 X15.5282 Y-7.6942 
G0 Z1.9200
G0 X14.9299 Y-6.9061 
G1 X14.9299 Y-6.9061 Z1.8950 F75.
G1 X14.9343 Y-6.9123 Z1.8567 F25.
G1 X14.9468 Y-6.9300 Z1.8243
G1 X14.9654 Y-6.9566 Z1.8026
G1 X14.9874 Y-6.9879 Z1.7950
G1 X15.1356 Y-7.1989 Z1.7950 F150.
G1 X15.1490 Y-7.2181 Z1.7946
G1 X15.1625 Y-7.2373 Z1.7934
G1 X15.1760 Y-7.2564 Z1.7916
G1 X15.1894 Y-7.2756 Z1.7891
G1 X15.2029 Y-7.2948 Z1.7858
G1 X15.2164 Y-7.3140 Z1.7817
G1 X15.2298 Y-7.3332 Z1.7769
G1 X15.2433 Y-7.3523 Z1.7713
G1 X15.2568 Y-7.3715 Z1.7646
G1 X15.2702 Y-7.3907 Z1.7562
G1 X15.2837 Y-7.4099 Z1.7459
G1 X15.2904 Y-7.4195 Z1.7400
G1 X15.2972 Y-7.4291 Z1.7336
G1 X15.3039 Y-7.4387 Z1.7266
G1 X15.3106 Y-7.4483 Z1.7189
G1 X15.3174 Y-7.4578 Z1.7106
G1 X15.3241 Y-7.4674 Z1.7015
G1 X15.3308 Y-7.4770 Z1.6917
G1 X15.3376 Y-7.4866 Z1.6809
G1 X15.3443 Y-7.4962 Z1.6691
G1 X15.3510 Y-7.5058 Z1.6562
G1 X15.3578 Y-7.5154 Z1.6419
G1 X15.3645 Y-7.5250 Z1.6259
G1 X15.3679 Y-7.5298 Z1.6172
G1 X15.3713 Y-7.5346 Z1.6079
G1 X15.3746 Y-7.5394 Z1.5979
G1 X15.3780 Y-7.5442 Z1.5871
G1 X15.3814 Y-7.5490 Z1.5753
G1 X15.3847 Y-7.5537 Z1.5623
G1 X15.3870 Y-7.5570 Z1.5526
G1 X15.3915 Y-7.5633 Z1.5412
G1 X15.3982 Y-7.5729 Z1.5227
G1 X15.4049 Y-7.5825 Z1.5027
G1 X15.4083 Y-7.5873 Z1.4920
G1 X15.4117 Y-7.5921 Z1.4808
G1 X15.4150 Y-7.5969 Z1.4688
G1 X15.4184 Y-7.6017 Z1.4560
G1 X15.4210 Y-7.6054 Z1.4453
G1 X15.4236 Y-7.6092 Z1.4339
G1 X15.4263 Y-7.6129 Z1.4215
G1 X15.4289 Y-7.6166 Z1.4079
G1 X15.4315 Y-7.6204 Z1.3926
G1 X15.4328 Y-7.6222 Z1.3841
G1 X15.4341 Y-7.6241 Z1.3747
G1 X15.4361 Y-7.6269 Z1.3584
G1 X15.4374 Y-7.6287 Z1.3450
G1 X15.4384 Y-7.6301 Z1.3322
G1 X15.4394 Y-7.6315 Z1.3125
G1 X15.4397 Y-7.6320 Z1.2948
G1 X15.4404 Y-7.6330 Z1.2943
G1 X15.4676 Y-7.6718 Z1.2887 F159.
G1 X15.4933 Y-7.7084 Z1.3058
G1 X15.5115 Y-7.7343 Z1.3416
G1 X15.5180 Y-7.7436 Z1.3880
G0 Z1.9200
G0 X15.5180 Y-7.7436 
G0 Z1.9200
G0 X14.8885 Y-6.9219 
G1 X14.8885 Y-6.9219 Z1.8950 F75.
G1 X14.8929 Y-6.9281 Z1.8567 F25.
G1 X14.9055 Y-6.9458 Z1.8243
G1 X14.9243 Y-6.9722 Z1.8026
G1 X14.9465 Y-7.0034 Z1.7950
G1 X15.1299 Y-7.2612 Z1.7950 F150.
G1 X15.1367 Y-7.2707 Z1.7948
G1 X15.1503 Y-7.2898 Z1.7938
G1 X15.1639 Y-7.3089 Z1.7921
G1 X15.1775 Y-7.3280 Z1.7898
G1 X15.1911 Y-7.3471 Z1.7866
G1 X15.2047 Y-7.3662 Z1.7824
G1 X15.2183 Y-7.3853 Z1.7767
G1 X15.2319 Y-7.4044 Z1.7694
G1 X15.2454 Y-7.4235 Z1.7602
G1 X15.2522 Y-7.4330 Z1.7549
G1 X15.2590 Y-7.4426 Z1.7492
G1 X15.2658 Y-7.4521 Z1.7429
G1 X15.2726 Y-7.4617 Z1.7360
G1 X15.2794 Y-7.4712 Z1.7285
G1 X15.2862 Y-7.4808 Z1.7204
G1 X15.2930 Y-7.4903 Z1.7116
G1 X15.2998 Y-7.4999 Z1.7021
G1 X15.3066 Y-7.5094 Z1.6917
G1 X15.3134 Y-7.5190 Z1.6803
G1 X15.3202 Y-7.5285 Z1.6679
G1 X15.3270 Y-7.5381 Z1.6542
G1 X15.3338 Y-7.5476 Z1.6391
G1 X15.3372 Y-7.5524 Z1.6309
G1 X15.3406 Y-7.5572 Z1.6222
G1 X15.3440 Y-7.5619 Z1.6129
G1 X15.3474 Y-7.5667 Z1.6029
G1 X15.3508 Y-7.5715 Z1.5922
G1 X15.3533 Y-7.5751 Z1.5836
G1 X15.3610 Y-7.5858 Z1.5673
G1 X15.3677 Y-7.5954 Z1.5521
G1 X15.3745 Y-7.6049 Z1.5360
G1 X15.3813 Y-7.6145 Z1.5188
G1 X15.3874 Y-7.6230 Z1.5024
G1 X15.3934 Y-7.6315 Z1.4848
G1 X15.3995 Y-7.6400 Z1.4656
G1 X15.4025 Y-7.6442 Z1.4553
G1 X15.4055 Y-7.6485 Z1.4445
G1 X15.4086 Y-7.6527 Z1.4329
G1 X15.4116 Y-7.6570 Z1.4205
G1 X15.4146 Y-7.6612 Z1.4071
G1 X15.4177 Y-7.6655 Z1.3923
G1 X15.4207 Y-7.6697 Z1.3755
G1 X15.4222 Y-7.6719 Z1.3662
G1 X15.4237 Y-7.6740 Z1.3559
G1 X15.4260 Y-7.6772 Z1.3377
G1 X15.4275 Y-7.6793 Z1.3225
G1 X15.4286 Y-7.6809 Z1.3073
G1 X15.4294 Y-7.6820 Z1.2921
G1 X15.4298 Y-7.6825 Z1.2755
G1 X15.4301 Y-7.6830 Z1.2718
G1 X15.4301 Y-7.6830 Z1.9200 F159.
G0 Z1.9200
G0 X14.8498 Y-6.9419 
G1 X14.8498 Y-6.9419 Z1.8950 F75.
G1 X14.8543 Y-6.9481 Z1.8567 F25.
G1 X14.8670 Y-6.9656 Z1.8243
G1 X14.8859 Y-6.9920 Z1.8026
G1 X14.9083 Y-7.0230 Z1.7950
G1 X15.1208 Y-7.3176 Z1.7950 F150.
G1 X15.1277 Y-7.3271 Z1.7948
G1 X15.1414 Y-7.3461 Z1.7938
G1 X15.1551 Y-7.3652 Z1.7916
G1 X15.1688 Y-7.3842 Z1.7879
G1 X15.1825 Y-7.4032 Z1.7827
G1 X15.1962 Y-7.4222 Z1.7759
G1 X15.2100 Y-7.4412 Z1.7673
G1 X15.2237 Y-7.4602 Z1.7569
G1 X15.2305 Y-7.4697 Z1.7510
G1 X15.2374 Y-7.4792 Z1.7445
G1 X15.2442 Y-7.4887 Z1.7374
G1 X15.2511 Y-7.4982 Z1.7298
G1 X15.2579 Y-7.5077 Z1.7215
G1 X15.2648 Y-7.5172 Z1.7125
G1 X15.2716 Y-7.5267 Z1.7027
G1 X15.2785 Y-7.5362 Z1.6921
G1 X15.2854 Y-7.5457 Z1.6805
G1 X15.2922 Y-7.5553 Z1.6678
G1 X15.2991 Y-7.5648 Z1.6539
G1 X15.3059 Y-7.5743 Z1.6384
G1 X15.3094 Y-7.5790 Z1.6300
G1 X15.3128 Y-7.5838 Z1.6211
G1 X15.3166 Y-7.5891 Z1.6104
G1 X15.3265 Y-7.6028 Z1.5930
G1 X15.3333 Y-7.6123 Z1.5802
G1 X15.3402 Y-7.6218 Z1.5668
G1 X15.3471 Y-7.6313 Z1.5529
G1 X15.3561 Y-7.6438 Z1.5333
G1 X15.3652 Y-7.6564 Z1.5121
G1 X15.3697 Y-7.6627 Z1.5008
G1 X15.3742 Y-7.6689 Z1.4890
G1 X15.3787 Y-7.6752 Z1.4765
G1 X15.3832 Y-7.6815 Z1.4634
G1 X15.3878 Y-7.6877 Z1.4493
G1 X15.3923 Y-7.6940 Z1.4343
G1 X15.3968 Y-7.7003 Z1.4180
G1 X15.4013 Y-7.7066 Z1.4000
G1 X15.4036 Y-7.7097 Z1.3902
G1 X15.4059 Y-7.7128 Z1.3798
G1 X15.4081 Y-7.7160 Z1.3685
G1 X15.4104 Y-7.7191 Z1.3561
G1 X15.4127 Y-7.7222 Z1.3423
G1 X15.4149 Y-7.7254 Z1.3261
G1 X15.4166 Y-7.7277 Z1.3116
G1 X15.4177 Y-7.7293 Z1.2992
G1 X15.4186 Y-7.7305 Z1.2872
G1 X15.4193 Y-7.7315 Z1.2726
G1 X15.4200 Y-7.7324 Z1.2499
G1 X15.4200 Y-7.7324 Z1.9200 F159.
G0 Z1.9200
G0 X14.8129 Y-6.9643 
G1 X14.8129 Y-6.9643 Z1.8950 F75.
G1 X14.8174 Y-6.9704 Z1.8567 F25.
G1 X14.8301 Y-6.9879 Z1.8243
G1 X14.8493 Y-7.0141 Z1.8026
G1 X14.8719 Y-7.0450 Z1.7950
G1 X15.0966 Y-7.3525 Z1.7950 F150.
G1 X15.1070 Y-7.3667 Z1.7944
G1 X15.1208 Y-7.3856 Z1.7923
G1 X15.1346 Y-7.4046 Z1.7888
G1 X15.1485 Y-7.4235 Z1.7837
G1 X15.1623 Y-7.4424 Z1.7770
G1 X15.1761 Y-7.4613 Z1.7687
G1 X15.1900 Y-7.4802 Z1.7585
G1 X15.1969 Y-7.4897 Z1.7527
G1 X15.2038 Y-7.4992 Z1.7464
G1 X15.2107 Y-7.5086 Z1.7395
G1 X15.2176 Y-7.5181 Z1.7321
G1 X15.2245 Y-7.5275 Z1.7240
G1 X15.2315 Y-7.5370 Z1.7152
G1 X15.2384 Y-7.5465 Z1.7057
G1 X15.2453 Y-7.5559 Z1.6953
G1 X15.2522 Y-7.5654 Z1.6840
G1 X15.2591 Y-7.5749 Z1.6717
G1 X15.2660 Y-7.5843 Z1.6582
G1 X15.2729 Y-7.5938 Z1.6432
G1 X15.2771 Y-7.5994 Z1.6335
G1 X15.2868 Y-7.6127 Z1.6192
G1 X15.3006 Y-7.6316 Z1.5974
G1 X15.3075 Y-7.6411 Z1.5860
G1 X15.3144 Y-7.6505 Z1.5740
G1 X15.3263 Y-7.6667 Z1.5523
G1 X15.3322 Y-7.6748 Z1.5407
G1 X15.3381 Y-7.6829 Z1.5286
G1 X15.3440 Y-7.6910 Z1.5160
G1 X15.3499 Y-7.6991 Z1.5027
G1 X15.3558 Y-7.7072 Z1.4887
G1 X15.3618 Y-7.7153 Z1.4738
G1 X15.3677 Y-7.7234 Z1.4579
G1 X15.3736 Y-7.7315 Z1.4409
G1 X15.3795 Y-7.7396 Z1.4224
G1 X15.3825 Y-7.7436 Z1.4125
G1 X15.3854 Y-7.7477 Z1.4021
G1 X15.3884 Y-7.7517 Z1.3910
G1 X15.3913 Y-7.7558 Z1.3792
G1 X15.3943 Y-7.7598 Z1.3662
G1 X15.3973 Y-7.7639 Z1.3519
G1 X15.4002 Y-7.7679 Z1.3358
G1 X15.4017 Y-7.7699 Z1.3268
G1 X15.4032 Y-7.7720 Z1.3169
G1 X15.4054 Y-7.7750 Z1.2996
G1 X15.4069 Y-7.7770 Z1.2852
G1 X15.4080 Y-7.7785 Z1.2712
G1 X15.4089 Y-7.7798 Z1.2540
G1 X15.4091 Y-7.7800 Z1.2486
G1 X15.4095 Y-7.7806 Z1.2291
G1 X15.4098 Y-7.7811 Z1.2289
G1 X15.4376 Y-7.8190 Z1.2243 F159.
G1 X15.4634 Y-7.8544 Z1.2418
G1 X15.4817 Y-7.8793 Z1.2774
G1 X15.4882 Y-7.8883 Z1.3233
G0 Z1.9200
G0 X15.4882 Y-7.8883 
G0 Z1.9200
G0 X14.7759 Y-6.9868 
G1 X14.7759 Y-6.9868 Z1.8950 F75.
G1 X14.7804 Y-6.9929 Z1.8567 F25.
G1 X14.7933 Y-7.0103 Z1.8243
G1 X14.8126 Y-7.0364 Z1.8026
G1 X14.8354 Y-7.0671 Z1.7950
G1 X15.0621 Y-7.3732 Z1.7950 F150.
G1 X15.0725 Y-7.3873 Z1.7944
G1 X15.0865 Y-7.4061 Z1.7923
G1 X15.1004 Y-7.4250 Z1.7887
G1 X15.1144 Y-7.4438 Z1.7836
G1 X15.1283 Y-7.4626 Z1.7769
G1 X15.1423 Y-7.4815 Z1.7685
G1 X15.1562 Y-7.5003 Z1.7583
G1 X15.1632 Y-7.5097 Z1.7525
G1 X15.1702 Y-7.5191 Z1.7462
G1 X15.1772 Y-7.5286 Z1.7393
G1 X15.1841 Y-7.5380 Z1.7318
G1 X15.1911 Y-7.5474 Z1.7237
G1 X15.1981 Y-7.5568 Z1.7149
G1 X15.2051 Y-7.5662 Z1.7054
G1 X15.2120 Y-7.5756 Z1.6950
G1 X15.2190 Y-7.5851 Z1.6838
G1 X15.2260 Y-7.5945 Z1.6715
G1 X15.2330 Y-7.6039 Z1.6579
G1 X15.2364 Y-7.6086 Z1.6507
G1 X15.2399 Y-7.6133 Z1.6464
G1 X15.2539 Y-7.6321 Z1.6285
G1 X15.2678 Y-7.6510 Z1.6096
G1 X15.2818 Y-7.6698 Z1.5891
G1 X15.2891 Y-7.6797 Z1.5777
G1 X15.2964 Y-7.6895 Z1.5658
G1 X15.3037 Y-7.6994 Z1.5534
G1 X15.3110 Y-7.7093 Z1.5403
G1 X15.3183 Y-7.7192 Z1.5266
G1 X15.3256 Y-7.7290 Z1.5122
G1 X15.3329 Y-7.7389 Z1.4969
G1 X15.3402 Y-7.7488 Z1.4806
G1 X15.3476 Y-7.7586 Z1.4632
G1 X15.3549 Y-7.7685 Z1.4446
G1 X15.3622 Y-7.7784 Z1.4242
G1 X15.3658 Y-7.7833 Z1.4132
G1 X15.3695 Y-7.7882 Z1.4016
G1 X15.3731 Y-7.7932 Z1.3892
G1 X15.3768 Y-7.7981 Z1.3760
G1 X15.3804 Y-7.8030 Z1.3616
G1 X15.3841 Y-7.8080 Z1.3458
G1 X15.3878 Y-7.8129 Z1.3279
G1 X15.3896 Y-7.8154 Z1.3180
G1 X15.3914 Y-7.8178 Z1.3070
G1 X15.3932 Y-7.8203 Z1.2947
G1 X15.3951 Y-7.8228 Z1.2804
G1 X15.3960 Y-7.8240 Z1.2720
G1 X15.3974 Y-7.8259 Z1.2568
G1 X15.3983 Y-7.8271 Z1.2429
G1 X15.3987 Y-7.8277 Z1.2317
G1 X15.3992 Y-7.8283 Z1.2088
G1 X15.3992 Y-7.8283 Z1.9200 F159.
G0 Z1.9200
G0 X14.7388 Y-7.0093 
G1 X14.7388 Y-7.0093 Z1.8950 F75.
G1 X14.7434 Y-7.0153 Z1.8567 F25.
G1 X14.7564 Y-7.0327 Z1.8243
G1 X14.7759 Y-7.0586 Z1.8026
G1 X14.7989 Y-7.0892 Z1.7950
G1 X15.0275 Y-7.3938 Z1.7950 F150.
G1 X15.0380 Y-7.4079 Z1.7943
G1 X15.0521 Y-7.4267 Z1.7922
G1 X15.0662 Y-7.4454 Z1.7886
G1 X15.0802 Y-7.4641 Z1.7835
G1 X15.0943 Y-7.4829 Z1.7767
G1 X15.1084 Y-7.5016 Z1.7683
G1 X15.1224 Y-7.5204 Z1.7581
G1 X15.1295 Y-7.5298 Z1.7523
G1 X15.1365 Y-7.5391 Z1.7459
G1 X15.1435 Y-7.5485 Z1.7390
G1 X15.1506 Y-7.5579 Z1.7316
G1 X15.1576 Y-7.5672 Z1.7234
G1 X15.1646 Y-7.5766 Z1.7146
G1 X15.1717 Y-7.5860 Z1.7051
G1 X15.1787 Y-7.5954 Z1.6947
G1 X15.1857 Y-7.6047 Z1.6834
G1 X15.1928 Y-7.6141 Z1.6711
G1 X15.2003 Y-7.6241 Z1.6569
G1 X15.2069 Y-7.6329 Z1.6498
G1 X15.2209 Y-7.6516 Z1.6343
G1 X15.2350 Y-7.6703 Z1.6176
G1 X15.2491 Y-7.6891 Z1.5996
G1 X15.2577 Y-7.7007 Z1.5878
G1 X15.2664 Y-7.7122 Z1.5753
G1 X15.2751 Y-7.7238 Z1.5623
G1 X15.2838 Y-7.7354 Z1.5485
G1 X15.2925 Y-7.7470 Z1.5340
G1 X15.3012 Y-7.7586 Z1.5186
G1 X15.3099 Y-7.7701 Z1.5024
G1 X15.3186 Y-7.7817 Z1.4850
G1 X15.3273 Y-7.7933 Z1.4665
G1 X15.3360 Y-7.8049 Z1.4464
G1 X15.3403 Y-7.8107 Z1.4357
G1 X15.3446 Y-7.8165 Z1.4245
G1 X15.3490 Y-7.8222 Z1.4127
G1 X15.3533 Y-7.8280 Z1.4001
G1 X15.3577 Y-7.8338 Z1.3868
G1 X15.3620 Y-7.8396 Z1.3725
G1 X15.3664 Y-7.8454 Z1.3570
G1 X15.3707 Y-7.8512 Z1.3400
G1 X15.3729 Y-7.8541 Z1.3307
G1 X15.3751 Y-7.8570 Z1.3207
G1 X15.3772 Y-7.8599 Z1.3098
G1 X15.3794 Y-7.8628 Z1.2977
G1 X15.3816 Y-7.8657 Z1.2841
G1 X15.3837 Y-7.8686 Z1.2681
G1 X15.3854 Y-7.8707 Z1.2534
G1 X15.3865 Y-7.8722 Z1.2411
G1 X15.3873 Y-7.8733 Z1.2290
G1 X15.3880 Y-7.8742 Z1.2134
G1 X15.3886 Y-7.8751 Z1.1896
G1 X15.3886 Y-7.8751 Z1.9200 F159.
G0 Z1.9200
G0 X14.7018 Y-7.0318 
G1 X14.7018 Y-7.0318 Z1.8950 F75.
G1 X14.7064 Y-7.0378 Z1.8567 F25.
G1 X14.7195 Y-7.0551 Z1.8243
G1 X14.7391 Y-7.0809 Z1.8026
G1 X14.7623 Y-7.1114 Z1.7950
G1 X14.9893 Y-7.4099 Z1.7950 F150.
G1 X15.0035 Y-7.4285 Z1.7943
G1 X15.0177 Y-7.4472 Z1.7921
G1 X15.0318 Y-7.4658 Z1.7885
G1 X15.0460 Y-7.4845 Z1.7833
G1 X15.0602 Y-7.5032 Z1.7766
G1 X15.0744 Y-7.5218 Z1.7682
G1 X15.0886 Y-7.5405 Z1.7579
G1 X15.0957 Y-7.5498 Z1.7521
G1 X15.1028 Y-7.5591 Z1.7457
G1 X15.1099 Y-7.5684 Z1.7388
G1 X15.1170 Y-7.5778 Z1.7313
G1 X15.1241 Y-7.5871 Z1.7232
G1 X15.1312 Y-7.5964 Z1.7144
G1 X15.1382 Y-7.6058 Z1.7048
G1 X15.1453 Y-7.6151 Z1.6944
G1 X15.1524 Y-7.6244 Z1.6831
G1 X15.1595 Y-7.6337 Z1.6708
G1 X15.1662 Y-7.6425 Z1.6581
G1 X15.1879 Y-7.6711 Z1.6368
G1 X15.2021 Y-7.6897 Z1.6221
G1 X15.2163 Y-7.7084 Z1.6062
G1 X15.2263 Y-7.7216 Z1.5942
G1 X15.2364 Y-7.7348 Z1.5814
G1 X15.2465 Y-7.7481 Z1.5680
G1 X15.2565 Y-7.7613 Z1.5538
G1 X15.2666 Y-7.7745 Z1.5387
G1 X15.2766 Y-7.7878 Z1.5227
G1 X15.2867 Y-7.8010 Z1.5058
G1 X15.2968 Y-7.8142 Z1.4877
G1 X15.3068 Y-7.8275 Z1.4682
G1 X15.3169 Y-7.8407 Z1.4470
G1 X15.3219 Y-7.8473 Z1.4357
G1 X15.3269 Y-7.8539 Z1.4238
G1 X15.3320 Y-7.8605 Z1.4113
G1 X15.3370 Y-7.8671 Z1.3980
G1 X15.3420 Y-7.8738 Z1.3839
G1 X15.3471 Y-7.8804 Z1.3686
G1 X15.3521 Y-7.8870 Z1.3520
G1 X15.3546 Y-7.8903 Z1.3431
G1 X15.3571 Y-7.8936 Z1.3336
G1 X15.3596 Y-7.8969 Z1.3236
G1 X15.3622 Y-7.9002 Z1.3128
G1 X15.3647 Y-7.9035 Z1.3011
G1 X15.3672 Y-7.9068 Z1.2883
G1 X15.3697 Y-7.9101 Z1.2738
G1 X15.3722 Y-7.9135 Z1.2568
G1 X15.3741 Y-7.9159 Z1.2412
G1 X15.3754 Y-7.9176 Z1.2283
G1 X15.3763 Y-7.9188 Z1.2160
G1 X15.3773 Y-7.9201 Z1.1969
G1 X15.3776 Y-7.9205 Z1.1719
G1 X15.3782 Y-7.9213 Z1.1715
G1 X15.4063 Y-7.9582 Z1.1683 F159.
G1 X15.4322 Y-7.9923 Z1.1863
G1 X15.4503 Y-8.0162 Z1.2218
G1 X15.4569 Y-8.0248 Z1.2670
G0 Z1.9200
G0 X15.4569 Y-8.0248 
G0 Z1.9200
G0 X14.6646 Y-7.0543 
G1 X14.6646 Y-7.0543 Z1.8950 F75.
G1 X14.6693 Y-7.0604 Z1.8567 F25.
G1 X14.6825 Y-7.0775 Z1.8243
G1 X14.7023 Y-7.1032 Z1.8026
G1 X14.7257 Y-7.1335 Z1.7950
G1 X14.9545 Y-7.4306 Z1.7950 F150.
G1 X14.9689 Y-7.4492 Z1.7943
G1 X14.9832 Y-7.4677 Z1.7921
G1 X14.9975 Y-7.4863 Z1.7884
G1 X15.0118 Y-7.5049 Z1.7832
G1 X15.0261 Y-7.5234 Z1.7765
G1 X15.0404 Y-7.5420 Z1.7680
G1 X15.0547 Y-7.5606 Z1.7578
G1 X15.0618 Y-7.5698 Z1.7519
G1 X15.0690 Y-7.5791 Z1.7455
G1 X15.0761 Y-7.5884 Z1.7386
G1 X15.0833 Y-7.5977 Z1.7311
G1 X15.0904 Y-7.6070 Z1.7230
G1 X15.0976 Y-7.6163 Z1.7141
G1 X15.1047 Y-7.6255 Z1.7046
G1 X15.1119 Y-7.6348 Z1.6942
G1 X15.1190 Y-7.6441 Z1.6828
G1 X15.1262 Y-7.6534 Z1.6705
G1 X15.1320 Y-7.6609 Z1.6595
G1 X15.1325 Y-7.6615 Z1.6589
G1 X15.1763 Y-7.7184 Z1.6166
G1 X15.1834 Y-7.7277 Z1.6095
G1 X15.1949 Y-7.7426 Z1.5974
G1 X15.2065 Y-7.7576 Z1.5844
G1 X15.2180 Y-7.7725 Z1.5707
G1 X15.2295 Y-7.7875 Z1.5561
G1 X15.2411 Y-7.8025 Z1.5406
G1 X15.2526 Y-7.8174 Z1.5242
G1 X15.2641 Y-7.8324 Z1.5065
G1 X15.2757 Y-7.8474 Z1.4875
G1 X15.2870 Y-7.8622 Z1.4671
G1 X15.2984 Y-7.8769 Z1.4450
G1 X15.3041 Y-7.8843 Z1.4331
G1 X15.3098 Y-7.8917 Z1.4206
G1 X15.3155 Y-7.8991 Z1.4075
G1 X15.3212 Y-7.9065 Z1.3934
G1 X15.3269 Y-7.9139 Z1.3785
G1 X15.3326 Y-7.9213 Z1.3623
G1 X15.3383 Y-7.9287 Z1.3447
G1 X15.3412 Y-7.9324 Z1.3352
G1 X15.3440 Y-7.9361 Z1.3251
G1 X15.3469 Y-7.9398 Z1.3144
G1 X15.3497 Y-7.9435 Z1.3030
G1 X15.3526 Y-7.9472 Z1.2905
G1 X15.3554 Y-7.9509 Z1.2768
G1 X15.3583 Y-7.9546 Z1.2613
G1 X15.3597 Y-7.9564 Z1.2526
G1 X15.3611 Y-7.9583 Z1.2430
G1 X15.3632 Y-7.9611 Z1.2263
G1 X15.3647 Y-7.9629 Z1.2123
G1 X15.3657 Y-7.9643 Z1.1987
G1 X15.3666 Y-7.9654 Z1.1816
G1 X15.3668 Y-7.9657 Z1.1761
G1 X15.3672 Y-7.9661 Z1.1540
G1 X15.3679 Y-7.9671 Z1.1537
G1 X15.3962 Y-8.0038 Z1.1505 F159.
G1 X15.4222 Y-8.0376 Z1.1685
G1 X15.4406 Y-8.0614 Z1.2040
G1 X15.4471 Y-8.0699 Z1.2491
G0 Z1.9200
G0 X15.4471 Y-8.0699 
G0 Z1.9200
G0 X14.6275 Y-7.0769 
G1 X14.6275 Y-7.0769 Z1.8950 F75.
G1 X14.6322 Y-7.0829 Z1.8567 F25.
G1 X14.6455 Y-7.1000 Z1.8243
G1 X14.6655 Y-7.1256 Z1.8026
G1 X14.6890 Y-7.1557 Z1.7950
G1 X14.9197 Y-7.4513 Z1.7950 F150.
G1 X14.9342 Y-7.4698 Z1.7943
G1 X14.9486 Y-7.4883 Z1.7921
G1 X14.9630 Y-7.5068 Z1.7884
G1 X14.9774 Y-7.5252 Z1.7833
G1 X14.9919 Y-7.5437 Z1.7765
G1 X15.0063 Y-7.5622 Z1.7680
G1 X15.0207 Y-7.5807 Z1.7577
G1 X15.0279 Y-7.5899 Z1.7518
G1 X15.0351 Y-7.5991 Z1.7454
G1 X15.0423 Y-7.6084 Z1.7384
G1 X15.0495 Y-7.6176 Z1.7309
G1 X15.0568 Y-7.6269 Z1.7227
G1 X15.0640 Y-7.6361 Z1.7139
G1 X15.0712 Y-7.6453 Z1.7043
G1 X15.0784 Y-7.6546 Z1.6939
G1 X15.0856 Y-7.6638 Z1.6826
G1 X15.0928 Y-7.6730 Z1.6702
G1 X15.0982 Y-7.6800 Z1.6602
G1 X15.1634 Y-7.7635 Z1.5979
G1 X15.1763 Y-7.7801 Z1.5851
G1 X15.1893 Y-7.7966 Z1.5714
G1 X15.2022 Y-7.8132 Z1.5570
G1 X15.2151 Y-7.8297 Z1.5414
G1 X15.2280 Y-7.8463 Z1.5247
G1 X15.2409 Y-7.8628 Z1.5066
G1 X15.2539 Y-7.8794 Z1.4870
G1 X15.2667 Y-7.8958 Z1.4660
G1 X15.2731 Y-7.9040 Z1.4548
G1 X15.2795 Y-7.9122 Z1.4431
G1 X15.2859 Y-7.9204 Z1.4307
G1 X15.2923 Y-7.9286 Z1.4177
G1 X15.2987 Y-7.9368 Z1.4039
G1 X15.3051 Y-7.9451 Z1.3891
G1 X15.3116 Y-7.9533 Z1.3733
G1 X15.3180 Y-7.9615 Z1.3563
G1 X15.3244 Y-7.9697 Z1.3377
G1 X15.3276 Y-7.9738 Z1.3276
G1 X15.3308 Y-7.9779 Z1.3170
G1 X15.3340 Y-7.9820 Z1.3057
G1 X15.3372 Y-7.9861 Z1.2935
G1 X15.3404 Y-7.9902 Z1.2803
G1 X15.3436 Y-7.9943 Z1.2657
G1 X15.3468 Y-7.9984 Z1.2493
G1 X15.3484 Y-8.0005 Z1.2400
G1 X15.3500 Y-8.0025 Z1.2298
G1 X15.3524 Y-8.0056 Z1.2119
G1 X15.3540 Y-8.0077 Z1.1969
G1 X15.3552 Y-8.0092 Z1.1822
G1 X15.3560 Y-8.0102 Z1.1681
G1 X15.3564 Y-8.0108 Z1.1564
G1 X15.3568 Y-8.0113 Z1.1364
G1 X15.3572 Y-8.0118 Z1.1362
G1 X15.3857 Y-8.0483 Z1.1331 F159.
G1 X15.4120 Y-8.0819 Z1.1511
G1 X15.4304 Y-8.1056 Z1.1865
G1 X15.4370 Y-8.1140 Z1.2317
G0 Z1.9200
G0 X15.4370 Y-8.1140 
G0 Z1.9200
G0 X14.5902 Y-7.0996 
G1 X14.5902 Y-7.0996 Z1.8950 F75.
G1 X14.5950 Y-7.1055 Z1.8567 F25.
G1 X14.6084 Y-7.1225 Z1.8243
G1 X14.6285 Y-7.1480 Z1.8026
G1 X14.6523 Y-7.1780 Z1.7950
G1 X14.8885 Y-7.4767 Z1.7950 F150.
G1 X14.8994 Y-7.4905 Z1.7943
G1 X14.9140 Y-7.5089 Z1.7922
G1 X14.9285 Y-7.5273 Z1.7886
G1 X14.9430 Y-7.5456 Z1.7835
G1 X14.9576 Y-7.5640 Z1.7768
G1 X14.9721 Y-7.5824 Z1.7684
G1 X14.9867 Y-7.6008 Z1.7582
G1 X14.9939 Y-7.6100 Z1.7523
G1 X15.0012 Y-7.6192 Z1.7460
G1 X15.0085 Y-7.6284 Z1.7391
G1 X15.0157 Y-7.6376 Z1.7316
G1 X15.0230 Y-7.6468 Z1.7235
G1 X15.0303 Y-7.6560 Z1.7147
G1 X15.0375 Y-7.6651 Z1.7051
G1 X15.0448 Y-7.6743 Z1.6947
G1 X15.0521 Y-7.6835 Z1.6834
G1 X15.0593 Y-7.6927 Z1.6711
G1 X15.0653 Y-7.7002 Z1.6603
G1 X15.1389 Y-7.7933 Z1.5907
G1 X15.1602 Y-7.8203 Z1.5707
G1 X15.1745 Y-7.8383 Z1.5564
G1 X15.1887 Y-7.8563 Z1.5410
G1 X15.2030 Y-7.8743 Z1.5242
G1 X15.2172 Y-7.8923 Z1.5060
G1 X15.2314 Y-7.9103 Z1.4865
G1 X15.2386 Y-7.9193 Z1.4761
G1 X15.2457 Y-7.9283 Z1.4651
G1 X15.2528 Y-7.9373 Z1.4536
G1 X15.2599 Y-7.9464 Z1.4416
G1 X15.2671 Y-7.9554 Z1.4288
G1 X15.2742 Y-7.9644 Z1.4153
G1 X15.2813 Y-7.9734 Z1.4010
G1 X15.2884 Y-7.9824 Z1.3857
G1 X15.2955 Y-7.9914 Z1.3694
G1 X15.3027 Y-8.0004 Z1.3517
G1 X15.3098 Y-8.0094 Z1.3323
G1 X15.3133 Y-8.0139 Z1.3219
G1 X15.3169 Y-8.0184 Z1.3109
G1 X15.3205 Y-8.0229 Z1.2992
G1 X15.3240 Y-8.0274 Z1.2866
G1 X15.3276 Y-8.0319 Z1.2729
G1 X15.3311 Y-8.0364 Z1.2579
G1 X15.3347 Y-8.0409 Z1.2410
G1 X15.3365 Y-8.0432 Z1.2314
G1 X15.3383 Y-8.0454 Z1.2208
G1 X15.3401 Y-8.0477 Z1.2088
G1 X15.3418 Y-8.0499 Z1.1946
G1 X15.3427 Y-8.0510 Z1.1863
G1 X15.3441 Y-8.0527 Z1.1708
G1 X15.3449 Y-8.0539 Z1.1558
G1 X15.3454 Y-8.0544 Z1.1430
G1 X15.3454 Y-8.0544 Z1.9200 F159.
G0 Z1.9200
G0 X14.5530 Y-7.1222 
G1 X14.5530 Y-7.1222 Z1.8950 F75.
G1 X14.5577 Y-7.1282 Z1.8567 F25.
G1 X14.5713 Y-7.1451 Z1.8243
G1 X14.5916 Y-7.1704 Z1.8026
G1 X14.6155 Y-7.2003 Z1.7950
G1 X14.8536 Y-7.4975 Z1.7950 F150.
G1 X14.8646 Y-7.5112 Z1.7944
G1 X14.8793 Y-7.5295 Z1.7923
G1 X14.8939 Y-7.5478 Z1.7888
G1 X14.9086 Y-7.5661 Z1.7837
G1 X14.9232 Y-7.5844 Z1.7771
G1 X14.9379 Y-7.6027 Z1.7688
G1 X14.9525 Y-7.6209 Z1.7587
G1 X14.9599 Y-7.6301 Z1.7529
G1 X14.9672 Y-7.6392 Z1.7466
G1 X14.9745 Y-7.6484 Z1.7397
G1 X14.9818 Y-7.6575 Z1.7323
G1 X14.9892 Y-7.6667 Z1.7242
G1 X14.9965 Y-7.6758 Z1.7155
G1 X15.0038 Y-7.6850 Z1.7060
G1 X15.0112 Y-7.6941 Z1.6957
G1 X15.0185 Y-7.7033 Z1.6845
G1 X15.0258 Y-7.7124 Z1.6723
G1 X15.0322 Y-7.7204 Z1.6606
G1 X15.0698 Y-7.7673 Z1.6253
G1 X15.1504 Y-7.8679 Z1.5507
G1 X15.1577 Y-7.8770 Z1.5435
G1 X15.1724 Y-7.8953 Z1.5284
G1 X15.1870 Y-7.9136 Z1.5122
G1 X15.2017 Y-7.9319 Z1.4945
G1 X15.2163 Y-7.9502 Z1.4751
G1 X15.2236 Y-7.9593 Z1.4648
G1 X15.2310 Y-7.9685 Z1.4539
G1 X15.2383 Y-7.9776 Z1.4425
G1 X15.2456 Y-7.9868 Z1.4304
G1 X15.2530 Y-7.9959 Z1.4177
G1 X15.2603 Y-8.0051 Z1.4043
G1 X15.2676 Y-8.0142 Z1.3901
G1 X15.2749 Y-8.0234 Z1.3749
G1 X15.2823 Y-8.0325 Z1.3587
G1 X15.2896 Y-8.0416 Z1.3411
G1 X15.2969 Y-8.0508 Z1.3220
G1 X15.3006 Y-8.0554 Z1.3117
G1 X15.3042 Y-8.0599 Z1.3008
G1 X15.3079 Y-8.0645 Z1.2892
G1 X15.3116 Y-8.0691 Z1.2767
G1 X15.3152 Y-8.0737 Z1.2631
G1 X15.3189 Y-8.0782 Z1.2482
G1 X15.3226 Y-8.0828 Z1.2313
G1 X15.3244 Y-8.0851 Z1.2218
G1 X15.3263 Y-8.0874 Z1.2115
G1 X15.3290 Y-8.0909 Z1.1936
G1 X15.3309 Y-8.0932 Z1.1790
G1 X15.3318 Y-8.0943 Z1.1704
G1 X15.3332 Y-8.0961 Z1.1541
G1 X15.3337 Y-8.0967 Z1.1470
G1 X15.3337 Y-8.0967 Z1.9200 F159.
G0 Z1.9200
G0 X14.5156 Y-7.1449 
G1 X14.5156 Y-7.1449 Z1.8950 F75.
G1 X14.5204 Y-7.1508 Z1.8567 F25.
G1 X14.5341 Y-7.1677 Z1.8243
G1 X14.5545 Y-7.1928 Z1.8026
G1 X14.5786 Y-7.2226 Z1.7950
G1 X14.8186 Y-7.5183 Z1.7950 F150.
G1 X14.8297 Y-7.5319 Z1.7944
G1 X14.8445 Y-7.5501 Z1.7924
G1 X14.8593 Y-7.5683 Z1.7890
G1 X14.8740 Y-7.5865 Z1.7840
G1 X14.8888 Y-7.6047 Z1.7774
G1 X14.9036 Y-7.6229 Z1.7692
G1 X14.9183 Y-7.6411 Z1.7592
G1 X14.9257 Y-7.6502 Z1.7534
G1 X14.9331 Y-7.6593 Z1.7472
G1 X14.9405 Y-7.6684 Z1.7404
G1 X14.9479 Y-7.6775 Z1.7330
G1 X14.9553 Y-7.6866 Z1.7250
G1 X14.9627 Y-7.6957 Z1.7164
G1 X14.9700 Y-7.7048 Z1.7070
G1 X14.9774 Y-7.7139 Z1.6968
G1 X14.9848 Y-7.7230 Z1.6857
G1 X14.9922 Y-7.7321 Z1.6735
G1 X14.9996 Y-7.7412 Z1.6604
G1 X15.1177 Y-7.8868 Z1.5520
G1 X15.1399 Y-7.9141 Z1.5320
G1 X15.1547 Y-7.9323 Z1.5178
G1 X15.1694 Y-7.9505 Z1.5023
G1 X15.1842 Y-7.9687 Z1.4853
G1 X15.1990 Y-7.9869 Z1.4667
G1 X15.2137 Y-8.0051 Z1.4463
G1 X15.2211 Y-8.0142 Z1.4354
G1 X15.2285 Y-8.0233 Z1.4239
G1 X15.2359 Y-8.0324 Z1.4118
G1 X15.2433 Y-8.0415 Z1.3990
G1 X15.2507 Y-8.0506 Z1.3855
G1 X15.2581 Y-8.0597 Z1.3712
G1 X15.2654 Y-8.0688 Z1.3559
G1 X15.2728 Y-8.0779 Z1.3394
G1 X15.2802 Y-8.0870 Z1.3216
G1 X15.2876 Y-8.0961 Z1.3020
G1 X15.2919 Y-8.1014 Z1.2896
G1 X15.2962 Y-8.1067 Z1.2762
G1 X15.3005 Y-8.1120 Z1.2617
G1 X15.3048 Y-8.1173 Z1.2458
G1 X15.3070 Y-8.1199 Z1.2372
G1 X15.3091 Y-8.1226 Z1.2279
G1 X15.3113 Y-8.1252 Z1.2180
G1 X15.3134 Y-8.1279 Z1.2072
G1 X15.3156 Y-8.1305 Z1.1951
G1 X15.3177 Y-8.1332 Z1.1814
G1 X15.3199 Y-8.1359 Z1.1650
G1 X15.3215 Y-8.1378 Z1.1494
G1 X15.3220 Y-8.1385 Z1.1431
G1 X15.3220 Y-8.1385 Z1.9200 F159.
G0 Z1.9200
G0 X14.4788 Y-7.1684 
G1 X14.4788 Y-7.1684 Z1.8950 F75.
G1 X14.4837 Y-7.1743 Z1.8567 F25.
G1 X14.4974 Y-7.1910 Z1.8243
G1 X14.5180 Y-7.2161 Z1.8026
G1 X14.5423 Y-7.2456 Z1.7950
G1 X14.7879 Y-7.5443 Z1.7949 F150.
G1 X14.7954 Y-7.5534 Z1.7944
G1 X14.8102 Y-7.5715 Z1.7925
G1 X14.8251 Y-7.5896 Z1.7890
G1 X14.8400 Y-7.6077 Z1.7840
G1 X14.8549 Y-7.6258 Z1.7775
G1 X14.8698 Y-7.6439 Z1.7692
G1 X14.8847 Y-7.6620 Z1.7592
G1 X14.8921 Y-7.6711 Z1.7535
G1 X14.8996 Y-7.6801 Z1.7473
G1 X14.9070 Y-7.6892 Z1.7405
G1 X14.9144 Y-7.6982 Z1.7331
G1 X14.9219 Y-7.7073 Z1.7252
G1 X14.9293 Y-7.7163 Z1.7165
G1 X14.9368 Y-7.7254 Z1.7071
G1 X14.9442 Y-7.7344 Z1.6970
G1 X14.9516 Y-7.7435 Z1.6859
G1 X14.9591 Y-7.7525 Z1.6738
G1 X14.9661 Y-7.7610 Z1.6614
G1 X15.0633 Y-7.8793 Z1.5733
G1 X15.1303 Y-7.9607 Z1.5134
G1 X15.1377 Y-7.9698 Z1.5064
G1 X15.1526 Y-7.9879 Z1.4914
G1 X15.1675 Y-8.0060 Z1.4751
G1 X15.1824 Y-8.0241 Z1.4572
G1 X15.1972 Y-8.0422 Z1.4376
G1 X15.2047 Y-8.0513 Z1.4270
G1 X15.2121 Y-8.0603 Z1.4160
G1 X15.2196 Y-8.0694 Z1.4044
G1 X15.2270 Y-8.0784 Z1.3922
G1 X15.2345 Y-8.0875 Z1.3793
G1 X15.2419 Y-8.0965 Z1.3657
G1 X15.2493 Y-8.1056 Z1.3511
G1 X15.2568 Y-8.1146 Z1.3355
G1 X15.2635 Y-8.1228 Z1.3203
G1 X15.2702 Y-8.1310 Z1.3040
G1 X15.2769 Y-8.1391 Z1.2861
G1 X15.2803 Y-8.1432 Z1.2765
G1 X15.2837 Y-8.1473 Z1.2664
G1 X15.2870 Y-8.1514 Z1.2556
G1 X15.2904 Y-8.1555 Z1.2441
G1 X15.2937 Y-8.1596 Z1.2317
G1 X15.2971 Y-8.1636 Z1.2181
G1 X15.3004 Y-8.1677 Z1.2030
G1 X15.3038 Y-8.1718 Z1.1857
G1 X15.3055 Y-8.1739 Z1.1759
G1 X15.3080 Y-8.1769 Z1.1589
G1 X15.3097 Y-8.1790 Z1.1451
G1 X15.3105 Y-8.1800 Z1.1368
G1 X15.3185 Y-8.1897 Z1.1020 F159.
G1 X15.3340 Y-8.2085 Z1.0740
G1 X15.3549 Y-8.2339 Z1.0569
G1 X15.3783 Y-8.2624 Z1.0530
G1 X15.4010 Y-8.2900 Z1.0627
G1 X15.4199 Y-8.3130 Z1.0848
G1 X15.4324 Y-8.3282 Z1.1162
G1 X15.4367 Y-8.3335 Z1.1527
G0 Z1.9200
G0 X15.4367 Y-8.3335 
G0 Z1.9200
G0 X14.4433 Y-7.1935 
G1 X14.4433 Y-7.1935 Z1.8950 F75.
G1 X14.4481 Y-7.1993 Z1.8567 F25.
G1 X14.4620 Y-7.2160 Z1.8243
G1 X14.4828 Y-7.2409 Z1.8026
G1 X14.5072 Y-7.2703 Z1.7950
G1 X14.7510 Y-7.5630 Z1.7950 F150.
G1 X14.7622 Y-7.5765 Z1.7944
G1 X14.7772 Y-7.5945 Z1.7923
G1 X14.7922 Y-7.6125 Z1.7888
G1 X14.8072 Y-7.6305 Z1.7837
G1 X14.8222 Y-7.6485 Z1.7770
G1 X14.8372 Y-7.6665 Z1.7687
G1 X14.8522 Y-7.6845 Z1.7585
G1 X14.8597 Y-7.6935 Z1.7527
G1 X14.8672 Y-7.7025 Z1.7464
G1 X14.8747 Y-7.7115 Z1.7395
G1 X14.8822 Y-7.7205 Z1.7320
G1 X14.8897 Y-7.7295 Z1.7239
G1 X14.8972 Y-7.7385 Z1.7152
G1 X14.9047 Y-7.7475 Z1.7056
G1 X14.9122 Y-7.7566 Z1.6953
G1 X14.9197 Y-7.7656 Z1.6841
G1 X14.9272 Y-7.7746 Z1.6719
G1 X14.9324 Y-7.7808 Z1.6628
G1 X15.0022 Y-7.8646 Z1.6000
G1 X15.1222 Y-8.0087 Z1.4936
G1 X15.1372 Y-8.0267 Z1.4791
G1 X15.1522 Y-8.0447 Z1.4632
G1 X15.1672 Y-8.0627 Z1.4458
G1 X15.1822 Y-8.0807 Z1.4268
G1 X15.1897 Y-8.0897 Z1.4167
G1 X15.1972 Y-8.0987 Z1.4061
G1 X15.2047 Y-8.1077 Z1.3950
G1 X15.2122 Y-8.1167 Z1.3832
G1 X15.2197 Y-8.1258 Z1.3707
G1 X15.2272 Y-8.1348 Z1.3574
G1 X15.2362 Y-8.1455 Z1.3404
G1 X15.2452 Y-8.1563 Z1.3219
G1 X15.2542 Y-8.1671 Z1.3016
G1 X15.2587 Y-8.1725 Z1.2907
G1 X15.2631 Y-8.1779 Z1.2791
G1 X15.2676 Y-8.1833 Z1.2668
G1 X15.2721 Y-8.1887 Z1.2536
G1 X15.2766 Y-8.1941 Z1.2393
G1 X15.2811 Y-8.1995 Z1.2236
G1 X15.2834 Y-8.2022 Z1.2152
G1 X15.2856 Y-8.2049 Z1.2061
G1 X15.2879 Y-8.2076 Z1.1963
G1 X15.2901 Y-8.2103 Z1.1857
G1 X15.2924 Y-8.2130 Z1.1740
G1 X15.2946 Y-8.2157 Z1.1608
G1 X15.2969 Y-8.2184 Z1.1453
G1 X15.2980 Y-8.2197 Z1.1361
G1 X15.2991 Y-8.2211 Z1.1254
G1 X15.3072 Y-8.2308 Z1.0907 F159.
G1 X15.3228 Y-8.2496 Z1.0629
G1 X15.3439 Y-8.2749 Z1.0459
G1 X15.3675 Y-8.3032 Z1.0420
G1 X15.3903 Y-8.3306 Z1.0518
G1 X15.4093 Y-8.3534 Z1.0739
G1 X15.4219 Y-8.3685 Z1.1053
G1 X15.4262 Y-8.3738 Z1.1417
G0 Z1.9200
G0 X15.4262 Y-8.3738 
G0 Z1.9200
G0 X14.4077 Y-7.2186 
G1 X14.4077 Y-7.2186 Z1.8950 F75.
G1 X14.4126 Y-7.2244 Z1.8567 F25.
G1 X14.4265 Y-7.2409 Z1.8243
G1 X14.4475 Y-7.2657 Z1.8026
G1 X14.4721 Y-7.2950 Z1.7950
G1 X14.7177 Y-7.5861 Z1.7950 F150.
G1 X14.7291 Y-7.5995 Z1.7944
G1 X14.7442 Y-7.6174 Z1.7923
G1 X14.7593 Y-7.6354 Z1.7887
G1 X14.7744 Y-7.6533 Z1.7836
G1 X14.7895 Y-7.6712 Z1.7769
G1 X14.8046 Y-7.6891 Z1.7685
G1 X14.8197 Y-7.7070 Z1.7583
G1 X14.8273 Y-7.7160 Z1.7525
G1 X14.8348 Y-7.7249 Z1.7461
G1 X14.8424 Y-7.7339 Z1.7392
G1 X14.8500 Y-7.7428 Z1.7317
G1 X14.8575 Y-7.7518 Z1.7236
G1 X14.8651 Y-7.7608 Z1.7148
G1 X14.8726 Y-7.7697 Z1.7053
G1 X14.8802 Y-7.7787 Z1.6949
G1 X14.8877 Y-7.7876 Z1.6836
G1 X14.8953 Y-7.7966 Z1.6713
G1 X14.9000 Y-7.8022 Z1.6630
G1 X14.9482 Y-7.8593 Z1.6201
G1 X15.1069 Y-8.0474 Z1.4806
G1 X15.1220 Y-8.0653 Z1.4666
G1 X15.1371 Y-8.0832 Z1.4513
G1 X15.1522 Y-8.1011 Z1.4347
G1 X15.1673 Y-8.1190 Z1.4165
G1 X15.1749 Y-8.1280 Z1.4066
G1 X15.1824 Y-8.1370 Z1.3963
G1 X15.1900 Y-8.1459 Z1.3854
G1 X15.1975 Y-8.1549 Z1.3739
G1 X15.2088 Y-8.1682 Z1.3555
G1 X15.2201 Y-8.1816 Z1.3354
G1 X15.2257 Y-8.1883 Z1.3246
G1 X15.2314 Y-8.1950 Z1.3132
G1 X15.2370 Y-8.2017 Z1.3012
G1 X15.2427 Y-8.2084 Z1.2884
G1 X15.2483 Y-8.2150 Z1.2748
G1 X15.2539 Y-8.2217 Z1.2601
G1 X15.2596 Y-8.2284 Z1.2441
G1 X15.2652 Y-8.2351 Z1.2265
G1 X15.2680 Y-8.2384 Z1.2169
G1 X15.2709 Y-8.2418 Z1.2067
G1 X15.2737 Y-8.2451 Z1.1956
G1 X15.2765 Y-8.2485 Z1.1836
G1 X15.2793 Y-8.2518 Z1.1703
G1 X15.2821 Y-8.2552 Z1.1552
G1 X15.2835 Y-8.2568 Z1.1467
G1 X15.2850 Y-8.2585 Z1.1373
G1 X15.2871 Y-8.2610 Z1.1206
G1 X15.2878 Y-8.2618 Z1.1139
G1 X15.2959 Y-8.2715 Z1.0792 F159.
G1 X15.3117 Y-8.2902 Z1.0513
G1 X15.3329 Y-8.3153 Z1.0343
G1 X15.3566 Y-8.3435 Z1.0305
G1 X15.3797 Y-8.3708 Z1.0402
G1 X15.3988 Y-8.3935 Z1.0624
G1 X15.4115 Y-8.4085 Z1.0937
G1 X15.4159 Y-8.4137 Z1.1301
G0 Z1.9200
G0 X15.4159 Y-8.4137 
G0 Z1.9200
G0 X14.3720 Y-7.2437 
G1 X14.3720 Y-7.2437 Z1.8950 F75.
G1 X14.3770 Y-7.2495 Z1.8567 F25.
G1 X14.3911 Y-7.2660 Z1.8243
G1 X14.4121 Y-7.2906 Z1.8026
G1 X14.4370 Y-7.3197 Z1.7950
G1 X14.6844 Y-7.6093 Z1.7950 F150.
G1 X14.6958 Y-7.6226 Z1.7943
G1 X14.7110 Y-7.6404 Z1.7922
G1 X14.7263 Y-7.6583 Z1.7886
G1 X14.7415 Y-7.6761 Z1.7834
G1 X14.7567 Y-7.6939 Z1.7767
G1 X14.7720 Y-7.7117 Z1.7683
G1 X14.7872 Y-7.7295 Z1.7581
G1 X14.7948 Y-7.7384 Z1.7522
G1 X14.8024 Y-7.7473 Z1.7459
G1 X14.8100 Y-7.7563 Z1.7389
G1 X14.8176 Y-7.7652 Z1.7314
G1 X14.8252 Y-7.7741 Z1.7233
G1 X14.8329 Y-7.7830 Z1.7145
G1 X14.8405 Y-7.7919 Z1.7049
G1 X14.8481 Y-7.8008 Z1.6945
G1 X14.8557 Y-7.8097 Z1.6832
G1 X14.8633 Y-7.8186 Z1.6709
G1 X14.8676 Y-7.8236 Z1.6634
G1 X14.8681 Y-7.8242 Z1.6628
G1 X14.8938 Y-7.8543 Z1.6402
G1 X15.0460 Y-8.0324 Z1.5074
G1 X15.0993 Y-8.0948 Z1.4615
G1 X15.1069 Y-8.1037 Z1.4547
G1 X15.1221 Y-8.1215 Z1.4400
G1 X15.1374 Y-8.1394 Z1.4238
G1 X15.1526 Y-8.1572 Z1.4060
G1 X15.1678 Y-8.1750 Z1.3863
G1 X15.1814 Y-8.1909 Z1.3670
G1 X15.1882 Y-8.1988 Z1.3565
G1 X15.1950 Y-8.2068 Z1.3456
G1 X15.2018 Y-8.2148 Z1.3341
G1 X15.2086 Y-8.2227 Z1.3219
G1 X15.2154 Y-8.2307 Z1.3090
G1 X15.2222 Y-8.2386 Z1.2953
G1 X15.2290 Y-8.2466 Z1.2805
G1 X15.2358 Y-8.2545 Z1.2645
G1 X15.2426 Y-8.2625 Z1.2471
G1 X15.2460 Y-8.2665 Z1.2377
G1 X15.2494 Y-8.2704 Z1.2278
G1 X15.2528 Y-8.2744 Z1.2173
G1 X15.2562 Y-8.2784 Z1.2061
G1 X15.2596 Y-8.2824 Z1.1939
G1 X15.2630 Y-8.2863 Z1.1807
G1 X15.2664 Y-8.2903 Z1.1660
G1 X15.2698 Y-8.2943 Z1.1492
G1 X15.2715 Y-8.2963 Z1.1397
G1 X15.2732 Y-8.2983 Z1.1291
G1 X15.2749 Y-8.3003 Z1.1170
G1 X15.2766 Y-8.3022 Z1.1025
G1 X15.2851 Y-8.3122 Z1.0680 F159.
G1 X15.3011 Y-8.3309 Z1.0407
G1 X15.3224 Y-8.3560 Z1.0241
G1 X15.3463 Y-8.3838 Z1.0206
G1 X15.3693 Y-8.4108 Z1.0305
G1 X15.3884 Y-8.4332 Z1.0527
G1 X15.4011 Y-8.4479 Z1.0840
G1 X15.4055 Y-8.4531 Z1.1202
G0 Z1.9200
G0 X15.4055 Y-8.4531 
G0 Z1.9200
G0 X14.3364 Y-7.2688 
G1 X14.3364 Y-7.2688 Z1.8950 F75.
G1 X14.3413 Y-7.2746 Z1.8567 F25.
G1 X14.3555 Y-7.2910 Z1.8243
G1 X14.3768 Y-7.3155 Z1.8026
G1 X14.4018 Y-7.3445 Z1.7950
G1 X14.6472 Y-7.6280 Z1.7950 F150.
G1 X14.6625 Y-7.6457 Z1.7943
G1 X14.6779 Y-7.6634 Z1.7921
G1 X14.6932 Y-7.6812 Z1.7885
G1 X14.7086 Y-7.6989 Z1.7833
G1 X14.7239 Y-7.7166 Z1.7765
G1 X14.7392 Y-7.7343 Z1.7681
G1 X14.7546 Y-7.7521 Z1.7579
G1 X14.7622 Y-7.7609 Z1.7520
G1 X14.7699 Y-7.7698 Z1.7456
G1 X14.7776 Y-7.7786 Z1.7387
G1 X14.7852 Y-7.7875 Z1.7312
G1 X14.7929 Y-7.7964 Z1.7230
G1 X14.8006 Y-7.8052 Z1.7142
G1 X14.8083 Y-7.8141 Z1.7046
G1 X14.8159 Y-7.8229 Z1.6942
G1 X14.8236 Y-7.8318 Z1.6829
G1 X14.8313 Y-7.8407 Z1.6705
G1 X14.8356 Y-7.8456 Z1.6632
G1 X14.8926 Y-7.9116 Z1.6138
G1 X15.0153 Y-8.0533 Z1.5081
G1 X15.0920 Y-8.1419 Z1.4429
G1 X15.1073 Y-8.1597 Z1.4286
G1 X15.1227 Y-8.1774 Z1.4128
G1 X15.1380 Y-8.1951 Z1.3954
G1 X15.1460 Y-8.2043 Z1.3857
G1 X15.1540 Y-8.2135 Z1.3754
G1 X15.1619 Y-8.2227 Z1.3646
G1 X15.1699 Y-8.2319 Z1.3533
G1 X15.1778 Y-8.2411 Z1.3413
G1 X15.1858 Y-8.2503 Z1.3285
G1 X15.1938 Y-8.2595 Z1.3149
G1 X15.2017 Y-8.2687 Z1.3003
G1 X15.2097 Y-8.2779 Z1.2846
G1 X15.2177 Y-8.2871 Z1.2675
G1 X15.2256 Y-8.2963 Z1.2488
G1 X15.2296 Y-8.3009 Z1.2388
G1 X15.2336 Y-8.3055 Z1.2281
G1 X15.2376 Y-8.3101 Z1.2168
G1 X15.2415 Y-8.3147 Z1.2046
G1 X15.2455 Y-8.3193 Z1.1915
G1 X15.2495 Y-8.3239 Z1.1771
G1 X15.2535 Y-8.3285 Z1.1611
G1 X15.2555 Y-8.3308 Z1.1522
G1 X15.2575 Y-8.3331 Z1.1427
G1 X15.2595 Y-8.3354 Z1.1323
G1 X15.2624 Y-8.3389 Z1.1143
G1 X15.2644 Y-8.3412 Z1.0995
G1 X15.2654 Y-8.3423 Z1.0906
G1 X15.2738 Y-8.3520 Z1.0560 F159.
G1 X15.2899 Y-8.3706 Z1.0283
G1 X15.3114 Y-8.3954 Z1.0115
G1 X15.3355 Y-8.4232 Z1.0078
G1 X15.3588 Y-8.4501 Z1.0176
G1 X15.3781 Y-8.4725 Z1.0398
G1 X15.3909 Y-8.4873 Z1.0711
G1 X15.3954 Y-8.4925 Z1.1074
G0 Z1.9200
G0 X15.3954 Y-8.4925 
G0 Z1.9200
G0 X14.3006 Y-7.2940 
G1 X14.3006 Y-7.2940 Z1.8950 F75.
G1 X14.3057 Y-7.2998 Z1.8567 F25.
G1 X14.3199 Y-7.3161 Z1.8243
G1 X14.3413 Y-7.3405 Z1.8026
G1 X14.3666 Y-7.3692 Z1.7950
G1 X14.6138 Y-7.6512 Z1.7950 F150.
G1 X14.6292 Y-7.6689 Z1.7943
G1 X14.6447 Y-7.6865 Z1.7921
G1 X14.6601 Y-7.7041 Z1.7884
G1 X14.6756 Y-7.7217 Z1.7832
G1 X14.6910 Y-7.7393 Z1.7764
G1 X14.7065 Y-7.7570 Z1.7679
G1 X14.7219 Y-7.7746 Z1.7576
G1 X14.7296 Y-7.7834 Z1.7518
G1 X14.7374 Y-7.7922 Z1.7454
G1 X14.7451 Y-7.8010 Z1.7384
G1 X14.7528 Y-7.8098 Z1.7309
G1 X14.7605 Y-7.8187 Z1.7228
G1 X14.7683 Y-7.8275 Z1.7139
G1 X14.7760 Y-7.8363 Z1.7043
G1 X14.7837 Y-7.8451 Z1.6939
G1 X14.7914 Y-7.8539 Z1.6825
G1 X14.7992 Y-7.8627 Z1.6701
G1 X14.8025 Y-7.8666 Z1.6643
G1 X14.8030 Y-7.8671 Z1.6638
G1 X14.9537 Y-8.0390 Z1.5352
G1 X15.0773 Y-8.1800 Z1.4310
G1 X15.0927 Y-8.1976 Z1.4171
G1 X15.1082 Y-8.2152 Z1.4017
G1 X15.1173 Y-8.2256 Z1.3920
G1 X15.1264 Y-8.2361 Z1.3817
G1 X15.1356 Y-8.2465 Z1.3707
G1 X15.1447 Y-8.2569 Z1.3591
G1 X15.1539 Y-8.2673 Z1.3467
G1 X15.1630 Y-8.2778 Z1.3334
G1 X15.1721 Y-8.2882 Z1.3192
G1 X15.1813 Y-8.2986 Z1.3039
G1 X15.1904 Y-8.3090 Z1.2874
G1 X15.1996 Y-8.3195 Z1.2693
G1 X15.2087 Y-8.3299 Z1.2495
G1 X15.2133 Y-8.3351 Z1.2388
G1 X15.2178 Y-8.3403 Z1.2275
G1 X15.2224 Y-8.3455 Z1.2154
G1 X15.2270 Y-8.3507 Z1.2024
G1 X15.2315 Y-8.3560 Z1.1884
G1 X15.2361 Y-8.3612 Z1.1729
G1 X15.2384 Y-8.3638 Z1.1645
G1 X15.2407 Y-8.3664 Z1.1555
G1 X15.2430 Y-8.3690 Z1.1458
G1 X15.2453 Y-8.3716 Z1.1354
G1 X15.2475 Y-8.3742 Z1.1238
G1 X15.2498 Y-8.3768 Z1.1107
G1 X15.2521 Y-8.3794 Z1.0953
G1 X15.2533 Y-8.3807 Z1.0863
G1 X15.2544 Y-8.3820 Z1.0757
G1 X15.2627 Y-8.3915 Z1.0409 F159.
G1 X15.2788 Y-8.4099 Z1.0131
G1 X15.3005 Y-8.4346 Z0.9961
G1 X15.3248 Y-8.4623 Z0.9922
G1 X15.3483 Y-8.4892 Z1.0020
G1 X15.3679 Y-8.5115 Z1.0241
G1 X15.3809 Y-8.5263 Z1.0555
G1 X15.3854 Y-8.5314 Z1.0919
G0 Z1.9200
G0 X15.3854 Y-8.5314 
G0 Z1.9200
G0 X14.2649 Y-7.3193 
G1 X14.2649 Y-7.3193 Z1.8950 F75.
G1 X14.2699 Y-7.3250 Z1.8567 F25.
G1 X14.2843 Y-7.3412 Z1.8243
G1 X14.3059 Y-7.3654 Z1.8026
G1 X14.3313 Y-7.3941 Z1.7950
G1 X14.5803 Y-7.6745 Z1.7950 F150.
G1 X14.5958 Y-7.6920 Z1.7943
G1 X14.6114 Y-7.7095 Z1.7921
G1 X14.6269 Y-7.7270 Z1.7884
G1 X14.6425 Y-7.7446 Z1.7832
G1 X14.6581 Y-7.7621 Z1.7764
G1 X14.6736 Y-7.7796 Z1.7680
G1 X14.6892 Y-7.7972 Z1.7577
G1 X14.6970 Y-7.8059 Z1.7518
G1 X14.7047 Y-7.8147 Z1.7454
G1 X14.7125 Y-7.8234 Z1.7384
G1 X14.7203 Y-7.8322 Z1.7308
G1 X14.7281 Y-7.8410 Z1.7226
G1 X14.7359 Y-7.8497 Z1.7137
G1 X14.7436 Y-7.8585 Z1.7041
G1 X14.7514 Y-7.8673 Z1.6936
G1 X14.7592 Y-7.8760 Z1.6822
G1 X14.7670 Y-7.8848 Z1.6698
G1 X14.7694 Y-7.8875 Z1.6657
G1 X14.8837 Y-8.0162 Z1.5688
G1 X15.0704 Y-8.2265 Z1.4128
G1 X15.0782 Y-8.2353 Z1.4059
G1 X15.0885 Y-8.2469 Z1.3963
G1 X15.0989 Y-8.2586 Z1.3860
G1 X15.1092 Y-8.2702 Z1.3750
G1 X15.1195 Y-8.2818 Z1.3631
G1 X15.1298 Y-8.2935 Z1.3504
G1 X15.1402 Y-8.3051 Z1.3368
G1 X15.1505 Y-8.3167 Z1.3221
G1 X15.1608 Y-8.3284 Z1.3063
G1 X15.1712 Y-8.3400 Z1.2890
G1 X15.1815 Y-8.3516 Z1.2702
G1 X15.1867 Y-8.3574 Z1.2601
G1 X15.1918 Y-8.3633 Z1.2494
G1 X15.1970 Y-8.3691 Z1.2381
G1 X15.2021 Y-8.3749 Z1.2262
G1 X15.2073 Y-8.3807 Z1.2134
G1 X15.2125 Y-8.3865 Z1.1996
G1 X15.2176 Y-8.3923 Z1.1845
G1 X15.2228 Y-8.3982 Z1.1679
G1 X15.2254 Y-8.4011 Z1.1589
G1 X15.2280 Y-8.4040 Z1.1492
G1 X15.2305 Y-8.4069 Z1.1388
G1 X15.2331 Y-8.4098 Z1.1275
G1 X15.2357 Y-8.4127 Z1.1149
G1 X15.2383 Y-8.4156 Z1.1005
G1 X15.2409 Y-8.4185 Z1.0834
G1 X15.2428 Y-8.4207 Z1.0672
G1 X15.2435 Y-8.4214 Z1.0607
G1 X15.2516 Y-8.4306 Z1.0256 F159.
G1 X15.2677 Y-8.4487 Z0.9973
G1 X15.2895 Y-8.4733 Z0.9799
G1 X15.3140 Y-8.5009 Z0.9757
G1 X15.3379 Y-8.5278 Z0.9853
G1 X15.3578 Y-8.5502 Z1.0074
G1 X15.3709 Y-8.5650 Z1.0389
G1 X15.3755 Y-8.5702 Z1.0754
G0 Z1.9200
G0 X15.3755 Y-8.5702 
G0 Z1.9200
G0 X14.2291 Y-7.3446 
G1 X14.2291 Y-7.3446 Z1.8950 F75.
G1 X14.2342 Y-7.3502 Z1.8567 F25.
G1 X14.2487 Y-7.3663 Z1.8243
G1 X14.2704 Y-7.3904 Z1.8026
G1 X14.2959 Y-7.4189 Z1.7950
G1 X14.5506 Y-7.7021 Z1.7950 F150.
G1 X14.5624 Y-7.7152 Z1.7943
G1 X14.5780 Y-7.7326 Z1.7922
G1 X14.5937 Y-7.7500 Z1.7886
G1 X14.6094 Y-7.7675 Z1.7835
G1 X14.6250 Y-7.7849 Z1.7768
G1 X14.6407 Y-7.8023 Z1.7684
G1 X14.6564 Y-7.8197 Z1.7581
G1 X14.6642 Y-7.8284 Z1.7523
G1 X14.6721 Y-7.8372 Z1.7459
G1 X14.6799 Y-7.8459 Z1.7390
G1 X14.6877 Y-7.8546 Z1.7315
G1 X14.6956 Y-7.8633 Z1.7234
G1 X14.7034 Y-7.8720 Z1.7146
G1 X14.7112 Y-7.8807 Z1.7050
G1 X14.7191 Y-7.8894 Z1.6946
G1 X14.7269 Y-7.8982 Z1.6833
G1 X14.7347 Y-7.9069 Z1.6709
G1 X14.7377 Y-7.9101 Z1.6660
G1 X14.7382 Y-7.9107 Z1.6653
G1 X14.8131 Y-7.9940 Z1.6023
G1 X14.9855 Y-8.1857 Z1.4594
G1 X15.0597 Y-8.2682 Z1.3987
G1 X15.0712 Y-8.2811 Z1.3885
G1 X15.0828 Y-8.2939 Z1.3775
G1 X15.0943 Y-8.3067 Z1.3656
G1 X15.1058 Y-8.3195 Z1.3528
G1 X15.1173 Y-8.3323 Z1.3389
G1 X15.1289 Y-8.3451 Z1.3239
G1 X15.1404 Y-8.3580 Z1.3075
G1 X15.1519 Y-8.3708 Z1.2898
G1 X15.1634 Y-8.3836 Z1.2703
G1 X15.1692 Y-8.3900 Z1.2598
G1 X15.1750 Y-8.3964 Z1.2487
G1 X15.1807 Y-8.4028 Z1.2369
G1 X15.1865 Y-8.4092 Z1.2243
G1 X15.1923 Y-8.4156 Z1.2109
G1 X15.1980 Y-8.4220 Z1.1963
G1 X15.2038 Y-8.4285 Z1.1804
G1 X15.2096 Y-8.4349 Z1.1628
G1 X15.2124 Y-8.4381 Z1.1532
G1 X15.2153 Y-8.4413 Z1.1429
G1 X15.2182 Y-8.4445 Z1.1318
G1 X15.2211 Y-8.4477 Z1.1196
G1 X15.2240 Y-8.4509 Z1.1060
G1 X15.2268 Y-8.4541 Z1.0904
G1 X15.2283 Y-8.4557 Z1.0815
G1 X15.2297 Y-8.4573 Z1.0715
G1 X15.2312 Y-8.4589 Z1.0600
G1 X15.2326 Y-8.4605 Z1.0456
G1 X15.2326 Y-8.4605 Z1.9200 F159.
G0 Z1.9200
G0 X14.1932 Y-7.3699 
G1 X14.1932 Y-7.3699 Z1.8950 F75.
G1 X14.1983 Y-7.3755 Z1.8567 F25.
G1 X14.2129 Y-7.3915 Z1.8243
G1 X14.2348 Y-7.4155 Z1.8026
G1 X14.2606 Y-7.4438 Z1.7950
G1 X14.5170 Y-7.7254 Z1.7950 F150.
G1 X14.5288 Y-7.7384 Z1.7944
G1 X14.5446 Y-7.7557 Z1.7923
G1 X14.5604 Y-7.7730 Z1.7888
G1 X14.5762 Y-7.7903 Z1.7837
G1 X14.5920 Y-7.8077 Z1.7771
G1 X14.6077 Y-7.8250 Z1.7687
G1 X14.6235 Y-7.8423 Z1.7586
G1 X14.6314 Y-7.8510 Z1.7528
G1 X14.6393 Y-7.8597 Z1.7465
G1 X14.6472 Y-7.8683 Z1.7397
G1 X14.6551 Y-7.8770 Z1.7322
G1 X14.6630 Y-7.8857 Z1.7241
G1 X14.6709 Y-7.8943 Z1.7154
G1 X14.6788 Y-7.9030 Z1.7059
G1 X14.6867 Y-7.9116 Z1.6956
G1 X14.6945 Y-7.9203 Z1.6844
G1 X14.7024 Y-7.9290 Z1.6721
G1 X14.7064 Y-7.9333 Z1.6656
G1 X14.7509 Y-7.9822 Z1.6285
G1 X14.8603 Y-8.1022 Z1.5385
G1 X14.9392 Y-8.1889 Z1.4739
G1 X15.0435 Y-8.3035 Z1.3894
G1 X15.0563 Y-8.3175 Z1.3785
G1 X15.0690 Y-8.3315 Z1.3667
G1 X15.0817 Y-8.3454 Z1.3538
G1 X15.0945 Y-8.3594 Z1.3398
G1 X15.1072 Y-8.3734 Z1.3247
G1 X15.1200 Y-8.3874 Z1.3082
G1 X15.1327 Y-8.4014 Z1.2900
G1 X15.1391 Y-8.4084 Z1.2802
G1 X15.1454 Y-8.4154 Z1.2699
G1 X15.1518 Y-8.4224 Z1.2590
G1 X15.1582 Y-8.4293 Z1.2475
G1 X15.1645 Y-8.4363 Z1.2352
G1 X15.1709 Y-8.4433 Z1.2221
G1 X15.1773 Y-8.4503 Z1.2080
G1 X15.1836 Y-8.4573 Z1.1927
G1 X15.1900 Y-8.4643 Z1.1760
G1 X15.1932 Y-8.4678 Z1.1670
G1 X15.1964 Y-8.4713 Z1.1575
G1 X15.1996 Y-8.4748 Z1.1473
G1 X15.2027 Y-8.4783 Z1.1364
G1 X15.2059 Y-8.4818 Z1.1246
G1 X15.2091 Y-8.4853 Z1.1117
G1 X15.2123 Y-8.4888 Z1.0971
G1 X15.2155 Y-8.4923 Z1.0804
G1 X15.2171 Y-8.4940 Z1.0707
G1 X15.2194 Y-8.4966 Z1.0536
G1 X15.2210 Y-8.4984 Z1.0388
G1 X15.2218 Y-8.4993 Z1.0294
G1 X15.2218 Y-8.4993 Z1.9200 F159.
G0 Z1.9200
G0 X14.1573 Y-7.3952 
G1 X14.1573 Y-7.3952 Z1.8950 F75.
G1 X14.1625 Y-7.4008 Z1.8567 F25.
G1 X14.1772 Y-7.4167 Z1.8243
G1 X14.1992 Y-7.4406 Z1.8026
G1 X14.2251 Y-7.4687 Z1.7950
G1 X14.4833 Y-7.7487 Z1.7950 F150.
G1 X14.4953 Y-7.7616 Z1.7944
G1 X14.5111 Y-7.7788 Z1.7924
G1 X14.5270 Y-7.7960 Z1.7890
G1 X14.5429 Y-7.8133 Z1.7840
G1 X14.5588 Y-7.8305 Z1.7774
G1 X14.5747 Y-7.8477 Z1.7692
G1 X14.5906 Y-7.8650 Z1.7591
G1 X14.5985 Y-7.8736 Z1.7534
G1 X14.6065 Y-7.8822 Z1.7471
G1 X14.6144 Y-7.8908 Z1.7403
G1 X14.6224 Y-7.8994 Z1.7329
G1 X14.6303 Y-7.9080 Z1.7249
G1 X14.6383 Y-7.9166 Z1.7162
G1 X14.6462 Y-7.9253 Z1.7068
G1 X14.6542 Y-7.9339 Z1.6966
G1 X14.6621 Y-7.9425 Z1.6855
G1 X14.6701 Y-7.9511 Z1.6733
G1 X14.6745 Y-7.9559 Z1.6660
G1 X14.6750 Y-7.9565 Z1.6654
G1 X14.7654 Y-8.0545 Z1.5916
G1 X14.8766 Y-8.1751 Z1.5012
G1 X15.0367 Y-8.3486 Z1.3725
G1 X15.0437 Y-8.3562 Z1.3665
G1 X15.0577 Y-8.3713 Z1.3539
G1 X15.0716 Y-8.3864 Z1.3401
G1 X15.0856 Y-8.4015 Z1.3249
G1 X15.0995 Y-8.4167 Z1.3082
G1 X15.1135 Y-8.4318 Z1.2896
G1 X15.1204 Y-8.4394 Z1.2796
G1 X15.1274 Y-8.4469 Z1.2690
G1 X15.1344 Y-8.4545 Z1.2578
G1 X15.1414 Y-8.4621 Z1.2458
G1 X15.1484 Y-8.4696 Z1.2331
G1 X15.1553 Y-8.4772 Z1.2195
G1 X15.1623 Y-8.4848 Z1.2048
G1 X15.1693 Y-8.4923 Z1.1889
G1 X15.1763 Y-8.4999 Z1.1715
G1 X15.1798 Y-8.5037 Z1.1620
G1 X15.1832 Y-8.5075 Z1.1520
G1 X15.1867 Y-8.5112 Z1.1413
G1 X15.1902 Y-8.5150 Z1.1298
G1 X15.1937 Y-8.5188 Z1.1173
G1 X15.1972 Y-8.5226 Z1.1034
G1 X15.2007 Y-8.5264 Z1.0878
G1 X15.2024 Y-8.5283 Z1.0790
G1 X15.2042 Y-8.5301 Z1.0694
G1 X15.2068 Y-8.5330 Z1.0526
G1 X15.2085 Y-8.5349 Z1.0388
G1 X15.2098 Y-8.5363 Z1.0260
G1 X15.2107 Y-8.5372 Z1.0149
G1 X15.2112 Y-8.5377 Z1.0079
G1 X15.2112 Y-8.5377 Z1.9200 F159.
G0 Z1.9200
G0 X14.1226 Y-7.4220 
G1 X14.1226 Y-7.4220 Z1.8950 F75.
G1 X14.1278 Y-7.4275 Z1.8567 F25.
G1 X14.1426 Y-7.4434 Z1.8243
G1 X14.1647 Y-7.4671 Z1.8026
G1 X14.1909 Y-7.4950 Z1.7950
G1 X14.4509 Y-7.7733 Z1.7950 F150.
G1 X14.4629 Y-7.7862 Z1.7944
G1 X14.4789 Y-7.8033 Z1.7923
G1 X14.4949 Y-7.8204 Z1.7888
G1 X14.5109 Y-7.8376 Z1.7838
G1 X14.5269 Y-7.8547 Z1.7771
G1 X14.5429 Y-7.8718 Z1.7688
G1 X14.5589 Y-7.8890 Z1.7587
G1 X14.5669 Y-7.8975 Z1.7530
G1 X14.5749 Y-7.9061 Z1.7467
G1 X14.5829 Y-7.9146 Z1.7399
G1 X14.5909 Y-7.9232 Z1.7324
G1 X14.5989 Y-7.9318 Z1.7244
G1 X14.6069 Y-7.9403 Z1.7157
G1 X14.6149 Y-7.9489 Z1.7062
G1 X14.6229 Y-7.9575 Z1.6960
G1 X14.6309 Y-7.9660 Z1.6848
G1 X14.6389 Y-7.9746 Z1.6726
G1 X14.6424 Y-7.9783 Z1.6669
G1 X14.6429 Y-7.9789 Z1.6663
G1 X14.7989 Y-8.1459 Z1.5403
G1 X14.9891 Y-8.3495 Z1.3886
G1 X15.0268 Y-8.3899 Z1.3589
G1 X15.0344 Y-8.3980 Z1.3526
G1 X15.0495 Y-8.4142 Z1.3389
G1 X15.0646 Y-8.4303 Z1.3236
G1 X15.0797 Y-8.4465 Z1.3067
G1 X15.0873 Y-8.4546 Z1.2976
G1 X15.0948 Y-8.4627 Z1.2879
G1 X15.1024 Y-8.4708 Z1.2777
G1 X15.1099 Y-8.4788 Z1.2668
G1 X15.1175 Y-8.4869 Z1.2553
G1 X15.1250 Y-8.4950 Z1.2431
G1 X15.1326 Y-8.5031 Z1.2300
G1 X15.1401 Y-8.5112 Z1.2160
G1 X15.1477 Y-8.5193 Z1.2008
G1 X15.1552 Y-8.5273 Z1.1844
G1 X15.1628 Y-8.5354 Z1.1662
G1 X15.1666 Y-8.5395 Z1.1564
G1 X15.1703 Y-8.5435 Z1.1459
G1 X15.1741 Y-8.5476 Z1.1347
G1 X15.1779 Y-8.5516 Z1.1225
G1 X15.1817 Y-8.5556 Z1.1093
G1 X15.1855 Y-8.5597 Z1.0946
G1 X15.1892 Y-8.5637 Z1.0778
G1 X15.1911 Y-8.5658 Z1.0684
G1 X15.1930 Y-8.5678 Z1.0579
G1 X15.1949 Y-8.5698 Z1.0461
G1 X15.1968 Y-8.5718 Z1.0321
G1 X15.1977 Y-8.5728 Z1.0237
G1 X15.1991 Y-8.5743 Z1.0081
G1 X15.2001 Y-8.5754 Z0.9925
G1 X15.2006 Y-8.5759 Z0.9774
G1 X15.2006 Y-8.5759 Z1.9200 F159.
G0 Z1.9200
G0 X14.0886 Y-7.4496 
G1 X14.0886 Y-7.4496 Z1.8950 F75.
G1 X14.0938 Y-7.4551 Z1.8567 F25.
G1 X14.1087 Y-7.4708 Z1.8243
G1 X14.1310 Y-7.4944 Z1.8026
G1 X14.1573 Y-7.5222 Z1.7950
G1 X14.4191 Y-7.7988 Z1.7950 F150.
G1 X14.4312 Y-7.8116 Z1.7943
G1 X14.4473 Y-7.8286 Z1.7922
G1 X14.4634 Y-7.8457 Z1.7886
G1 X14.4795 Y-7.8627 Z1.7835
G1 X14.4956 Y-7.8797 Z1.7767
G1 X14.5117 Y-7.8967 Z1.7683
G1 X14.5278 Y-7.9138 Z1.7581
G1 X14.5359 Y-7.9223 Z1.7522
G1 X14.5439 Y-7.9308 Z1.7459
G1 X14.5520 Y-7.9393 Z1.7389
G1 X14.5600 Y-7.9478 Z1.7314
G1 X14.5681 Y-7.9563 Z1.7233
G1 X14.5761 Y-7.9648 Z1.7144
G1 X14.5842 Y-7.9734 Z1.7049
G1 X14.5922 Y-7.9819 Z1.6944
G1 X14.6003 Y-7.9904 Z1.6831
G1 X14.6099 Y-8.0005 Z1.6682
G1 X14.6104 Y-8.0010 Z1.6677
G1 X14.7372 Y-8.1351 Z1.5661
G1 X14.8983 Y-8.3053 Z1.4385
G1 X14.9305 Y-8.3394 Z1.4132
G1 X15.0110 Y-8.4245 Z1.3505
G1 X15.0271 Y-8.4415 Z1.3371
G1 X15.0433 Y-8.4586 Z1.3221
G1 X15.0594 Y-8.4756 Z1.3053
G1 X15.0674 Y-8.4841 Z1.2962
G1 X15.0755 Y-8.4926 Z1.2865
G1 X15.0835 Y-8.5011 Z1.2763
G1 X15.0916 Y-8.5096 Z1.2655
G1 X15.0996 Y-8.5182 Z1.2539
G1 X15.1077 Y-8.5267 Z1.2417
G1 X15.1157 Y-8.5352 Z1.2286
G1 X15.1238 Y-8.5437 Z1.2146
G1 X15.1318 Y-8.5522 Z1.1993
G1 X15.1399 Y-8.5607 Z1.1827
G1 X15.1480 Y-8.5692 Z1.1644
G1 X15.1520 Y-8.5735 Z1.1544
G1 X15.1560 Y-8.5777 Z1.1438
G1 X15.1600 Y-8.5820 Z1.1325
G1 X15.1641 Y-8.5863 Z1.1203
G1 X15.1681 Y-8.5905 Z1.1071
G1 X15.1721 Y-8.5948 Z1.0924
G1 X15.1761 Y-8.5990 Z1.0758
G1 X15.1782 Y-8.6012 Z1.0665
G1 X15.1802 Y-8.6033 Z1.0564
G1 X15.1832 Y-8.6065 Z1.0387
G1 X15.1852 Y-8.6086 Z1.0244
G1 X15.1862 Y-8.6097 Z1.0159
G1 X15.1877 Y-8.6113 Z1.0001
G1 X15.1887 Y-8.6123 Z0.9857
G1 X15.1891 Y-8.6128 Z0.9749
G1 X15.1896 Y-8.6132 Z0.9416
G1 X15.1900 Y-8.6137 Z0.9414
G1 X15.2202 Y-8.6456 Z0.9423 F159.
G1 X15.2473 Y-8.6742 Z0.9619
G1 X15.2659 Y-8.6939 Z0.9965
G1 X15.2726 Y-8.7009 Z1.0394
G0 Z1.9200
G0 X15.2726 Y-8.7009 
G0 Z1.9200
G0 X14.0546 Y-7.4772 
G1 X14.0546 Y-7.4772 Z1.8950 F75.
G1 X14.0598 Y-7.4827 Z1.8567 F25.
G1 X14.0748 Y-7.4983 Z1.8243
G1 X14.0973 Y-7.5217 Z1.8026
G1 X14.1238 Y-7.5494 Z1.7950
G1 X14.3832 Y-7.8201 Z1.7950 F150.
G1 X14.3913 Y-7.8286 Z1.7948
G1 X14.3994 Y-7.8371 Z1.7943
G1 X14.4156 Y-7.8540 Z1.7922
G1 X14.4319 Y-7.8709 Z1.7885
G1 X14.4481 Y-7.8878 Z1.7834
G1 X14.4643 Y-7.9047 Z1.7766
G1 X14.4805 Y-7.9217 Z1.7681
G1 X14.4967 Y-7.9386 Z1.7579
G1 X14.5048 Y-7.9471 Z1.7520
G1 X14.5129 Y-7.9555 Z1.7456
G1 X14.5210 Y-7.9640 Z1.7387
G1 X14.5291 Y-7.9724 Z1.7312
G1 X14.5373 Y-7.9809 Z1.7230
G1 X14.5454 Y-7.9894 Z1.7141
G1 X14.5535 Y-7.9978 Z1.7045
G1 X14.5616 Y-8.0063 Z1.6941
G1 X14.5697 Y-8.0147 Z1.6827
G1 X14.5793 Y-8.0248 Z1.6679
G1 X14.6751 Y-8.1247 Z1.5918
G1 X14.8048 Y-8.2601 Z1.4898
G1 X14.8697 Y-8.3278 Z1.4392
G1 X14.9994 Y-8.4632 Z1.3389
G1 X15.0156 Y-8.4801 Z1.3255
G1 X15.0318 Y-8.4970 Z1.3105
G1 X15.0480 Y-8.5140 Z1.2938
G1 X15.0561 Y-8.5224 Z1.2848
G1 X15.0642 Y-8.5309 Z1.2753
G1 X15.0724 Y-8.5394 Z1.2651
G1 X15.0805 Y-8.5478 Z1.2544
G1 X15.0886 Y-8.5563 Z1.2429
G1 X15.0967 Y-8.5647 Z1.2306
G1 X15.1048 Y-8.5732 Z1.2175
G1 X15.1129 Y-8.5817 Z1.2033
G1 X15.1210 Y-8.5901 Z1.1880
G1 X15.1291 Y-8.5986 Z1.1712
G1 X15.1372 Y-8.6070 Z1.1527
G1 X15.1413 Y-8.6113 Z1.1426
G1 X15.1453 Y-8.6155 Z1.1320
G1 X15.1494 Y-8.6197 Z1.1205
G1 X15.1534 Y-8.6240 Z1.1081
G1 X15.1575 Y-8.6282 Z1.0946
G1 X15.1615 Y-8.6324 Z1.0797
G1 X15.1656 Y-8.6366 Z1.0628
G1 X15.1676 Y-8.6387 Z1.0533
G1 X15.1696 Y-8.6408 Z1.0428
G1 X15.1716 Y-8.6429 Z1.0310
G1 X15.1736 Y-8.6451 Z1.0173
G1 X15.1746 Y-8.6461 Z1.0092
G1 X15.1761 Y-8.6477 Z0.9947
G1 X15.1772 Y-8.6487 Z0.9814
G1 X15.1777 Y-8.6493 Z0.9718
G1 X15.1782 Y-8.6498 Z0.9321
G1 X15.1782 Y-8.6498 Z1.9200 F159.
G0 Z1.9200
G0 X14.0205 Y-7.5048 
G1 X14.0205 Y-7.5048 Z1.8950 F75.
G1 X14.0258 Y-7.5103 Z1.8567 F25.
G1 X14.0409 Y-7.5258 Z1.8243
G1 X14.0635 Y-7.5491 Z1.8026
G1 X14.0902 Y-7.5766 Z1.7950
G1 X14.3513 Y-7.8457 Z1.7950 F150.
G1 X14.3676 Y-7.8625 Z1.7943
G1 X14.3840 Y-7.8793 Z1.7921
G1 X14.4003 Y-7.8961 Z1.7884
G1 X14.4166 Y-7.9130 Z1.7832
G1 X14.4329 Y-7.9298 Z1.7764
G1 X14.4492 Y-7.9466 Z1.7680
G1 X14.4656 Y-7.9634 Z1.7577
G1 X14.4737 Y-7.9718 Z1.7518
G1 X14.4819 Y-7.9802 Z1.7454
G1 X14.4901 Y-7.9887 Z1.7384
G1 X14.4982 Y-7.9971 Z1.7309
G1 X14.5064 Y-8.0055 Z1.7227
G1 X14.5145 Y-8.0139 Z1.7138
G1 X14.5227 Y-8.0223 Z1.7042
G1 X14.5309 Y-8.0307 Z1.6937
G1 X14.5390 Y-8.0391 Z1.6824
G1 X14.5482 Y-8.0486 Z1.6683
G1 X14.5487 Y-8.0491 Z1.6677
G1 X14.5965 Y-8.0984 Z1.6299
G1 X14.7104 Y-8.2157 Z1.5411
G1 X14.8083 Y-8.3166 Z1.4653
G1 X14.9879 Y-8.5017 Z1.3273
G1 X15.0042 Y-8.5185 Z1.3141
G1 X15.0205 Y-8.5353 Z1.2995
G1 X15.0368 Y-8.5521 Z1.2829
G1 X15.0450 Y-8.5605 Z1.2739
G1 X15.0532 Y-8.5689 Z1.2644
G1 X15.0613 Y-8.5774 Z1.2542
G1 X15.0695 Y-8.5858 Z1.2434
G1 X15.0776 Y-8.5942 Z1.2318
G1 X15.0858 Y-8.6026 Z1.2195
G1 X15.0940 Y-8.6110 Z1.2063
G1 X15.1021 Y-8.6194 Z1.1920
G1 X15.1103 Y-8.6278 Z1.1766
G1 X15.1184 Y-8.6362 Z1.1597
G1 X15.1266 Y-8.6446 Z1.1410
G1 X15.1307 Y-8.6488 Z1.1308
G1 X15.1348 Y-8.6530 Z1.1200
G1 X15.1387 Y-8.6571 Z1.1088
G1 X15.1427 Y-8.6612 Z1.0967
G1 X15.1466 Y-8.6653 Z1.0834
G1 X15.1506 Y-8.6693 Z1.0688
G1 X15.1545 Y-8.6734 Z1.0520
G1 X15.1565 Y-8.6754 Z1.0426
G1 X15.1585 Y-8.6775 Z1.0322
G1 X15.1604 Y-8.6795 Z1.0205
G1 X15.1624 Y-8.6815 Z1.0067
G1 X15.1634 Y-8.6826 Z0.9985
G1 X15.1649 Y-8.6841 Z0.9836
G1 X15.1659 Y-8.6851 Z0.9696
G1 X15.1664 Y-8.6856 Z0.9590
G1 X15.1664 Y-8.6856 Z1.9200 F159.
G0 Z1.9200
G0 X13.9864 Y-7.5325 
G1 X13.9864 Y-7.5325 Z1.8950 F75.
G1 X13.9918 Y-7.5379 Z1.8567 F25.
G1 X14.0070 Y-7.5534 Z1.8243
G1 X14.0297 Y-7.5765 Z1.8026
G1 X14.0565 Y-7.6038 Z1.7950
G1 X14.3194 Y-7.8713 Z1.7950 F150.
G1 X14.3358 Y-7.8880 Z1.7942
G1 X14.3522 Y-7.9047 Z1.7920
G1 X14.3687 Y-7.9214 Z1.7883
G1 X14.3851 Y-7.9381 Z1.7831
G1 X14.4015 Y-7.9548 Z1.7763
G1 X14.4179 Y-7.9716 Z1.7678
G1 X14.4344 Y-7.9883 Z1.7575
G1 X14.4426 Y-7.9966 Z1.7516
G1 X14.4508 Y-8.0050 Z1.7452
G1 X14.4590 Y-8.0134 Z1.7382
G1 X14.4672 Y-8.0217 Z1.7306
G1 X14.4754 Y-8.0301 Z1.7224
G1 X14.4837 Y-8.0384 Z1.7136
G1 X14.4919 Y-8.0468 Z1.7039
G1 X14.5001 Y-8.0551 Z1.6934
G1 X14.5083 Y-8.0635 Z1.6820
G1 X14.5175 Y-8.0729 Z1.6679
G1 X14.5822 Y-8.1387 Z1.6177
G1 X14.7301 Y-8.2892 Z1.5038
G1 X14.9293 Y-8.4919 Z1.3519
G1 X14.9806 Y-8.5441 Z1.3133
G1 X14.9929 Y-8.5566 Z1.3034
G1 X15.0093 Y-8.5734 Z1.2887
G1 X15.0258 Y-8.5901 Z1.2721
G1 X15.0340 Y-8.5984 Z1.2631
G1 X15.0422 Y-8.6068 Z1.2535
G1 X15.0504 Y-8.6151 Z1.2433
G1 X15.0586 Y-8.6235 Z1.2324
G1 X15.0668 Y-8.6319 Z1.2208
G1 X15.0751 Y-8.6402 Z1.2084
G1 X15.0833 Y-8.6486 Z1.1951
G1 X15.0915 Y-8.6569 Z1.1807
G1 X15.0997 Y-8.6653 Z1.1651
G1 X15.1079 Y-8.6736 Z1.1481
G1 X15.1138 Y-8.6796 Z1.1349
G1 X15.1196 Y-8.6855 Z1.1206
G1 X15.1254 Y-8.6915 Z1.1049
G1 X15.1284 Y-8.6944 Z1.0964
G1 X15.1313 Y-8.6974 Z1.0874
G1 X15.1342 Y-8.7004 Z1.0778
G1 X15.1371 Y-8.7034 Z1.0674
G1 X15.1400 Y-8.7063 Z1.0561
G1 X15.1430 Y-8.7093 Z1.0437
G1 X15.1459 Y-8.7123 Z1.0296
G1 X15.1488 Y-8.7152 Z1.0131
G1 X15.1503 Y-8.7167 Z1.0034
G1 X15.1524 Y-8.7190 Z0.9857
G1 X15.1539 Y-8.7204 Z0.9697
G1 X15.1546 Y-8.7212 Z0.9583
G1 X15.1546 Y-8.7212 Z1.9200 F159.
G0 Z1.9200
G0 X13.9523 Y-7.5602 
G1 X13.9523 Y-7.5602 Z1.8950 F75.
G1 X13.9577 Y-7.5656 Z1.8567 F25.
G1 X13.9730 Y-7.5810 Z1.8243
G1 X13.9958 Y-7.6039 Z1.8026
G1 X14.0228 Y-7.6311 Z1.7950
G1 X14.2874 Y-7.8969 Z1.7950 F150.
G1 X14.3039 Y-7.9135 Z1.7942
G1 X14.3204 Y-7.9301 Z1.7920
G1 X14.3370 Y-7.9467 Z1.7883
G1 X14.3535 Y-7.9633 Z1.7830
G1 X14.3700 Y-7.9799 Z1.7762
G1 X14.3866 Y-7.9965 Z1.7676
G1 X14.4031 Y-8.0131 Z1.7573
G1 X14.4114 Y-8.0215 Z1.7514
G1 X14.4196 Y-8.0298 Z1.7450
G1 X14.4279 Y-8.0381 Z1.7380
G1 X14.4362 Y-8.0464 Z1.7304
G1 X14.4444 Y-8.0547 Z1.7222
G1 X14.4527 Y-8.0630 Z1.7133
G1 X14.4610 Y-8.0713 Z1.7036
G1 X14.4692 Y-8.0796 Z1.6931
G1 X14.4775 Y-8.0879 Z1.6817
G1 X14.4863 Y-8.0967 Z1.6686
G1 X14.6676 Y-8.2789 Z1.5298
G1 X14.8330 Y-8.4451 Z1.4046
G1 X14.8826 Y-8.4949 Z1.3674
G1 X14.9653 Y-8.5780 Z1.3058
G1 X14.9818 Y-8.5946 Z1.2927
G1 X14.9983 Y-8.6112 Z1.2779
G1 X15.0149 Y-8.6278 Z1.2613
G1 X15.0231 Y-8.6361 Z1.2522
G1 X15.0314 Y-8.6444 Z1.2426
G1 X15.0397 Y-8.6527 Z1.2323
G1 X15.0479 Y-8.6610 Z1.2214
G1 X15.0562 Y-8.6693 Z1.2098
G1 X15.0645 Y-8.6776 Z1.1974
G1 X15.0727 Y-8.6859 Z1.1841
G1 X15.0810 Y-8.6942 Z1.1696
G1 X15.0887 Y-8.7020 Z1.1550
G1 X15.0965 Y-8.7098 Z1.1390
G1 X15.1042 Y-8.7176 Z1.1213
G1 X15.1081 Y-8.7215 Z1.1117
G1 X15.1120 Y-8.7254 Z1.1016
G1 X15.1159 Y-8.7293 Z1.0907
G1 X15.1197 Y-8.7332 Z1.0789
G1 X15.1236 Y-8.7371 Z1.0661
G1 X15.1275 Y-8.7410 Z1.0519
G1 X15.1313 Y-8.7448 Z1.0359
G1 X15.1333 Y-8.7468 Z1.0269
G1 X15.1352 Y-8.7487 Z1.0171
G1 X15.1381 Y-8.7517 Z1.0000
G1 X15.1401 Y-8.7536 Z0.9860
G1 X15.1410 Y-8.7546 Z0.9778
G1 X15.1425 Y-8.7560 Z0.9623
G1 X15.1430 Y-8.7565 Z0.9556
G1 X15.1430 Y-8.7565 Z1.9200 F159.
G0 Z1.9200
G0 X13.9181 Y-7.5879 
G1 X13.9181 Y-7.5879 Z1.8950 F75.
G1 X13.9235 Y-7.5933 Z1.8567 F25.
G1 X13.9389 Y-7.6086 Z1.8243
G1 X13.9620 Y-7.6314 Z1.8026
G1 X13.9891 Y-7.6584 Z1.7950
G1 X14.2553 Y-7.9225 Z1.7950 F150.
G1 X14.2720 Y-7.9390 Z1.7943
G1 X14.2886 Y-7.9555 Z1.7920
G1 X14.3052 Y-7.9720 Z1.7883
G1 X14.3219 Y-7.9885 Z1.7831
G1 X14.3385 Y-8.0050 Z1.7763
G1 X14.3552 Y-8.0215 Z1.7677
G1 X14.3718 Y-8.0380 Z1.7574
G1 X14.3801 Y-8.0463 Z1.7515
G1 X14.3884 Y-8.0545 Z1.7450
G1 X14.3968 Y-8.0628 Z1.7380
G1 X14.4051 Y-8.0711 Z1.7304
G1 X14.4134 Y-8.0793 Z1.7222
G1 X14.4217 Y-8.0876 Z1.7132
G1 X14.4300 Y-8.0958 Z1.7035
G1 X14.4384 Y-8.1041 Z1.6930
G1 X14.4467 Y-8.1123 Z1.6815
G1 X14.4545 Y-8.1201 Z1.6700
G1 X14.6047 Y-8.2691 Z1.5559
G1 X14.7378 Y-8.4012 Z1.4557
G1 X14.8210 Y-8.4837 Z1.3937
G1 X14.9541 Y-8.6158 Z1.2951
G1 X14.9708 Y-8.6323 Z1.2820
G1 X14.9874 Y-8.6488 Z1.2672
G1 X15.0041 Y-8.6653 Z1.2505
G1 X15.0124 Y-8.6736 Z1.2415
G1 X15.0207 Y-8.6818 Z1.2320
G1 X15.0290 Y-8.6901 Z1.2218
G1 X15.0373 Y-8.6983 Z1.2109
G1 X15.0456 Y-8.7066 Z1.1992
G1 X15.0540 Y-8.7148 Z1.1867
G1 X15.0636 Y-8.7244 Z1.1709
G1 X15.0733 Y-8.7340 Z1.1536
G1 X15.0782 Y-8.7388 Z1.1443
G1 X15.0830 Y-8.7436 Z1.1344
G1 X15.0878 Y-8.7484 Z1.1240
G1 X15.0927 Y-8.7532 Z1.1128
G1 X15.0975 Y-8.7580 Z1.1008
G1 X15.1024 Y-8.7628 Z1.0879
G1 X15.1072 Y-8.7676 Z1.0738
G1 X15.1120 Y-8.7724 Z1.0581
G1 X15.1145 Y-8.7748 Z1.0495
G1 X15.1169 Y-8.7772 Z1.0404
G1 X15.1193 Y-8.7796 Z1.0304
G1 X15.1217 Y-8.7820 Z1.0195
G1 X15.1241 Y-8.7844 Z1.0073
G1 X15.1265 Y-8.7868 Z0.9933
G1 X15.1278 Y-8.7880 Z0.9852
G1 X15.1290 Y-8.7892 Z0.9761
G1 X15.1308 Y-8.7910 Z0.9592
G1 X15.1314 Y-8.7916 Z0.9519
G1 X15.1314 Y-8.7916 Z1.9200 F159.
G0 Z1.9200
G0 X13.8839 Y-7.6157 
G1 X13.8839 Y-7.6157 Z1.8950 F75.
G1 X13.8894 Y-7.6211 Z1.8567 F25.
G1 X13.9048 Y-7.6362 Z1.8243
G1 X13.9280 Y-7.6589 Z1.8026
G1 X13.9553 Y-7.6857 Z1.7950
G1 X14.2274 Y-7.9522 Z1.7950 F150.
G1 X14.2400 Y-7.9645 Z1.7943
G1 X14.2567 Y-7.9809 Z1.7922
G1 X14.2735 Y-7.9973 Z1.7885
G1 X14.2902 Y-8.0137 Z1.7834
G1 X14.3069 Y-8.0301 Z1.7766
G1 X14.3237 Y-8.0465 Z1.7682
G1 X14.3404 Y-8.0629 Z1.7579
G1 X14.3488 Y-8.0711 Z1.7520
G1 X14.3572 Y-8.0793 Z1.7456
G1 X14.3655 Y-8.0876 Z1.7387
G1 X14.3739 Y-8.0958 Z1.7311
G1 X14.3823 Y-8.1040 Z1.7230
G1 X14.3907 Y-8.1122 Z1.7141
G1 X14.3990 Y-8.1204 Z1.7045
G1 X14.4074 Y-8.1286 Z1.6941
G1 X14.4158 Y-8.1368 Z1.6827
G1 X14.4241 Y-8.1450 Z1.6702
G1 X14.5246 Y-8.2434 Z1.5944
G1 X14.6418 Y-8.3582 Z1.5068
G1 X14.7422 Y-8.4566 Z1.4324
G1 X14.9431 Y-8.6534 Z1.2845
G1 X14.9599 Y-8.6698 Z1.2716
G1 X14.9766 Y-8.6862 Z1.2570
G1 X14.9850 Y-8.6944 Z1.2490
G1 X14.9934 Y-8.7026 Z1.2404
G1 X15.0017 Y-8.7108 Z1.2314
G1 X15.0101 Y-8.7190 Z1.2217
G1 X15.0185 Y-8.7272 Z1.2114
G1 X15.0269 Y-8.7354 Z1.2004
G1 X15.0385 Y-8.7468 Z1.1839
G1 X15.0501 Y-8.7582 Z1.1655
G1 X15.0559 Y-8.7639 Z1.1556
G1 X15.0617 Y-8.7696 Z1.1451
G1 X15.0676 Y-8.7753 Z1.1339
G1 X15.0734 Y-8.7810 Z1.1219
G1 X15.0792 Y-8.7867 Z1.1090
G1 X15.0850 Y-8.7924 Z1.0951
G1 X15.0908 Y-8.7981 Z1.0798
G1 X15.0966 Y-8.8038 Z1.0628
G1 X15.0995 Y-8.8066 Z1.0535
G1 X15.1024 Y-8.8094 Z1.0436
G1 X15.1053 Y-8.8123 Z1.0328
G1 X15.1082 Y-8.8151 Z1.0209
G1 X15.1112 Y-8.8180 Z1.0076
G1 X15.1141 Y-8.8208 Z0.9922
G1 X15.1155 Y-8.8223 Z0.9833
G1 X15.1177 Y-8.8244 Z0.9676
G1 X15.1191 Y-8.8258 Z0.9543
G1 X15.1199 Y-8.8265 Z0.9461
G1 X15.1199 Y-8.8265 Z1.9200 F159.
G0 Z1.9200
G0 X13.8497 Y-7.6436 
G1 X13.8497 Y-7.6436 Z1.8950 F75.
G1 X13.8551 Y-7.6489 Z1.8567 F25.
G1 X13.8707 Y-7.6639 Z1.8243
G1 X13.8940 Y-7.6865 Z1.8026
G1 X13.9215 Y-7.7131 Z1.7950
G1 X14.1953 Y-7.9779 Z1.7950 F150.
G1 X14.2079 Y-7.9901 Z1.7944
G1 X14.2248 Y-8.0064 Z1.7923
G1 X14.2416 Y-8.0227 Z1.7887
G1 X14.2584 Y-8.0390 Z1.7836
G1 X14.2753 Y-8.0553 Z1.7769
G1 X14.2921 Y-8.0716 Z1.7686
G1 X14.3090 Y-8.0879 Z1.7584
G1 X14.3174 Y-8.0960 Z1.7526
G1 X14.3258 Y-8.1042 Z1.7463
G1 X14.3343 Y-8.1123 Z1.7394
G1 X14.3427 Y-8.1205 Z1.7319
G1 X14.3511 Y-8.1286 Z1.7238
G1 X14.3595 Y-8.1368 Z1.7150
G1 X14.3679 Y-8.1449 Z1.7055
G1 X14.3764 Y-8.1531 Z1.6951
G1 X14.3848 Y-8.1612 Z1.6838
G1 X14.3943 Y-8.1704 Z1.6700
G1 X14.4606 Y-8.2345 Z1.6204
G1 X14.5280 Y-8.2997 Z1.5704
G1 X14.6796 Y-8.4464 Z1.4587
G1 X14.8781 Y-8.6384 Z1.3137
G1 X14.9323 Y-8.6908 Z1.2747
G1 X14.9491 Y-8.7071 Z1.2617
G1 X14.9660 Y-8.7234 Z1.2470
G1 X14.9744 Y-8.7315 Z1.2389
G1 X14.9828 Y-8.7397 Z1.2304
G1 X14.9912 Y-8.7478 Z1.2212
G1 X14.9997 Y-8.7560 Z1.2115
G1 X15.0133 Y-8.7691 Z1.1944
G1 X15.0201 Y-8.7757 Z1.1851
G1 X15.0269 Y-8.7823 Z1.1753
G1 X15.0337 Y-8.7889 Z1.1649
G1 X15.0405 Y-8.7954 Z1.1538
G1 X15.0472 Y-8.8020 Z1.1420
G1 X15.0540 Y-8.8086 Z1.1294
G1 X15.0608 Y-8.8152 Z1.1157
G1 X15.0676 Y-8.8218 Z1.1009
G1 X15.0744 Y-8.8283 Z1.0846
G1 X15.0778 Y-8.8316 Z1.0758
G1 X15.0812 Y-8.8349 Z1.0665
G1 X15.0846 Y-8.8382 Z1.0565
G1 X15.0880 Y-8.8415 Z1.0458
G1 X15.0914 Y-8.8448 Z1.0341
G1 X15.0948 Y-8.8481 Z1.0213
G1 X15.0982 Y-8.8513 Z1.0068
G1 X15.1016 Y-8.8546 Z0.9901
G1 X15.1033 Y-8.8563 Z0.9804
G1 X15.1059 Y-8.8587 Z0.9631
G1 X15.1076 Y-8.8604 Z0.9484
G1 X15.1084 Y-8.8612 Z0.9391
G1 X15.1084 Y-8.8612 Z1.9200 F159.
G0 Z1.9200
G0 X13.8153 Y-7.6714 
G1 X13.8153 Y-7.6714 Z1.8950 F75.
G1 X13.8208 Y-7.6767 Z1.8567 F25.
G1 X13.8365 Y-7.6917 Z1.8243
G1 X13.8600 Y-7.7141 Z1.8026
G1 X13.8877 Y-7.7405 Z1.7950
G1 X14.1631 Y-8.0036 Z1.7950 F150.
G1 X14.1758 Y-8.0157 Z1.7944
G1 X14.1927 Y-8.0319 Z1.7924
G1 X14.2097 Y-8.0481 Z1.7889
G1 X14.2266 Y-8.0643 Z1.7839
G1 X14.2436 Y-8.0805 Z1.7773
G1 X14.2605 Y-8.0967 Z1.7690
G1 X14.2775 Y-8.1128 Z1.7589
G1 X14.2859 Y-8.1209 Z1.7532
G1 X14.2944 Y-8.1290 Z1.7469
G1 X14.3029 Y-8.1371 Z1.7401
G1 X14.3114 Y-8.1452 Z1.7326
G1 X14.3198 Y-8.1533 Z1.7246
G1 X14.3283 Y-8.1614 Z1.7159
G1 X14.3368 Y-8.1695 Z1.7065
G1 X14.3453 Y-8.1776 Z1.6962
G1 X14.3537 Y-8.1857 Z1.6850
G1 X14.3638 Y-8.1953 Z1.6704
G1 X14.3643 Y-8.1958 Z1.6699
G1 X14.4300 Y-8.2585 Z1.6214
G1 X14.5995 Y-8.4204 Z1.4973
G1 X14.7859 Y-8.5985 Z1.3620
G1 X14.9215 Y-8.7280 Z1.2649
G1 X14.9385 Y-8.7442 Z1.2519
G1 X14.9554 Y-8.7604 Z1.2371
G1 X14.9639 Y-8.7685 Z1.2289
G1 X14.9724 Y-8.7766 Z1.2203
G1 X14.9802 Y-8.7840 Z1.2118
G1 X14.9880 Y-8.7915 Z1.2029
G1 X14.9957 Y-8.7989 Z1.1934
G1 X15.0035 Y-8.8063 Z1.1833
G1 X15.0113 Y-8.8138 Z1.1725
G1 X15.0191 Y-8.8212 Z1.1610
G1 X15.0269 Y-8.8287 Z1.1488
G1 X15.0347 Y-8.8361 Z1.1356
G1 X15.0425 Y-8.8436 Z1.1214
G1 X15.0503 Y-8.8510 Z1.1058
G1 X15.0581 Y-8.8585 Z1.0886
G1 X15.0620 Y-8.8622 Z1.0793
G1 X15.0659 Y-8.8659 Z1.0694
G1 X15.0698 Y-8.8696 Z1.0588
G1 X15.0737 Y-8.8733 Z1.0473
G1 X15.0776 Y-8.8771 Z1.0349
G1 X15.0815 Y-8.8808 Z1.0212
G1 X15.0854 Y-8.8845 Z1.0057
G1 X15.0873 Y-8.8864 Z0.9971
G1 X15.0893 Y-8.8882 Z0.9877
G1 X15.0912 Y-8.8901 Z0.9772
G1 X15.0932 Y-8.8920 Z0.9653
G1 X15.0951 Y-8.8938 Z0.9510
G1 X15.0966 Y-8.8952 Z0.9375
G1 X15.0971 Y-8.8957 Z0.9321
G1 X15.0971 Y-8.8957 Z1.9200 F159.
G0 Z1.9200
G0 X13.7823 Y-7.7006 
G1 X13.7823 Y-7.7006 Z1.8950 F75.
G1 X13.7878 Y-7.7058 Z1.8567 F25.
G1 X13.8036 Y-7.7207 Z1.8243
G1 X13.8272 Y-7.7430 Z1.8026
G1 X13.8550 Y-7.7692 Z1.7950
G1 X14.1321 Y-8.0305 Z1.7950 F150.
G1 X14.1449 Y-8.0426 Z1.7944
G1 X14.1619 Y-8.0587 Z1.7923
G1 X14.1790 Y-8.0748 Z1.7888
G1 X14.1960 Y-8.0908 Z1.7837
G1 X14.2131 Y-8.1069 Z1.7771
G1 X14.2301 Y-8.1230 Z1.7687
G1 X14.2472 Y-8.1391 Z1.7586
G1 X14.2557 Y-8.1471 Z1.7528
G1 X14.2642 Y-8.1552 Z1.7465
G1 X14.2728 Y-8.1632 Z1.7397
G1 X14.2813 Y-8.1712 Z1.7322
G1 X14.2898 Y-8.1793 Z1.7242
G1 X14.2984 Y-8.1873 Z1.7154
G1 X14.3069 Y-8.1954 Z1.7060
G1 X14.3154 Y-8.2034 Z1.6957
G1 X14.3239 Y-8.2114 Z1.6845
G1 X14.3335 Y-8.2205 Z1.6707
G1 X14.5371 Y-8.4124 Z1.5227
G1 X14.6905 Y-8.5572 Z1.4120
G1 X14.7758 Y-8.6376 Z1.3512
G1 X14.9122 Y-8.7662 Z1.2542
G1 X14.9292 Y-8.7823 Z1.2410
G1 X14.9463 Y-8.7984 Z1.2259
G1 X14.9550 Y-8.8066 Z1.2175
G1 X14.9637 Y-8.8148 Z1.2085
G1 X14.9724 Y-8.8231 Z1.1989
G1 X14.9811 Y-8.8313 Z1.1887
G1 X14.9899 Y-8.8395 Z1.1779
G1 X14.9986 Y-8.8477 Z1.1662
G1 X15.0073 Y-8.8559 Z1.1536
G1 X15.0160 Y-8.8642 Z1.1399
G1 X15.0247 Y-8.8724 Z1.1251
G1 X15.0335 Y-8.8806 Z1.1089
G1 X15.0422 Y-8.8888 Z1.0910
G1 X15.0465 Y-8.8929 Z1.0812
G1 X15.0509 Y-8.8971 Z1.0708
G1 X15.0553 Y-8.9012 Z1.0597
G1 X15.0596 Y-8.9053 Z1.0477
G1 X15.0640 Y-8.9094 Z1.0346
G1 X15.0683 Y-8.9135 Z1.0201
G1 X15.0727 Y-8.9176 Z1.0037
G1 X15.0749 Y-8.9197 Z0.9946
G1 X15.0770 Y-8.9217 Z0.9846
G1 X15.0792 Y-8.9238 Z0.9735
G1 X15.0814 Y-8.9258 Z0.9608
G1 X15.0836 Y-8.9279 Z0.9455
G1 X15.0852 Y-8.9294 Z0.9310
G1 X15.0858 Y-8.9299 Z0.9251
G1 X15.0858 Y-8.9299 Z1.9200 F159.
G0 Z1.9200
G0 X13.7501 Y-7.7307 
G1 X13.7501 Y-7.7307 Z1.8950 F75.
G1 X13.7557 Y-7.7359 Z1.8567 F25.
G1 X13.7716 Y-7.7506 Z1.8243
G1 X13.7953 Y-7.7728 Z1.8026
G1 X13.8233 Y-7.7988 Z1.7950
G1 X14.1020 Y-8.0584 Z1.7950 F150.
G1 X14.1149 Y-8.0704 Z1.7943
G1 X14.1321 Y-8.0863 Z1.7922
G1 X14.1492 Y-8.1023 Z1.7886
G1 X14.1664 Y-8.1183 Z1.7834
G1 X14.1835 Y-8.1343 Z1.7767
G1 X14.2007 Y-8.1502 Z1.7682
G1 X14.2178 Y-8.1662 Z1.7579
G1 X14.2264 Y-8.1742 Z1.7521
G1 X14.2350 Y-8.1822 Z1.7457
G1 X14.2435 Y-8.1902 Z1.7387
G1 X14.2521 Y-8.1981 Z1.7312
G1 X14.2607 Y-8.2061 Z1.7230
G1 X14.2693 Y-8.2141 Z1.7142
G1 X14.2778 Y-8.2221 Z1.7046
G1 X14.2864 Y-8.2301 Z1.6941
G1 X14.2950 Y-8.2381 Z1.6827
G1 X14.3025 Y-8.2451 Z1.6721
G1 X14.4579 Y-8.3898 Z1.5597
G1 X14.5952 Y-8.5176 Z1.4614
G1 X14.6809 Y-8.5975 Z1.4004
G1 X14.9039 Y-8.8051 Z1.2429
G1 X14.9210 Y-8.8211 Z1.2295
G1 X14.9306 Y-8.8300 Z1.2213
G1 X14.9402 Y-8.8389 Z1.2124
G1 X14.9498 Y-8.8479 Z1.2028
G1 X14.9594 Y-8.8568 Z1.1926
G1 X14.9690 Y-8.8657 Z1.1815
G1 X14.9786 Y-8.8747 Z1.1696
G1 X14.9882 Y-8.8836 Z1.1568
G1 X14.9978 Y-8.8925 Z1.1428
G1 X15.0074 Y-8.9015 Z1.1275
G1 X15.0170 Y-8.9104 Z1.1108
G1 X15.0218 Y-8.9149 Z1.1017
G1 X15.0266 Y-8.9193 Z1.0922
G1 X15.0314 Y-8.9238 Z1.0820
G1 X15.0362 Y-8.9283 Z1.0712
G1 X15.0410 Y-8.9327 Z1.0596
G1 X15.0458 Y-8.9372 Z1.0471
G1 X15.0505 Y-8.9417 Z1.0334
G1 X15.0553 Y-8.9461 Z1.0183
G1 X15.0577 Y-8.9484 Z1.0100
G1 X15.0601 Y-8.9506 Z1.0012
G1 X15.0625 Y-8.9528 Z0.9916
G1 X15.0649 Y-8.9551 Z0.9811
G1 X15.0673 Y-8.9573 Z0.9695
G1 X15.0697 Y-8.9595 Z0.9561
G1 X15.0721 Y-8.9618 Z0.9400
G1 X15.0739 Y-8.9634 Z0.9245
G1 X15.0745 Y-8.9640 Z0.9182
G1 X15.0745 Y-8.9640 Z1.9200 F159.
G0 Z1.9200
G0 X13.7180 Y-7.7608 
G1 X13.7180 Y-7.7608 Z1.8950 F75.
G1 X13.7236 Y-7.7659 Z1.8567 F25.
G1 X13.7395 Y-7.7806 Z1.8243
G1 X13.7634 Y-7.8026 Z1.8026
G1 X13.7916 Y-7.8285 Z1.7950
G1 X14.0676 Y-8.0823 Z1.7950 F150.
G1 X14.0849 Y-8.0982 Z1.7943
G1 X14.1021 Y-8.1140 Z1.7921
G1 X14.1194 Y-8.1299 Z1.7885
G1 X14.1366 Y-8.1457 Z1.7833
G1 X14.1539 Y-8.1616 Z1.7765
G1 X14.1711 Y-8.1775 Z1.7680
G1 X14.1884 Y-8.1933 Z1.7577
G1 X14.1970 Y-8.2013 Z1.7518
G1 X14.2056 Y-8.2092 Z1.7454
G1 X14.2143 Y-8.2171 Z1.7385
G1 X14.2229 Y-8.2251 Z1.7309
G1 X14.2315 Y-8.2330 Z1.7227
G1 X14.2401 Y-8.2409 Z1.7138
G1 X14.2488 Y-8.2489 Z1.7042
G1 X14.2574 Y-8.2568 Z1.6937
G1 X14.2660 Y-8.2647 Z1.6823
G1 X14.2730 Y-8.2712 Z1.6722
G1 X14.3782 Y-8.3678 Z1.5967
G1 X14.4989 Y-8.4789 Z1.5107
G1 X14.6197 Y-8.5899 Z1.4254
G1 X14.8397 Y-8.7922 Z1.2712
G1 X14.8871 Y-8.8358 Z1.2385
G1 X14.8958 Y-8.8437 Z1.2322
G1 X14.9062 Y-8.8534 Z1.2241
G1 X14.9167 Y-8.8630 Z1.2154
G1 X14.9272 Y-8.8726 Z1.2059
G1 X14.9377 Y-8.8823 Z1.1956
G1 X14.9481 Y-8.8919 Z1.1845
G1 X14.9586 Y-8.9015 Z1.1724
G1 X14.9691 Y-8.9112 Z1.1593
G1 X14.9796 Y-8.9208 Z1.1450
G1 X14.9900 Y-8.9304 Z1.1294
G1 X15.0005 Y-8.9401 Z1.1122
G1 X15.0057 Y-8.9449 Z1.1029
G1 X15.0110 Y-8.9497 Z1.0930
G1 X15.0162 Y-8.9545 Z1.0825
G1 X15.0215 Y-8.9593 Z1.0713
G1 X15.0267 Y-8.9641 Z1.0593
G1 X15.0319 Y-8.9690 Z1.0463
G1 X15.0372 Y-8.9738 Z1.0321
G1 X15.0424 Y-8.9786 Z1.0163
G1 X15.0450 Y-8.9810 Z1.0077
G1 X15.0476 Y-8.9834 Z0.9985
G1 X15.0503 Y-8.9858 Z0.9884
G1 X15.0529 Y-8.9882 Z0.9774
G1 X15.0555 Y-8.9906 Z0.9651
G1 X15.0581 Y-8.9930 Z0.9509
G1 X15.0594 Y-8.9942 Z0.9428
G1 X15.0607 Y-8.9955 Z0.9336
G1 X15.0627 Y-8.9973 Z0.9166
G1 X15.0634 Y-8.9979 Z0.9093
G1 X15.0634 Y-8.9979 Z1.9200 F159.
G0 Z1.9200
G0 X13.6858 Y-7.7909 
G1 X13.6858 Y-7.7909 Z1.8950 F75.
G1 X13.6914 Y-7.7960 Z1.8567 F25.
G1 X13.7074 Y-7.8106 Z1.8243
G1 X13.7315 Y-7.8324 Z1.8026
G1 X13.7598 Y-7.8581 Z1.7950
G1 X14.0374 Y-8.1102 Z1.7950 F150.
G1 X14.0548 Y-8.1260 Z1.7943
G1 X14.0721 Y-8.1417 Z1.7921
G1 X14.0895 Y-8.1575 Z1.7884
G1 X14.1069 Y-8.1732 Z1.7831
G1 X14.1242 Y-8.1890 Z1.7763
G1 X14.1416 Y-8.2047 Z1.7678
G1 X14.1589 Y-8.2205 Z1.7575
G1 X14.1676 Y-8.2284 Z1.7516
G1 X14.1763 Y-8.2362 Z1.7452
G1 X14.1849 Y-8.2441 Z1.7382
G1 X14.1936 Y-8.2520 Z1.7306
G1 X14.2023 Y-8.2599 Z1.7224
G1 X14.2110 Y-8.2677 Z1.7135
G1 X14.2196 Y-8.2756 Z1.7038
G1 X14.2283 Y-8.2835 Z1.6933
G1 X14.2370 Y-8.2914 Z1.6819
G1 X14.2435 Y-8.2973 Z1.6726
G1 X14.2441 Y-8.2978 Z1.6720
G1 X14.3151 Y-8.3623 Z1.6214
G1 X14.3845 Y-8.4253 Z1.5723
G1 X14.5580 Y-8.5828 Z1.4505
G1 X14.7489 Y-8.7561 Z1.3174
G1 X14.8761 Y-8.8716 Z1.2301
G1 X14.8817 Y-8.8767 Z1.2260
G1 X14.8931 Y-8.8870 Z1.2174
G1 X14.9045 Y-8.8974 Z1.2080
G1 X14.9158 Y-8.9077 Z1.1978
G1 X14.9272 Y-8.9180 Z1.1866
G1 X14.9386 Y-8.9283 Z1.1745
G1 X14.9499 Y-8.9386 Z1.1613
G1 X14.9613 Y-8.9490 Z1.1468
G1 X14.9727 Y-8.9593 Z1.1308
G1 X14.9840 Y-8.9696 Z1.1132
G1 X14.9897 Y-8.9748 Z1.1036
G1 X14.9954 Y-8.9799 Z1.0934
G1 X15.0011 Y-8.9851 Z1.0827
G1 X15.0068 Y-8.9902 Z1.0712
G1 X15.0125 Y-8.9954 Z1.0588
G1 X15.0181 Y-9.0006 Z1.0454
G1 X15.0238 Y-9.0057 Z1.0307
G1 X15.0295 Y-9.0109 Z1.0143
G1 X15.0324 Y-9.0135 Z1.0053
G1 X15.0352 Y-9.0160 Z0.9956
G1 X15.0380 Y-9.0186 Z0.9851
G1 X15.0409 Y-9.0212 Z0.9735
G1 X15.0437 Y-9.0238 Z0.9605
G1 X15.0466 Y-9.0264 Z0.9455
G1 X15.0480 Y-9.0277 Z0.9368
G1 X15.0501 Y-9.0296 Z0.9214
G1 X15.0515 Y-9.0309 Z0.9084
G1 X15.0523 Y-9.0315 Z0.9002
G1 X15.0523 Y-9.0315 Z1.9200 F159.
G0 Z1.9200
G0 X13.6535 Y-7.8211 
G1 X13.6535 Y-7.8211 Z1.8950 F75.
G1 X13.6592 Y-7.8262 Z1.8567 F25.
G1 X13.6753 Y-7.8406 Z1.8243
G1 X13.6995 Y-7.8623 Z1.8026
G1 X13.7280 Y-7.8878 Z1.7950
G1 X14.0072 Y-8.1381 Z1.7950 F150.
G1 X14.0247 Y-8.1538 Z1.7942
G1 X14.0421 Y-8.1694 Z1.7920
G1 X14.0596 Y-8.1851 Z1.7883
G1 X14.0770 Y-8.2007 Z1.7830
G1 X14.0945 Y-8.2164 Z1.7762
G1 X14.1119 Y-8.2320 Z1.7676
G1 X14.1294 Y-8.2477 Z1.7573
G1 X14.1381 Y-8.2555 Z1.7514
G1 X14.1468 Y-8.2633 Z1.7449
G1 X14.1556 Y-8.2711 Z1.7379
G1 X14.1643 Y-8.2789 Z1.7303
G1 X14.1730 Y-8.2868 Z1.7221
G1 X14.1817 Y-8.2946 Z1.7132
G1 X14.1905 Y-8.3024 Z1.7035
G1 X14.1992 Y-8.3102 Z1.6929
G1 X14.2079 Y-8.3180 Z1.6815
G1 X14.2145 Y-8.3239 Z1.6722
G1 X14.2865 Y-8.3884 Z1.6216
G1 X14.4784 Y-8.5605 Z1.4876
G1 X14.6530 Y-8.7170 Z1.3667
G1 X14.8695 Y-8.9111 Z1.2186
G1 X14.8817 Y-8.9220 Z1.2094
G1 X14.8940 Y-8.9330 Z1.1993
G1 X14.9063 Y-8.9440 Z1.1882
G1 X14.9185 Y-8.9550 Z1.1760
G1 X14.9308 Y-8.9660 Z1.1627
G1 X14.9431 Y-8.9770 Z1.1480
G1 X14.9553 Y-8.9880 Z1.1319
G1 X14.9676 Y-8.9990 Z1.1140
G1 X14.9737 Y-9.0045 Z1.1043
G1 X14.9799 Y-9.0100 Z1.0939
G1 X14.9860 Y-9.0155 Z1.0829
G1 X14.9921 Y-9.0210 Z1.0710
G1 X14.9983 Y-9.0265 Z1.0583
G1 X15.0044 Y-9.0320 Z1.0444
G1 X15.0105 Y-9.0375 Z1.0291
G1 X15.0136 Y-9.0403 Z1.0208
G1 X15.0167 Y-9.0430 Z1.0121
G1 X15.0197 Y-9.0458 Z1.0027
G1 X15.0228 Y-9.0485 Z0.9926
G1 X15.0259 Y-9.0513 Z0.9817
G1 X15.0289 Y-9.0540 Z0.9696
G1 X15.0320 Y-9.0568 Z0.9560
G1 X15.0351 Y-9.0595 Z0.9401
G1 X15.0366 Y-9.0609 Z0.9309
G1 X15.0389 Y-9.0629 Z0.9144
G1 X15.0404 Y-9.0643 Z0.9002
G1 X15.0412 Y-9.0650 Z0.8910
G1 X15.0412 Y-9.0650 Z1.9200 F159.
G0 Z1.9200
G0 X13.6213 Y-7.8513 
G1 X13.6213 Y-7.8513 Z1.8950 F75.
G1 X13.6270 Y-7.8563 Z1.8567 F25.
G1 X13.6432 Y-7.8707 Z1.8243
G1 X13.6675 Y-7.8922 Z1.8026
G1 X13.6961 Y-7.9176 Z1.7950
G1 X13.9770 Y-8.1661 Z1.7950 F150.
G1 X13.9945 Y-8.1816 Z1.7942
G1 X14.0121 Y-8.1972 Z1.7919
G1 X14.0296 Y-8.2127 Z1.7882
G1 X14.0472 Y-8.2282 Z1.7829
G1 X14.0647 Y-8.2438 Z1.7760
G1 X14.0823 Y-8.2593 Z1.7675
G1 X14.0998 Y-8.2748 Z1.7571
G1 X14.1086 Y-8.2826 Z1.7511
G1 X14.1174 Y-8.2904 Z1.7447
G1 X14.1261 Y-8.2981 Z1.7377
G1 X14.1349 Y-8.3059 Z1.7301
G1 X14.1437 Y-8.3137 Z1.7218
G1 X14.1525 Y-8.3214 Z1.7129
G1 X14.1612 Y-8.3292 Z1.7032
G1 X14.1700 Y-8.3370 Z1.6926
G1 X14.1788 Y-8.3447 Z1.6811
G1 X14.1848 Y-8.3501 Z1.6727
G1 X14.3982 Y-8.5389 Z1.5247
G1 X14.5561 Y-8.6787 Z1.4160
G1 X14.6439 Y-8.7564 Z1.3561
G1 X14.8523 Y-8.9409 Z1.2147
G1 X14.8589 Y-8.9467 Z1.2101
G1 X14.8721 Y-8.9584 Z1.2001
G1 X14.8853 Y-8.9700 Z1.1892
G1 X14.8985 Y-8.9817 Z1.1772
G1 X14.9116 Y-8.9933 Z1.1640
G1 X14.9248 Y-9.0050 Z1.1493
G1 X14.9380 Y-9.0167 Z1.1330
G1 X14.9446 Y-9.0225 Z1.1241
G1 X14.9512 Y-9.0283 Z1.1147
G1 X14.9578 Y-9.0342 Z1.1048
G1 X14.9643 Y-9.0400 Z1.0942
G1 X14.9709 Y-9.0458 Z1.0829
G1 X14.9775 Y-9.0516 Z1.0707
G1 X14.9841 Y-9.0575 Z1.0575
G1 X14.9907 Y-9.0633 Z1.0432
G1 X14.9973 Y-9.0691 Z1.0274
G1 X15.0006 Y-9.0721 Z1.0189
G1 X15.0039 Y-9.0750 Z1.0098
G1 X15.0072 Y-9.0779 Z1.0001
G1 X15.0105 Y-9.0808 Z0.9896
G1 X15.0138 Y-9.0837 Z0.9782
G1 X15.0170 Y-9.0866 Z0.9656
G1 X15.0203 Y-9.0896 Z0.9514
G1 X15.0236 Y-9.0925 Z0.9348
G1 X15.0253 Y-9.0939 Z0.9250
G1 X15.0278 Y-9.0961 Z0.9075
G1 X15.0294 Y-9.0976 Z0.8920
G1 X15.0302 Y-9.0983 Z0.8816
G1 X15.0302 Y-9.0983 Z1.9200 F159.
G0 Z1.9200
G0 X13.5890 Y-7.8815 
G1 X13.5890 Y-7.8815 Z1.8950 F75.
G1 X13.5947 Y-7.8865 Z1.8567 F25.
G1 X13.6110 Y-7.9008 Z1.8243
G1 X13.6354 Y-7.9222 Z1.8026
G1 X13.6643 Y-7.9473 Z1.7950
G1 X13.9466 Y-8.1941 Z1.7950 F150.
G1 X13.9643 Y-8.2095 Z1.7942
G1 X13.9819 Y-8.2249 Z1.7920
G1 X13.9996 Y-8.2404 Z1.7882
G1 X14.0172 Y-8.2558 Z1.7830
G1 X14.0349 Y-8.2712 Z1.7761
G1 X14.0525 Y-8.2866 Z1.7675
G1 X14.0702 Y-8.3020 Z1.7571
G1 X14.0790 Y-8.3098 Z1.7512
G1 X14.0878 Y-8.3175 Z1.7447
G1 X14.0967 Y-8.3252 Z1.7376
G1 X14.1055 Y-8.3329 Z1.7300
G1 X14.1143 Y-8.3406 Z1.7217
G1 X14.1231 Y-8.3483 Z1.7128
G1 X14.1320 Y-8.3560 Z1.7030
G1 X14.1408 Y-8.3637 Z1.6924
G1 X14.1496 Y-8.3714 Z1.6809
G1 X14.1546 Y-8.3758 Z1.6741
G1 X14.3349 Y-8.5334 Z1.5498
G1 X14.4585 Y-8.6413 Z1.4652
G1 X14.5820 Y-8.7493 Z1.3814
G1 X14.8079 Y-8.9467 Z1.2291
G1 X14.8431 Y-8.9775 Z1.2057
G1 X14.8502 Y-8.9836 Z1.2008
G1 X14.8643 Y-8.9959 Z1.1901
G1 X14.8784 Y-9.0082 Z1.1782
G1 X14.8924 Y-9.0206 Z1.1650
G1 X14.9065 Y-9.0329 Z1.1502
G1 X14.9206 Y-9.0452 Z1.1337
G1 X14.9277 Y-9.0514 Z1.1247
G1 X14.9347 Y-9.0575 Z1.1152
G1 X14.9418 Y-9.0637 Z1.1050
G1 X14.9488 Y-9.0698 Z1.0942
G1 X14.9559 Y-9.0760 Z1.0826
G1 X14.9629 Y-9.0821 Z1.0701
G1 X14.9700 Y-9.0883 Z1.0566
G1 X14.9770 Y-9.0945 Z1.0419
G1 X14.9841 Y-9.1006 Z1.0256
G1 X14.9876 Y-9.1037 Z1.0168
G1 X14.9911 Y-9.1068 Z1.0074
G1 X14.9946 Y-9.1099 Z0.9974
G1 X14.9982 Y-9.1129 Z0.9866
G1 X15.0017 Y-9.1160 Z0.9747
G1 X15.0052 Y-9.1191 Z0.9617
G1 X15.0087 Y-9.1222 Z0.9468
G1 X15.0105 Y-9.1237 Z0.9385
G1 X15.0123 Y-9.1253 Z0.9294
G1 X15.0140 Y-9.1268 Z0.9192
G1 X15.0158 Y-9.1283 Z0.9074
G1 X15.0175 Y-9.1299 Z0.8929
G1 X15.0189 Y-9.1310 Z0.8783
G1 X15.0193 Y-9.1314 Z0.8718
G1 X15.0193 Y-9.1314 Z1.9200 F159.
G0 Z1.9200
G0 X13.5566 Y-7.9118 
G1 X13.5566 Y-7.9118 Z1.8950 F75.
G1 X13.5624 Y-7.9168 Z1.8567 F25.
G1 X13.5788 Y-7.9310 Z1.8243
G1 X13.6034 Y-7.9521 Z1.8026
G1 X13.6323 Y-7.9771 Z1.7950
G1 X13.9163 Y-8.2221 Z1.7950 F150.
G1 X13.9340 Y-8.2374 Z1.7943
G1 X13.9518 Y-8.2527 Z1.7921
G1 X13.9695 Y-8.2680 Z1.7884
G1 X13.9873 Y-8.2833 Z1.7832
G1 X14.0050 Y-8.2987 Z1.7764
G1 X14.0228 Y-8.3140 Z1.7679
G1 X14.0405 Y-8.3293 Z1.7576
G1 X14.0494 Y-8.3369 Z1.7517
G1 X14.0582 Y-8.3446 Z1.7453
G1 X14.0671 Y-8.3522 Z1.7383
G1 X14.0760 Y-8.3599 Z1.7307
G1 X14.0849 Y-8.3675 Z1.7225
G1 X14.0937 Y-8.3752 Z1.7136
G1 X14.1026 Y-8.3829 Z1.7040
G1 X14.1115 Y-8.3905 Z1.6935
G1 X14.1204 Y-8.3982 Z1.6820
G1 X14.1259 Y-8.4030 Z1.6743
G1 X14.2534 Y-8.5130 Z1.5869
G1 X14.3599 Y-8.6049 Z1.5145
G1 X14.5196 Y-8.7426 Z1.4068
G1 X14.7148 Y-8.9111 Z1.2759
G1 X14.8357 Y-9.0153 Z1.1959
G1 X14.8432 Y-9.0218 Z1.1905
G1 X14.8582 Y-9.0347 Z1.1787
G1 X14.8732 Y-9.0477 Z1.1655
G1 X14.8883 Y-9.0607 Z1.1507
G1 X14.9033 Y-9.0736 Z1.1341
G1 X14.9108 Y-9.0801 Z1.1250
G1 X14.9183 Y-9.0866 Z1.1153
G1 X14.9258 Y-9.0931 Z1.1050
G1 X14.9333 Y-9.0995 Z1.0940
G1 X14.9408 Y-9.1060 Z1.0821
G1 X14.9483 Y-9.1125 Z1.0694
G1 X14.9559 Y-9.1190 Z1.0556
G1 X14.9634 Y-9.1255 Z1.0404
G1 X14.9709 Y-9.1319 Z1.0237
G1 X14.9746 Y-9.1352 Z1.0147
G1 X14.9784 Y-9.1384 Z1.0050
G1 X14.9821 Y-9.1417 Z0.9946
G1 X14.9859 Y-9.1449 Z0.9835
G1 X14.9897 Y-9.1481 Z0.9712
G1 X14.9934 Y-9.1514 Z0.9576
G1 X14.9972 Y-9.1546 Z0.9422
G1 X14.9990 Y-9.1562 Z0.9335
G1 X15.0009 Y-9.1579 Z0.9238
G1 X15.0037 Y-9.1603 Z0.9069
G1 X15.0056 Y-9.1619 Z0.8928
G1 X15.0070 Y-9.1631 Z0.8792
G1 X15.0082 Y-9.1641 Z0.8629
G1 X15.0084 Y-9.1643 Z0.8582
G1 X15.0084 Y-9.1643 Z1.9200 F159.
G0 Z1.9200
G0 X13.5243 Y-7.9422 
G1 X13.5243 Y-7.9422 Z1.8950 F75.
G1 X13.5300 Y-7.9471 Z1.8567 F25.
G1 X13.5465 Y-7.9611 Z1.8243
G1 X13.5712 Y-7.9822 Z1.8026
G1 X13.6004 Y-8.0070 Z1.7950
G1 X13.8903 Y-8.2539 Z1.7950 F150.
G1 X13.9037 Y-8.2653 Z1.7943
G1 X13.9215 Y-8.2805 Z1.7922
G1 X13.9394 Y-8.2957 Z1.7886
G1 X13.9572 Y-8.3109 Z1.7835
G1 X13.9751 Y-8.3261 Z1.7768
G1 X13.9929 Y-8.3413 Z1.7683
G1 X14.0108 Y-8.3565 Z1.7581
G1 X14.0197 Y-8.3641 Z1.7523
G1 X14.0286 Y-8.3717 Z1.7459
G1 X14.0375 Y-8.3793 Z1.7390
G1 X14.0464 Y-8.3869 Z1.7315
G1 X14.0554 Y-8.3945 Z1.7233
G1 X14.0643 Y-8.4021 Z1.7145
G1 X14.0732 Y-8.4097 Z1.7049
G1 X14.0821 Y-8.4173 Z1.6945
G1 X14.0910 Y-8.4249 Z1.6832
G1 X14.0977 Y-8.4306 Z1.6741
G1 X14.1713 Y-8.4933 Z1.6240
G1 X14.2427 Y-8.5541 Z1.5757
G1 X14.4568 Y-8.7365 Z1.4322
G1 X14.6352 Y-8.8884 Z1.3133
G1 X14.8221 Y-9.0476 Z1.1904
G1 X14.8380 Y-9.0612 Z1.1788
G1 X14.8540 Y-9.0748 Z1.1657
G1 X14.8700 Y-9.0884 Z1.1509
G1 X14.8779 Y-9.0952 Z1.1428
G1 X14.8859 Y-9.1020 Z1.1342
G1 X14.8939 Y-9.1088 Z1.1250
G1 X14.9019 Y-9.1156 Z1.1152
G1 X14.9099 Y-9.1224 Z1.1048
G1 X14.9178 Y-9.1291 Z1.0936
G1 X14.9258 Y-9.1359 Z1.0815
G1 X14.9338 Y-9.1427 Z1.0686
G1 X14.9418 Y-9.1495 Z1.0545
G1 X14.9498 Y-9.1563 Z1.0391
G1 X14.9577 Y-9.1631 Z1.0220
G1 X14.9617 Y-9.1665 Z1.0126
G1 X14.9657 Y-9.1699 Z1.0027
G1 X14.9697 Y-9.1733 Z0.9920
G1 X14.9737 Y-9.1767 Z0.9804
G1 X14.9777 Y-9.1801 Z0.9678
G1 X14.9817 Y-9.1835 Z0.9536
G1 X14.9857 Y-9.1869 Z0.9375
G1 X14.9877 Y-9.1886 Z0.9283
G1 X14.9896 Y-9.1903 Z0.9182
G1 X14.9916 Y-9.1920 Z0.9067
G1 X14.9936 Y-9.1937 Z0.8930
G1 X14.9946 Y-9.1946 Z0.8849
G1 X14.9961 Y-9.1958 Z0.8695
G1 X14.9971 Y-9.1967 Z0.8543
G1 X14.9976 Y-9.1971 Z0.8396
G1 X14.9976 Y-9.1971 Z1.9200 F159.
G0 Z1.9200
G0 X13.4918 Y-7.9725 
G1 X13.4918 Y-7.9725 Z1.8950 F75.
G1 X13.4977 Y-7.9774 Z1.8567 F25.
G1 X13.5142 Y-7.9914 Z1.8243
G1 X13.5391 Y-8.0123 Z1.8026
G1 X13.5684 Y-8.0369 Z1.7950
G1 X13.8599 Y-8.2820 Z1.7950 F150.
G1 X13.8733 Y-8.2933 Z1.7944
G1 X13.8912 Y-8.3084 Z1.7923
G1 X13.9092 Y-8.3235 Z1.7888
G1 X13.9271 Y-8.3386 Z1.7838
G1 X13.9451 Y-8.3537 Z1.7771
G1 X13.9630 Y-8.3687 Z1.7688
G1 X13.9809 Y-8.3838 Z1.7586
G1 X13.9899 Y-8.3914 Z1.7528
G1 X13.9989 Y-8.3989 Z1.7465
G1 X14.0078 Y-8.4064 Z1.7397
G1 X14.0168 Y-8.4140 Z1.7322
G1 X14.0258 Y-8.4215 Z1.7241
G1 X14.0348 Y-8.4291 Z1.7154
G1 X14.0437 Y-8.4366 Z1.7059
G1 X14.0527 Y-8.4442 Z1.6956
G1 X14.0617 Y-8.4517 Z1.6843
G1 X14.0690 Y-8.4578 Z1.6744
G1 X14.0706 Y-8.4592 Z1.6732
G1 X14.1424 Y-8.5196 Z1.6249
G1 X14.3576 Y-8.7006 Z1.4813
G1 X14.5370 Y-8.8514 Z1.3625
G1 X14.6447 Y-8.9419 Z1.2919
G1 X14.8092 Y-9.0803 Z1.1845
G1 X14.8176 Y-9.0874 Z1.1786
G1 X14.8345 Y-9.1016 Z1.1657
G1 X14.8514 Y-9.1158 Z1.1510
G1 X14.8682 Y-9.1300 Z1.1344
G1 X14.8767 Y-9.1370 Z1.1253
G1 X14.8851 Y-9.1441 Z1.1155
G1 X14.8936 Y-9.1512 Z1.1051
G1 X14.9020 Y-9.1583 Z1.0938
G1 X14.9104 Y-9.1654 Z1.0817
G1 X14.9189 Y-9.1725 Z1.0686
G1 X14.9273 Y-9.1796 Z1.0543
G1 X14.9357 Y-9.1867 Z1.0386
G1 X14.9442 Y-9.1938 Z1.0212
G1 X14.9484 Y-9.1973 Z1.0117
G1 X14.9526 Y-9.2009 Z1.0015
G1 X14.9568 Y-9.2044 Z0.9906
G1 X14.9610 Y-9.2080 Z0.9788
G1 X14.9653 Y-9.2115 Z0.9659
G1 X14.9695 Y-9.2151 Z0.9514
G1 X14.9737 Y-9.2186 Z0.9349
G1 X14.9758 Y-9.2204 Z0.9256
G1 X14.9779 Y-9.2222 Z0.9153
G1 X14.9800 Y-9.2239 Z0.9036
G1 X14.9821 Y-9.2257 Z0.8897
G1 X14.9832 Y-9.2266 Z0.8815
G1 X14.9848 Y-9.2279 Z0.8661
G1 X14.9858 Y-9.2288 Z0.8513
G1 X14.9863 Y-9.2293 Z0.8388
G1 X14.9869 Y-9.2297 Z0.8085
G1 X14.9869 Y-9.2297 Z1.9200 F159.
G0 Z1.9200
G0 X13.4600 Y-8.0035 
G1 X13.4600 Y-8.0035 Z1.8950 F75.
G1 X13.4658 Y-8.0083 Z1.8567 F25.
G1 X13.4825 Y-8.0222 Z1.8243
G1 X13.5075 Y-8.0429 Z1.8026
G1 X13.5369 Y-8.0673 Z1.7950
G1 X13.8300 Y-8.3106 Z1.7950 F150.
G1 X13.8435 Y-8.3218 Z1.7944
G1 X13.8615 Y-8.3368 Z1.7924
G1 X13.8796 Y-8.3518 Z1.7889
G1 X13.8976 Y-8.3668 Z1.7838
G1 X13.9156 Y-8.3817 Z1.7772
G1 X13.9337 Y-8.3967 Z1.7689
G1 X13.9517 Y-8.4117 Z1.7588
G1 X13.9607 Y-8.4192 Z1.7530
G1 X13.9697 Y-8.4266 Z1.7467
G1 X13.9787 Y-8.4341 Z1.7399
G1 X13.9878 Y-8.4416 Z1.7324
G1 X13.9968 Y-8.4491 Z1.7244
G1 X14.0058 Y-8.4566 Z1.7156
G1 X14.0148 Y-8.4641 Z1.7062
G1 X14.0238 Y-8.4715 Z1.6959
G1 X14.0328 Y-8.4790 Z1.6847
G1 X14.0402 Y-8.4851 Z1.6748
G1 X14.2943 Y-8.6961 Z1.5063
G1 X14.4386 Y-8.8159 Z1.4113
G1 X14.5468 Y-8.9057 Z1.3406
G1 X14.7975 Y-9.1138 Z1.1778
G1 X14.8153 Y-9.1286 Z1.1654
G1 X14.8330 Y-9.1433 Z1.1510
G1 X14.8419 Y-9.1507 Z1.1431
G1 X14.8508 Y-9.1580 Z1.1345
G1 X14.8597 Y-9.1654 Z1.1254
G1 X14.8685 Y-9.1728 Z1.1156
G1 X14.8774 Y-9.1801 Z1.1051
G1 X14.8863 Y-9.1875 Z1.0938
G1 X14.8951 Y-9.1949 Z1.0816
G1 X14.9040 Y-9.2022 Z1.0683
G1 X14.9129 Y-9.2096 Z1.0539
G1 X14.9218 Y-9.2170 Z1.0379
G1 X14.9306 Y-9.2243 Z1.0203
G1 X14.9351 Y-9.2280 Z1.0106
G1 X14.9395 Y-9.2317 Z1.0003
G1 X14.9439 Y-9.2354 Z0.9892
G1 X14.9484 Y-9.2391 Z0.9772
G1 X14.9528 Y-9.2427 Z0.9641
G1 X14.9573 Y-9.2464 Z0.9494
G1 X14.9595 Y-9.2483 Z0.9414
G1 X14.9617 Y-9.2501 Z0.9327
G1 X14.9639 Y-9.2520 Z0.9232
G1 X14.9661 Y-9.2538 Z0.9128
G1 X14.9683 Y-9.2556 Z0.9010
G1 X14.9706 Y-9.2575 Z0.8870
G1 X14.9717 Y-9.2584 Z0.8788
G1 X14.9733 Y-9.2598 Z0.8638
G1 X14.9744 Y-9.2607 Z0.8498
G1 X14.9750 Y-9.2612 Z0.8396
G1 X14.9756 Y-9.2616 Z0.8035
G1 X14.9761 Y-9.2621 Z0.8034
G1 X15.0079 Y-9.2884 Z0.8079 F159.
G1 X15.0355 Y-9.3114 Z0.8287
G1 X15.0542 Y-9.3269 Z0.8623
G1 X15.0608 Y-9.3324 Z0.9029
G0 Z1.9200
G0 X15.0608 Y-9.3324 
G0 Z1.9200
G0 X13.4299 Y-8.0360 
G1 X13.4299 Y-8.0360 Z1.8950 F75.
G1 X13.4358 Y-8.0408 Z1.8567 F25.
G1 X13.4526 Y-8.0545 Z1.8243
G1 X13.4777 Y-8.0751 Z1.8026
G1 X13.5073 Y-8.0993 Z1.7950
G1 X13.8018 Y-8.3407 Z1.7950 F150.
G1 X13.8154 Y-8.3519 Z1.7943
G1 X13.8336 Y-8.3667 Z1.7922
G1 X13.8517 Y-8.3816 Z1.7886
G1 X13.8698 Y-8.3965 Z1.7835
G1 X13.8879 Y-8.4113 Z1.7767
G1 X13.9061 Y-8.4262 Z1.7683
G1 X13.9242 Y-8.4410 Z1.7580
G1 X13.9333 Y-8.4484 Z1.7522
G1 X13.9423 Y-8.4559 Z1.7458
G1 X13.9514 Y-8.4633 Z1.7388
G1 X13.9605 Y-8.4707 Z1.7313
G1 X13.9695 Y-8.4782 Z1.7231
G1 X13.9786 Y-8.4856 Z1.7143
G1 X13.9877 Y-8.4930 Z1.7046
G1 X13.9967 Y-8.5004 Z1.6942
G1 X14.0058 Y-8.5079 Z1.6828
G1 X14.0109 Y-8.5121 Z1.6760
G1 X14.2142 Y-8.6787 Z1.5420
G1 X14.3411 Y-8.7827 Z1.4589
G1 X14.4862 Y-8.9016 Z1.3648
G1 X14.7224 Y-9.0952 Z1.2123
G1 X14.7853 Y-9.1467 Z1.1723
G1 X14.7943 Y-9.1541 Z1.1662
G1 X14.8125 Y-9.1690 Z1.1526
G1 X14.8215 Y-9.1764 Z1.1451
G1 X14.8306 Y-9.1838 Z1.1370
G1 X14.8397 Y-9.1913 Z1.1283
G1 X14.8487 Y-9.1987 Z1.1190
G1 X14.8578 Y-9.2061 Z1.1090
G1 X14.8668 Y-9.2135 Z1.0983
G1 X14.8759 Y-9.2210 Z1.0867
G1 X14.8850 Y-9.2284 Z1.0741
G1 X14.8940 Y-9.2358 Z1.0605
G1 X14.9031 Y-9.2432 Z1.0455
G1 X14.9122 Y-9.2507 Z1.0291
G1 X14.9167 Y-9.2544 Z1.0201
G1 X14.9212 Y-9.2581 Z1.0107
G1 X14.9258 Y-9.2618 Z1.0006
G1 X14.9303 Y-9.2655 Z0.9898
G1 X14.9348 Y-9.2692 Z0.9781
G1 X14.9394 Y-9.2730 Z0.9654
G1 X14.9439 Y-9.2767 Z0.9513
G1 X14.9484 Y-9.2804 Z0.9354
G1 X14.9507 Y-9.2822 Z0.9265
G1 X14.9530 Y-9.2841 Z0.9169
G1 X14.9552 Y-9.2860 Z0.9062
G1 X14.9575 Y-9.2878 Z0.8940
G1 X14.9600 Y-9.2899 Z0.8777
G1 X14.9617 Y-9.2913 Z0.8639
G1 X14.9629 Y-9.2923 Z0.8503
G1 X14.9638 Y-9.2930 Z0.8371
G1 X14.9642 Y-9.2933 Z0.8257
G1 X14.9646 Y-9.2937 Z0.7984
G1 X14.9646 Y-9.2937 Z1.9200 F159.
G0 Z1.9200
G0 X13.3998 Y-8.0684 
G1 X13.3998 Y-8.0684 Z1.8950 F75.
G1 X13.4058 Y-8.0732 Z1.8567 F25.
G1 X13.4226 Y-8.0869 Z1.8243
G1 X13.4478 Y-8.1073 Z1.8026
G1 X13.4776 Y-8.1313 Z1.7950
G1 X13.7691 Y-8.3672 Z1.7950 F150.
G1 X13.7873 Y-8.3819 Z1.7943
G1 X13.8056 Y-8.3967 Z1.7921
G1 X13.8238 Y-8.4114 Z1.7885
G1 X13.8420 Y-8.4262 Z1.7833
G1 X13.8602 Y-8.4409 Z1.7765
G1 X13.8784 Y-8.4556 Z1.7681
G1 X13.8967 Y-8.4704 Z1.7578
G1 X13.9058 Y-8.4778 Z1.7519
G1 X13.9149 Y-8.4851 Z1.7455
G1 X13.9240 Y-8.4925 Z1.7385
G1 X13.9331 Y-8.4999 Z1.7309
G1 X13.9422 Y-8.5072 Z1.7227
G1 X13.9513 Y-8.5146 Z1.7138
G1 X13.9604 Y-8.5220 Z1.7042
G1 X13.9696 Y-8.5294 Z1.6937
G1 X13.9787 Y-8.5367 Z1.6823
G1 X13.9832 Y-8.5404 Z1.6762
G1 X14.1335 Y-8.6620 Z1.5776
G1 X14.2429 Y-8.7505 Z1.5065
G1 X14.4251 Y-8.8979 Z1.3889
G1 X14.6255 Y-9.0600 Z1.2602
G1 X14.7759 Y-9.1816 Z1.1649
G1 X14.7804 Y-9.1853 Z1.1619
G1 X14.7895 Y-9.1927 Z1.1555
G1 X14.7986 Y-9.2001 Z1.1486
G1 X14.8077 Y-9.2074 Z1.1412
G1 X14.8168 Y-9.2148 Z1.1332
G1 X14.8260 Y-9.2222 Z1.1247
G1 X14.8351 Y-9.2296 Z1.1156
G1 X14.8442 Y-9.2369 Z1.1057
G1 X14.8533 Y-9.2443 Z1.0952
G1 X14.8624 Y-9.2517 Z1.0838
G1 X14.8715 Y-9.2590 Z1.0714
G1 X14.8806 Y-9.2664 Z1.0581
G1 X14.8897 Y-9.2738 Z1.0434
G1 X14.8988 Y-9.2811 Z1.0273
G1 X14.9034 Y-9.2848 Z1.0186
G1 X14.9080 Y-9.2885 Z1.0094
G1 X14.9125 Y-9.2922 Z0.9996
G1 X14.9171 Y-9.2959 Z0.9891
G1 X14.9216 Y-9.2996 Z0.9779
G1 X14.9262 Y-9.3033 Z0.9657
G1 X14.9307 Y-9.3069 Z0.9522
G1 X14.9353 Y-9.3106 Z0.9372
G1 X14.9396 Y-9.3141 Z0.9208
G1 X14.9418 Y-9.3159 Z0.9115
G1 X14.9440 Y-9.3177 Z0.9013
G1 X14.9462 Y-9.3194 Z0.8897
G1 X14.9483 Y-9.3212 Z0.8760
G1 X14.9494 Y-9.3221 Z0.8680
G1 X14.9510 Y-9.3234 Z0.8533
G1 X14.9521 Y-9.3242 Z0.8397
G1 X14.9527 Y-9.3247 Z0.8298
G1 X14.9532 Y-9.3251 Z0.7935
G1 X14.9532 Y-9.3251 Z1.9200 F159.
G0 Z1.9200
G0 X13.3697 Y-8.1010 
G1 X13.3697 Y-8.1010 Z1.8950 F75.
G1 X13.3757 Y-8.1057 Z1.8567 F25.
G1 X13.3926 Y-8.1193 Z1.8243
G1 X13.4180 Y-8.1395 Z1.8026
G1 X13.4479 Y-8.1634 Z1.7950
G1 X13.7409 Y-8.3974 Z1.7950 F150.
G1 X13.7592 Y-8.4120 Z1.7943
G1 X13.7775 Y-8.4266 Z1.7921
G1 X13.7958 Y-8.4413 Z1.7884
G1 X13.8142 Y-8.4559 Z1.7832
G1 X13.8325 Y-8.4705 Z1.7763
G1 X13.8508 Y-8.4851 Z1.7678
G1 X13.8691 Y-8.4998 Z1.7575
G1 X13.8783 Y-8.5071 Z1.7516
G1 X13.8874 Y-8.5144 Z1.7452
G1 X13.8966 Y-8.5217 Z1.7382
G1 X13.9057 Y-8.5290 Z1.7306
G1 X13.9149 Y-8.5363 Z1.7224
G1 X13.9240 Y-8.5436 Z1.7135
G1 X13.9332 Y-8.5510 Z1.7038
G1 X13.9424 Y-8.5583 Z1.6933
G1 X13.9515 Y-8.5656 Z1.6818
G1 X13.9555 Y-8.5688 Z1.6765
G1 X13.9561 Y-8.5692 Z1.6759
G1 X14.0706 Y-8.6606 Z1.6014
G1 X14.1438 Y-8.7191 Z1.5541
G1 X14.3270 Y-8.8654 Z1.4364
G1 X14.5284 Y-9.0263 Z1.3078
G1 X14.7665 Y-9.2164 Z1.1576
G1 X14.7848 Y-9.2310 Z1.1445
G1 X14.7940 Y-9.2384 Z1.1373
G1 X14.8031 Y-9.2457 Z1.1294
G1 X14.8123 Y-9.2530 Z1.1211
G1 X14.8214 Y-9.2603 Z1.1121
G1 X14.8306 Y-9.2676 Z1.1024
G1 X14.8398 Y-9.2749 Z1.0921
G1 X14.8489 Y-9.2822 Z1.0809
G1 X14.8581 Y-9.2895 Z1.0688
G1 X14.8672 Y-9.2969 Z1.0557
G1 X14.8764 Y-9.3042 Z1.0414
G1 X14.8855 Y-9.3115 Z1.0258
G1 X14.8947 Y-9.3188 Z1.0083
G1 X14.8993 Y-9.3224 Z0.9988
G1 X14.9039 Y-9.3261 Z0.9887
G1 X14.9084 Y-9.3298 Z0.9778
G1 X14.9130 Y-9.3334 Z0.9660
G1 X14.9166 Y-9.3363 Z0.9559
G1 X14.9202 Y-9.3392 Z0.9450
G1 X14.9238 Y-9.3421 Z0.9331
G1 X14.9274 Y-9.3449 Z0.9198
G1 X14.9310 Y-9.3478 Z0.9046
G1 X14.9328 Y-9.3493 Z0.8960
G1 X14.9346 Y-9.3507 Z0.8865
G1 X14.9374 Y-9.3529 Z0.8696
G1 X14.9392 Y-9.3543 Z0.8552
G1 X14.9405 Y-9.3554 Z0.8409
G1 X14.9414 Y-9.3561 Z0.8267
G1 X14.9419 Y-9.3565 Z0.8135
G1 X14.9419 Y-9.3565 Z1.9200 F159.
G0 Z1.9200
G0 X13.3396 Y-8.1335 
G1 X13.3396 Y-8.1335 Z1.8950 F75.
G1 X13.3456 Y-8.1383 Z1.8567 F25.
G1 X13.3626 Y-8.1517 Z1.8243
G1 X13.3881 Y-8.1718 Z1.8026
G1 X13.4181 Y-8.1955 Z1.7950
G1 X13.7126 Y-8.4276 Z1.7950 F150.
G1 X13.7310 Y-8.4421 Z1.7942
G1 X13.7494 Y-8.4566 Z1.7920
G1 X13.7678 Y-8.4711 Z1.7883
G1 X13.7863 Y-8.4856 Z1.7830
G1 X13.8047 Y-8.5001 Z1.7762
G1 X13.8231 Y-8.5147 Z1.7676
G1 X13.8415 Y-8.5292 Z1.7572
G1 X13.8507 Y-8.5364 Z1.7513
G1 X13.8599 Y-8.5437 Z1.7449
G1 X13.8691 Y-8.5509 Z1.7379
G1 X13.8783 Y-8.5582 Z1.7303
G1 X13.8875 Y-8.5654 Z1.7220
G1 X13.8967 Y-8.5727 Z1.7131
G1 X13.9059 Y-8.5799 Z1.7034
G1 X13.9151 Y-8.5872 Z1.6928
G1 X13.9243 Y-8.5945 Z1.6813
G1 X13.9283 Y-8.5976 Z1.6760
G1 X14.0071 Y-8.6597 Z1.6252
G1 X14.2648 Y-8.8629 Z1.4606
G1 X14.4305 Y-8.9935 Z1.3554
G1 X14.5225 Y-9.0660 Z1.2974
G1 X14.7526 Y-9.2474 Z1.1533
G1 X14.7618 Y-9.2546 Z1.1471
G1 X14.7802 Y-9.2691 Z1.1333
G1 X14.7894 Y-9.2764 Z1.1257
G1 X14.7986 Y-9.2836 Z1.1175
G1 X14.8078 Y-9.2909 Z1.1088
G1 X14.8170 Y-9.2982 Z1.0994
G1 X14.8262 Y-9.3054 Z1.0892
G1 X14.8354 Y-9.3127 Z1.0783
G1 X14.8446 Y-9.3199 Z1.0665
G1 X14.8538 Y-9.3272 Z1.0537
G1 X14.8630 Y-9.3344 Z1.0397
G1 X14.8722 Y-9.3417 Z1.0244
G1 X14.8814 Y-9.3489 Z1.0073
G1 X14.8860 Y-9.3526 Z0.9980
G1 X14.8906 Y-9.3562 Z0.9882
G1 X14.8956 Y-9.3601 Z0.9767
G1 X14.9006 Y-9.3641 Z0.9642
G1 X14.9056 Y-9.3680 Z0.9504
G1 X14.9106 Y-9.3719 Z0.9351
G1 X14.9131 Y-9.3739 Z0.9266
G1 X14.9156 Y-9.3759 Z0.9175
G1 X14.9181 Y-9.3778 Z0.9076
G1 X14.9206 Y-9.3798 Z0.8966
G1 X14.9231 Y-9.3817 Z0.8840
G1 X14.9256 Y-9.3837 Z0.8692
G1 X14.9268 Y-9.3847 Z0.8604
G1 X14.9287 Y-9.3862 Z0.8441
G1 X14.9299 Y-9.3872 Z0.8284
G1 X14.9305 Y-9.3876 Z0.8157
G1 X14.9305 Y-9.3876 Z1.9200 F159.
G0 Z1.9200
G0 X13.3094 Y-8.1661 
G1 X13.3094 Y-8.1661 Z1.8950 F75.
G1 X13.3154 Y-8.1708 Z1.8567 F25.
G1 X13.3325 Y-8.1841 Z1.8243
G1 X13.3582 Y-8.2041 Z1.8026
G1 X13.3884 Y-8.2276 Z1.7950
G1 X13.6843 Y-8.4578 Z1.7950 F150.
G1 X13.7028 Y-8.4722 Z1.7942
G1 X13.7213 Y-8.4866 Z1.7919
G1 X13.7398 Y-8.5010 Z1.7882
G1 X13.7583 Y-8.5154 Z1.7829
G1 X13.7768 Y-8.5298 Z1.7760
G1 X13.7953 Y-8.5442 Z1.7674
G1 X13.8138 Y-8.5586 Z1.7570
G1 X13.8231 Y-8.5658 Z1.7511
G1 X13.8323 Y-8.5730 Z1.7446
G1 X13.8416 Y-8.5802 Z1.7376
G1 X13.8508 Y-8.5874 Z1.7299
G1 X13.8601 Y-8.5946 Z1.7217
G1 X13.8693 Y-8.6018 Z1.7127
G1 X13.8785 Y-8.6090 Z1.7030
G1 X13.8878 Y-8.6161 Z1.6924
G1 X13.8970 Y-8.6233 Z1.6809
G1 X13.9005 Y-8.6260 Z1.6764
G1 X14.1653 Y-8.8320 Z1.5081
G1 X14.3317 Y-8.9616 Z1.4029
G1 X14.4612 Y-9.0623 Z1.3219
G1 X14.7202 Y-9.2638 Z1.1606
G1 X14.7387 Y-9.2782 Z1.1492
G1 X14.7572 Y-9.2926 Z1.1368
G1 X14.7664 Y-9.2998 Z1.1299
G1 X14.7757 Y-9.3070 Z1.1225
G1 X14.7849 Y-9.3142 Z1.1145
G1 X14.7942 Y-9.3214 Z1.1059
G1 X14.8034 Y-9.3286 Z1.0966
G1 X14.8127 Y-9.3358 Z1.0867
G1 X14.8219 Y-9.3430 Z1.0759
G1 X14.8312 Y-9.3502 Z1.0643
G1 X14.8404 Y-9.3574 Z1.0517
G1 X14.8497 Y-9.3646 Z1.0380
G1 X14.8589 Y-9.3718 Z1.0230
G1 X14.8682 Y-9.3790 Z1.0063
G1 X14.8746 Y-9.3839 Z0.9937
G1 X14.8810 Y-9.3889 Z0.9799
G1 X14.8873 Y-9.3939 Z0.9647
G1 X14.8905 Y-9.3963 Z0.9564
G1 X14.8937 Y-9.3988 Z0.9476
G1 X14.8969 Y-9.4013 Z0.9382
G1 X14.9001 Y-9.4038 Z0.9280
G1 X14.9033 Y-9.4063 Z0.9169
G1 X14.9065 Y-9.4088 Z0.9046
G1 X14.9097 Y-9.4113 Z0.8906
G1 X14.9129 Y-9.4137 Z0.8740
G1 X14.9153 Y-9.4156 Z0.8587
G1 X14.9169 Y-9.4168 Z0.8460
G1 X14.9185 Y-9.4181 Z0.8289
G1 X14.9193 Y-9.4187 Z0.8157
G1 X14.9193 Y-9.4187 Z1.9200 F159.
G0 Z1.9200
G0 X13.2792 Y-8.1988 
G1 X13.2792 Y-8.1988 Z1.8950 F75.
G1 X13.2853 Y-8.2034 Z1.8567 F25.
G1 X13.3025 Y-8.2166 Z1.8243
G1 X13.3282 Y-8.2364 Z1.8026
G1 X13.3586 Y-8.2597 Z1.7950
G1 X13.6560 Y-8.4881 Z1.7950 F150.
G1 X13.6746 Y-8.5024 Z1.7942
G1 X13.6931 Y-8.5166 Z1.7919
G1 X13.7117 Y-8.5309 Z1.7882
G1 X13.7303 Y-8.5452 Z1.7829
G1 X13.7489 Y-8.5595 Z1.7760
G1 X13.7675 Y-8.5737 Z1.7674
G1 X13.7861 Y-8.5880 Z1.7570
G1 X13.7954 Y-8.5952 Z1.7510
G1 X13.8047 Y-8.6023 Z1.7445
G1 X13.8140 Y-8.6094 Z1.7374
G1 X13.8233 Y-8.6166 Z1.7298
G1 X13.8326 Y-8.6237 Z1.7215
G1 X13.8419 Y-8.6308 Z1.7125
G1 X13.8511 Y-8.6380 Z1.7027
G1 X13.8604 Y-8.6451 Z1.6921
G1 X13.8721 Y-8.6540 Z1.6776
G1 X14.1021 Y-8.8307 Z1.5323
G1 X14.2322 Y-8.9306 Z1.4505
G1 X14.3995 Y-9.0591 Z1.3464
G1 X14.6226 Y-9.2304 Z1.2081
G1 X14.7295 Y-9.3125 Z1.1427
G1 X14.7341 Y-9.3161 Z1.1397
G1 X14.7527 Y-9.3303 Z1.1266
G1 X14.7620 Y-9.3375 Z1.1193
G1 X14.7713 Y-9.3446 Z1.1114
G1 X14.7806 Y-9.3517 Z1.1030
G1 X14.7899 Y-9.3589 Z1.0939
G1 X14.7992 Y-9.3660 Z1.0841
G1 X14.8085 Y-9.3732 Z1.0735
G1 X14.8178 Y-9.3803 Z1.0621
G1 X14.8270 Y-9.3874 Z1.0497
G1 X14.8363 Y-9.3946 Z1.0363
G1 X14.8456 Y-9.4017 Z1.0215
G1 X14.8534 Y-9.4077 Z1.0080
G1 X14.8612 Y-9.4137 Z0.9931
G1 X14.8690 Y-9.4197 Z0.9767
G1 X14.8729 Y-9.4227 Z0.9677
G1 X14.8768 Y-9.4257 Z0.9582
G1 X14.8807 Y-9.4287 Z0.9479
G1 X14.8846 Y-9.4317 Z0.9369
G1 X14.8885 Y-9.4347 Z0.9247
G1 X14.8924 Y-9.4376 Z0.9113
G1 X14.8963 Y-9.4406 Z0.8959
G1 X14.8983 Y-9.4421 Z0.8873
G1 X14.9002 Y-9.4436 Z0.8778
G1 X14.9032 Y-9.4459 Z0.8611
G1 X14.9051 Y-9.4474 Z0.8472
G1 X14.9066 Y-9.4485 Z0.8341
G1 X14.9080 Y-9.4496 Z0.8147
G1 X14.9080 Y-9.4496 Z1.9200 F159.
G0 Z1.9200
G0 X13.2490 Y-8.2315 
G1 X13.2490 Y-8.2315 Z1.8950 F75.
G1 X13.2551 Y-8.2361 Z1.8567 F25.
G1 X13.2724 Y-8.2491 Z1.8243
G1 X13.2982 Y-8.2687 Z1.8026
G1 X13.3287 Y-8.2919 Z1.7950
G1 X13.6276 Y-8.5184 Z1.7950 F150.
G1 X13.6462 Y-8.5325 Z1.7943
G1 X13.6649 Y-8.5467 Z1.7921
G1 X13.6836 Y-8.5609 Z1.7884
G1 X13.7023 Y-8.5750 Z1.7832
G1 X13.7210 Y-8.5892 Z1.7763
G1 X13.7396 Y-8.6033 Z1.7678
G1 X13.7583 Y-8.6175 Z1.7574
G1 X13.7677 Y-8.6246 Z1.7515
G1 X13.7770 Y-8.6316 Z1.7451
G1 X13.7863 Y-8.6387 Z1.7381
G1 X13.7957 Y-8.6458 Z1.7305
G1 X13.8050 Y-8.6529 Z1.7222
