( BEGIN FILE FrontRoundover-Adcock-PT125-01-front.ncTNUM: -1 )
( Lefty:False Nunits:1 )
( cline: 9.733 delta:15.5 )
( start_unit: 1 num_units: 1)
( MOP:  FrontRoundover-Adcock-PT125-01-front )
( FILE: G:\Shared drives\AlloyProjectFiles\Customer CAD files\Alloy-Standard-Builds-CAM\s-in\FullAdcock-Specific\FrontRoundover-Adcock-PT125-01-front.nc)
G90
(  BEGIN TOOL LIST )
(  TOOL 11 - Downcut PT750 ROUGH - DESC: 0.7500 DIA, 2 FLUTE,  CARBIDE MAT )
(  ENDOF TOOL LIST )
( FrontRoundover-Adcock-PT125-01-front)
T11
S14000
M3
G0 Z4.0000
G0 X3.0506 Y-20.0531 
G1 X3.0506 Y-20.0531 Z1.6800 F75.
G1 X3.0283 Y-19.9647 Z1.6639 F50.
G1 X3.0011 Y-19.8381 Z1.6411
G1 X2.9780 Y-19.7092 Z1.6180
G1 X2.9590 Y-19.5774 Z1.5945
G1 X2.9432 Y-19.4329 Z1.5689
G1 X2.9322 Y-19.2865 Z1.5430
G1 X2.9259 Y-19.1386 Z1.5169
G1 X2.9240 Y-18.9914 Z1.4909
G1 X2.9249 Y-18.8935 Z1.4737
G1 X2.9313 Y-18.7055 Z1.4405
G1 X2.9345 Y-18.6460 Z1.4300
G17
G2X3.0179Y-17.8937Z1.4300I7.7122J-0.4740 F150.
G2X3.2855Y-16.6704Z1.4300I11.3305J-1.8372
G2X3.5803Y-15.7170Z1.4300I14.8007J-4.0551
G1 X3.7045 Y-15.3687 Z1.4300
G2X4.1826Y-14.1971Z1.4300I19.2931J-7.1898
G1 X4.4097 Y-13.6769 Z1.4300
G3X4.6834Y-13.0047Z1.4300I-14.3414J6.2300
G3X4.7904Y-12.6658Z1.4300I-3.3998J1.2599
G3X4.8548Y-12.0611Z1.4300I-2.0132J0.5200
G1 X4.8516 Y-11.9896 Z1.4300
G1 X4.8468 Y-11.9195 Z1.4300
G1 X4.8311 Y-11.7685 Z1.4300
G3X4.7437Y-11.2956Z1.4300I-4.4813J-0.5831
G3X4.6022Y-10.7676Z1.4300I-8.9904J-2.1273
G1 X4.4806 Y-10.3662 Z1.4300
G2X4.0938Y-9.0725Z1.4300I49.7099J15.5685
G1 X4.0020 Y-8.7392 Z1.4300
G1 X3.9383 Y-8.4981 Z1.4300
G1 X3.9213 Y-8.4187 Z1.4300
G1 X3.9040 Y-8.3065 Z1.4300
G1 X3.8865 Y-8.1488 Z1.4300
G1 X3.8676 Y-7.9237 Z1.4300
G2X3.8313Y-7.1510Z1.4300I13.7953J1.0347
G2X3.8737Y-6.3552Z1.4300I5.6223J0.0996
G2X4.0198Y-5.6023Z1.4300I6.2395J-0.8204
G1 X4.0525 Y-5.4916 Z1.4300
G1 X4.0954 Y-5.3831 Z1.4300
G2X4.7549Y-4.2125Z1.4300I5.1686J-2.1407
G1 X4.8750 Y-4.0571 Z1.4300
G1 X4.9958 Y-3.9138 Z1.4300
G2X5.2481Y-3.6564Z1.4300I2.4812J-2.1792
G2X6.0255Y-3.6189Z1.4300I0.4115J-0.4537
G2X6.2177Y-4.3629Z1.4300I-0.3661J-0.4914
G3X5.9246Y-6.0515Z1.4300I2.8334J-1.3616
G3X6.3467Y-7.3710Z1.4300I3.3437J0.3426
G3X6.6768Y-7.7268Z1.4300I0.9894J0.5868
G3X7.1917Y-7.9127Z1.4300I0.6135J0.8932
G3X7.6166Y-7.8897Z1.4300I0.1554J1.0655
G3X8.1305Y-7.5264Z1.4300I-0.2221J0.8592
G3X8.2023Y-7.3629Z1.4300I-0.4858J0.3111
G1 X8.2169 Y-7.3079 Z1.4300
G1 X8.2296 Y-7.2498 Z1.4300
G1 X8.2589 Y-7.0855 Z1.4300
G1 X8.2764 Y-7.0201 Z1.4300
G1 X8.2899 Y-6.9839 Z1.4300
G1 X8.3204 Y-6.9205 Z1.4300
G1 X8.3391 Y-6.8889 Z1.4300
G2X8.8480Y-6.6050Z1.4300I0.5187J-0.3319
G1 X10.6633 Y-6.6054 Z1.4300
G1 X10.7362 Y-6.6122 Z1.4300
G1 X10.7726 Y-6.6190 Z1.4300
G1 X10.8436 Y-6.6390 Z1.4300
G1 X10.8800 Y-6.6528 Z1.4300
G2X10.9922Y-6.7146Z1.4300I-0.3330J-0.7379
G1 X11.0492 Y-6.7597 Z1.4300
G1 X11.0788 Y-6.7873 Z1.4300
G2X11.1627Y-6.8940Z1.4300I-0.5697J-0.5347
G1 X11.1967 Y-6.9569 Z1.4300
G1 X11.2124 Y-6.9924 Z1.4300
G2X11.2465Y-7.1152Z1.4300I-0.7335J-0.2702
G1 X11.2544 Y-7.1876 Z1.4300
G1 X11.2552 Y-7.2142 Z1.4300
G1 X11.2572 Y-8.9786 Z1.4300
G3X11.3107Y-9.1973Z1.4300I0.4593J-0.0034
G3X11.4218Y-9.3590Z1.4300I0.6656J0.3382
G3X11.6615Y-9.5602Z1.4300I0.8614J0.7826
G3X12.6848Y-9.7754Z1.4300I0.7949J1.2392
G3X13.6016Y-9.3330Z1.4300I-0.2604J1.7106
G3X13.8919Y-8.9436Z1.4300I-0.9795J1.0332
G3X14.0634Y-8.4519Z1.4300I-1.7722J0.8939
G3X14.0781Y-7.3459Z1.4300I-2.8961J0.5918
G3X13.9930Y-6.9814Z1.4300I-3.1464J-0.5428
G2X14.3143Y-6.2948Z1.4300I0.5523J0.1601
G2X15.0386Y-6.5260Z1.4300I0.2310J-0.5265
G2X15.2922Y-7.0596Z1.4300I-3.1269J-1.8128
G2X15.5945Y-8.1801Z1.4300I-5.0496J-1.9637
G2X15.6407Y-8.6648Z1.4300I-4.3982J-0.6638
G2X15.6498Y-9.2962Z1.4300I-17.7410J-0.5698
G2X15.5430Y-10.0602Z1.4300I-3.0175J0.0321
G2X15.3718Y-10.5641Z1.4300I-4.1806J1.1396
G1 X15.3082 Y-10.7151 Z1.4300
G1 X15.2346 Y-10.8780 Z1.4300
G3X14.9226Y-11.5379Z1.4300I31.5947J-15.3443
G3X14.7108Y-12.1402Z1.4300I3.3661J-1.5221
G3X14.6580Y-13.0451Z1.4300I2.4328J-0.5960
G3X14.7810Y-13.6190Z1.4300I3.2463J0.3959
G3X14.9967Y-14.1859Z1.4300I4.4803J1.3800
G1 X15.0716 Y-14.3451 Z1.4300
G1 X15.1563 Y-14.5125 Z1.4300
G1 X15.3748 Y-14.9187 Z1.4300
G1 X15.4463 Y-15.0590 Z1.4300
G1 X15.5263 Y-15.2276 Z1.4300
G2X15.7772Y-15.8487Z1.4300I-7.8073J-3.5153
G2X16.2512Y-17.3507Z1.4300I-19.3454J-6.9309
G2X16.4280Y-18.1454Z1.4300I-8.2468J-2.2519
G2X16.4857Y-18.5841Z1.4300I-5.8393J-0.9906
G2X16.4707Y-19.6083Z1.4300I-4.5554J-0.4456
G2X16.3036Y-20.3218Z1.4300I-3.6689J0.4833
G1 X16.2416 Y-20.4884 Z1.4300
G2X15.9880Y-21.0085Z1.4300I-3.7460J1.5049
G1 X15.8597 Y-21.2223 Z1.4300
G2X15.6024Y-21.5827Z1.4300I-2.6233J1.6006
G1 X15.4962 Y-21.6999 Z1.4300
G1 X15.3800 Y-21.8148 Z1.4300
G1 X15.2543 Y-21.9280 Z1.4300
G1 X15.1185 Y-22.0404 Z1.4300
G2X14.4883Y-22.4679Z1.4300I-3.2528J4.1168
G2X13.9446Y-22.7425Z1.4300I-2.6516J4.5744
G1 X13.7583 Y-22.8186 Z1.4300
G2X13.3637Y-22.9496Z1.4300I-1.6423J4.2861
G1 X13.1634 Y-23.0018 Z1.4300
G1 X12.9584 Y-23.0463 Z1.4300
G1 X12.7480 Y-23.0837 Z1.4300
G1 X12.5311 Y-23.1146 Z1.4300
G1 X12.3067 Y-23.1396 Z1.4300
G2X11.3088Y-23.1921Z1.4300I-1.1831J12.9927
G1 X11.0279 Y-23.1960 Z1.4300
G1 X10.7332 Y-23.1973 Z1.4300
G2X8.3387Y-23.1927Z1.4300I-0.7176J249.1959
G2X7.5310Y-23.1633Z1.4300I0.1517J15.2900
G1 X7.2852 Y-23.1425 Z1.4300
G1 X7.0486 Y-23.1147 Z1.4300
G2X5.5526Y-22.7357Z1.4300I0.9485J6.8849
G2X4.7136Y-22.3163Z1.4300I1.5790J4.2075
G2X3.2730Y-20.6752Z1.4300I2.1353J3.3273
G2X2.9590Y-19.5774Z1.4300I3.3444J1.5506
G2X2.9249Y-18.8935Z1.4300I4.6606J0.5747
G1 X2.9313 Y-18.7055 Z1.4300
G1 X2.9345 Y-18.6460 Z1.4300
G2X2.9820Y-18.1483Z1.4300I6.9363J-0.4104
G3X2.7665Y-17.8707Z1.4300I-0.2482J0.0298
G0 Z4.0000
G0 X2.7665 Y-17.8707 
M5
G53 Z
G0 X2Y0
( END FILE FrontRoundover-Adcock-PT125-01-front.nc )
