( BEGIN FILE FrontRoundover-PT5-02-front.ncTNUM: -1 )
( Lefty:False Nunits:1 )
( cline: 9.733 delta:15.5 )
( start_unit: 1 num_units: 1)
( MOP:  FrontRoundover-PT5-02-front )
( FILE: G:\Shared drives\AlloyProjectFiles\Customer CAD files\Alloy-Standard-Builds-CAM\s-in\FullStandardS-Specific\FrontRoundover-PT5-02-front.nc)
G90
(  BEGIN TOOL LIST )
(  TOOL 14 - Roundover PT500 - DESC: 0.5000 DIA, 2 FLUTE,  CARBIDE MAT )
(  ENDOF TOOL LIST )
( FrontRoundover-PT5-02-front)
( CMT Orange tools  827.627.11 .5 Dia .5 Rad,  Cut Depth .5)
T14
S12000
M3
G0 Z4.0000
G0 X3.3383 Y-20.3805 
G1 X3.3383 Y-20.3805 Z1.7850 F75.
G1 X3.3000 Y-20.2759 Z1.7654 F25.
G1 X3.2628 Y-20.1621 Z1.7442
G1 X3.2292 Y-20.0460 Z1.7229
G1 X3.1994 Y-19.9276 Z1.7014
G1 X3.1733 Y-19.8069 Z1.6796
G1 X3.1512 Y-19.6838 Z1.6576
G1 X3.1329 Y-19.5581 Z1.6352
G1 X3.1177 Y-19.4196 Z1.6106
G1 X3.1071 Y-19.2789 Z1.5857
G1 X3.1009 Y-19.1362 Z1.5605
G1 X3.0990 Y-18.9913 Z1.5350
G17
G2X3.1438Y-18.2635Z1.5350I6.4043J-0.0290 F60.
G2X3.3442Y-17.1485Z1.5350I9.7016J-1.1681
G2X3.6455Y-16.0751Z1.5350I13.6623J-3.2557
G2X4.2012Y-14.5950Z1.5350I16.1547J-5.2216
G1 X4.3081 Y-14.3470 Z1.5350
G3X4.7249Y-13.3789Z1.5350I-40.3866J17.9599
G1 X4.8268 Y-13.1213 Z1.5350
G3X4.9857Y-12.5976Z1.5350I-3.2627J1.2762
G3X5.0301Y-12.2027Z1.5350I-2.1281J0.4389
G1 X5.0296 Y-12.0628 Z1.5350
G3X4.9875Y-11.6310Z1.5350I-3.3215J-0.1058
G3X4.8522Y-11.0171Z1.5350I-5.7633J-0.9491
G3X4.7082Y-10.5320Z1.5350I-11.2314J-3.0688
G1 X4.5996 Y-10.1972 Z1.5350
G2X4.3176Y-9.3277Z1.5350I45.5240J15.2444
G2X4.0982Y-8.4279Z1.5350I6.4112J2.0401
G1 X4.0607 Y-8.1873 Z1.5350
G2X3.9814Y-7.0937Z1.5350I8.3689J1.1569
G2X4.0693Y-6.0912Z1.5350I5.2924J0.0409
G2X4.2588Y-5.4460Z1.5350I3.1866J-0.5855
G1 X4.3201 Y-5.3106 Z1.5350
G2X4.4959Y-4.9882Z1.5350I3.1417J-1.5041
G2X4.7910Y-4.6503Z1.5350I1.2368J-0.7821
G2X5.1322Y-4.4538Z1.5350I0.7386J-0.8880
G1 X5.2094 Y-4.4306 Z1.5350
G1 X5.2912 Y-4.4140 Z1.5350
G1 X5.3755 Y-4.4051 Z1.5350
G1 X5.4616 Y-4.4040 Z1.5350
G1 X5.5486 Y-4.4107 Z1.5350
G1 X5.6360 Y-4.4255 Z1.5350
G1 X5.7217 Y-4.4481 Z1.5350
G1 X5.8080 Y-4.4798 Z1.5350
G1 X5.8907 Y-4.5199 Z1.5350
G1 X5.9703 Y-4.5696 Z1.5350
G1 X6.0461 Y-4.6299 Z1.5350
G2X6.2726Y-4.9889Z1.5350I-0.5163J-0.5766
G1 X6.2963 Y-5.0839 Z1.5350
G1 X6.3128 Y-5.1873 Z1.5350
G1 X6.3226 Y-5.2873 Z1.5350
G1 X6.3323 Y-5.4774 Z1.5350
G3X6.3602Y-5.9680Z1.5350I8.1647J0.2171
G3X6.4467Y-6.4330Z1.5350I2.4939J0.2234
G3X6.8505Y-7.1180Z1.5350I1.5926J0.4775
G3X7.5318Y-7.5099Z1.5350I1.0402J1.0201
G3X7.9135Y-7.5551Z1.5350I0.3685J1.4777
G3X8.1702Y-7.4856Z1.5350I-0.0064J0.5327
G1 X8.1903 Y-7.4719 Z1.5350
G1 X8.2101 Y-7.4568 Z1.5350
G1 X8.2606 Y-7.4122 Z1.5350
G3X8.3646Y-7.2950Z1.5350I-0.7277J0.7508
G3X8.4283Y-7.1298Z1.5350I-0.4524J0.2694
G2X8.8570Y-6.7799Z1.5350I0.4287J-0.0876
G1 X10.6428 Y-6.7799 Z1.5350
G2X11.0802Y-7.2110Z1.5350I0.0000J-0.4375
G1 X11.0822 Y-8.9840 Z1.5350
G3X11.1067Y-9.0443Z1.5350I0.0870J0.0002
G3X11.2115Y-9.1174Z1.5350I0.3673J0.4151
G1 X11.2945 Y-9.1600 Z1.5350
G1 X11.3922 Y-9.2029 Z1.5350
G3X11.6929Y-9.3110Z1.5350I1.5018J3.7034
G3X12.0430Y-9.3511Z1.5350I0.2892J0.9776
G3X12.4728Y-9.2696Z1.5350I-0.0731J1.5610
G3X13.0265Y-8.8560Z1.5350I-0.3728J1.0765
G3X13.2287Y-8.4774Z1.5350I-1.3310J0.9538
G3X13.3001Y-8.2608Z1.5350I-2.2281J0.8552
G1 X13.3403 Y-8.1072 Z1.5350
G1 X13.4098 Y-7.8016 Z1.5350
G2X13.4866Y-7.5118Z1.5350I2.8480J-0.6000
G2X13.6801Y-7.1920Z1.5350I0.8489J-0.2952
G2X14.1825Y-6.9465Z1.5350I0.5797J-0.5496
G2X14.6070Y-7.0112Z1.5350I0.0828J-0.8823
G2X14.8679Y-7.1671Z1.5350I-0.3987J-0.9632
G2X15.0915Y-7.4051Z1.5350I-0.7893J-0.9658
G2X15.2664Y-7.7199Z1.5350I-1.2669J-0.9096
G2X15.3849Y-8.0964Z1.5350I-2.1422J-0.8813
G2X15.4682Y-8.7468Z1.5350I-3.5331J-0.7832
G2X15.2030Y-10.5328Z1.5350I-4.8677J-0.1897
G1 X15.1226 Y-10.7548 Z1.5350
G1 X15.0371 Y-10.9713 Z1.5350
G1 X14.7794 Y-11.5832 Z1.5350
G3X14.5974Y-12.0596Z1.5350I6.7254J-2.8422
G3X14.4841Y-12.5035Z1.5350I2.7680J-0.9427
G3X14.4807Y-13.0992Z1.5350I1.9362J-0.3089
G3X14.6081Y-13.6341Z1.5350I3.0957J0.4542
G1 X14.6387 Y-13.7253 Z1.5350
G1 X14.7084 Y-13.9140 Z1.5350
G3X14.9621Y-14.5003Z1.5350I8.9422J3.5220
G1 X15.2577 Y-15.1276 Z1.5350
G2X15.7406Y-16.2759Z1.5350I-12.2363J-5.8221
G2X16.1064Y-17.5051Z1.5350I-9.9287J-3.6235
G2X16.2414Y-18.2464Z1.5350I-7.9748J-1.8355
G2X16.2879Y-19.3264Z1.5350I-5.6843J-0.7859
G2X16.1625Y-20.1054Z1.5350I-3.7553J0.2051
G2X15.9483Y-20.6865Z1.5350I-3.6984J1.0334
G1 X15.8664 Y-20.8543 Z1.5350
G2X15.6191Y-21.2718Z1.5350I-3.6576J1.8842
G1 X15.5385 Y-21.3837 Z1.5350
G1 X15.4942 Y-21.4394 Z1.5350
G1 X15.4446 Y-21.4976 Z1.5350
G1 X15.3409 Y-21.6085 Z1.5350
G1 X15.2250 Y-21.7200 Z1.5350
G1 X15.0980 Y-21.8313 Z1.5350
G1 X14.9593 Y-21.9428 Z1.5350
G2X14.4896Y-22.2638Z1.5350I-3.0679J3.9852
G2X13.9586Y-22.5448Z1.5350I-2.6944J4.4478
G2X12.9830Y-22.8628Z1.5350I-1.8837J4.1243
G1 X12.7740 Y-22.9021 Z1.5350
G1 X12.5578 Y-22.9347 Z1.5350
G1 X12.3331 Y-22.9611 Z1.5350
G2X11.5949Y-23.0092Z1.5350I-1.0645J10.6537
G2X10.7331Y-23.0223Z1.5350I-0.7905J23.6179
G2X8.3420Y-23.0177Z1.5350I-0.7177J249.6198
G2X7.5457Y-22.9890Z1.5350I0.1495J15.1630
G1 X7.3055 Y-22.9687 Z1.5350
G1 X7.0735 Y-22.9415 Z1.5350
G2X5.6169Y-22.5729Z1.5350I0.9238J6.7129
G2X4.8104Y-22.1705Z1.5350I1.5161J4.0474
G2X3.4328Y-20.6038Z1.5350I2.0387J3.1817
G2X3.1329Y-19.5581Z1.5350I3.1840J1.4790
G2X3.0990Y-18.9913Z1.5350I4.4030J0.5479
G2X3.1214Y-18.4920Z1.5350I5.7057J-0.0062
G3X2.8912Y-18.2237Z1.5350I-0.2493J0.0190 F75.
G0 Z2.0577
G0 X2.8912 Y-18.2237 
G0 Z2.0577
G0 X3.3383 Y-20.3805 
G1 X3.3383 Y-20.3805 Z1.5600 F75.
G1 X3.3000 Y-20.2759 Z1.5404 F25.
G1 X3.2628 Y-20.1621 Z1.5192
G1 X3.2292 Y-20.0460 Z1.4979
G1 X3.1994 Y-19.9276 Z1.4764
G1 X3.1733 Y-19.8069 Z1.4546
G1 X3.1512 Y-19.6838 Z1.4326
G1 X3.1329 Y-19.5581 Z1.4102
G1 X3.1177 Y-19.4196 Z1.3856
G1 X3.1071 Y-19.2789 Z1.3607
G1 X3.1009 Y-19.1362 Z1.3355
G1 X3.0990 Y-18.9913 Z1.3100
G2X3.1438Y-18.2635Z1.3100I6.4043J-0.0290 F60.
G2X3.3442Y-17.1485Z1.3100I9.7016J-1.1681
G2X3.6455Y-16.0751Z1.3100I13.6623J-3.2557
G2X4.2012Y-14.5950Z1.3100I16.1547J-5.2216
G1 X4.3081 Y-14.3470 Z1.3100
G3X4.7249Y-13.3789Z1.3100I-40.3866J17.9599
G1 X4.8268 Y-13.1213 Z1.3100
G3X4.9857Y-12.5976Z1.3100I-3.2627J1.2762
G3X5.0301Y-12.2027Z1.3100I-2.1281J0.4389
G1 X5.0296 Y-12.0628 Z1.3100
G3X4.9875Y-11.6310Z1.3100I-3.3215J-0.1058
G3X4.8522Y-11.0171Z1.3100I-5.7633J-0.9491
G3X4.7082Y-10.5320Z1.3100I-11.2314J-3.0688
G1 X4.5996 Y-10.1972 Z1.3100
G2X4.3176Y-9.3277Z1.3100I45.5240J15.2444
G2X4.0982Y-8.4279Z1.3100I6.4112J2.0401
G1 X4.0607 Y-8.1873 Z1.3100
G2X3.9814Y-7.0937Z1.3100I8.3689J1.1569
G2X4.0693Y-6.0912Z1.3100I5.2924J0.0409
G2X4.2588Y-5.4460Z1.3100I3.1866J-0.5855
G1 X4.3201 Y-5.3106 Z1.3100
G2X4.4959Y-4.9882Z1.3100I3.1417J-1.5041
G2X4.7910Y-4.6503Z1.3100I1.2368J-0.7821
G2X5.1322Y-4.4538Z1.3100I0.7386J-0.8880
G1 X5.2094 Y-4.4306 Z1.3100
G1 X5.2912 Y-4.4140 Z1.3100
G1 X5.3755 Y-4.4051 Z1.3100
G1 X5.4616 Y-4.4040 Z1.3100
G1 X5.5486 Y-4.4107 Z1.3100
G1 X5.6360 Y-4.4255 Z1.3100
G1 X5.7217 Y-4.4481 Z1.3100
G1 X5.8080 Y-4.4798 Z1.3100
G1 X5.8907 Y-4.5199 Z1.3100
G1 X5.9703 Y-4.5696 Z1.3100
G1 X6.0461 Y-4.6299 Z1.3100
G2X6.2726Y-4.9889Z1.3100I-0.5163J-0.5766
G1 X6.2963 Y-5.0839 Z1.3100
G1 X6.3128 Y-5.1873 Z1.3100
G1 X6.3226 Y-5.2873 Z1.3100
G1 X6.3323 Y-5.4774 Z1.3100
G3X6.3602Y-5.9680Z1.3100I8.1647J0.2171
G3X6.4467Y-6.4330Z1.3100I2.4939J0.2234
G3X6.8505Y-7.1180Z1.3100I1.5926J0.4775
G3X7.5318Y-7.5099Z1.3100I1.0402J1.0201
G3X7.9135Y-7.5551Z1.3100I0.3685J1.4777
G3X8.1702Y-7.4856Z1.3100I-0.0064J0.5327
G1 X8.1903 Y-7.4719 Z1.3100
G1 X8.2101 Y-7.4568 Z1.3100
G1 X8.2606 Y-7.4122 Z1.3100
G3X8.3646Y-7.2950Z1.3100I-0.7277J0.7508
G3X8.4283Y-7.1298Z1.3100I-0.4524J0.2694
G2X8.8570Y-6.7799Z1.3100I0.4287J-0.0876
G1 X10.6428 Y-6.7799 Z1.3100
G2X11.0802Y-7.2110Z1.3100I0.0000J-0.4375
G1 X11.0822 Y-8.9840 Z1.3100
G3X11.1067Y-9.0443Z1.3100I0.0870J0.0002
G3X11.2115Y-9.1174Z1.3100I0.3673J0.4151
G1 X11.2945 Y-9.1600 Z1.3100
G1 X11.3922 Y-9.2029 Z1.3100
G3X11.6929Y-9.3110Z1.3100I1.5018J3.7034
G3X12.0430Y-9.3511Z1.3100I0.2892J0.9776
G3X12.4728Y-9.2696Z1.3100I-0.0731J1.5610
G3X13.0265Y-8.8560Z1.3100I-0.3728J1.0765
G3X13.2287Y-8.4774Z1.3100I-1.3310J0.9538
G3X13.3001Y-8.2608Z1.3100I-2.2281J0.8552
G1 X13.3403 Y-8.1072 Z1.3100
G1 X13.4098 Y-7.8016 Z1.3100
G2X13.4866Y-7.5118Z1.3100I2.8480J-0.6000
G2X13.6801Y-7.1920Z1.3100I0.8489J-0.2952
G2X14.1825Y-6.9465Z1.3100I0.5797J-0.5496
G2X14.6070Y-7.0112Z1.3100I0.0828J-0.8823
G2X14.8679Y-7.1671Z1.3100I-0.3987J-0.9632
G2X15.0915Y-7.4051Z1.3100I-0.7893J-0.9658
G2X15.2664Y-7.7199Z1.3100I-1.2669J-0.9096
G2X15.3849Y-8.0964Z1.3100I-2.1422J-0.8813
G2X15.4682Y-8.7468Z1.3100I-3.5331J-0.7832
G2X15.2030Y-10.5328Z1.3100I-4.8677J-0.1897
G1 X15.1226 Y-10.7548 Z1.3100
G1 X15.0371 Y-10.9713 Z1.3100
G1 X14.7794 Y-11.5832 Z1.3100
G3X14.5974Y-12.0596Z1.3100I6.7254J-2.8422
G3X14.4841Y-12.5035Z1.3100I2.7680J-0.9427
G3X14.4807Y-13.0992Z1.3100I1.9362J-0.3089
G3X14.6081Y-13.6341Z1.3100I3.0957J0.4542
G1 X14.6387 Y-13.7253 Z1.3100
G1 X14.7084 Y-13.9140 Z1.3100
G3X14.9621Y-14.5003Z1.3100I8.9422J3.5220
G1 X15.2577 Y-15.1276 Z1.3100
G2X15.7406Y-16.2759Z1.3100I-12.2363J-5.8221
G2X16.1064Y-17.5051Z1.3100I-9.9287J-3.6235
G2X16.2414Y-18.2464Z1.3100I-7.9748J-1.8355
G2X16.2879Y-19.3264Z1.3100I-5.6843J-0.7859
G2X16.1625Y-20.1054Z1.3100I-3.7553J0.2051
G2X15.9483Y-20.6865Z1.3100I-3.6984J1.0334
G1 X15.8664 Y-20.8543 Z1.3100
G2X15.6191Y-21.2718Z1.3100I-3.6576J1.8842
G1 X15.5385 Y-21.3837 Z1.3100
G1 X15.4942 Y-21.4394 Z1.3100
G1 X15.4446 Y-21.4976 Z1.3100
G1 X15.3409 Y-21.6085 Z1.3100
G1 X15.2250 Y-21.7200 Z1.3100
G1 X15.0980 Y-21.8313 Z1.3100
G1 X14.9593 Y-21.9428 Z1.3100
G2X14.4896Y-22.2638Z1.3100I-3.0679J3.9852
G2X13.9586Y-22.5448Z1.3100I-2.6944J4.4478
G2X12.9830Y-22.8628Z1.3100I-1.8837J4.1243
G1 X12.7740 Y-22.9021 Z1.3100
G1 X12.5578 Y-22.9347 Z1.3100
G1 X12.3331 Y-22.9611 Z1.3100
G2X11.5949Y-23.0092Z1.3100I-1.0645J10.6537
G2X10.7331Y-23.0223Z1.3100I-0.7905J23.6179
G2X8.3420Y-23.0177Z1.3100I-0.7177J249.6198
G2X7.5457Y-22.9890Z1.3100I0.1495J15.1630
G1 X7.3055 Y-22.9687 Z1.3100
G1 X7.0735 Y-22.9415 Z1.3100
G2X5.6169Y-22.5729Z1.3100I0.9238J6.7129
G2X4.8104Y-22.1705Z1.3100I1.5161J4.0474
G2X3.4328Y-20.6038Z1.3100I2.0387J3.1817
G2X3.1329Y-19.5581Z1.3100I3.1840J1.4790
G2X3.0990Y-18.9913Z1.3100I4.4030J0.5479
G2X3.1214Y-18.4920Z1.3100I5.7057J-0.0062
G3X2.8912Y-18.2237Z1.3100I-0.2493J0.0190 F75.
G0 Z2.0577
G0 X2.8912 Y-18.2237 
G0 Z2.0577
G0 X3.3383 Y-20.3805 
G1 X3.3383 Y-20.3805 Z1.5100 F75.
G1 X3.3000 Y-20.2759 Z1.4904 F25.
G1 X3.2628 Y-20.1621 Z1.4692
G1 X3.2292 Y-20.0460 Z1.4479
G1 X3.1994 Y-19.9276 Z1.4264
G1 X3.1733 Y-19.8069 Z1.4046
G1 X3.1512 Y-19.6838 Z1.3826
G1 X3.1329 Y-19.5581 Z1.3602
G1 X3.1177 Y-19.4196 Z1.3356
G1 X3.1071 Y-19.2789 Z1.3107
G1 X3.1009 Y-19.1362 Z1.2855
G1 X3.0990 Y-18.9913 Z1.2600
G2X3.1438Y-18.2635Z1.2600I6.4043J-0.0290 F60.
G2X3.3442Y-17.1485Z1.2600I9.7016J-1.1681
G2X3.6455Y-16.0751Z1.2600I13.6623J-3.2557
G2X4.2012Y-14.5950Z1.2600I16.1547J-5.2216
G1 X4.3081 Y-14.3470 Z1.2600
G3X4.7249Y-13.3789Z1.2600I-40.3866J17.9599
G1 X4.8268 Y-13.1213 Z1.2600
G3X4.9857Y-12.5976Z1.2600I-3.2627J1.2762
G3X5.0301Y-12.2027Z1.2600I-2.1281J0.4389
G1 X5.0296 Y-12.0628 Z1.2600
G3X4.9875Y-11.6310Z1.2600I-3.3215J-0.1058
G3X4.8522Y-11.0171Z1.2600I-5.7633J-0.9491
G3X4.7082Y-10.5320Z1.2600I-11.2314J-3.0688
G1 X4.5996 Y-10.1972 Z1.2600
G2X4.3176Y-9.3277Z1.2600I45.5240J15.2444
G2X4.0982Y-8.4279Z1.2600I6.4112J2.0401
G1 X4.0607 Y-8.1873 Z1.2600
G2X3.9814Y-7.0937Z1.2600I8.3689J1.1569
G2X4.0693Y-6.0912Z1.2600I5.2924J0.0409
G2X4.2588Y-5.4460Z1.2600I3.1866J-0.5855
G1 X4.3201 Y-5.3106 Z1.2600
G2X4.4959Y-4.9882Z1.2600I3.1417J-1.5041
G2X4.7910Y-4.6503Z1.2600I1.2368J-0.7821
G2X5.1322Y-4.4538Z1.2600I0.7386J-0.8880
G1 X5.2094 Y-4.4306 Z1.2600
G1 X5.2912 Y-4.4140 Z1.2600
G1 X5.3755 Y-4.4051 Z1.2600
G1 X5.4616 Y-4.4040 Z1.2600
G1 X5.5486 Y-4.4107 Z1.2600
G1 X5.6360 Y-4.4255 Z1.2600
G1 X5.7217 Y-4.4481 Z1.2600
G1 X5.8080 Y-4.4798 Z1.2600
G1 X5.8907 Y-4.5199 Z1.2600
G1 X5.9703 Y-4.5696 Z1.2600
G1 X6.0461 Y-4.6299 Z1.2600
G2X6.2726Y-4.9889Z1.2600I-0.5163J-0.5766
G1 X6.2963 Y-5.0839 Z1.2600
G1 X6.3128 Y-5.1873 Z1.2600
G1 X6.3226 Y-5.2873 Z1.2600
G1 X6.3323 Y-5.4774 Z1.2600
G3X6.3602Y-5.9680Z1.2600I8.1647J0.2171
G3X6.4467Y-6.4330Z1.2600I2.4939J0.2234
G3X6.8505Y-7.1180Z1.2600I1.5926J0.4775
G3X7.5318Y-7.5099Z1.2600I1.0402J1.0201
G3X7.9135Y-7.5551Z1.2600I0.3685J1.4777
G3X8.1702Y-7.4856Z1.2600I-0.0064J0.5327
G1 X8.1903 Y-7.4719 Z1.2600
G1 X8.2101 Y-7.4568 Z1.2600
G1 X8.2606 Y-7.4122 Z1.2600
G3X8.3646Y-7.2950Z1.2600I-0.7277J0.7508
G3X8.4283Y-7.1298Z1.2600I-0.4524J0.2694
G2X8.8570Y-6.7799Z1.2600I0.4287J-0.0876
G1 X10.6428 Y-6.7799 Z1.2600
G2X11.0802Y-7.2110Z1.2600I0.0000J-0.4375
G1 X11.0822 Y-8.9840 Z1.2600
G3X11.1067Y-9.0443Z1.2600I0.0870J0.0002
G3X11.2115Y-9.1174Z1.2600I0.3673J0.4151
G1 X11.2945 Y-9.1600 Z1.2600
G1 X11.3922 Y-9.2029 Z1.2600
G3X11.6929Y-9.3110Z1.2600I1.5018J3.7034
G3X12.0430Y-9.3511Z1.2600I0.2892J0.9776
G3X12.4728Y-9.2696Z1.2600I-0.0731J1.5610
G3X13.0265Y-8.8560Z1.2600I-0.3728J1.0765
G3X13.2287Y-8.4774Z1.2600I-1.3310J0.9538
G3X13.3001Y-8.2608Z1.2600I-2.2281J0.8552
G1 X13.3403 Y-8.1072 Z1.2600
G1 X13.4098 Y-7.8016 Z1.2600
G2X13.4866Y-7.5118Z1.2600I2.8480J-0.6000
G2X13.6801Y-7.1920Z1.2600I0.8489J-0.2952
G2X14.1825Y-6.9465Z1.2600I0.5797J-0.5496
G2X14.6070Y-7.0112Z1.2600I0.0828J-0.8823
G2X14.8679Y-7.1671Z1.2600I-0.3987J-0.9632
G2X15.0915Y-7.4051Z1.2600I-0.7893J-0.9658
G2X15.2664Y-7.7199Z1.2600I-1.2669J-0.9096
G2X15.3849Y-8.0964Z1.2600I-2.1422J-0.8813
G2X15.4682Y-8.7468Z1.2600I-3.5331J-0.7832
G2X15.2030Y-10.5328Z1.2600I-4.8677J-0.1897
G1 X15.1226 Y-10.7548 Z1.2600
G1 X15.0371 Y-10.9713 Z1.2600
G1 X14.7794 Y-11.5832 Z1.2600
G3X14.5974Y-12.0596Z1.2600I6.7254J-2.8422
G3X14.4841Y-12.5035Z1.2600I2.7680J-0.9427
G3X14.4807Y-13.0992Z1.2600I1.9362J-0.3089
G3X14.6081Y-13.6341Z1.2600I3.0957J0.4542
G1 X14.6387 Y-13.7253 Z1.2600
G1 X14.7084 Y-13.9140 Z1.2600
G3X14.9621Y-14.5003Z1.2600I8.9422J3.5220
G1 X15.2577 Y-15.1276 Z1.2600
G2X15.7406Y-16.2759Z1.2600I-12.2363J-5.8221
G2X16.1064Y-17.5051Z1.2600I-9.9287J-3.6235
G2X16.2414Y-18.2464Z1.2600I-7.9748J-1.8355
G2X16.2879Y-19.3264Z1.2600I-5.6843J-0.7859
G2X16.1625Y-20.1054Z1.2600I-3.7553J0.2051
G2X15.9483Y-20.6865Z1.2600I-3.6984J1.0334
G1 X15.8664 Y-20.8543 Z1.2600
G2X15.6191Y-21.2718Z1.2600I-3.6576J1.8842
G1 X15.5385 Y-21.3837 Z1.2600
G1 X15.4942 Y-21.4394 Z1.2600
G1 X15.4446 Y-21.4976 Z1.2600
G1 X15.3409 Y-21.6085 Z1.2600
G1 X15.2250 Y-21.7200 Z1.2600
G1 X15.0980 Y-21.8313 Z1.2600
G1 X14.9593 Y-21.9428 Z1.2600
G2X14.4896Y-22.2638Z1.2600I-3.0679J3.9852
G2X13.9586Y-22.5448Z1.2600I-2.6944J4.4478
G2X12.9830Y-22.8628Z1.2600I-1.8837J4.1243
G1 X12.7740 Y-22.9021 Z1.2600
G1 X12.5578 Y-22.9347 Z1.2600
G1 X12.3331 Y-22.9611 Z1.2600
G2X11.5949Y-23.0092Z1.2600I-1.0645J10.6537
G2X10.7331Y-23.0223Z1.2600I-0.7905J23.6179
G2X8.3420Y-23.0177Z1.2600I-0.7177J249.6198
G2X7.5457Y-22.9890Z1.2600I0.1495J15.1630
G1 X7.3055 Y-22.9687 Z1.2600
G1 X7.0735 Y-22.9415 Z1.2600
G2X5.6169Y-22.5729Z1.2600I0.9238J6.7129
G2X4.8104Y-22.1705Z1.2600I1.5161J4.0474
G2X3.4328Y-20.6038Z1.2600I2.0387J3.1817
G2X3.1329Y-19.5581Z1.2600I3.1840J1.4790
G2X3.0990Y-18.9913Z1.2600I4.4030J0.5479
G2X3.1214Y-18.4920Z1.2600I5.7057J-0.0062
G3X2.8912Y-18.2237Z1.2600I-0.2493J0.0190 F75.
G0 Z4.0000
G0 X2.8912 Y-18.2237 
M5
G53 Z
G0 X2Y0
( END FILE FrontRoundover-PT5-02-front.nc )
