( BEGIN FILE Hum-PUP-Bridge-front-02.ncTNUM: -1 )
( Lefty:False Nunits:1 )
( cline: 9.733 delta:15.5 )
( start_unit: 1 num_units: 1)
( MOP:  Hum-PUP-Bridge-front-02 )
( FILE: G:\Shared drives\AlloyProjectFiles\Customer CAD files\Alloy-Standard-Builds-CAM\s-in\PUPs\Hum-PUP-Bridge-front-02.nc)
G90
(  BEGIN TOOL LIST )
(  TOOL 6 - Downcut PT250 - DESC: 0.2500 DIA, 2 FLUTE,  CARBIDE MAT )
(  ENDOF TOOL LIST )
( Hum-PUP-Bridge-front-02)
( Max Depth 1.75)
T06
S12000
M3
G0 Z4.0000
G0 X9.9834 Y-14.9863 
G1 X9.9834 Y-14.9863 Z1.0100 F75.
G17
G3X9.7334Y-14.7363Z1.0100I-0.2500J0.0000 F25.
G1 X8.4214 Y-14.7363 Z1.0100 F40.
G3X8.4072Y-14.7422Z1.0100I0.0000J-0.0200
G3X8.4014Y-14.7563Z1.0100I0.0142J-0.0141
G1 X8.4014 Y-15.0250 Z1.0100
G2X8.2964Y-15.1300Z1.0100I-0.1050J0.0000
G1 X8.2334 Y-15.1300 Z1.0100
G3X8.1751Y-15.1542Z1.0100I0.0000J-0.0825
G3X8.1509Y-15.2125Z1.0100I0.0583J-0.0583
G1 X8.1509 Y-15.6249 Z1.0100
G3X8.1751Y-15.6833Z1.0100I0.0825J0.0000
G3X8.2334Y-15.7074Z1.0100I0.0583J0.0584
G1 X8.2964 Y-15.7074 Z1.0100
G2X8.4014Y-15.8124Z1.0100I0.0000J-0.1050
G1 X8.4014 Y-16.0811 Z1.0100
G3X8.4214Y-16.1011Z1.0100I0.0200J0.0000
G1 X11.0454 Y-16.1011 Z1.0100
G3X11.0654Y-16.0829Z1.0100I-0.0001J0.0201
G1 X11.0654 Y-15.8124 Z1.0100
G2X11.1704Y-15.7074Z1.0100I0.1050J0.0000
G1 X11.2331 Y-15.7074 Z1.0100
G3X11.3156Y-15.6308Z1.0100I-0.0002J0.0829
G1 X11.3156 Y-15.2125 Z1.0100
G3X11.2914Y-15.1542Z1.0100I-0.0825J0.0000
G3X11.2331Y-15.1300Z1.0100I-0.0583J-0.0583
G1 X11.1704 Y-15.1300 Z1.0100
G2X11.0654Y-15.0250Z1.0100I0.0000J0.1050
G1 X11.0654 Y-14.7563 Z1.0100
G3X11.0471Y-14.7363Z1.0100I-0.0202J-0.0001
G1 X9.7334 Y-14.7363 Z1.0100
G1 X9.2334 Y-14.7363 Z1.0100
G3X8.9834Y-14.9863Z1.0100I0.0000J-0.2500
G0 Z4.0000
G0 X8.9834 Y-14.9863 
M5
G53 Z
G0 X2Y0
( END FILE Hum-PUP-Bridge-front-02.nc )
