( BEGIN FILE Hum-PUP-Neck-front-01.ncTNUM: -1 )
( Lefty:False Nunits:1 )
( cline: 9.733 delta:15.5 )
( start_unit: 1 num_units: 1)
( MOP:  Hum-PUP-Neck-front-01 )
( FILE: G:\Shared drives\AlloyProjectFiles\Customer CAD files\Alloy-Standard-Builds-CAM\s-in\PUPs\Hum-PUP-Neck-front-01.nc)
G90
(  BEGIN TOOL LIST )
(  TOOL 11 - Downcut PT750 ROUGH - DESC: 0.7500 DIA, 2 FLUTE,  CARBIDE MAT )
(  ENDOF TOOL LIST )
( Hum-PUP-Neck-front-01)
T11
S14000
M3
G0 Z4.0000
G0 X10.4145 Y-11.4162 
G1 X10.4145 Y-11.4162 Z1.7600 F75.
G1 X10.5584 Y-11.4162 Z1.7346 F50.
G1 X10.5621 Y-11.4082 Z1.7331
G1 X10.5660 Y-11.4002 Z1.7315
G1 X10.5699 Y-11.3922 Z1.7299
G1 X10.5740 Y-11.3843 Z1.7284
G1 X10.5781 Y-11.3765 Z1.7268
G1 X10.5824 Y-11.3687 Z1.7252
G1 X10.5867 Y-11.3610 Z1.7237
G1 X10.5912 Y-11.3533 Z1.7221
G1 X10.5957 Y-11.3457 Z1.7205
G1 X10.6004 Y-11.3381 Z1.7190
G1 X10.6052 Y-11.3306 Z1.7174
G1 X10.6100 Y-11.3232 Z1.7158
G1 X10.6150 Y-11.3159 Z1.7143
G1 X10.6200 Y-11.3086 Z1.7127
G1 X10.6252 Y-11.3013 Z1.7112
G1 X10.6200 Y-11.2941 Z1.7096
G1 X10.6150 Y-11.2868 Z1.7080
G1 X10.6100 Y-11.2794 Z1.7065
G1 X10.6052 Y-11.2720 Z1.7049
G1 X10.6004 Y-11.2645 Z1.7033
G1 X10.5957 Y-11.2570 Z1.7018
G1 X10.5912 Y-11.2494 Z1.7002
G1 X10.5867 Y-11.2417 Z1.6986
G1 X10.5824 Y-11.2340 Z1.6971
G1 X10.5781 Y-11.2262 Z1.6955
G1 X10.5740 Y-11.2183 Z1.6939
G1 X10.5699 Y-11.2104 Z1.6924
G1 X10.5660 Y-11.2025 Z1.6908
G1 X10.5621 Y-11.1945 Z1.6892
G1 X10.5584 Y-11.1864 Z1.6877
G1 X8.9083 Y-11.1864 Z1.3967
G1 X8.9065 Y-11.1905 Z1.3960
G1 X8.9046 Y-11.1945 Z1.3952
G1 X8.9027 Y-11.1985 Z1.3944
G1 X8.9008 Y-11.2025 Z1.3936
G1 X8.8988 Y-11.2065 Z1.3928
G1 X8.8968 Y-11.2104 Z1.3920
G1 X8.8948 Y-11.2144 Z1.3913
G1 X8.8928 Y-11.2183 Z1.3905
G1 X8.8907 Y-11.2223 Z1.3897
G1 X8.8886 Y-11.2262 Z1.3889
G1 X8.8865 Y-11.2301 Z1.3881
G1 X8.8844 Y-11.2340 Z1.3873
G1 X8.8822 Y-11.2378 Z1.3866
G1 X8.8800 Y-11.2417 Z1.3858
G1 X8.8778 Y-11.2455 Z1.3850
G17
G2X8.8416Y-11.3013Z1.3850I-0.5814J0.3379 F150.
G2X8.9083Y-11.4162Z1.3850I-0.5452J-0.3937
G1 X10.5584 Y-11.4162 Z1.3850
G2X10.6252Y-11.3013Z1.3850I0.6120J-0.2788
G2X10.5584Y-11.1864Z1.3850I0.5452J0.3937
G1 X8.9083 Y-11.1864 Z1.3850
G2X8.8778Y-11.2455Z1.3850I-0.6119J0.2788
G1 X8.6638 Y-11.1212 Z1.3850
G2X8.4709Y-11.2951Z1.3850I-0.3674J0.2136
G1 X8.4709 Y-11.3075 Z1.3850
G2X8.7202Y-11.6637Z1.3850I-0.1745J-0.3875
G1 X10.7465 Y-11.6637 Z1.3850
G2X10.9956Y-11.3077Z1.3850I0.4239J-0.0313
G1 X10.9956 Y-11.2950 Z1.3850
G2X10.7465Y-10.9389Z1.3850I0.1748J0.3874
G1 X8.7202 Y-10.9389 Z1.3850
G2X8.6638Y-11.1212Z1.3850I-0.4238J0.0313
G0 Z1.3850
G0 X8.9191 Y-11.1864 
G1 X8.9083 Y-11.1864 Z1.3831 F50.
G1 X8.9046 Y-11.1945 Z1.3815
G1 X8.9008 Y-11.2025 Z1.3800
G1 X8.8968 Y-11.2104 Z1.3784
G1 X8.8928 Y-11.2183 Z1.3768
G1 X8.8886 Y-11.2262 Z1.3753
G1 X8.8844 Y-11.2340 Z1.3737
G1 X8.8800 Y-11.2417 Z1.3721
G1 X8.8756 Y-11.2494 Z1.3706
G1 X8.8710 Y-11.2570 Z1.3690
G1 X8.8663 Y-11.2645 Z1.3674
G1 X8.8616 Y-11.2720 Z1.3659
G1 X8.8567 Y-11.2794 Z1.3643
G1 X8.8518 Y-11.2868 Z1.3628
G1 X8.8467 Y-11.2941 Z1.3612
G1 X8.8416 Y-11.3013 Z1.3596
G1 X8.8467 Y-11.3086 Z1.3581
G1 X8.8518 Y-11.3159 Z1.3565
G1 X8.8567 Y-11.3232 Z1.3549
G1 X8.8616 Y-11.3306 Z1.3534
G1 X8.8663 Y-11.3381 Z1.3518
G1 X8.8710 Y-11.3457 Z1.3502
G1 X8.8756 Y-11.3533 Z1.3487
G1 X8.8800 Y-11.3610 Z1.3471
G1 X8.8844 Y-11.3687 Z1.3455
G1 X8.8886 Y-11.3765 Z1.3440
G1 X8.8928 Y-11.3843 Z1.3424
G1 X8.8968 Y-11.3922 Z1.3408
G1 X8.9008 Y-11.4002 Z1.3393
G1 X8.9046 Y-11.4082 Z1.3377
G1 X8.9083 Y-11.4162 Z1.3362
G1 X10.5584 Y-11.4162 Z1.0452
G1 X10.5621 Y-11.4082 Z1.0436
G1 X10.5660 Y-11.4002 Z1.0421
G1 X10.5699 Y-11.3922 Z1.0405
G1 X10.5740 Y-11.3843 Z1.0389
G1 X10.5781 Y-11.3765 Z1.0374
G1 X10.5824 Y-11.3687 Z1.0358
G1 X10.5867 Y-11.3610 Z1.0343
G1 X10.5912 Y-11.3533 Z1.0327
G1 X10.5957 Y-11.3457 Z1.0311
G1 X10.6004 Y-11.3381 Z1.0296
G1 X10.6052 Y-11.3306 Z1.0280
G1 X10.6100 Y-11.3232 Z1.0264
G1 X10.6150 Y-11.3159 Z1.0249
G1 X10.6200 Y-11.3086 Z1.0233
G1 X10.6252 Y-11.3013 Z1.0217
G1 X10.6226 Y-11.2977 Z1.0210
G1 X10.6200 Y-11.2941 Z1.0202
G1 X10.6175 Y-11.2905 Z1.0194
G1 X10.6150 Y-11.2868 Z1.0186
G1 X10.6125 Y-11.2831 Z1.0178
G1 X10.6100 Y-11.2794 Z1.0170
G1 X10.6076 Y-11.2757 Z1.0163
G1 X10.6052 Y-11.2720 Z1.0155
G1 X10.6028 Y-11.2683 Z1.0147
G1 X10.6004 Y-11.2645 Z1.0139
G1 X10.5981 Y-11.2608 Z1.0131
G1 X10.5957 Y-11.2570 Z1.0123
G1 X10.5934 Y-11.2532 Z1.0116
G1 X10.5912 Y-11.2494 Z1.0108
G1 X10.5889 Y-11.2455 Z1.0100
G2X10.5584Y-11.1864Z1.0100I0.5815J0.3379 F150.
G1 X8.9083 Y-11.1864 Z1.0100
G2X8.8416Y-11.3013Z1.0100I-0.6119J0.2788
G2X8.9083Y-11.4162Z1.0100I-0.5452J-0.3937
G1 X10.5584 Y-11.4162 Z1.0100
G2X10.6252Y-11.3013Z1.0100I0.6120J-0.2788
G2X10.5889Y-11.2455Z1.0100I0.5452J0.3937
G1 X10.8029 Y-11.1212 Z1.0100
G2X10.7465Y-10.9389Z1.0100I0.3675J0.2136
G1 X8.7202 Y-10.9389 Z1.0100
G2X8.4709Y-11.2951Z1.0100I-0.4238J0.0313
G1 X8.4709 Y-11.3075 Z1.0100
G2X8.7202Y-11.6637Z1.0100I-0.1745J-0.3875
G1 X10.7465 Y-11.6637 Z1.0100
G2X10.9956Y-11.3077Z1.0100I0.4239J-0.0313
G1 X10.9956 Y-11.2950 Z1.0100
G2X10.8029Y-11.1212Z1.0100I0.1748J0.3874
G0 Z4.0000
G0 X10.8029 Y-11.1212 
M5
G53 Z
G0 X2Y0
( END FILE Hum-PUP-Neck-front-01.nc )
