( BEGIN FILE Rear-control-BladeSwitch-front-01.ncTNUM: -1 )
( Lefty:False Nunits:1 )
( cline: 9.733 delta:15.5 )
( start_unit: 1 num_units: 1)
( MOP:  Rear-control-BladeSwitch-front-01 )
( FILE: G:\Shared drives\AlloyProjectFiles\Customer CAD files\Alloy-Standard-Builds-CAM\s-in\Control\Rear-control-BladeSwitch-front-01.nc)
G90
(  BEGIN TOOL LIST )
(  TOOL 7 - Downcut PT125 - DESC: 0.1250 DIA, 2 FLUTE,  CARBIDE MAT )
(  ENDOF TOOL LIST )
( Rear-control-BladeSwitch-front-01)
T07
S11000
M3
G0 Z4.0000
G0 X12.8657 Y-14.3335 
G0 Z1.8500
G81 X12.8657 Y-14.3335 Z1.2500 R1.8500 F60.0
G80
G0 Z2.0000
G0 X13.9645 Y-15.5159 
G0 Z1.8500
G81 X13.9645 Y-15.5159 Z1.2500 R1.8500 F60.0
G80
G0 Z4.0000
G0 X13.9645 Y-15.5159 
M5
G53 Z
G0 X2Y0
( END FILE Rear-control-BladeSwitch-front-01.nc )
