( BEGIN FILE Rear-control-pot2-front.ncTNUM: -1 )
( Lefty:False Nunits:1 )
( cline: 9.733 delta:15.5 )
( start_unit: 1 num_units: 1)
( MOP:  Rear-control-pot2-front )
( FILE: G:\Shared drives\AlloyProjectFiles\Customer CAD files\Alloy-Standard-Builds-CAM\s-in\Control\Rear-control-pot2-front.nc)
G90
(  BEGIN TOOL LIST )
(  TOOL 7 - Downcut PT125 - DESC: 0.1250 DIA, 2 FLUTE,  CARBIDE MAT )
(  ENDOF TOOL LIST )
( Rear-control-pot2-front)
T07
S12000
M3
G0 Z4.0000
G0 X13.3756 Y-16.7574 
G1 X13.3756 Y-16.7574 Z1.8000 F75.
G1 X13.3756 Y-16.7574 Z1.7750 F25.
G1 X13.3771 Y-16.7584 Z1.7744 F75.
G1 X13.3863 Y-16.7636 Z1.7711
G1 X13.3960 Y-16.7679 Z1.7677
G1 X13.4060 Y-16.7715 Z1.7643
G1 X13.4163 Y-16.7742 Z1.7609
G1 X13.4267 Y-16.7759 Z1.7575
G1 X13.4373 Y-16.7768 Z1.7542
G1 X13.4479 Y-16.7768 Z1.7508
G1 X13.4585 Y-16.7759 Z1.7474
G1 X13.4689 Y-16.7742 Z1.7440
G1 X13.4792 Y-16.7715 Z1.7407
G1 X13.4892 Y-16.7679 Z1.7373
G1 X13.4989 Y-16.7636 Z1.7339
G1 X13.5081 Y-16.7584 Z1.7305
G1 X13.5169 Y-16.7525 Z1.7272
G1 X13.5252 Y-16.7458 Z1.7238
G1 X13.5328 Y-16.7385 Z1.7204
G1 X13.5399 Y-16.7305 Z1.7170
G1 X13.5462 Y-16.7220 Z1.7136
G1 X13.5517 Y-16.7129 Z1.7103
G1 X13.5565 Y-16.7034 Z1.7069
G1 X13.5605 Y-16.6936 Z1.7035
G1 X13.5636 Y-16.6835 Z1.7001
G1 X13.5658 Y-16.6731 Z1.6968
G1 X13.5671 Y-16.6626 Z1.6934
G1 X13.5676 Y-16.6520 Z1.6900
G17
G3X13.3176Y-16.6520Z1.6900I-0.1250J0.0000
G3X13.5676Y-16.6520Z1.6900I0.1250J0.0000
G1 X13.4504 Y-16.7766 Z1.6900
G1 X13.4585 Y-16.7759 Z1.6874
G1 X13.4689 Y-16.7742 Z1.6840
G1 X13.4792 Y-16.7715 Z1.6807
G1 X13.4892 Y-16.7679 Z1.6773
G1 X13.4989 Y-16.7636 Z1.6739
G1 X13.5081 Y-16.7584 Z1.6705
G1 X13.5169 Y-16.7525 Z1.6672
G1 X13.5252 Y-16.7458 Z1.6638
G1 X13.5328 Y-16.7385 Z1.6604
G1 X13.5399 Y-16.7305 Z1.6570
G1 X13.5462 Y-16.7220 Z1.6536
G1 X13.5517 Y-16.7129 Z1.6503
G1 X13.5565 Y-16.7034 Z1.6469
G1 X13.5605 Y-16.6936 Z1.6435
G1 X13.5636 Y-16.6835 Z1.6401
G1 X13.5658 Y-16.6731 Z1.6368
G1 X13.5671 Y-16.6626 Z1.6334
G1 X13.5676 Y-16.6520 Z1.6300
G3X13.3176Y-16.6520Z1.6300I-0.1250J0.0000
G3X13.5676Y-16.6520Z1.6300I0.1250J0.0000
G1 X13.4504 Y-16.7766 Z1.6300
G1 X13.4585 Y-16.7759 Z1.6274
G1 X13.4689 Y-16.7742 Z1.6240
G1 X13.4792 Y-16.7715 Z1.6207
G1 X13.4892 Y-16.7679 Z1.6173
G1 X13.4989 Y-16.7636 Z1.6139
G1 X13.5081 Y-16.7584 Z1.6105
G1 X13.5169 Y-16.7525 Z1.6072
G1 X13.5252 Y-16.7458 Z1.6038
G1 X13.5328 Y-16.7385 Z1.6004
G1 X13.5399 Y-16.7305 Z1.5970
G1 X13.5462 Y-16.7220 Z1.5936
G1 X13.5517 Y-16.7129 Z1.5903
G1 X13.5565 Y-16.7034 Z1.5869
G1 X13.5605 Y-16.6936 Z1.5835
G1 X13.5636 Y-16.6835 Z1.5801
G1 X13.5658 Y-16.6731 Z1.5768
G1 X13.5671 Y-16.6626 Z1.5734
G1 X13.5676 Y-16.6520 Z1.5700
G3X13.3176Y-16.6520Z1.5700I-0.1250J0.0000
G3X13.5676Y-16.6520Z1.5700I0.1250J0.0000
G1 X13.4504 Y-16.7766 Z1.5700
G1 X13.4585 Y-16.7759 Z1.5674
G1 X13.4689 Y-16.7742 Z1.5640
G1 X13.4792 Y-16.7715 Z1.5607
G1 X13.4892 Y-16.7679 Z1.5573
G1 X13.4989 Y-16.7636 Z1.5539
G1 X13.5081 Y-16.7584 Z1.5505
G1 X13.5169 Y-16.7525 Z1.5472
G1 X13.5252 Y-16.7458 Z1.5438
G1 X13.5328 Y-16.7385 Z1.5404
G1 X13.5399 Y-16.7305 Z1.5370
G1 X13.5462 Y-16.7220 Z1.5336
G1 X13.5517 Y-16.7129 Z1.5303
G1 X13.5565 Y-16.7034 Z1.5269
G1 X13.5605 Y-16.6936 Z1.5235
G1 X13.5636 Y-16.6835 Z1.5201
G1 X13.5658 Y-16.6731 Z1.5168
G1 X13.5671 Y-16.6626 Z1.5134
G1 X13.5676 Y-16.6520 Z1.5100
G3X13.3176Y-16.6520Z1.5100I-0.1250J0.0000
G3X13.5676Y-16.6520Z1.5100I0.1250J0.0000
G1 X13.4504 Y-16.7766 Z1.5100
G1 X13.4585 Y-16.7759 Z1.5074
G1 X13.4689 Y-16.7742 Z1.5040
G1 X13.4792 Y-16.7715 Z1.5007
G1 X13.4892 Y-16.7679 Z1.4973
G1 X13.4989 Y-16.7636 Z1.4939
G1 X13.5081 Y-16.7584 Z1.4905
G1 X13.5169 Y-16.7525 Z1.4872
G1 X13.5252 Y-16.7458 Z1.4838
G1 X13.5328 Y-16.7385 Z1.4804
G1 X13.5399 Y-16.7305 Z1.4770
G1 X13.5462 Y-16.7220 Z1.4736
G1 X13.5517 Y-16.7129 Z1.4703
G1 X13.5565 Y-16.7034 Z1.4669
G1 X13.5605 Y-16.6936 Z1.4635
G1 X13.5636 Y-16.6835 Z1.4601
G1 X13.5658 Y-16.6731 Z1.4568
G1 X13.5671 Y-16.6626 Z1.4534
G1 X13.5676 Y-16.6520 Z1.4500
G3X13.3176Y-16.6520Z1.4500I-0.1250J0.0000
G3X13.5676Y-16.6520Z1.4500I0.1250J0.0000
G1 X13.4426 Y-16.6520 Z1.4500
G0 Z4.0000
G0 X13.4426 Y-16.6520 
M5
G53 Z
G0 X2Y0
( END FILE Rear-control-pot2-front.nc )
