( BEGIN FILE S-PUP-Bridge-front-01.ncTNUM: -1 )
( Lefty:False Nunits:1 )
( cline: 9.733 delta:15.5 )
( start_unit: 1 num_units: 1)
( MOP:  S-PUP-Bridge-front-01 )
( FILE: G:\Shared drives\AlloyProjectFiles\Customer CAD files\Alloy-Standard-Builds-CAM\s-in\PUPs\S-PUP-Bridge-front-01.nc)
G90
(  BEGIN TOOL LIST )
(  TOOL 4 - Downcut PT500 - DESC: 0.5000 DIA, 2 FLUTE,  CARBIDE MAT )
(  ENDOF TOOL LIST )
( S-PUP-Bridge-front-01)
T04
S12000
M3
G0 Z4.0000
G0 X10.1656 Y-15.6093 
G1 X10.1656 Y-15.6093 Z1.7475 F75.
G1 X8.8424 Y-15.3760 Z1.5106
G1 X9.1666 Y-15.5272 Z1.4475
G1 X9.4908 Y-15.6784 Z1.4475 F100.
G1 X9.8941 Y-15.7494 Z1.4475
G1 X10.6069 Y-15.6870 Z1.4475
G1 X8.8424 Y-15.3760 Z1.4475
G1 X9.1666 Y-15.5272 Z1.4475
G1 X9.0969 Y-15.6767 Z1.4475
G1 X9.4408 Y-15.8371 Z1.4475
G1 X9.8869 Y-15.9157 Z1.4475
G1 X11.0180 Y-15.8167 Z1.4475
G17
G3X11.0277Y-15.5937Z1.4475I-0.0098J0.1122
G1 X8.4788 Y-15.1444 Z1.4475
G3X8.4117Y-15.3573Z1.4475I-0.0196J-0.1109
G1 X9.0969 Y-15.6767 Z1.4475
G0 Z1.6975
G0 X9.0969 Y-15.6767 
G0 Z1.6975
G0 X10.2354 Y-15.6216 
G1 X10.2354 Y-15.6216 Z1.4475 F75.
G1 X8.8424 Y-15.3760 Z1.1981
G1 X9.1666 Y-15.5272 Z1.1350
G1 X9.4908 Y-15.6784 Z1.1350 F100.
G1 X9.8941 Y-15.7494 Z1.1350
G1 X10.6069 Y-15.6870 Z1.1350
G1 X8.8424 Y-15.3760 Z1.1350
G1 X9.1666 Y-15.5272 Z1.1350
G1 X9.0969 Y-15.6767 Z1.1350
G1 X9.4408 Y-15.8371 Z1.1350
G1 X9.8869 Y-15.9157 Z1.1350
G1 X11.0180 Y-15.8167 Z1.1350
G3X11.0277Y-15.5937Z1.1350I-0.0098J0.1122
G1 X8.4788 Y-15.1444 Z1.1350
G3X8.4117Y-15.3573Z1.1350I-0.0196J-0.1109
G1 X9.0969 Y-15.6767 Z1.1350
G0 Z4.0000
G0 X9.0969 Y-15.6767 
M5
G53 Z
G0 X2Y0
( END FILE S-PUP-Bridge-front-01.nc )
