( BEGIN FILE vint-trem-front-02.ncTNUM: -1 )
( Lefty:False Nunits:1 )
( cline: 9.733 delta:15.5 )
( start_unit: 1 num_units: 1)
( MOP:  vint-trem-front-02 )
( FILE: G:\Shared drives\AlloyProjectFiles\Customer CAD files\Alloy-Standard-Builds-CAM\s-in\Bridges\vint-trem-front-02.nc)
G90
(  BEGIN TOOL LIST )
(  TOOL 5 - Downcut PT375 - DESC: 0.3750 DIA, 2 FLUTE,  CARBIDE MAT )
(  ENDOF TOOL LIST )
( vint-trem-front-02)
( Max Depth 1.75)
T05
S12000
M3
G0 Z4.0000
G0 X9.8468 Y-17.6242 
G1 X9.8468 Y-17.6242 Z1.7600 F75.
G1 X11.2024 Y-17.6242 Z1.5210 F25.
G1 X11.2024 Y-17.6864 Z1.5100
G1 X11.2024 Y-17.7487 Z1.5100 F50.
G1 X8.6399 Y-17.7487 Z1.5100
G1 X8.6399 Y-17.6242 Z1.5100
G1 X11.2024 Y-17.6242 Z1.5100
G1 X11.2024 Y-17.6864 Z1.5100
G1 X11.2961 Y-17.6864 Z1.5100
G1 X11.2961 Y-17.5929 Z1.5100
G17
G3X11.2336Y-17.5304Z1.5100I-0.0625J0.0000
G1 X8.6086 Y-17.5304 Z1.5100
G3X8.5461Y-17.5929Z1.5100I0.0000J-0.0625
G1 X8.5461 Y-17.7799 Z1.5100
G3X8.6086Y-17.8424Z1.5100I0.0625J0.0000
G1 X11.2336 Y-17.8424 Z1.5100
G3X11.2961Y-17.7799Z1.5100I0.0000J0.0625
G1 X11.2961 Y-17.6864 Z1.5100
G0 Z4.0000
G0 X11.2961 Y-17.6864 
M5
G53 Z
G0 X2Y0
( END FILE vint-trem-front-02.nc )
