( BEGIN FILE 04-front-prep-01-facing-1pt50-lam-start.ncTNUM: 1 )
( Lefty:False Nunits:3 )
( cline: 9.733 delta:15.5 )
( start_unit: 1 num_units: 3)
( MOP:  04-front-prep-01-facing-1pt50-lam-start )
( FILE: G:\Shared drives\AlloyProjectFiles\Customer CAD files\Alloy-Standard-Builds-CAM\s-in\04-front-prep-01-facing-1pt50-lam-start.nc)
G90
(  BEGIN TOOL LIST )
(  TOOL 1 - Surface 2PT500 - DESC: 2.5000 DIA, 2 FLUTE,  CARBIDE MAT )
(  ENDOF TOOL LIST )
( 04-front-prep-01-facing-1pt50-lam-start)
T01
S12000
M3
G0 Z4.0000
G0 X2.4571 Y-0.5639 
G1 X2.4571 Y-0.5639 Z1.7700 F75.
G1 X1.7731 Y-2.4433 Z1.7700 F50.
G1 X1.1080 Y-4.2707 Z1.7700 F250.
G1 X1.1080 Y-6.0980 Z1.7700
G1 X2.4382 Y-2.4433 Z1.7700
G1 X3.1033 Y-2.4433 Z1.7700
G1 X1.1080 Y-7.9254 Z1.7700
G1 X1.1080 Y-9.7528 Z1.7700
G1 X3.7684 Y-2.4433 Z1.7700
G1 X4.4336 Y-2.4433 Z1.7700
G1 X1.1080 Y-11.5802 Z1.7700
G1 X1.1080 Y-13.4075 Z1.7700
G1 X5.0987 Y-2.4433 Z1.7700
G1 X5.7638 Y-2.4433 Z1.7700
G1 X1.1080 Y-15.2349 Z1.7700
G1 X1.1080 Y-17.0623 Z1.7700
G1 X6.4289 Y-2.4433 Z1.7700
G1 X7.0940 Y-2.4433 Z1.7700
G1 X1.1080 Y-18.8897 Z1.7700
G1 X1.1080 Y-20.7171 Z1.7700
G1 X7.7591 Y-2.4433 Z1.7700
G1 X8.4242 Y-2.4433 Z1.7700
G1 X1.1080 Y-22.5444 Z1.7700
G1 X1.1080 Y-24.3718 Z1.7700
G1 X9.0893 Y-2.4433 Z1.7700
G1 X9.7544 Y-2.4433 Z1.7700
G1 X1.3432 Y-25.5530 Z1.7700
G1 X1.3858 Y-25.5879 Z1.7700
G1 X1.4938 Y-25.6457 Z1.7700
G1 X1.6111 Y-25.6813 Z1.7700
G1 X1.7330 Y-25.6933 Z1.7700
G1 X1.9572 Y-25.6933 Z1.7700
G1 X10.4196 Y-2.4433 Z1.7700
G1 X11.0847 Y-2.4433 Z1.7700
G1 X2.6224 Y-25.6933 Z1.7700
G1 X3.2875 Y-25.6933 Z1.7700
G1 X11.7498 Y-2.4433 Z1.7700
G1 X12.4149 Y-2.4433 Z1.7700
G1 X3.9526 Y-25.6933 Z1.7700
G1 X4.6177 Y-25.6933 Z1.7700
G1 X13.0800 Y-2.4433 Z1.7700
G1 X13.7451 Y-2.4433 Z1.7700
G1 X5.2828 Y-25.6933 Z1.7700
G1 X5.9479 Y-25.6933 Z1.7700
G1 X14.4102 Y-2.4433 Z1.7700
G1 X15.0753 Y-2.4433 Z1.7700
G1 X6.6130 Y-25.6933 Z1.7700
G1 X7.2781 Y-25.6933 Z1.7700
G1 X15.7404 Y-2.4433 Z1.7700
G1 X16.4056 Y-2.4433 Z1.7700
G1 X7.9432 Y-25.6933 Z1.7700
G1 X8.6084 Y-25.6933 Z1.7700
G1 X17.0707 Y-2.4433 Z1.7700
G1 X17.7330 Y-2.4433 Z1.7700
G1 X17.7357 Y-2.4435 Z1.7700
G1 X9.2735 Y-25.6933 Z1.7700
G1 X9.9386 Y-25.6933 Z1.7700
G1 X18.2807 Y-2.7735 Z1.7700
G1 X18.3104 Y-2.8291 Z1.7700
G1 X18.3460 Y-2.9463 Z1.7700
G1 X18.3580 Y-3.0683 Z1.7700
G1 X18.3580 Y-4.3885 Z1.7700
G1 X10.6037 Y-25.6933 Z1.7700
G1 X11.2688 Y-25.6933 Z1.7700
G1 X18.3580 Y-6.2159 Z1.7700
G1 X18.3580 Y-8.0432 Z1.7700
G1 X11.9339 Y-25.6933 Z1.7700
G1 X12.5990 Y-25.6933 Z1.7700
G1 X18.3580 Y-9.8706 Z1.7700
G1 X18.3580 Y-11.6980 Z1.7700
G1 X13.2641 Y-25.6933 Z1.7700
G1 X13.9292 Y-25.6933 Z1.7700
G1 X18.3580 Y-13.5254 Z1.7700
G1 X18.3580 Y-15.3528 Z1.7700
G1 X14.5944 Y-25.6933 Z1.7700
G1 X15.2595 Y-25.6933 Z1.7700
G1 X18.3580 Y-17.1801 Z1.7700
G1 X18.3580 Y-19.0075 Z1.7700
G1 X15.9246 Y-25.6933 Z1.7700
G1 X16.5897 Y-25.6933 Z1.7700
G1 X18.3580 Y-20.8349 Z1.7700
G1 X18.3580 Y-22.6623 Z1.7700
G1 X17.2548 Y-25.6933 Z1.7700
G1 X17.7330 Y-25.6933 Z1.7700
G1 X17.8549 Y-25.6813 Z1.7700
G1 X17.9329 Y-25.6576 Z1.7700
G1 X18.3580 Y-24.4896 Z1.7700
G1 X19.0420 Y-22.6103 Z1.7700
G0 Z2.0200
G0 X19.0420 Y-22.6103 
G0 Z2.0200
G0 X2.4571 Y-0.5639 
G1 X2.4571 Y-0.5639 Z1.6400 F75.
G1 X1.7731 Y-2.4433 Z1.6400 F50.
G1 X1.1080 Y-4.2707 Z1.6400 F250.
G1 X1.1080 Y-6.0980 Z1.6400
G1 X2.4382 Y-2.4433 Z1.6400
G1 X3.1033 Y-2.4433 Z1.6400
G1 X1.1080 Y-7.9254 Z1.6400
G1 X1.1080 Y-9.7528 Z1.6400
G1 X3.7684 Y-2.4433 Z1.6400
G1 X4.4336 Y-2.4433 Z1.6400
G1 X1.1080 Y-11.5802 Z1.6400
G1 X1.1080 Y-13.4075 Z1.6400
G1 X5.0987 Y-2.4433 Z1.6400
G1 X5.7638 Y-2.4433 Z1.6400
G1 X1.1080 Y-15.2349 Z1.6400
G1 X1.1080 Y-17.0623 Z1.6400
G1 X6.4289 Y-2.4433 Z1.6400
G1 X7.0940 Y-2.4433 Z1.6400
G1 X1.1080 Y-18.8897 Z1.6400
G1 X1.1080 Y-20.7171 Z1.6400
G1 X7.7591 Y-2.4433 Z1.6400
G1 X8.4242 Y-2.4433 Z1.6400
G1 X1.1080 Y-22.5444 Z1.6400
G1 X1.1080 Y-24.3718 Z1.6400
G1 X9.0893 Y-2.4433 Z1.6400
G1 X9.7544 Y-2.4433 Z1.6400
G1 X1.3432 Y-25.5530 Z1.6400
G1 X1.3858 Y-25.5879 Z1.6400
G1 X1.4938 Y-25.6457 Z1.6400
G1 X1.6111 Y-25.6813 Z1.6400
G1 X1.7330 Y-25.6933 Z1.6400
G1 X1.9572 Y-25.6933 Z1.6400
G1 X10.4196 Y-2.4433 Z1.6400
G1 X11.0847 Y-2.4433 Z1.6400
G1 X2.6224 Y-25.6933 Z1.6400
G1 X3.2875 Y-25.6933 Z1.6400
G1 X11.7498 Y-2.4433 Z1.6400
G1 X12.4149 Y-2.4433 Z1.6400
G1 X3.9526 Y-25.6933 Z1.6400
G1 X4.6177 Y-25.6933 Z1.6400
G1 X13.0800 Y-2.4433 Z1.6400
G1 X13.7451 Y-2.4433 Z1.6400
G1 X5.2828 Y-25.6933 Z1.6400
G1 X5.9479 Y-25.6933 Z1.6400
G1 X14.4102 Y-2.4433 Z1.6400
G1 X15.0753 Y-2.4433 Z1.6400
G1 X6.6130 Y-25.6933 Z1.6400
G1 X7.2781 Y-25.6933 Z1.6400
G1 X15.7404 Y-2.4433 Z1.6400
G1 X16.4056 Y-2.4433 Z1.6400
G1 X7.9432 Y-25.6933 Z1.6400
G1 X8.6084 Y-25.6933 Z1.6400
G1 X17.0707 Y-2.4433 Z1.6400
G1 X17.7330 Y-2.4433 Z1.6400
G1 X17.7357 Y-2.4435 Z1.6400
G1 X9.2735 Y-25.6933 Z1.6400
G1 X9.9386 Y-25.6933 Z1.6400
G1 X18.2807 Y-2.7735 Z1.6400
G1 X18.3104 Y-2.8291 Z1.6400
G1 X18.3460 Y-2.9463 Z1.6400
G1 X18.3580 Y-3.0683 Z1.6400
G1 X18.3580 Y-4.3885 Z1.6400
G1 X10.6037 Y-25.6933 Z1.6400
G1 X11.2688 Y-25.6933 Z1.6400
G1 X18.3580 Y-6.2159 Z1.6400
G1 X18.3580 Y-8.0432 Z1.6400
G1 X11.9339 Y-25.6933 Z1.6400
G1 X12.5990 Y-25.6933 Z1.6400
G1 X18.3580 Y-9.8706 Z1.6400
G1 X18.3580 Y-11.6980 Z1.6400
G1 X13.2641 Y-25.6933 Z1.6400
G1 X13.9292 Y-25.6933 Z1.6400
G1 X18.3580 Y-13.5254 Z1.6400
G1 X18.3580 Y-15.3528 Z1.6400
G1 X14.5944 Y-25.6933 Z1.6400
G1 X15.2595 Y-25.6933 Z1.6400
G1 X18.3580 Y-17.1801 Z1.6400
G1 X18.3580 Y-19.0075 Z1.6400
G1 X15.9246 Y-25.6933 Z1.6400
G1 X16.5897 Y-25.6933 Z1.6400
G1 X18.3580 Y-20.8349 Z1.6400
G1 X18.3580 Y-22.6623 Z1.6400
G1 X17.2548 Y-25.6933 Z1.6400
G1 X17.7330 Y-25.6933 Z1.6400
G1 X17.8549 Y-25.6813 Z1.6400
G1 X17.9329 Y-25.6576 Z1.6400
G1 X18.3580 Y-24.4896 Z1.6400
G1 X19.0420 Y-22.6103 Z1.6400
G0 Z1.8900
G0 X19.0420 Y-22.6103 
G0 Z1.8900
G0 X2.4571 Y-0.5639 
G1 X2.4571 Y-0.5639 Z1.5100 F75.
G1 X1.7731 Y-2.4433 Z1.5100 F50.
G1 X1.1080 Y-4.2707 Z1.5100 F250.
G1 X1.1080 Y-6.0980 Z1.5100
G1 X2.4382 Y-2.4433 Z1.5100
G1 X3.1033 Y-2.4433 Z1.5100
G1 X1.1080 Y-7.9254 Z1.5100
G1 X1.1080 Y-9.7528 Z1.5100
G1 X3.7684 Y-2.4433 Z1.5100
G1 X4.4336 Y-2.4433 Z1.5100
G1 X1.1080 Y-11.5802 Z1.5100
G1 X1.1080 Y-13.4075 Z1.5100
G1 X5.0987 Y-2.4433 Z1.5100
G1 X5.7638 Y-2.4433 Z1.5100
G1 X1.1080 Y-15.2349 Z1.5100
G1 X1.1080 Y-17.0623 Z1.5100
G1 X6.4289 Y-2.4433 Z1.5100
G1 X7.0940 Y-2.4433 Z1.5100
G1 X1.1080 Y-18.8897 Z1.5100
G1 X1.1080 Y-20.7171 Z1.5100
G1 X7.7591 Y-2.4433 Z1.5100
G1 X8.4242 Y-2.4433 Z1.5100
G1 X1.1080 Y-22.5444 Z1.5100
G1 X1.1080 Y-24.3718 Z1.5100
G1 X9.0893 Y-2.4433 Z1.5100
G1 X9.7544 Y-2.4433 Z1.5100
G1 X1.3432 Y-25.5530 Z1.5100
G1 X1.3858 Y-25.5879 Z1.5100
G1 X1.4938 Y-25.6457 Z1.5100
G1 X1.6111 Y-25.6813 Z1.5100
G1 X1.7330 Y-25.6933 Z1.5100
G1 X1.9572 Y-25.6933 Z1.5100
G1 X10.4196 Y-2.4433 Z1.5100
G1 X11.0847 Y-2.4433 Z1.5100
G1 X2.6224 Y-25.6933 Z1.5100
G1 X3.2875 Y-25.6933 Z1.5100
G1 X11.7498 Y-2.4433 Z1.5100
G1 X12.4149 Y-2.4433 Z1.5100
G1 X3.9526 Y-25.6933 Z1.5100
G1 X4.6177 Y-25.6933 Z1.5100
G1 X13.0800 Y-2.4433 Z1.5100
G1 X13.7451 Y-2.4433 Z1.5100
G1 X5.2828 Y-25.6933 Z1.5100
G1 X5.9479 Y-25.6933 Z1.5100
G1 X14.4102 Y-2.4433 Z1.5100
G1 X15.0753 Y-2.4433 Z1.5100
G1 X6.6130 Y-25.6933 Z1.5100
G1 X7.2781 Y-25.6933 Z1.5100
G1 X15.7404 Y-2.4433 Z1.5100
G1 X16.4056 Y-2.4433 Z1.5100
G1 X7.9432 Y-25.6933 Z1.5100
G1 X8.6084 Y-25.6933 Z1.5100
G1 X17.0707 Y-2.4433 Z1.5100
G1 X17.7330 Y-2.4433 Z1.5100
G1 X17.7357 Y-2.4435 Z1.5100
G1 X9.2735 Y-25.6933 Z1.5100
G1 X9.9386 Y-25.6933 Z1.5100
G1 X18.2807 Y-2.7735 Z1.5100
G1 X18.3104 Y-2.8291 Z1.5100
G1 X18.3460 Y-2.9463 Z1.5100
G1 X18.3580 Y-3.0683 Z1.5100
G1 X18.3580 Y-4.3885 Z1.5100
G1 X10.6037 Y-25.6933 Z1.5100
G1 X11.2688 Y-25.6933 Z1.5100
G1 X18.3580 Y-6.2159 Z1.5100
G1 X18.3580 Y-8.0432 Z1.5100
G1 X11.9339 Y-25.6933 Z1.5100
G1 X12.5990 Y-25.6933 Z1.5100
G1 X18.3580 Y-9.8706 Z1.5100
G1 X18.3580 Y-11.6980 Z1.5100
G1 X13.2641 Y-25.6933 Z1.5100
G1 X13.9292 Y-25.6933 Z1.5100
G1 X18.3580 Y-13.5254 Z1.5100
G1 X18.3580 Y-15.3528 Z1.5100
G1 X14.5944 Y-25.6933 Z1.5100
G1 X15.2595 Y-25.6933 Z1.5100
G1 X18.3580 Y-17.1801 Z1.5100
G1 X18.3580 Y-19.0075 Z1.5100
G1 X15.9246 Y-25.6933 Z1.5100
G1 X16.5897 Y-25.6933 Z1.5100
G1 X18.3580 Y-20.8349 Z1.5100
G1 X18.3580 Y-22.6623 Z1.5100
G1 X17.2548 Y-25.6933 Z1.5100
G1 X17.7330 Y-25.6933 Z1.5100
G1 X17.8549 Y-25.6813 Z1.5100
G1 X17.9329 Y-25.6576 Z1.5100
G1 X18.3580 Y-24.4896 Z1.5100
G1 X19.0420 Y-22.6103 Z1.5100
G0 Z4.0000
G0 X19.0420 Y-22.6103 
M5
G53 Z
( MOP:  04-front-prep-01-facing-1pt50-lam-start )
( FILE: G:\Shared drives\AlloyProjectFiles\Customer CAD files\Alloy-Standard-Builds-CAM\s-in\04-front-prep-01-facing-1pt50-lam-start.nc)
G90
(  BEGIN TOOL LIST )
(  TOOL 1 - Surface 2PT500 - DESC: 2.5000 DIA, 2 FLUTE,  CARBIDE MAT )
(  ENDOF TOOL LIST )
( 04-front-prep-01-facing-1pt50-lam-start)
T01
S12000
M3
G0 Z4.0000
G0 X17.9571 Y-0.5639 
G1 X17.9571 Y-0.5639 Z1.7700 F75.
G1 X17.2731 Y-2.4433 Z1.7700 F50.
G1 X16.6080 Y-4.2707 Z1.7700 F250.
G1 X16.6080 Y-6.0980 Z1.7700
G1 X17.9382 Y-2.4433 Z1.7700
G1 X18.6033 Y-2.4433 Z1.7700
G1 X16.6080 Y-7.9254 Z1.7700
G1 X16.6080 Y-9.7528 Z1.7700
G1 X19.2684 Y-2.4433 Z1.7700
G1 X19.9336 Y-2.4433 Z1.7700
G1 X16.6080 Y-11.5802 Z1.7700
G1 X16.6080 Y-13.4075 Z1.7700
G1 X20.5987 Y-2.4433 Z1.7700
G1 X21.2638 Y-2.4433 Z1.7700
G1 X16.6080 Y-15.2349 Z1.7700
G1 X16.6080 Y-17.0623 Z1.7700
G1 X21.9289 Y-2.4433 Z1.7700
G1 X22.5940 Y-2.4433 Z1.7700
G1 X16.6080 Y-18.8897 Z1.7700
G1 X16.6080 Y-20.7171 Z1.7700
G1 X23.2591 Y-2.4433 Z1.7700
G1 X23.9242 Y-2.4433 Z1.7700
G1 X16.6080 Y-22.5444 Z1.7700
G1 X16.6080 Y-24.3718 Z1.7700
G1 X24.5893 Y-2.4433 Z1.7700
G1 X25.2544 Y-2.4433 Z1.7700
G1 X16.8432 Y-25.5530 Z1.7700
G1 X16.8858 Y-25.5879 Z1.7700
G1 X16.9938 Y-25.6457 Z1.7700
G1 X17.1111 Y-25.6813 Z1.7700
G1 X17.2330 Y-25.6933 Z1.7700
G1 X17.4572 Y-25.6933 Z1.7700
G1 X25.9196 Y-2.4433 Z1.7700
G1 X26.5847 Y-2.4433 Z1.7700
G1 X18.1224 Y-25.6933 Z1.7700
G1 X18.7875 Y-25.6933 Z1.7700
G1 X27.2498 Y-2.4433 Z1.7700
G1 X27.9149 Y-2.4433 Z1.7700
G1 X19.4526 Y-25.6933 Z1.7700
G1 X20.1177 Y-25.6933 Z1.7700
G1 X28.5800 Y-2.4433 Z1.7700
G1 X29.2451 Y-2.4433 Z1.7700
G1 X20.7828 Y-25.6933 Z1.7700
G1 X21.4479 Y-25.6933 Z1.7700
G1 X29.9102 Y-2.4433 Z1.7700
G1 X30.5753 Y-2.4433 Z1.7700
G1 X22.1130 Y-25.6933 Z1.7700
G1 X22.7781 Y-25.6933 Z1.7700
G1 X31.2404 Y-2.4433 Z1.7700
G1 X31.9056 Y-2.4433 Z1.7700
G1 X23.4432 Y-25.6933 Z1.7700
G1 X24.1084 Y-25.6933 Z1.7700
G1 X32.5707 Y-2.4433 Z1.7700
G1 X33.2330 Y-2.4433 Z1.7700
G1 X33.2357 Y-2.4435 Z1.7700
G1 X24.7735 Y-25.6933 Z1.7700
G1 X25.4386 Y-25.6933 Z1.7700
G1 X33.7807 Y-2.7735 Z1.7700
G1 X33.8104 Y-2.8291 Z1.7700
G1 X33.8460 Y-2.9463 Z1.7700
G1 X33.8580 Y-3.0683 Z1.7700
G1 X33.8580 Y-4.3885 Z1.7700
G1 X26.1037 Y-25.6933 Z1.7700
G1 X26.7688 Y-25.6933 Z1.7700
G1 X33.8580 Y-6.2159 Z1.7700
G1 X33.8580 Y-8.0432 Z1.7700
G1 X27.4339 Y-25.6933 Z1.7700
G1 X28.0990 Y-25.6933 Z1.7700
G1 X33.8580 Y-9.8706 Z1.7700
G1 X33.8580 Y-11.6980 Z1.7700
G1 X28.7641 Y-25.6933 Z1.7700
G1 X29.4292 Y-25.6933 Z1.7700
G1 X33.8580 Y-13.5254 Z1.7700
G1 X33.8580 Y-15.3528 Z1.7700
G1 X30.0944 Y-25.6933 Z1.7700
G1 X30.7595 Y-25.6933 Z1.7700
G1 X33.8580 Y-17.1801 Z1.7700
G1 X33.8580 Y-19.0075 Z1.7700
G1 X31.4246 Y-25.6933 Z1.7700
G1 X32.0897 Y-25.6933 Z1.7700
G1 X33.8580 Y-20.8349 Z1.7700
G1 X33.8580 Y-22.6623 Z1.7700
G1 X32.7548 Y-25.6933 Z1.7700
G1 X33.2330 Y-25.6933 Z1.7700
G1 X33.3549 Y-25.6813 Z1.7700
G1 X33.4329 Y-25.6576 Z1.7700
G1 X33.8580 Y-24.4896 Z1.7700
G1 X34.5420 Y-22.6103 Z1.7700
G0 Z2.0200
G0 X34.5420 Y-22.6103 
G0 Z2.0200
G0 X17.9571 Y-0.5639 
G1 X17.9571 Y-0.5639 Z1.6400 F75.
G1 X17.2731 Y-2.4433 Z1.6400 F50.
G1 X16.6080 Y-4.2707 Z1.6400 F250.
G1 X16.6080 Y-6.0980 Z1.6400
G1 X17.9382 Y-2.4433 Z1.6400
G1 X18.6033 Y-2.4433 Z1.6400
G1 X16.6080 Y-7.9254 Z1.6400
G1 X16.6080 Y-9.7528 Z1.6400
G1 X19.2684 Y-2.4433 Z1.6400
G1 X19.9336 Y-2.4433 Z1.6400
G1 X16.6080 Y-11.5802 Z1.6400
G1 X16.6080 Y-13.4075 Z1.6400
G1 X20.5987 Y-2.4433 Z1.6400
G1 X21.2638 Y-2.4433 Z1.6400
G1 X16.6080 Y-15.2349 Z1.6400
G1 X16.6080 Y-17.0623 Z1.6400
G1 X21.9289 Y-2.4433 Z1.6400
G1 X22.5940 Y-2.4433 Z1.6400
G1 X16.6080 Y-18.8897 Z1.6400
G1 X16.6080 Y-20.7171 Z1.6400
G1 X23.2591 Y-2.4433 Z1.6400
G1 X23.9242 Y-2.4433 Z1.6400
G1 X16.6080 Y-22.5444 Z1.6400
G1 X16.6080 Y-24.3718 Z1.6400
G1 X24.5893 Y-2.4433 Z1.6400
G1 X25.2544 Y-2.4433 Z1.6400
G1 X16.8432 Y-25.5530 Z1.6400
G1 X16.8858 Y-25.5879 Z1.6400
G1 X16.9938 Y-25.6457 Z1.6400
G1 X17.1111 Y-25.6813 Z1.6400
G1 X17.2330 Y-25.6933 Z1.6400
G1 X17.4572 Y-25.6933 Z1.6400
G1 X25.9196 Y-2.4433 Z1.6400
G1 X26.5847 Y-2.4433 Z1.6400
G1 X18.1224 Y-25.6933 Z1.6400
G1 X18.7875 Y-25.6933 Z1.6400
G1 X27.2498 Y-2.4433 Z1.6400
G1 X27.9149 Y-2.4433 Z1.6400
G1 X19.4526 Y-25.6933 Z1.6400
G1 X20.1177 Y-25.6933 Z1.6400
G1 X28.5800 Y-2.4433 Z1.6400
G1 X29.2451 Y-2.4433 Z1.6400
G1 X20.7828 Y-25.6933 Z1.6400
G1 X21.4479 Y-25.6933 Z1.6400
G1 X29.9102 Y-2.4433 Z1.6400
G1 X30.5753 Y-2.4433 Z1.6400
G1 X22.1130 Y-25.6933 Z1.6400
G1 X22.7781 Y-25.6933 Z1.6400
G1 X31.2404 Y-2.4433 Z1.6400
G1 X31.9056 Y-2.4433 Z1.6400
G1 X23.4432 Y-25.6933 Z1.6400
G1 X24.1084 Y-25.6933 Z1.6400
G1 X32.5707 Y-2.4433 Z1.6400
G1 X33.2330 Y-2.4433 Z1.6400
G1 X33.2357 Y-2.4435 Z1.6400
G1 X24.7735 Y-25.6933 Z1.6400
G1 X25.4386 Y-25.6933 Z1.6400
G1 X33.7807 Y-2.7735 Z1.6400
G1 X33.8104 Y-2.8291 Z1.6400
G1 X33.8460 Y-2.9463 Z1.6400
G1 X33.8580 Y-3.0683 Z1.6400
G1 X33.8580 Y-4.3885 Z1.6400
G1 X26.1037 Y-25.6933 Z1.6400
G1 X26.7688 Y-25.6933 Z1.6400
G1 X33.8580 Y-6.2159 Z1.6400
G1 X33.8580 Y-8.0432 Z1.6400
G1 X27.4339 Y-25.6933 Z1.6400
G1 X28.0990 Y-25.6933 Z1.6400
G1 X33.8580 Y-9.8706 Z1.6400
G1 X33.8580 Y-11.6980 Z1.6400
G1 X28.7641 Y-25.6933 Z1.6400
G1 X29.4292 Y-25.6933 Z1.6400
G1 X33.8580 Y-13.5254 Z1.6400
G1 X33.8580 Y-15.3528 Z1.6400
G1 X30.0944 Y-25.6933 Z1.6400
G1 X30.7595 Y-25.6933 Z1.6400
G1 X33.8580 Y-17.1801 Z1.6400
G1 X33.8580 Y-19.0075 Z1.6400
G1 X31.4246 Y-25.6933 Z1.6400
G1 X32.0897 Y-25.6933 Z1.6400
G1 X33.8580 Y-20.8349 Z1.6400
G1 X33.8580 Y-22.6623 Z1.6400
G1 X32.7548 Y-25.6933 Z1.6400
G1 X33.2330 Y-25.6933 Z1.6400
G1 X33.3549 Y-25.6813 Z1.6400
G1 X33.4329 Y-25.6576 Z1.6400
G1 X33.8580 Y-24.4896 Z1.6400
G1 X34.5420 Y-22.6103 Z1.6400
G0 Z1.8900
G0 X34.5420 Y-22.6103 
G0 Z1.8900
G0 X17.9571 Y-0.5639 
G1 X17.9571 Y-0.5639 Z1.5100 F75.
G1 X17.2731 Y-2.4433 Z1.5100 F50.
G1 X16.6080 Y-4.2707 Z1.5100 F250.
G1 X16.6080 Y-6.0980 Z1.5100
G1 X17.9382 Y-2.4433 Z1.5100
G1 X18.6033 Y-2.4433 Z1.5100
G1 X16.6080 Y-7.9254 Z1.5100
G1 X16.6080 Y-9.7528 Z1.5100
G1 X19.2684 Y-2.4433 Z1.5100
G1 X19.9336 Y-2.4433 Z1.5100
G1 X16.6080 Y-11.5802 Z1.5100
G1 X16.6080 Y-13.4075 Z1.5100
G1 X20.5987 Y-2.4433 Z1.5100
G1 X21.2638 Y-2.4433 Z1.5100
G1 X16.6080 Y-15.2349 Z1.5100
G1 X16.6080 Y-17.0623 Z1.5100
G1 X21.9289 Y-2.4433 Z1.5100
G1 X22.5940 Y-2.4433 Z1.5100
G1 X16.6080 Y-18.8897 Z1.5100
G1 X16.6080 Y-20.7171 Z1.5100
G1 X23.2591 Y-2.4433 Z1.5100
G1 X23.9242 Y-2.4433 Z1.5100
G1 X16.6080 Y-22.5444 Z1.5100
G1 X16.6080 Y-24.3718 Z1.5100
G1 X24.5893 Y-2.4433 Z1.5100
G1 X25.2544 Y-2.4433 Z1.5100
G1 X16.8432 Y-25.5530 Z1.5100
G1 X16.8858 Y-25.5879 Z1.5100
G1 X16.9938 Y-25.6457 Z1.5100
G1 X17.1111 Y-25.6813 Z1.5100
G1 X17.2330 Y-25.6933 Z1.5100
G1 X17.4572 Y-25.6933 Z1.5100
G1 X25.9196 Y-2.4433 Z1.5100
G1 X26.5847 Y-2.4433 Z1.5100
G1 X18.1224 Y-25.6933 Z1.5100
G1 X18.7875 Y-25.6933 Z1.5100
G1 X27.2498 Y-2.4433 Z1.5100
G1 X27.9149 Y-2.4433 Z1.5100
G1 X19.4526 Y-25.6933 Z1.5100
G1 X20.1177 Y-25.6933 Z1.5100
G1 X28.5800 Y-2.4433 Z1.5100
G1 X29.2451 Y-2.4433 Z1.5100
G1 X20.7828 Y-25.6933 Z1.5100
G1 X21.4479 Y-25.6933 Z1.5100
G1 X29.9102 Y-2.4433 Z1.5100
G1 X30.5753 Y-2.4433 Z1.5100
G1 X22.1130 Y-25.6933 Z1.5100
G1 X22.7781 Y-25.6933 Z1.5100
G1 X31.2404 Y-2.4433 Z1.5100
G1 X31.9056 Y-2.4433 Z1.5100
G1 X23.4432 Y-25.6933 Z1.5100
G1 X24.1084 Y-25.6933 Z1.5100
G1 X32.5707 Y-2.4433 Z1.5100
G1 X33.2330 Y-2.4433 Z1.5100
G1 X33.2357 Y-2.4435 Z1.5100
G1 X24.7735 Y-25.6933 Z1.5100
G1 X25.4386 Y-25.6933 Z1.5100
G1 X33.7807 Y-2.7735 Z1.5100
G1 X33.8104 Y-2.8291 Z1.5100
G1 X33.8460 Y-2.9463 Z1.5100
G1 X33.8580 Y-3.0683 Z1.5100
G1 X33.8580 Y-4.3885 Z1.5100
G1 X26.1037 Y-25.6933 Z1.5100
G1 X26.7688 Y-25.6933 Z1.5100
G1 X33.8580 Y-6.2159 Z1.5100
G1 X33.8580 Y-8.0432 Z1.5100
G1 X27.4339 Y-25.6933 Z1.5100
G1 X28.0990 Y-25.6933 Z1.5100
G1 X33.8580 Y-9.8706 Z1.5100
G1 X33.8580 Y-11.6980 Z1.5100
G1 X28.7641 Y-25.6933 Z1.5100
G1 X29.4292 Y-25.6933 Z1.5100
G1 X33.8580 Y-13.5254 Z1.5100
G1 X33.8580 Y-15.3528 Z1.5100
G1 X30.0944 Y-25.6933 Z1.5100
G1 X30.7595 Y-25.6933 Z1.5100
G1 X33.8580 Y-17.1801 Z1.5100
G1 X33.8580 Y-19.0075 Z1.5100
G1 X31.4246 Y-25.6933 Z1.5100
G1 X32.0897 Y-25.6933 Z1.5100
G1 X33.8580 Y-20.8349 Z1.5100
G1 X33.8580 Y-22.6623 Z1.5100
G1 X32.7548 Y-25.6933 Z1.5100
G1 X33.2330 Y-25.6933 Z1.5100
G1 X33.3549 Y-25.6813 Z1.5100
G1 X33.4329 Y-25.6576 Z1.5100
G1 X33.8580 Y-24.4896 Z1.5100
G1 X34.5420 Y-22.6103 Z1.5100
G0 Z4.0000
G0 X34.5420 Y-22.6103 
M5
G53 Z
( MOP:  04-front-prep-01-facing-1pt50-lam-start )
( FILE: G:\Shared drives\AlloyProjectFiles\Customer CAD files\Alloy-Standard-Builds-CAM\s-in\04-front-prep-01-facing-1pt50-lam-start.nc)
G90
(  BEGIN TOOL LIST )
(  TOOL 1 - Surface 2PT500 - DESC: 2.5000 DIA, 2 FLUTE,  CARBIDE MAT )
(  ENDOF TOOL LIST )
( 04-front-prep-01-facing-1pt50-lam-start)
T01
S12000
M3
G0 Z4.0000
G0 X33.4571 Y-0.5639 
G1 X33.4571 Y-0.5639 Z1.7700 F75.
G1 X32.7731 Y-2.4433 Z1.7700 F50.
G1 X32.1080 Y-4.2707 Z1.7700 F250.
G1 X32.1080 Y-6.0980 Z1.7700
G1 X33.4382 Y-2.4433 Z1.7700
G1 X34.1033 Y-2.4433 Z1.7700
G1 X32.1080 Y-7.9254 Z1.7700
G1 X32.1080 Y-9.7528 Z1.7700
G1 X34.7684 Y-2.4433 Z1.7700
G1 X35.4336 Y-2.4433 Z1.7700
G1 X32.1080 Y-11.5802 Z1.7700
G1 X32.1080 Y-13.4075 Z1.7700
G1 X36.0987 Y-2.4433 Z1.7700
G1 X36.7638 Y-2.4433 Z1.7700
G1 X32.1080 Y-15.2349 Z1.7700
G1 X32.1080 Y-17.0623 Z1.7700
G1 X37.4289 Y-2.4433 Z1.7700
G1 X38.0940 Y-2.4433 Z1.7700
G1 X32.1080 Y-18.8897 Z1.7700
G1 X32.1080 Y-20.7171 Z1.7700
G1 X38.7591 Y-2.4433 Z1.7700
G1 X39.4242 Y-2.4433 Z1.7700
G1 X32.1080 Y-22.5444 Z1.7700
G1 X32.1080 Y-24.3718 Z1.7700
G1 X40.0893 Y-2.4433 Z1.7700
G1 X40.7544 Y-2.4433 Z1.7700
G1 X32.3432 Y-25.5530 Z1.7700
G1 X32.3858 Y-25.5879 Z1.7700
G1 X32.4938 Y-25.6457 Z1.7700
G1 X32.6111 Y-25.6813 Z1.7700
G1 X32.7330 Y-25.6933 Z1.7700
G1 X32.9572 Y-25.6933 Z1.7700
G1 X41.4196 Y-2.4433 Z1.7700
G1 X42.0847 Y-2.4433 Z1.7700
G1 X33.6224 Y-25.6933 Z1.7700
G1 X34.2875 Y-25.6933 Z1.7700
G1 X42.7498 Y-2.4433 Z1.7700
G1 X43.4149 Y-2.4433 Z1.7700
G1 X34.9526 Y-25.6933 Z1.7700
G1 X35.6177 Y-25.6933 Z1.7700
G1 X44.0800 Y-2.4433 Z1.7700
G1 X44.7451 Y-2.4433 Z1.7700
G1 X36.2828 Y-25.6933 Z1.7700
G1 X36.9479 Y-25.6933 Z1.7700
G1 X45.4102 Y-2.4433 Z1.7700
G1 X46.0753 Y-2.4433 Z1.7700
G1 X37.6130 Y-25.6933 Z1.7700
G1 X38.2781 Y-25.6933 Z1.7700
G1 X46.7404 Y-2.4433 Z1.7700
G1 X47.4056 Y-2.4433 Z1.7700
G1 X38.9432 Y-25.6933 Z1.7700
G1 X39.6084 Y-25.6933 Z1.7700
G1 X48.0707 Y-2.4433 Z1.7700
G1 X48.7330 Y-2.4433 Z1.7700
G1 X48.7357 Y-2.4435 Z1.7700
G1 X40.2735 Y-25.6933 Z1.7700
G1 X40.9386 Y-25.6933 Z1.7700
G1 X49.2807 Y-2.7735 Z1.7700
G1 X49.3104 Y-2.8291 Z1.7700
G1 X49.3460 Y-2.9463 Z1.7700
G1 X49.3580 Y-3.0683 Z1.7700
G1 X49.3580 Y-4.3885 Z1.7700
G1 X41.6037 Y-25.6933 Z1.7700
G1 X42.2688 Y-25.6933 Z1.7700
G1 X49.3580 Y-6.2159 Z1.7700
G1 X49.3580 Y-8.0432 Z1.7700
G1 X42.9339 Y-25.6933 Z1.7700
G1 X43.5990 Y-25.6933 Z1.7700
G1 X49.3580 Y-9.8706 Z1.7700
G1 X49.3580 Y-11.6980 Z1.7700
G1 X44.2641 Y-25.6933 Z1.7700
G1 X44.9292 Y-25.6933 Z1.7700
G1 X49.3580 Y-13.5254 Z1.7700
G1 X49.3580 Y-15.3528 Z1.7700
G1 X45.5944 Y-25.6933 Z1.7700
G1 X46.2595 Y-25.6933 Z1.7700
G1 X49.3580 Y-17.1801 Z1.7700
G1 X49.3580 Y-19.0075 Z1.7700
G1 X46.9246 Y-25.6933 Z1.7700
G1 X47.5897 Y-25.6933 Z1.7700
G1 X49.3580 Y-20.8349 Z1.7700
G1 X49.3580 Y-22.6623 Z1.7700
G1 X48.2548 Y-25.6933 Z1.7700
G1 X48.7330 Y-25.6933 Z1.7700
G1 X48.8549 Y-25.6813 Z1.7700
G1 X48.9329 Y-25.6576 Z1.7700
G1 X49.3580 Y-24.4896 Z1.7700
G1 X50.0420 Y-22.6103 Z1.7700
G0 Z2.0200
G0 X50.0420 Y-22.6103 
G0 Z2.0200
G0 X33.4571 Y-0.5639 
G1 X33.4571 Y-0.5639 Z1.6400 F75.
G1 X32.7731 Y-2.4433 Z1.6400 F50.
G1 X32.1080 Y-4.2707 Z1.6400 F250.
G1 X32.1080 Y-6.0980 Z1.6400
G1 X33.4382 Y-2.4433 Z1.6400
G1 X34.1033 Y-2.4433 Z1.6400
G1 X32.1080 Y-7.9254 Z1.6400
G1 X32.1080 Y-9.7528 Z1.6400
G1 X34.7684 Y-2.4433 Z1.6400
G1 X35.4336 Y-2.4433 Z1.6400
G1 X32.1080 Y-11.5802 Z1.6400
G1 X32.1080 Y-13.4075 Z1.6400
G1 X36.0987 Y-2.4433 Z1.6400
G1 X36.7638 Y-2.4433 Z1.6400
G1 X32.1080 Y-15.2349 Z1.6400
G1 X32.1080 Y-17.0623 Z1.6400
G1 X37.4289 Y-2.4433 Z1.6400
G1 X38.0940 Y-2.4433 Z1.6400
G1 X32.1080 Y-18.8897 Z1.6400
G1 X32.1080 Y-20.7171 Z1.6400
G1 X38.7591 Y-2.4433 Z1.6400
G1 X39.4242 Y-2.4433 Z1.6400
G1 X32.1080 Y-22.5444 Z1.6400
G1 X32.1080 Y-24.3718 Z1.6400
G1 X40.0893 Y-2.4433 Z1.6400
G1 X40.7544 Y-2.4433 Z1.6400
G1 X32.3432 Y-25.5530 Z1.6400
G1 X32.3858 Y-25.5879 Z1.6400
G1 X32.4938 Y-25.6457 Z1.6400
G1 X32.6111 Y-25.6813 Z1.6400
G1 X32.7330 Y-25.6933 Z1.6400
G1 X32.9572 Y-25.6933 Z1.6400
G1 X41.4196 Y-2.4433 Z1.6400
G1 X42.0847 Y-2.4433 Z1.6400
G1 X33.6224 Y-25.6933 Z1.6400
G1 X34.2875 Y-25.6933 Z1.6400
G1 X42.7498 Y-2.4433 Z1.6400
G1 X43.4149 Y-2.4433 Z1.6400
G1 X34.9526 Y-25.6933 Z1.6400
G1 X35.6177 Y-25.6933 Z1.6400
G1 X44.0800 Y-2.4433 Z1.6400
G1 X44.7451 Y-2.4433 Z1.6400
G1 X36.2828 Y-25.6933 Z1.6400
G1 X36.9479 Y-25.6933 Z1.6400
G1 X45.4102 Y-2.4433 Z1.6400
G1 X46.0753 Y-2.4433 Z1.6400
G1 X37.6130 Y-25.6933 Z1.6400
G1 X38.2781 Y-25.6933 Z1.6400
G1 X46.7404 Y-2.4433 Z1.6400
G1 X47.4056 Y-2.4433 Z1.6400
G1 X38.9432 Y-25.6933 Z1.6400
G1 X39.6084 Y-25.6933 Z1.6400
G1 X48.0707 Y-2.4433 Z1.6400
G1 X48.7330 Y-2.4433 Z1.6400
G1 X48.7357 Y-2.4435 Z1.6400
G1 X40.2735 Y-25.6933 Z1.6400
G1 X40.9386 Y-25.6933 Z1.6400
G1 X49.2807 Y-2.7735 Z1.6400
G1 X49.3104 Y-2.8291 Z1.6400
G1 X49.3460 Y-2.9463 Z1.6400
G1 X49.3580 Y-3.0683 Z1.6400
G1 X49.3580 Y-4.3885 Z1.6400
G1 X41.6037 Y-25.6933 Z1.6400
G1 X42.2688 Y-25.6933 Z1.6400
G1 X49.3580 Y-6.2159 Z1.6400
G1 X49.3580 Y-8.0432 Z1.6400
G1 X42.9339 Y-25.6933 Z1.6400
G1 X43.5990 Y-25.6933 Z1.6400
G1 X49.3580 Y-9.8706 Z1.6400
G1 X49.3580 Y-11.6980 Z1.6400
G1 X44.2641 Y-25.6933 Z1.6400
G1 X44.9292 Y-25.6933 Z1.6400
G1 X49.3580 Y-13.5254 Z1.6400
G1 X49.3580 Y-15.3528 Z1.6400
G1 X45.5944 Y-25.6933 Z1.6400
G1 X46.2595 Y-25.6933 Z1.6400
G1 X49.3580 Y-17.1801 Z1.6400
G1 X49.3580 Y-19.0075 Z1.6400
G1 X46.9246 Y-25.6933 Z1.6400
G1 X47.5897 Y-25.6933 Z1.6400
G1 X49.3580 Y-20.8349 Z1.6400
G1 X49.3580 Y-22.6623 Z1.6400
G1 X48.2548 Y-25.6933 Z1.6400
G1 X48.7330 Y-25.6933 Z1.6400
G1 X48.8549 Y-25.6813 Z1.6400
G1 X48.9329 Y-25.6576 Z1.6400
G1 X49.3580 Y-24.4896 Z1.6400
G1 X50.0420 Y-22.6103 Z1.6400
G0 Z1.8900
G0 X50.0420 Y-22.6103 
G0 Z1.8900
G0 X33.4571 Y-0.5639 
G1 X33.4571 Y-0.5639 Z1.5100 F75.
G1 X32.7731 Y-2.4433 Z1.5100 F50.
G1 X32.1080 Y-4.2707 Z1.5100 F250.
G1 X32.1080 Y-6.0980 Z1.5100
G1 X33.4382 Y-2.4433 Z1.5100
G1 X34.1033 Y-2.4433 Z1.5100
G1 X32.1080 Y-7.9254 Z1.5100
G1 X32.1080 Y-9.7528 Z1.5100
G1 X34.7684 Y-2.4433 Z1.5100
G1 X35.4336 Y-2.4433 Z1.5100
G1 X32.1080 Y-11.5802 Z1.5100
G1 X32.1080 Y-13.4075 Z1.5100
G1 X36.0987 Y-2.4433 Z1.5100
G1 X36.7638 Y-2.4433 Z1.5100
G1 X32.1080 Y-15.2349 Z1.5100
G1 X32.1080 Y-17.0623 Z1.5100
G1 X37.4289 Y-2.4433 Z1.5100
G1 X38.0940 Y-2.4433 Z1.5100
G1 X32.1080 Y-18.8897 Z1.5100
G1 X32.1080 Y-20.7171 Z1.5100
G1 X38.7591 Y-2.4433 Z1.5100
G1 X39.4242 Y-2.4433 Z1.5100
G1 X32.1080 Y-22.5444 Z1.5100
G1 X32.1080 Y-24.3718 Z1.5100
G1 X40.0893 Y-2.4433 Z1.5100
G1 X40.7544 Y-2.4433 Z1.5100
G1 X32.3432 Y-25.5530 Z1.5100
G1 X32.3858 Y-25.5879 Z1.5100
G1 X32.4938 Y-25.6457 Z1.5100
G1 X32.6111 Y-25.6813 Z1.5100
G1 X32.7330 Y-25.6933 Z1.5100
G1 X32.9572 Y-25.6933 Z1.5100
G1 X41.4196 Y-2.4433 Z1.5100
G1 X42.0847 Y-2.4433 Z1.5100
G1 X33.6224 Y-25.6933 Z1.5100
G1 X34.2875 Y-25.6933 Z1.5100
G1 X42.7498 Y-2.4433 Z1.5100
G1 X43.4149 Y-2.4433 Z1.5100
G1 X34.9526 Y-25.6933 Z1.5100
G1 X35.6177 Y-25.6933 Z1.5100
G1 X44.0800 Y-2.4433 Z1.5100
G1 X44.7451 Y-2.4433 Z1.5100
G1 X36.2828 Y-25.6933 Z1.5100
G1 X36.9479 Y-25.6933 Z1.5100
G1 X45.4102 Y-2.4433 Z1.5100
G1 X46.0753 Y-2.4433 Z1.5100
G1 X37.6130 Y-25.6933 Z1.5100
G1 X38.2781 Y-25.6933 Z1.5100
G1 X46.7404 Y-2.4433 Z1.5100
G1 X47.4056 Y-2.4433 Z1.5100
G1 X38.9432 Y-25.6933 Z1.5100
G1 X39.6084 Y-25.6933 Z1.5100
G1 X48.0707 Y-2.4433 Z1.5100
G1 X48.7330 Y-2.4433 Z1.5100
G1 X48.7357 Y-2.4435 Z1.5100
G1 X40.2735 Y-25.6933 Z1.5100
G1 X40.9386 Y-25.6933 Z1.5100
G1 X49.2807 Y-2.7735 Z1.5100
G1 X49.3104 Y-2.8291 Z1.5100
G1 X49.3460 Y-2.9463 Z1.5100
G1 X49.3580 Y-3.0683 Z1.5100
G1 X49.3580 Y-4.3885 Z1.5100
G1 X41.6037 Y-25.6933 Z1.5100
G1 X42.2688 Y-25.6933 Z1.5100
G1 X49.3580 Y-6.2159 Z1.5100
G1 X49.3580 Y-8.0432 Z1.5100
G1 X42.9339 Y-25.6933 Z1.5100
G1 X43.5990 Y-25.6933 Z1.5100
G1 X49.3580 Y-9.8706 Z1.5100
G1 X49.3580 Y-11.6980 Z1.5100
G1 X44.2641 Y-25.6933 Z1.5100
G1 X44.9292 Y-25.6933 Z1.5100
G1 X49.3580 Y-13.5254 Z1.5100
G1 X49.3580 Y-15.3528 Z1.5100
G1 X45.5944 Y-25.6933 Z1.5100
G1 X46.2595 Y-25.6933 Z1.5100
G1 X49.3580 Y-17.1801 Z1.5100
G1 X49.3580 Y-19.0075 Z1.5100
G1 X46.9246 Y-25.6933 Z1.5100
G1 X47.5897 Y-25.6933 Z1.5100
G1 X49.3580 Y-20.8349 Z1.5100
G1 X49.3580 Y-22.6623 Z1.5100
G1 X48.2548 Y-25.6933 Z1.5100
G1 X48.7330 Y-25.6933 Z1.5100
G1 X48.8549 Y-25.6813 Z1.5100
G1 X48.9329 Y-25.6576 Z1.5100
G1 X49.3580 Y-24.4896 Z1.5100
G1 X50.0420 Y-22.6103 Z1.5100
G0 Z4.0000
G0 X50.0420 Y-22.6103 
M5
G53 Z
G0 X2Y0
( END FILE 04-front-prep-01-facing-1pt50-lam-start.nc )
( BEGIN FILE 04-Chambered-01.ncTNUM: 11 )
( Lefty:False Nunits:3 )
( cline: 9.733 delta:15.5 )
( start_unit: 1 num_units: 3)
( MOP:  04-Chambered-01 )
( FILE: G:\Shared drives\AlloyProjectFiles\Customer CAD files\Alloy-Standard-Builds-CAM\s-in\Chambering\04-Chambered-01.nc)
G90
(  BEGIN TOOL LIST )
(  TOOL 11 - Downcut PT750 ROUGH - DESC: 0.7500 DIA, 2 FLUTE,  CARBIDE MAT )
(  ENDOF TOOL LIST )
( 04-Chambered-01)
T11
S14000
M3
G0 Z6.0000
G0 X13.8540 Y-18.8541 
G1 X13.8540 Y-18.8541 Z1.4600 F75.
G1 X13.8540 Y-18.8541 Z1.4350 F50.
G1 X13.8137 Y-18.9978 Z1.4087
G1 X13.7843 Y-19.0798 Z1.3933
G1 X13.7649 Y-19.1228 Z1.3850
G1 X13.7455 Y-19.1658 Z1.3850 F150.
G1 X13.6096 Y-19.4202 Z1.3850
G1 X14.0090 Y-19.4205 Z1.3850
G17
G3X14.0050Y-18.5281Z1.3850I-1.9265J0.4375
G1 X13.9556 Y-18.4986 Z1.3850
G1 X13.9331 Y-18.4842 Z1.3850
G2X13.7649Y-19.1228Z1.3850I-2.0148J0.1891
G1 X13.5946 Y-19.0449 Z1.3850
G3X13.7616Y-18.1203Z1.3850I-1.9424J0.8281
G3X14.1728Y-18.4071Z1.3850I1.3736J1.5314
G2X14.1584Y-19.5908Z1.3850I-2.3522J-0.5633
G1 X14.1510 Y-19.6081 Z1.3850
G1 X13.4123 Y-19.6076 Z1.3850
G1 X13.4123 Y-19.3883 Z1.3850
G3X13.5946Y-19.0449Z1.3850I-2.6094J1.6053
G1 X13.4239 Y-18.9679 Z1.3850
G2X13.2249Y-19.3316Z1.3850I-1.9185J0.8135
G1 X13.2248 Y-19.7949 Z1.3850
G1 X14.2743 Y-19.7957 Z1.3850
G3X14.4246Y-18.8580Z1.3850I-1.6414J0.7441
G1 X14.3896 Y-18.5434 Z1.3850
G1 X14.3391 Y-18.2779 Z1.3850
G2X13.5399Y-17.5472Z1.3850I0.7671J1.6415
G2X13.3513Y-17.0647Z1.3850I2.0879J1.0942
G2X13.4730Y-15.8154Z1.3850I1.8501J0.4504
G1 X13.4869 Y-15.7906 Z1.3850
G1 X13.4712 Y-15.7585 Z1.3850
G1 X13.2250 Y-15.2868 Z1.3850
G1 X13.2250 Y-17.0977 Z1.3850
G2X13.4239Y-18.9679Z1.3850I-1.6058J-1.1165
G1 X13.2538 Y-18.8896 Z1.3850
G1 X13.2615 Y-18.8729 Z1.3850
G3X13.0375Y-17.1609Z1.3850I-1.6359J0.6566
G1 X13.0375 Y-15.1727 Z1.3850
G1 X13.2694 Y-14.9317 Z1.3850
G1 X13.3632 Y-15.1464 Z1.3850
G1 X13.6385 Y-15.6739 Z1.3850
G1 X13.6985 Y-15.7965 Z1.3850
G3X13.5334Y-17.0197Z1.3850I1.4648J-0.8205
G3X13.6558Y-17.3583Z1.3850I2.2332J0.6162
G3X14.5024Y-18.1412Z1.3850I1.4440J0.7123
G2X14.5834Y-19.4468Z1.3850I-3.4849J-0.8714
G2X14.3964Y-19.9833Z1.3850I-1.7935J0.3243
G1 X13.0373 Y-19.9823 Z1.3850
G1 X13.0374 Y-19.2685 Z1.3850
G3X13.2538Y-18.8896Z1.3850I-1.1328J0.8984
G1 X13.0831 Y-18.8125 Z1.3850
G2X12.8499Y-19.2039Z1.3850I-1.3809J0.5577
G1 X12.8498 Y-20.1696 Z1.3850
G1 X14.5039 Y-20.1709 Z1.3850
G3X14.8030Y-19.1676Z1.3850I-1.7240J1.0603
G3X14.6594Y-17.9956Z1.3850I-4.2002J0.0800
G2X13.8233Y-17.2740Z1.3850I0.4540J1.3711
G2X13.7153Y-16.9742Z1.3850I1.8566J0.8384
G2X13.9140Y-15.8102Z1.3850I1.4238J0.3559
G1 X13.8058 Y-15.5893 Z1.3850
G1 X13.5350 Y-15.0714 Z1.3850
G1 X13.3289 Y-14.5995 Z1.3850
G1 X12.8500 Y-15.0972 Z1.3850
G1 X12.8500 Y-17.2245 Z1.3850
G2X13.0831Y-18.8125Z1.3850I-1.2213J-0.9904
G1 X12.9112 Y-18.7382 Z1.3850
G3X12.6625Y-17.2881Z1.3850I-1.2929J0.5246
G1 X12.6625 Y-15.0216 Z1.3850
G1 X13.4034 Y-14.2517 Z1.3850
G3X13.7068Y-14.9963Z1.3850I4.2567J1.3004
G1 X13.9731 Y-15.5046 Z1.3850
G1 X14.1339 Y-15.8331 Z1.3850
G3X13.8970Y-16.9282Z1.3850I0.9839J-0.7860
G1 X13.9580 Y-17.1112 Z1.3850
G3X14.8142Y-17.8414Z1.3850I1.1570J0.4895
G2X14.9906Y-19.1769Z1.3850I-4.3693J-1.2567
G2X14.6114Y-20.3584Z1.3850I-2.2658J0.0756
G1 X12.6623 Y-20.3570 Z1.3850
G1 X12.6624 Y-19.1392 Z1.3850
G3X12.9112Y-18.7382Z1.3850I-1.0428J0.9249
G1 X12.7419 Y-18.6585 Z1.3850
G1 X12.6174 Y-18.8925 Z1.3850
G1 X12.4803 Y-19.0675 Z1.3850
G1 X12.4749 Y-19.0946 Z1.3850
G1 X12.4748 Y-20.4683 Z1.3850
G1 X12.4817 Y-20.5444 Z1.3850
G1 X14.7190 Y-20.5460 Z1.3850
G3X15.1742Y-18.8124Z1.3850I-2.1311J1.4861
G3X14.9661Y-17.6758Z1.3850I-5.4999J-0.4194
G2X14.1046Y-16.9582Z1.3850I0.1497J1.0558
G2X14.3189Y-15.9068Z1.3850I1.0216J0.3392
G1 X14.3595 Y-15.8675 Z1.3850
G1 X14.1404 Y-15.4197 Z1.3850
G2X13.4837Y-13.8978Z1.3850I6.2504J3.5995
G1 X12.4947 Y-14.9255 Z1.3850
G1 X12.4801 Y-14.9481 Z1.3850
G1 X12.4750 Y-14.9744 Z1.3850
G1 X12.4749 Y-17.3319 Z1.3850
G1 X12.4804 Y-17.3590 Z1.3850
G2X12.7419Y-18.6585Z1.3850I-0.8804J-0.8532
G0 Z3.3850
G0 X12.7419 Y-18.6585 
G0 Z3.3850
G0 X13.7649 Y-19.1228 
G1 X13.7649 Y-19.1228 Z1.0100 F75.
G1 X13.7455 Y-19.1658 Z1.0100 F150.
G1 X13.6096 Y-19.4202 Z1.0100
G1 X14.0090 Y-19.4205 Z1.0100
G3X14.0050Y-18.5281Z1.0100I-1.9265J0.4375
G1 X13.9556 Y-18.4986 Z1.0100
G1 X13.9331 Y-18.4842 Z1.0100
G2X13.7649Y-19.1228Z1.0100I-2.0148J0.1891
G1 X13.5946 Y-19.0449 Z1.0100
G3X13.7616Y-18.1203Z1.0100I-1.9424J0.8281
G3X14.1728Y-18.4071Z1.0100I1.3736J1.5314
G2X14.1584Y-19.5908Z1.0100I-2.3522J-0.5633
G1 X14.1510 Y-19.6081 Z1.0100
G1 X13.4123 Y-19.6076 Z1.0100
G1 X13.4123 Y-19.3883 Z1.0100
G3X13.5946Y-19.0449Z1.0100I-2.6094J1.6053
G1 X13.4239 Y-18.9679 Z1.0100
G2X13.2249Y-19.3316Z1.0100I-1.9185J0.8135
G1 X13.2248 Y-19.7949 Z1.0100
G1 X14.2743 Y-19.7957 Z1.0100
G3X14.4246Y-18.8580Z1.0100I-1.6414J0.7441
G1 X14.3896 Y-18.5434 Z1.0100
G1 X14.3391 Y-18.2779 Z1.0100
G2X13.5399Y-17.5472Z1.0100I0.7671J1.6415
G2X13.3513Y-17.0647Z1.0100I2.0879J1.0942
G2X13.4730Y-15.8154Z1.0100I1.8501J0.4504
G1 X13.4869 Y-15.7906 Z1.0100
G1 X13.4712 Y-15.7585 Z1.0100
G1 X13.2250 Y-15.2868 Z1.0100
G1 X13.2250 Y-17.0977 Z1.0100
G2X13.4239Y-18.9679Z1.0100I-1.6058J-1.1165
G1 X13.2538 Y-18.8896 Z1.0100
G1 X13.2615 Y-18.8729 Z1.0100
G3X13.0375Y-17.1609Z1.0100I-1.6359J0.6566
G1 X13.0375 Y-15.1727 Z1.0100
G1 X13.2694 Y-14.9317 Z1.0100
G1 X13.3632 Y-15.1464 Z1.0100
G1 X13.6385 Y-15.6739 Z1.0100
G1 X13.6985 Y-15.7965 Z1.0100
G3X13.5334Y-17.0197Z1.0100I1.4648J-0.8205
G3X13.6558Y-17.3583Z1.0100I2.2332J0.6162
G3X14.5024Y-18.1412Z1.0100I1.4440J0.7123
G2X14.5834Y-19.4468Z1.0100I-3.4849J-0.8714
G2X14.3964Y-19.9833Z1.0100I-1.7935J0.3243
G1 X13.0373 Y-19.9823 Z1.0100
G1 X13.0374 Y-19.2685 Z1.0100
G3X13.2538Y-18.8896Z1.0100I-1.1328J0.8984
G1 X13.0831 Y-18.8125 Z1.0100
G2X12.8499Y-19.2039Z1.0100I-1.3809J0.5577
G1 X12.8498 Y-20.1696 Z1.0100
G1 X14.5039 Y-20.1709 Z1.0100
G3X14.8030Y-19.1676Z1.0100I-1.7240J1.0603
G3X14.6594Y-17.9956Z1.0100I-4.2002J0.0800
G2X13.8233Y-17.2740Z1.0100I0.4540J1.3711
G2X13.7153Y-16.9742Z1.0100I1.8566J0.8384
G2X13.9140Y-15.8102Z1.0100I1.4238J0.3559
G1 X13.8058 Y-15.5893 Z1.0100
G1 X13.5350 Y-15.0714 Z1.0100
G1 X13.3289 Y-14.5995 Z1.0100
G1 X12.8500 Y-15.0972 Z1.0100
G1 X12.8500 Y-17.2245 Z1.0100
G2X13.0831Y-18.8125Z1.0100I-1.2213J-0.9904
G1 X12.9112 Y-18.7382 Z1.0100
G3X12.6625Y-17.2881Z1.0100I-1.2929J0.5246
G1 X12.6625 Y-15.0216 Z1.0100
G1 X13.4034 Y-14.2517 Z1.0100
G3X13.7068Y-14.9963Z1.0100I4.2567J1.3004
G1 X13.9731 Y-15.5046 Z1.0100
G1 X14.1339 Y-15.8331 Z1.0100
G3X13.8970Y-16.9282Z1.0100I0.9839J-0.7860
G1 X13.9580 Y-17.1112 Z1.0100
G3X14.8142Y-17.8414Z1.0100I1.1570J0.4895
G2X14.9906Y-19.1769Z1.0100I-4.3693J-1.2567
G2X14.6114Y-20.3584Z1.0100I-2.2658J0.0756
G1 X12.6623 Y-20.3570 Z1.0100
G1 X12.6624 Y-19.1392 Z1.0100
G3X12.9112Y-18.7382Z1.0100I-1.0428J0.9249
G1 X12.7419 Y-18.6585 Z1.0100
G1 X12.6174 Y-18.8925 Z1.0100
G1 X12.4803 Y-19.0675 Z1.0100
G1 X12.4749 Y-19.0946 Z1.0100
G1 X12.4748 Y-20.4683 Z1.0100
G1 X12.4817 Y-20.5444 Z1.0100
G1 X14.7190 Y-20.5460 Z1.0100
G3X15.1742Y-18.8124Z1.0100I-2.1311J1.4861
G3X14.9661Y-17.6758Z1.0100I-5.4999J-0.4194
G2X14.1046Y-16.9582Z1.0100I0.1497J1.0558
G2X14.3189Y-15.9068Z1.0100I1.0216J0.3392
G1 X14.3595 Y-15.8675 Z1.0100
G1 X14.1404 Y-15.4197 Z1.0100
G2X13.4837Y-13.8978Z1.0100I6.2504J3.5995
G1 X12.4947 Y-14.9255 Z1.0100
G1 X12.4801 Y-14.9481 Z1.0100
G1 X12.4750 Y-14.9744 Z1.0100
G1 X12.4749 Y-17.3319 Z1.0100
G1 X12.4804 Y-17.3590 Z1.0100
G2X12.7419Y-18.6585Z1.0100I-0.8804J-0.8532
G0 Z3.0100
G0 X12.7419 Y-18.6585 
G0 Z3.0100
G0 X13.7649 Y-19.1228 
G1 X13.7649 Y-19.1228 Z0.6350 F75.
G1 X13.7455 Y-19.1658 Z0.6350 F150.
G1 X13.6096 Y-19.4202 Z0.6350
G1 X14.0090 Y-19.4205 Z0.6350
G3X14.0050Y-18.5281Z0.6350I-1.9265J0.4375
G1 X13.9556 Y-18.4986 Z0.6350
G1 X13.9331 Y-18.4842 Z0.6350
G2X13.7649Y-19.1228Z0.6350I-2.0148J0.1891
G1 X13.5946 Y-19.0449 Z0.6350
G3X13.7616Y-18.1203Z0.6350I-1.9424J0.8281
G3X14.1728Y-18.4071Z0.6350I1.3736J1.5314
G2X14.1584Y-19.5908Z0.6350I-2.3522J-0.5633
G1 X14.1510 Y-19.6081 Z0.6350
G1 X13.4123 Y-19.6076 Z0.6350
G1 X13.4123 Y-19.3883 Z0.6350
G3X13.5946Y-19.0449Z0.6350I-2.6094J1.6053
G1 X13.4239 Y-18.9679 Z0.6350
G2X13.2249Y-19.3316Z0.6350I-1.9185J0.8135
G1 X13.2248 Y-19.7949 Z0.6350
G1 X14.2743 Y-19.7957 Z0.6350
G3X14.4246Y-18.8580Z0.6350I-1.6414J0.7441
G1 X14.3896 Y-18.5434 Z0.6350
G1 X14.3391 Y-18.2779 Z0.6350
G2X13.5399Y-17.5472Z0.6350I0.7671J1.6415
G2X13.3513Y-17.0647Z0.6350I2.0879J1.0942
G2X13.4730Y-15.8154Z0.6350I1.8501J0.4504
G1 X13.4869 Y-15.7906 Z0.6350
G1 X13.4712 Y-15.7585 Z0.6350
G1 X13.2250 Y-15.2868 Z0.6350
G1 X13.2250 Y-17.0977 Z0.6350
G2X13.4239Y-18.9679Z0.6350I-1.6058J-1.1165
G1 X13.2538 Y-18.8896 Z0.6350
G1 X13.2615 Y-18.8729 Z0.6350
G3X13.0375Y-17.1609Z0.6350I-1.6359J0.6566
G1 X13.0375 Y-15.1727 Z0.6350
G1 X13.2694 Y-14.9317 Z0.6350
G1 X13.3632 Y-15.1464 Z0.6350
G1 X13.6385 Y-15.6739 Z0.6350
G1 X13.6985 Y-15.7965 Z0.6350
G3X13.5334Y-17.0197Z0.6350I1.4648J-0.8205
G3X13.6558Y-17.3583Z0.6350I2.2332J0.6162
G3X14.5024Y-18.1412Z0.6350I1.4440J0.7123
G2X14.5834Y-19.4468Z0.6350I-3.4849J-0.8714
G2X14.3964Y-19.9833Z0.6350I-1.7935J0.3243
G1 X13.0373 Y-19.9823 Z0.6350
G1 X13.0374 Y-19.2685 Z0.6350
G3X13.2538Y-18.8896Z0.6350I-1.1328J0.8984
G1 X13.0831 Y-18.8125 Z0.6350
G2X12.8499Y-19.2039Z0.6350I-1.3809J0.5577
G1 X12.8498 Y-20.1696 Z0.6350
G1 X14.5039 Y-20.1709 Z0.6350
G3X14.8030Y-19.1676Z0.6350I-1.7240J1.0603
G3X14.6594Y-17.9956Z0.6350I-4.2002J0.0800
G2X13.8233Y-17.2740Z0.6350I0.4540J1.3711
G2X13.7153Y-16.9742Z0.6350I1.8566J0.8384
G2X13.9140Y-15.8102Z0.6350I1.4238J0.3559
G1 X13.8058 Y-15.5893 Z0.6350
G1 X13.5350 Y-15.0714 Z0.6350
G1 X13.3289 Y-14.5995 Z0.6350
G1 X12.8500 Y-15.0972 Z0.6350
G1 X12.8500 Y-17.2245 Z0.6350
G2X13.0831Y-18.8125Z0.6350I-1.2213J-0.9904
G1 X12.9112 Y-18.7382 Z0.6350
G3X12.6625Y-17.2881Z0.6350I-1.2929J0.5246
G1 X12.6625 Y-15.0216 Z0.6350
G1 X13.4034 Y-14.2517 Z0.6350
G3X13.7068Y-14.9963Z0.6350I4.2567J1.3004
G1 X13.9731 Y-15.5046 Z0.6350
G1 X14.1339 Y-15.8331 Z0.6350
G3X13.8970Y-16.9282Z0.6350I0.9839J-0.7860
G1 X13.9580 Y-17.1112 Z0.6350
G3X14.8142Y-17.8414Z0.6350I1.1570J0.4895
G2X14.9906Y-19.1769Z0.6350I-4.3693J-1.2567
G2X14.6114Y-20.3584Z0.6350I-2.2658J0.0756
G1 X12.6623 Y-20.3570 Z0.6350
G1 X12.6624 Y-19.1392 Z0.6350
G3X12.9112Y-18.7382Z0.6350I-1.0428J0.9249
G1 X12.7419 Y-18.6585 Z0.6350
G1 X12.6174 Y-18.8925 Z0.6350
G1 X12.4803 Y-19.0675 Z0.6350
G1 X12.4749 Y-19.0946 Z0.6350
G1 X12.4748 Y-20.4683 Z0.6350
G1 X12.4817 Y-20.5444 Z0.6350
G1 X14.7190 Y-20.5460 Z0.6350
G3X15.1742Y-18.8124Z0.6350I-2.1311J1.4861
G3X14.9661Y-17.6758Z0.6350I-5.4999J-0.4194
G2X14.1046Y-16.9582Z0.6350I0.1497J1.0558
G2X14.3189Y-15.9068Z0.6350I1.0216J0.3392
G1 X14.3595 Y-15.8675 Z0.6350
G1 X14.1404 Y-15.4197 Z0.6350
G2X13.4837Y-13.8978Z0.6350I6.2504J3.5995
G1 X12.4947 Y-14.9255 Z0.6350
G1 X12.4801 Y-14.9481 Z0.6350
G1 X12.4750 Y-14.9744 Z0.6350
G1 X12.4749 Y-17.3319 Z0.6350
G1 X12.4804 Y-17.3590 Z0.6350
G2X12.7419Y-18.6585Z0.6350I-0.8804J-0.8532
G0 Z2.6350
G0 X12.7419 Y-18.6585 
G0 Z2.6350
G0 X13.7649 Y-19.1228 
G1 X13.7649 Y-19.1228 Z0.2600 F75.
G1 X13.7455 Y-19.1658 Z0.2600 F150.
G1 X13.6096 Y-19.4202 Z0.2600
G1 X14.0090 Y-19.4205 Z0.2600
G3X14.0050Y-18.5281Z0.2600I-1.9265J0.4375
G1 X13.9556 Y-18.4986 Z0.2600
G1 X13.9331 Y-18.4842 Z0.2600
G2X13.7649Y-19.1228Z0.2600I-2.0148J0.1891
G1 X13.5946 Y-19.0449 Z0.2600
G3X13.7616Y-18.1203Z0.2600I-1.9424J0.8281
G3X14.1728Y-18.4071Z0.2600I1.3736J1.5314
G2X14.1584Y-19.5908Z0.2600I-2.3522J-0.5633
G1 X14.1510 Y-19.6081 Z0.2600
G1 X13.4123 Y-19.6076 Z0.2600
G1 X13.4123 Y-19.3883 Z0.2600
G3X13.5946Y-19.0449Z0.2600I-2.6094J1.6053
G1 X13.4239 Y-18.9679 Z0.2600
G2X13.2249Y-19.3316Z0.2600I-1.9185J0.8135
G1 X13.2248 Y-19.7949 Z0.2600
G1 X14.2743 Y-19.7957 Z0.2600
G3X14.4246Y-18.8580Z0.2600I-1.6414J0.7441
G1 X14.3896 Y-18.5434 Z0.2600
G1 X14.3391 Y-18.2779 Z0.2600
G2X13.5399Y-17.5472Z0.2600I0.7671J1.6415
G2X13.3513Y-17.0647Z0.2600I2.0879J1.0942
G2X13.4730Y-15.8154Z0.2600I1.8501J0.4504
G1 X13.4869 Y-15.7906 Z0.2600
G1 X13.4712 Y-15.7585 Z0.2600
G1 X13.2250 Y-15.2868 Z0.2600
G1 X13.2250 Y-17.0977 Z0.2600
G2X13.4239Y-18.9679Z0.2600I-1.6058J-1.1165
G1 X13.2538 Y-18.8896 Z0.2600
G1 X13.2615 Y-18.8729 Z0.2600
G3X13.0375Y-17.1609Z0.2600I-1.6359J0.6566
G1 X13.0375 Y-15.1727 Z0.2600
G1 X13.2694 Y-14.9317 Z0.2600
G1 X13.3632 Y-15.1464 Z0.2600
G1 X13.6385 Y-15.6739 Z0.2600
G1 X13.6985 Y-15.7965 Z0.2600
G3X13.5334Y-17.0197Z0.2600I1.4648J-0.8205
G3X13.6558Y-17.3583Z0.2600I2.2332J0.6162
G3X14.5024Y-18.1412Z0.2600I1.4440J0.7123
G2X14.5834Y-19.4468Z0.2600I-3.4849J-0.8714
G2X14.3964Y-19.9833Z0.2600I-1.7935J0.3243
G1 X13.0373 Y-19.9823 Z0.2600
G1 X13.0374 Y-19.2685 Z0.2600
G3X13.2538Y-18.8896Z0.2600I-1.1328J0.8984
G1 X13.0831 Y-18.8125 Z0.2600
G2X12.8499Y-19.2039Z0.2600I-1.3809J0.5577
G1 X12.8498 Y-20.1696 Z0.2600
G1 X14.5039 Y-20.1709 Z0.2600
G3X14.8030Y-19.1676Z0.2600I-1.7240J1.0603
G3X14.6594Y-17.9956Z0.2600I-4.2002J0.0800
G2X13.8233Y-17.2740Z0.2600I0.4540J1.3711
G2X13.7153Y-16.9742Z0.2600I1.8566J0.8384
G2X13.9140Y-15.8102Z0.2600I1.4238J0.3559
G1 X13.8058 Y-15.5893 Z0.2600
G1 X13.5350 Y-15.0714 Z0.2600
G1 X13.3289 Y-14.5995 Z0.2600
G1 X12.8500 Y-15.0972 Z0.2600
G1 X12.8500 Y-17.2245 Z0.2600
G2X13.0831Y-18.8125Z0.2600I-1.2213J-0.9904
G1 X12.9112 Y-18.7382 Z0.2600
G3X12.6625Y-17.2881Z0.2600I-1.2929J0.5246
G1 X12.6625 Y-15.0216 Z0.2600
G1 X13.4034 Y-14.2517 Z0.2600
G3X13.7068Y-14.9963Z0.2600I4.2567J1.3004
G1 X13.9731 Y-15.5046 Z0.2600
G1 X14.1339 Y-15.8331 Z0.2600
G3X13.8970Y-16.9282Z0.2600I0.9839J-0.7860
G1 X13.9580 Y-17.1112 Z0.2600
G3X14.8142Y-17.8414Z0.2600I1.1570J0.4895
G2X14.9906Y-19.1769Z0.2600I-4.3693J-1.2567
G2X14.6114Y-20.3584Z0.2600I-2.2658J0.0756
G1 X12.6623 Y-20.3570 Z0.2600
G1 X12.6624 Y-19.1392 Z0.2600
G3X12.9112Y-18.7382Z0.2600I-1.0428J0.9249
G1 X12.7419 Y-18.6585 Z0.2600
G1 X12.6174 Y-18.8925 Z0.2600
G1 X12.4803 Y-19.0675 Z0.2600
G1 X12.4749 Y-19.0946 Z0.2600
G1 X12.4748 Y-20.4683 Z0.2600
G1 X12.4817 Y-20.5444 Z0.2600
G1 X14.7190 Y-20.5460 Z0.2600
G3X15.1742Y-18.8124Z0.2600I-2.1311J1.4861
G3X14.9661Y-17.6758Z0.2600I-5.4999J-0.4194
G2X14.1046Y-16.9582Z0.2600I0.1497J1.0558
G2X14.3189Y-15.9068Z0.2600I1.0216J0.3392
G1 X14.3595 Y-15.8675 Z0.2600
G1 X14.1404 Y-15.4197 Z0.2600
G2X13.4837Y-13.8978Z0.2600I6.2504J3.5995
G1 X12.4947 Y-14.9255 Z0.2600
G1 X12.4801 Y-14.9481 Z0.2600
G1 X12.4750 Y-14.9744 Z0.2600
G1 X12.4749 Y-17.3319 Z0.2600
G1 X12.4804 Y-17.3590 Z0.2600
G2X12.7419Y-18.6585Z0.2600I-0.8804J-0.8532
G1 X12.7845 Y-18.6702 Z0.3042
G1 X12.7845 Y-18.6702 Z0.3292
G0 Z3.4600
G0 X12.7845 Y-18.6702 
G0 Z3.4600
G0 X9.2247 Y-20.4929 
G1 X9.2247 Y-20.4929 Z1.4600 F75.
G1 X9.2247 Y-20.4929 Z1.4350 F50.
G1 X9.0412 Y-20.4929 Z1.4026
G1 X9.0412 Y-20.5929 Z1.3850
G1 X9.0412 Y-20.6929 Z1.3850 F150.
G1 X10.4248 Y-20.6929 Z1.3850
G1 X10.4248 Y-20.4929 Z1.3850
G1 X9.0412 Y-20.4929 Z1.3850
G1 X9.0412 Y-20.5929 Z1.3850
G1 X8.8537 Y-20.5929 Z1.3850
G1 X8.8537 Y-20.3054 Z1.3850
G1 X10.6123 Y-20.3054 Z1.3850
G1 X10.6123 Y-20.8804 Z1.3850
G1 X8.8537 Y-20.8804 Z1.3850
G1 X8.8537 Y-20.5929 Z1.3850
G1 X8.6662 Y-20.5929 Z1.3850
G1 X8.6662 Y-21.0679 Z1.3850
G1 X10.7998 Y-21.0679 Z1.3850
G1 X10.7998 Y-20.1179 Z1.3850
G1 X8.6662 Y-20.1179 Z1.3850
G1 X8.6662 Y-20.5929 Z1.3850
G1 X8.4787 Y-20.5929 Z1.3850
G1 X8.4787 Y-19.9304 Z1.3850
G1 X10.9873 Y-19.9304 Z1.3850
G1 X10.9873 Y-21.2554 Z1.3850
G1 X8.4787 Y-21.2554 Z1.3850
G1 X8.4787 Y-20.5929 Z1.3850
G1 X8.2912 Y-20.5929 Z1.3850
G1 X8.2912 Y-21.4429 Z1.3850
G1 X11.1748 Y-21.4429 Z1.3850
G1 X11.1748 Y-19.7429 Z1.3850
G1 X8.2912 Y-19.7429 Z1.3850
G1 X8.2912 Y-20.5929 Z1.3850
G0 Z3.3850
G0 X8.2912 Y-20.5929 
G0 Z3.3850
G0 X9.0412 Y-20.5929 
G1 X9.0412 Y-20.5929 Z1.0100 F75.
G1 X9.0412 Y-20.6929 Z1.0100 F150.
G1 X10.4248 Y-20.6929 Z1.0100
G1 X10.4248 Y-20.4929 Z1.0100
G1 X9.0412 Y-20.4929 Z1.0100
G1 X9.0412 Y-20.5929 Z1.0100
G1 X8.8537 Y-20.5929 Z1.0100
G1 X8.8537 Y-20.3054 Z1.0100
G1 X10.6123 Y-20.3054 Z1.0100
G1 X10.6123 Y-20.8804 Z1.0100
G1 X8.8537 Y-20.8804 Z1.0100
G1 X8.8537 Y-20.5929 Z1.0100
G1 X8.6662 Y-20.5929 Z1.0100
G1 X8.6662 Y-21.0679 Z1.0100
G1 X10.7998 Y-21.0679 Z1.0100
G1 X10.7998 Y-20.1179 Z1.0100
G1 X8.6662 Y-20.1179 Z1.0100
G1 X8.6662 Y-20.5929 Z1.0100
G1 X8.4787 Y-20.5929 Z1.0100
G1 X8.4787 Y-19.9304 Z1.0100
G1 X10.9873 Y-19.9304 Z1.0100
G1 X10.9873 Y-21.2554 Z1.0100
G1 X8.4787 Y-21.2554 Z1.0100
G1 X8.4787 Y-20.5929 Z1.0100
G1 X8.2912 Y-20.5929 Z1.0100
G1 X8.2912 Y-21.4429 Z1.0100
G1 X11.1748 Y-21.4429 Z1.0100
G1 X11.1748 Y-19.7429 Z1.0100
G1 X8.2912 Y-19.7429 Z1.0100
G1 X8.2912 Y-20.5929 Z1.0100
G0 Z3.0100
G0 X8.2912 Y-20.5929 
G0 Z3.0100
G0 X9.0412 Y-20.5929 
G1 X9.0412 Y-20.5929 Z0.6350 F75.
G1 X9.0412 Y-20.6929 Z0.6350 F150.
G1 X10.4248 Y-20.6929 Z0.6350
G1 X10.4248 Y-20.4929 Z0.6350
G1 X9.0412 Y-20.4929 Z0.6350
G1 X9.0412 Y-20.5929 Z0.6350
G1 X8.8537 Y-20.5929 Z0.6350
G1 X8.8537 Y-20.3054 Z0.6350
G1 X10.6123 Y-20.3054 Z0.6350
G1 X10.6123 Y-20.8804 Z0.6350
G1 X8.8537 Y-20.8804 Z0.6350
G1 X8.8537 Y-20.5929 Z0.6350
G1 X8.6662 Y-20.5929 Z0.6350
G1 X8.6662 Y-21.0679 Z0.6350
G1 X10.7998 Y-21.0679 Z0.6350
G1 X10.7998 Y-20.1179 Z0.6350
G1 X8.6662 Y-20.1179 Z0.6350
G1 X8.6662 Y-20.5929 Z0.6350
G1 X8.4787 Y-20.5929 Z0.6350
G1 X8.4787 Y-19.9304 Z0.6350
G1 X10.9873 Y-19.9304 Z0.6350
G1 X10.9873 Y-21.2554 Z0.6350
G1 X8.4787 Y-21.2554 Z0.6350
G1 X8.4787 Y-20.5929 Z0.6350
G1 X8.2912 Y-20.5929 Z0.6350
G1 X8.2912 Y-21.4429 Z0.6350
G1 X11.1748 Y-21.4429 Z0.6350
G1 X11.1748 Y-19.7429 Z0.6350
G1 X8.2912 Y-19.7429 Z0.6350
G1 X8.2912 Y-20.5929 Z0.6350
G0 Z2.6350
G0 X8.2912 Y-20.5929 
G0 Z2.6350
G0 X9.0412 Y-20.5929 
G1 X9.0412 Y-20.5929 Z0.2600 F75.
G1 X9.0412 Y-20.6929 Z0.2600 F150.
G1 X10.4248 Y-20.6929 Z0.2600
G1 X10.4248 Y-20.4929 Z0.2600
G1 X9.0412 Y-20.4929 Z0.2600
G1 X9.0412 Y-20.5929 Z0.2600
G1 X8.8537 Y-20.5929 Z0.2600
G1 X8.8537 Y-20.3054 Z0.2600
G1 X10.6123 Y-20.3054 Z0.2600
G1 X10.6123 Y-20.8804 Z0.2600
G1 X8.8537 Y-20.8804 Z0.2600
G1 X8.8537 Y-20.5929 Z0.2600
G1 X8.6662 Y-20.5929 Z0.2600
G1 X8.6662 Y-21.0679 Z0.2600
G1 X10.7998 Y-21.0679 Z0.2600
G1 X10.7998 Y-20.1179 Z0.2600
G1 X8.6662 Y-20.1179 Z0.2600
G1 X8.6662 Y-20.5929 Z0.2600
G1 X8.4787 Y-20.5929 Z0.2600
G1 X8.4787 Y-19.9304 Z0.2600
G1 X10.9873 Y-19.9304 Z0.2600
G1 X10.9873 Y-21.2554 Z0.2600
G1 X8.4787 Y-21.2554 Z0.2600
G1 X8.4787 Y-20.5929 Z0.2600
G1 X8.2912 Y-20.5929 Z0.2600
G1 X8.2912 Y-21.4429 Z0.2600
G1 X11.1748 Y-21.4429 Z0.2600
G1 X11.1748 Y-19.7429 Z0.2600
G1 X8.2912 Y-19.7429 Z0.2600
G1 X8.2912 Y-20.5929 Z0.2600
G1 X8.3354 Y-20.5929 Z0.3042
G1 X8.3354 Y-20.5929 Z0.3292
G0 Z6.0000
G0 X8.3354 Y-20.5929 
M5
G53 Z
( MOP:  04-Chambered-01 )
( FILE: G:\Shared drives\AlloyProjectFiles\Customer CAD files\Alloy-Standard-Builds-CAM\s-in\Chambering\04-Chambered-01.nc)
G90
(  BEGIN TOOL LIST )
(  TOOL 11 - Downcut PT750 ROUGH - DESC: 0.7500 DIA, 2 FLUTE,  CARBIDE MAT )
(  ENDOF TOOL LIST )
( 04-Chambered-01)
T11
S14000
M3
G0 Z6.0000
G0 X29.3540 Y-18.8541 
G1 X29.3540 Y-18.8541 Z1.4600 F75.
G1 X29.3540 Y-18.8541 Z1.4350 F50.
G1 X29.3137 Y-18.9978 Z1.4087
G1 X29.2843 Y-19.0798 Z1.3933
G1 X29.2649 Y-19.1228 Z1.3850
G1 X29.2455 Y-19.1658 Z1.3850 F150.
G1 X29.1096 Y-19.4202 Z1.3850
G1 X29.5090 Y-19.4205 Z1.3850
G17
G3X29.5050Y-18.5281Z1.3850I-1.9265J0.4375
G1 X29.4556 Y-18.4986 Z1.3850
G1 X29.4331 Y-18.4842 Z1.3850
G2X29.2649Y-19.1228Z1.3850I-2.0148J0.1891
G1 X29.0946 Y-19.0449 Z1.3850
G3X29.2616Y-18.1203Z1.3850I-1.9424J0.8281
G3X29.6728Y-18.4071Z1.3850I1.3736J1.5314
G2X29.6584Y-19.5908Z1.3850I-2.3522J-0.5633
G1 X29.6510 Y-19.6081 Z1.3850
G1 X28.9123 Y-19.6076 Z1.3850
G1 X28.9123 Y-19.3883 Z1.3850
G3X29.0946Y-19.0449Z1.3850I-2.6094J1.6053
G1 X28.9239 Y-18.9679 Z1.3850
G2X28.7249Y-19.3316Z1.3850I-1.9185J0.8135
G1 X28.7248 Y-19.7949 Z1.3850
G1 X29.7743 Y-19.7957 Z1.3850
G3X29.9246Y-18.8580Z1.3850I-1.6414J0.7441
G1 X29.8896 Y-18.5434 Z1.3850
G1 X29.8391 Y-18.2779 Z1.3850
G2X29.0399Y-17.5472Z1.3850I0.7671J1.6415
G2X28.8513Y-17.0647Z1.3850I2.0879J1.0942
G2X28.9730Y-15.8154Z1.3850I1.8501J0.4504
G1 X28.9869 Y-15.7906 Z1.3850
G1 X28.9712 Y-15.7585 Z1.3850
G1 X28.7250 Y-15.2868 Z1.3850
G1 X28.7250 Y-17.0977 Z1.3850
G2X28.9239Y-18.9679Z1.3850I-1.6058J-1.1165
G1 X28.7538 Y-18.8896 Z1.3850
G1 X28.7615 Y-18.8729 Z1.3850
G3X28.5375Y-17.1609Z1.3850I-1.6359J0.6566
G1 X28.5375 Y-15.1727 Z1.3850
G1 X28.7694 Y-14.9317 Z1.3850
G1 X28.8632 Y-15.1464 Z1.3850
G1 X29.1385 Y-15.6739 Z1.3850
G1 X29.1985 Y-15.7965 Z1.3850
G3X29.0334Y-17.0197Z1.3850I1.4648J-0.8205
G3X29.1558Y-17.3583Z1.3850I2.2332J0.6162
G3X30.0024Y-18.1412Z1.3850I1.4440J0.7123
G2X30.0834Y-19.4468Z1.3850I-3.4849J-0.8714
G2X29.8964Y-19.9833Z1.3850I-1.7935J0.3243
G1 X28.5373 Y-19.9823 Z1.3850
G1 X28.5374 Y-19.2685 Z1.3850
G3X28.7538Y-18.8896Z1.3850I-1.1328J0.8984
G1 X28.5831 Y-18.8125 Z1.3850
G2X28.3499Y-19.2039Z1.3850I-1.3809J0.5577
G1 X28.3498 Y-20.1696 Z1.3850
G1 X30.0039 Y-20.1709 Z1.3850
G3X30.3030Y-19.1676Z1.3850I-1.7240J1.0603
G3X30.1594Y-17.9956Z1.3850I-4.2002J0.0800
G2X29.3233Y-17.2740Z1.3850I0.4540J1.3711
G2X29.2153Y-16.9742Z1.3850I1.8566J0.8384
G2X29.4140Y-15.8102Z1.3850I1.4238J0.3559
G1 X29.3058 Y-15.5893 Z1.3850
G1 X29.0350 Y-15.0714 Z1.3850
G1 X28.8289 Y-14.5995 Z1.3850
G1 X28.3500 Y-15.0972 Z1.3850
G1 X28.3500 Y-17.2245 Z1.3850
G2X28.5831Y-18.8125Z1.3850I-1.2213J-0.9904
G1 X28.4112 Y-18.7382 Z1.3850
G3X28.1625Y-17.2881Z1.3850I-1.2929J0.5246
G1 X28.1625 Y-15.0216 Z1.3850
G1 X28.9034 Y-14.2517 Z1.3850
G3X29.2068Y-14.9963Z1.3850I4.2567J1.3004
G1 X29.4731 Y-15.5046 Z1.3850
G1 X29.6339 Y-15.8331 Z1.3850
G3X29.3970Y-16.9282Z1.3850I0.9839J-0.7860
G1 X29.4580 Y-17.1112 Z1.3850
G3X30.3142Y-17.8414Z1.3850I1.1570J0.4895
G2X30.4906Y-19.1769Z1.3850I-4.3693J-1.2567
G2X30.1114Y-20.3584Z1.3850I-2.2658J0.0756
G1 X28.1623 Y-20.3570 Z1.3850
G1 X28.1624 Y-19.1392 Z1.3850
G3X28.4112Y-18.7382Z1.3850I-1.0428J0.9249
G1 X28.2419 Y-18.6585 Z1.3850
G1 X28.1174 Y-18.8925 Z1.3850
G1 X27.9803 Y-19.0675 Z1.3850
G1 X27.9749 Y-19.0946 Z1.3850
G1 X27.9748 Y-20.4683 Z1.3850
G1 X27.9817 Y-20.5444 Z1.3850
G1 X30.2190 Y-20.5460 Z1.3850
G3X30.6742Y-18.8124Z1.3850I-2.1311J1.4861
G3X30.4661Y-17.6758Z1.3850I-5.4999J-0.4194
G2X29.6046Y-16.9582Z1.3850I0.1497J1.0558
G2X29.8189Y-15.9068Z1.3850I1.0216J0.3392
G1 X29.8595 Y-15.8675 Z1.3850
G1 X29.6404 Y-15.4197 Z1.3850
G2X28.9837Y-13.8978Z1.3850I6.2504J3.5995
G1 X27.9947 Y-14.9255 Z1.3850
G1 X27.9801 Y-14.9481 Z1.3850
G1 X27.9750 Y-14.9744 Z1.3850
G1 X27.9749 Y-17.3319 Z1.3850
G1 X27.9804 Y-17.3590 Z1.3850
G2X28.2419Y-18.6585Z1.3850I-0.8804J-0.8532
G0 Z3.3850
G0 X28.2419 Y-18.6585 
G0 Z3.3850
G0 X29.2649 Y-19.1228 
G1 X29.2649 Y-19.1228 Z1.0100 F75.
G1 X29.2455 Y-19.1658 Z1.0100 F150.
G1 X29.1096 Y-19.4202 Z1.0100
G1 X29.5090 Y-19.4205 Z1.0100
G3X29.5050Y-18.5281Z1.0100I-1.9265J0.4375
G1 X29.4556 Y-18.4986 Z1.0100
G1 X29.4331 Y-18.4842 Z1.0100
G2X29.2649Y-19.1228Z1.0100I-2.0148J0.1891
G1 X29.0946 Y-19.0449 Z1.0100
G3X29.2616Y-18.1203Z1.0100I-1.9424J0.8281
G3X29.6728Y-18.4071Z1.0100I1.3736J1.5314
G2X29.6584Y-19.5908Z1.0100I-2.3522J-0.5633
G1 X29.6510 Y-19.6081 Z1.0100
G1 X28.9123 Y-19.6076 Z1.0100
G1 X28.9123 Y-19.3883 Z1.0100
G3X29.0946Y-19.0449Z1.0100I-2.6094J1.6053
G1 X28.9239 Y-18.9679 Z1.0100
G2X28.7249Y-19.3316Z1.0100I-1.9185J0.8135
G1 X28.7248 Y-19.7949 Z1.0100
G1 X29.7743 Y-19.7957 Z1.0100
G3X29.9246Y-18.8580Z1.0100I-1.6414J0.7441
G1 X29.8896 Y-18.5434 Z1.0100
G1 X29.8391 Y-18.2779 Z1.0100
G2X29.0399Y-17.5472Z1.0100I0.7671J1.6415
G2X28.8513Y-17.0647Z1.0100I2.0879J1.0942
G2X28.9730Y-15.8154Z1.0100I1.8501J0.4504
G1 X28.9869 Y-15.7906 Z1.0100
G1 X28.9712 Y-15.7585 Z1.0100
G1 X28.7250 Y-15.2868 Z1.0100
G1 X28.7250 Y-17.0977 Z1.0100
G2X28.9239Y-18.9679Z1.0100I-1.6058J-1.1165
G1 X28.7538 Y-18.8896 Z1.0100
G1 X28.7615 Y-18.8729 Z1.0100
G3X28.5375Y-17.1609Z1.0100I-1.6359J0.6566
G1 X28.5375 Y-15.1727 Z1.0100
G1 X28.7694 Y-14.9317 Z1.0100
G1 X28.8632 Y-15.1464 Z1.0100
G1 X29.1385 Y-15.6739 Z1.0100
G1 X29.1985 Y-15.7965 Z1.0100
G3X29.0334Y-17.0197Z1.0100I1.4648J-0.8205
G3X29.1558Y-17.3583Z1.0100I2.2332J0.6162
G3X30.0024Y-18.1412Z1.0100I1.4440J0.7123
G2X30.0834Y-19.4468Z1.0100I-3.4849J-0.8714
G2X29.8964Y-19.9833Z1.0100I-1.7935J0.3243
G1 X28.5373 Y-19.9823 Z1.0100
G1 X28.5374 Y-19.2685 Z1.0100
G3X28.7538Y-18.8896Z1.0100I-1.1328J0.8984
G1 X28.5831 Y-18.8125 Z1.0100
G2X28.3499Y-19.2039Z1.0100I-1.3809J0.5577
G1 X28.3498 Y-20.1696 Z1.0100
G1 X30.0039 Y-20.1709 Z1.0100
G3X30.3030Y-19.1676Z1.0100I-1.7240J1.0603
G3X30.1594Y-17.9956Z1.0100I-4.2002J0.0800
G2X29.3233Y-17.2740Z1.0100I0.4540J1.3711
G2X29.2153Y-16.9742Z1.0100I1.8566J0.8384
G2X29.4140Y-15.8102Z1.0100I1.4238J0.3559
G1 X29.3058 Y-15.5893 Z1.0100
G1 X29.0350 Y-15.0714 Z1.0100
G1 X28.8289 Y-14.5995 Z1.0100
G1 X28.3500 Y-15.0972 Z1.0100
G1 X28.3500 Y-17.2245 Z1.0100
G2X28.5831Y-18.8125Z1.0100I-1.2213J-0.9904
G1 X28.4112 Y-18.7382 Z1.0100
G3X28.1625Y-17.2881Z1.0100I-1.2929J0.5246
G1 X28.1625 Y-15.0216 Z1.0100
G1 X28.9034 Y-14.2517 Z1.0100
G3X29.2068Y-14.9963Z1.0100I4.2567J1.3004
G1 X29.4731 Y-15.5046 Z1.0100
G1 X29.6339 Y-15.8331 Z1.0100
G3X29.3970Y-16.9282Z1.0100I0.9839J-0.7860
G1 X29.4580 Y-17.1112 Z1.0100
G3X30.3142Y-17.8414Z1.0100I1.1570J0.4895
G2X30.4906Y-19.1769Z1.0100I-4.3693J-1.2567
G2X30.1114Y-20.3584Z1.0100I-2.2658J0.0756
G1 X28.1623 Y-20.3570 Z1.0100
G1 X28.1624 Y-19.1392 Z1.0100
G3X28.4112Y-18.7382Z1.0100I-1.0428J0.9249
G1 X28.2419 Y-18.6585 Z1.0100
G1 X28.1174 Y-18.8925 Z1.0100
G1 X27.9803 Y-19.0675 Z1.0100
G1 X27.9749 Y-19.0946 Z1.0100
G1 X27.9748 Y-20.4683 Z1.0100
G1 X27.9817 Y-20.5444 Z1.0100
G1 X30.2190 Y-20.5460 Z1.0100
G3X30.6742Y-18.8124Z1.0100I-2.1311J1.4861
G3X30.4661Y-17.6758Z1.0100I-5.4999J-0.4194
G2X29.6046Y-16.9582Z1.0100I0.1497J1.0558
G2X29.8189Y-15.9068Z1.0100I1.0216J0.3392
G1 X29.8595 Y-15.8675 Z1.0100
G1 X29.6404 Y-15.4197 Z1.0100
G2X28.9837Y-13.8978Z1.0100I6.2504J3.5995
G1 X27.9947 Y-14.9255 Z1.0100
G1 X27.9801 Y-14.9481 Z1.0100
G1 X27.9750 Y-14.9744 Z1.0100
G1 X27.9749 Y-17.3319 Z1.0100
G1 X27.9804 Y-17.3590 Z1.0100
G2X28.2419Y-18.6585Z1.0100I-0.8804J-0.8532
G0 Z3.0100
G0 X28.2419 Y-18.6585 
G0 Z3.0100
G0 X29.2649 Y-19.1228 
G1 X29.2649 Y-19.1228 Z0.6350 F75.
G1 X29.2455 Y-19.1658 Z0.6350 F150.
G1 X29.1096 Y-19.4202 Z0.6350
G1 X29.5090 Y-19.4205 Z0.6350
G3X29.5050Y-18.5281Z0.6350I-1.9265J0.4375
G1 X29.4556 Y-18.4986 Z0.6350
G1 X29.4331 Y-18.4842 Z0.6350
G2X29.2649Y-19.1228Z0.6350I-2.0148J0.1891
G1 X29.0946 Y-19.0449 Z0.6350
G3X29.2616Y-18.1203Z0.6350I-1.9424J0.8281
G3X29.6728Y-18.4071Z0.6350I1.3736J1.5314
G2X29.6584Y-19.5908Z0.6350I-2.3522J-0.5633
G1 X29.6510 Y-19.6081 Z0.6350
G1 X28.9123 Y-19.6076 Z0.6350
G1 X28.9123 Y-19.3883 Z0.6350
G3X29.0946Y-19.0449Z0.6350I-2.6094J1.6053
G1 X28.9239 Y-18.9679 Z0.6350
G2X28.7249Y-19.3316Z0.6350I-1.9185J0.8135
G1 X28.7248 Y-19.7949 Z0.6350
G1 X29.7743 Y-19.7957 Z0.6350
G3X29.9246Y-18.8580Z0.6350I-1.6414J0.7441
G1 X29.8896 Y-18.5434 Z0.6350
G1 X29.8391 Y-18.2779 Z0.6350
G2X29.0399Y-17.5472Z0.6350I0.7671J1.6415
G2X28.8513Y-17.0647Z0.6350I2.0879J1.0942
G2X28.9730Y-15.8154Z0.6350I1.8501J0.4504
G1 X28.9869 Y-15.7906 Z0.6350
G1 X28.9712 Y-15.7585 Z0.6350
G1 X28.7250 Y-15.2868 Z0.6350
G1 X28.7250 Y-17.0977 Z0.6350
G2X28.9239Y-18.9679Z0.6350I-1.6058J-1.1165
G1 X28.7538 Y-18.8896 Z0.6350
G1 X28.7615 Y-18.8729 Z0.6350
G3X28.5375Y-17.1609Z0.6350I-1.6359J0.6566
G1 X28.5375 Y-15.1727 Z0.6350
G1 X28.7694 Y-14.9317 Z0.6350
G1 X28.8632 Y-15.1464 Z0.6350
G1 X29.1385 Y-15.6739 Z0.6350
G1 X29.1985 Y-15.7965 Z0.6350
G3X29.0334Y-17.0197Z0.6350I1.4648J-0.8205
G3X29.1558Y-17.3583Z0.6350I2.2332J0.6162
G3X30.0024Y-18.1412Z0.6350I1.4440J0.7123
G2X30.0834Y-19.4468Z0.6350I-3.4849J-0.8714
G2X29.8964Y-19.9833Z0.6350I-1.7935J0.3243
G1 X28.5373 Y-19.9823 Z0.6350
G1 X28.5374 Y-19.2685 Z0.6350
G3X28.7538Y-18.8896Z0.6350I-1.1328J0.8984
G1 X28.5831 Y-18.8125 Z0.6350
G2X28.3499Y-19.2039Z0.6350I-1.3809J0.5577
G1 X28.3498 Y-20.1696 Z0.6350
G1 X30.0039 Y-20.1709 Z0.6350
G3X30.3030Y-19.1676Z0.6350I-1.7240J1.0603
G3X30.1594Y-17.9956Z0.6350I-4.2002J0.0800
G2X29.3233Y-17.2740Z0.6350I0.4540J1.3711
G2X29.2153Y-16.9742Z0.6350I1.8566J0.8384
G2X29.4140Y-15.8102Z0.6350I1.4238J0.3559
G1 X29.3058 Y-15.5893 Z0.6350
G1 X29.0350 Y-15.0714 Z0.6350
G1 X28.8289 Y-14.5995 Z0.6350
G1 X28.3500 Y-15.0972 Z0.6350
G1 X28.3500 Y-17.2245 Z0.6350
G2X28.5831Y-18.8125Z0.6350I-1.2213J-0.9904
G1 X28.4112 Y-18.7382 Z0.6350
G3X28.1625Y-17.2881Z0.6350I-1.2929J0.5246
G1 X28.1625 Y-15.0216 Z0.6350
G1 X28.9034 Y-14.2517 Z0.6350
G3X29.2068Y-14.9963Z0.6350I4.2567J1.3004
G1 X29.4731 Y-15.5046 Z0.6350
G1 X29.6339 Y-15.8331 Z0.6350
G3X29.3970Y-16.9282Z0.6350I0.9839J-0.7860
G1 X29.4580 Y-17.1112 Z0.6350
G3X30.3142Y-17.8414Z0.6350I1.1570J0.4895
G2X30.4906Y-19.1769Z0.6350I-4.3693J-1.2567
G2X30.1114Y-20.3584Z0.6350I-2.2658J0.0756
G1 X28.1623 Y-20.3570 Z0.6350
G1 X28.1624 Y-19.1392 Z0.6350
G3X28.4112Y-18.7382Z0.6350I-1.0428J0.9249
G1 X28.2419 Y-18.6585 Z0.6350
G1 X28.1174 Y-18.8925 Z0.6350
G1 X27.9803 Y-19.0675 Z0.6350
G1 X27.9749 Y-19.0946 Z0.6350
G1 X27.9748 Y-20.4683 Z0.6350
G1 X27.9817 Y-20.5444 Z0.6350
G1 X30.2190 Y-20.5460 Z0.6350
G3X30.6742Y-18.8124Z0.6350I-2.1311J1.4861
G3X30.4661Y-17.6758Z0.6350I-5.4999J-0.4194
G2X29.6046Y-16.9582Z0.6350I0.1497J1.0558
G2X29.8189Y-15.9068Z0.6350I1.0216J0.3392
G1 X29.8595 Y-15.8675 Z0.6350
G1 X29.6404 Y-15.4197 Z0.6350
G2X28.9837Y-13.8978Z0.6350I6.2504J3.5995
G1 X27.9947 Y-14.9255 Z0.6350
G1 X27.9801 Y-14.9481 Z0.6350
G1 X27.9750 Y-14.9744 Z0.6350
G1 X27.9749 Y-17.3319 Z0.6350
G1 X27.9804 Y-17.3590 Z0.6350
G2X28.2419Y-18.6585Z0.6350I-0.8804J-0.8532
G0 Z2.6350
G0 X28.2419 Y-18.6585 
G0 Z2.6350
G0 X29.2649 Y-19.1228 
G1 X29.2649 Y-19.1228 Z0.2600 F75.
G1 X29.2455 Y-19.1658 Z0.2600 F150.
G1 X29.1096 Y-19.4202 Z0.2600
G1 X29.5090 Y-19.4205 Z0.2600
G3X29.5050Y-18.5281Z0.2600I-1.9265J0.4375
G1 X29.4556 Y-18.4986 Z0.2600
G1 X29.4331 Y-18.4842 Z0.2600
G2X29.2649Y-19.1228Z0.2600I-2.0148J0.1891
G1 X29.0946 Y-19.0449 Z0.2600
G3X29.2616Y-18.1203Z0.2600I-1.9424J0.8281
G3X29.6728Y-18.4071Z0.2600I1.3736J1.5314
G2X29.6584Y-19.5908Z0.2600I-2.3522J-0.5633
G1 X29.6510 Y-19.6081 Z0.2600
G1 X28.9123 Y-19.6076 Z0.2600
G1 X28.9123 Y-19.3883 Z0.2600
G3X29.0946Y-19.0449Z0.2600I-2.6094J1.6053
G1 X28.9239 Y-18.9679 Z0.2600
G2X28.7249Y-19.3316Z0.2600I-1.9185J0.8135
G1 X28.7248 Y-19.7949 Z0.2600
G1 X29.7743 Y-19.7957 Z0.2600
G3X29.9246Y-18.8580Z0.2600I-1.6414J0.7441
G1 X29.8896 Y-18.5434 Z0.2600
G1 X29.8391 Y-18.2779 Z0.2600
G2X29.0399Y-17.5472Z0.2600I0.7671J1.6415
G2X28.8513Y-17.0647Z0.2600I2.0879J1.0942
G2X28.9730Y-15.8154Z0.2600I1.8501J0.4504
G1 X28.9869 Y-15.7906 Z0.2600
G1 X28.9712 Y-15.7585 Z0.2600
G1 X28.7250 Y-15.2868 Z0.2600
G1 X28.7250 Y-17.0977 Z0.2600
G2X28.9239Y-18.9679Z0.2600I-1.6058J-1.1165
G1 X28.7538 Y-18.8896 Z0.2600
G1 X28.7615 Y-18.8729 Z0.2600
G3X28.5375Y-17.1609Z0.2600I-1.6359J0.6566
G1 X28.5375 Y-15.1727 Z0.2600
G1 X28.7694 Y-14.9317 Z0.2600
G1 X28.8632 Y-15.1464 Z0.2600
G1 X29.1385 Y-15.6739 Z0.2600
G1 X29.1985 Y-15.7965 Z0.2600
G3X29.0334Y-17.0197Z0.2600I1.4648J-0.8205
G3X29.1558Y-17.3583Z0.2600I2.2332J0.6162
G3X30.0024Y-18.1412Z0.2600I1.4440J0.7123
G2X30.0834Y-19.4468Z0.2600I-3.4849J-0.8714
G2X29.8964Y-19.9833Z0.2600I-1.7935J0.3243
G1 X28.5373 Y-19.9823 Z0.2600
G1 X28.5374 Y-19.2685 Z0.2600
G3X28.7538Y-18.8896Z0.2600I-1.1328J0.8984
G1 X28.5831 Y-18.8125 Z0.2600
G2X28.3499Y-19.2039Z0.2600I-1.3809J0.5577
G1 X28.3498 Y-20.1696 Z0.2600
G1 X30.0039 Y-20.1709 Z0.2600
G3X30.3030Y-19.1676Z0.2600I-1.7240J1.0603
G3X30.1594Y-17.9956Z0.2600I-4.2002J0.0800
G2X29.3233Y-17.2740Z0.2600I0.4540J1.3711
G2X29.2153Y-16.9742Z0.2600I1.8566J0.8384
G2X29.4140Y-15.8102Z0.2600I1.4238J0.3559
G1 X29.3058 Y-15.5893 Z0.2600
G1 X29.0350 Y-15.0714 Z0.2600
G1 X28.8289 Y-14.5995 Z0.2600
G1 X28.3500 Y-15.0972 Z0.2600
G1 X28.3500 Y-17.2245 Z0.2600
G2X28.5831Y-18.8125Z0.2600I-1.2213J-0.9904
G1 X28.4112 Y-18.7382 Z0.2600
G3X28.1625Y-17.2881Z0.2600I-1.2929J0.5246
G1 X28.1625 Y-15.0216 Z0.2600
G1 X28.9034 Y-14.2517 Z0.2600
G3X29.2068Y-14.9963Z0.2600I4.2567J1.3004
G1 X29.4731 Y-15.5046 Z0.2600
G1 X29.6339 Y-15.8331 Z0.2600
G3X29.3970Y-16.9282Z0.2600I0.9839J-0.7860
G1 X29.4580 Y-17.1112 Z0.2600
G3X30.3142Y-17.8414Z0.2600I1.1570J0.4895
G2X30.4906Y-19.1769Z0.2600I-4.3693J-1.2567
G2X30.1114Y-20.3584Z0.2600I-2.2658J0.0756
G1 X28.1623 Y-20.3570 Z0.2600
G1 X28.1624 Y-19.1392 Z0.2600
G3X28.4112Y-18.7382Z0.2600I-1.0428J0.9249
G1 X28.2419 Y-18.6585 Z0.2600
G1 X28.1174 Y-18.8925 Z0.2600
G1 X27.9803 Y-19.0675 Z0.2600
G1 X27.9749 Y-19.0946 Z0.2600
G1 X27.9748 Y-20.4683 Z0.2600
G1 X27.9817 Y-20.5444 Z0.2600
G1 X30.2190 Y-20.5460 Z0.2600
G3X30.6742Y-18.8124Z0.2600I-2.1311J1.4861
G3X30.4661Y-17.6758Z0.2600I-5.4999J-0.4194
G2X29.6046Y-16.9582Z0.2600I0.1497J1.0558
G2X29.8189Y-15.9068Z0.2600I1.0216J0.3392
G1 X29.8595 Y-15.8675 Z0.2600
G1 X29.6404 Y-15.4197 Z0.2600
G2X28.9837Y-13.8978Z0.2600I6.2504J3.5995
G1 X27.9947 Y-14.9255 Z0.2600
G1 X27.9801 Y-14.9481 Z0.2600
G1 X27.9750 Y-14.9744 Z0.2600
G1 X27.9749 Y-17.3319 Z0.2600
G1 X27.9804 Y-17.3590 Z0.2600
G2X28.2419Y-18.6585Z0.2600I-0.8804J-0.8532
G1 X28.2845 Y-18.6702 Z0.3042
G1 X28.2845 Y-18.6702 Z0.3292
G0 Z3.4600
G0 X28.2845 Y-18.6702 
G0 Z3.4600
G0 X24.7247 Y-20.4929 
G1 X24.7247 Y-20.4929 Z1.4600 F75.
G1 X24.7247 Y-20.4929 Z1.4350 F50.
G1 X24.5412 Y-20.4929 Z1.4026
G1 X24.5412 Y-20.5929 Z1.3850
G1 X24.5412 Y-20.6929 Z1.3850 F150.
G1 X25.9248 Y-20.6929 Z1.3850
G1 X25.9248 Y-20.4929 Z1.3850
G1 X24.5412 Y-20.4929 Z1.3850
G1 X24.5412 Y-20.5929 Z1.3850
G1 X24.3537 Y-20.5929 Z1.3850
G1 X24.3537 Y-20.3054 Z1.3850
G1 X26.1123 Y-20.3054 Z1.3850
G1 X26.1123 Y-20.8804 Z1.3850
G1 X24.3537 Y-20.8804 Z1.3850
G1 X24.3537 Y-20.5929 Z1.3850
G1 X24.1662 Y-20.5929 Z1.3850
G1 X24.1662 Y-21.0679 Z1.3850
G1 X26.2998 Y-21.0679 Z1.3850
G1 X26.2998 Y-20.1179 Z1.3850
G1 X24.1662 Y-20.1179 Z1.3850
G1 X24.1662 Y-20.5929 Z1.3850
G1 X23.9787 Y-20.5929 Z1.3850
G1 X23.9787 Y-19.9304 Z1.3850
G1 X26.4873 Y-19.9304 Z1.3850
G1 X26.4873 Y-21.2554 Z1.3850
G1 X23.9787 Y-21.2554 Z1.3850
G1 X23.9787 Y-20.5929 Z1.3850
G1 X23.7912 Y-20.5929 Z1.3850
G1 X23.7912 Y-21.4429 Z1.3850
G1 X26.6748 Y-21.4429 Z1.3850
G1 X26.6748 Y-19.7429 Z1.3850
G1 X23.7912 Y-19.7429 Z1.3850
G1 X23.7912 Y-20.5929 Z1.3850
G0 Z3.3850
G0 X23.7912 Y-20.5929 
G0 Z3.3850
G0 X24.5412 Y-20.5929 
G1 X24.5412 Y-20.5929 Z1.0100 F75.
G1 X24.5412 Y-20.6929 Z1.0100 F150.
G1 X25.9248 Y-20.6929 Z1.0100
G1 X25.9248 Y-20.4929 Z1.0100
G1 X24.5412 Y-20.4929 Z1.0100
G1 X24.5412 Y-20.5929 Z1.0100
G1 X24.3537 Y-20.5929 Z1.0100
G1 X24.3537 Y-20.3054 Z1.0100
G1 X26.1123 Y-20.3054 Z1.0100
G1 X26.1123 Y-20.8804 Z1.0100
G1 X24.3537 Y-20.8804 Z1.0100
G1 X24.3537 Y-20.5929 Z1.0100
G1 X24.1662 Y-20.5929 Z1.0100
G1 X24.1662 Y-21.0679 Z1.0100
G1 X26.2998 Y-21.0679 Z1.0100
G1 X26.2998 Y-20.1179 Z1.0100
G1 X24.1662 Y-20.1179 Z1.0100
G1 X24.1662 Y-20.5929 Z1.0100
G1 X23.9787 Y-20.5929 Z1.0100
G1 X23.9787 Y-19.9304 Z1.0100
G1 X26.4873 Y-19.9304 Z1.0100
G1 X26.4873 Y-21.2554 Z1.0100
G1 X23.9787 Y-21.2554 Z1.0100
G1 X23.9787 Y-20.5929 Z1.0100
G1 X23.7912 Y-20.5929 Z1.0100
G1 X23.7912 Y-21.4429 Z1.0100
G1 X26.6748 Y-21.4429 Z1.0100
G1 X26.6748 Y-19.7429 Z1.0100
G1 X23.7912 Y-19.7429 Z1.0100
G1 X23.7912 Y-20.5929 Z1.0100
G0 Z3.0100
G0 X23.7912 Y-20.5929 
G0 Z3.0100
G0 X24.5412 Y-20.5929 
G1 X24.5412 Y-20.5929 Z0.6350 F75.
G1 X24.5412 Y-20.6929 Z0.6350 F150.
G1 X25.9248 Y-20.6929 Z0.6350
G1 X25.9248 Y-20.4929 Z0.6350
G1 X24.5412 Y-20.4929 Z0.6350
G1 X24.5412 Y-20.5929 Z0.6350
G1 X24.3537 Y-20.5929 Z0.6350
G1 X24.3537 Y-20.3054 Z0.6350
G1 X26.1123 Y-20.3054 Z0.6350
G1 X26.1123 Y-20.8804 Z0.6350
G1 X24.3537 Y-20.8804 Z0.6350
G1 X24.3537 Y-20.5929 Z0.6350
G1 X24.1662 Y-20.5929 Z0.6350
G1 X24.1662 Y-21.0679 Z0.6350
G1 X26.2998 Y-21.0679 Z0.6350
G1 X26.2998 Y-20.1179 Z0.6350
G1 X24.1662 Y-20.1179 Z0.6350
G1 X24.1662 Y-20.5929 Z0.6350
G1 X23.9787 Y-20.5929 Z0.6350
G1 X23.9787 Y-19.9304 Z0.6350
G1 X26.4873 Y-19.9304 Z0.6350
G1 X26.4873 Y-21.2554 Z0.6350
G1 X23.9787 Y-21.2554 Z0.6350
G1 X23.9787 Y-20.5929 Z0.6350
G1 X23.7912 Y-20.5929 Z0.6350
G1 X23.7912 Y-21.4429 Z0.6350
G1 X26.6748 Y-21.4429 Z0.6350
G1 X26.6748 Y-19.7429 Z0.6350
G1 X23.7912 Y-19.7429 Z0.6350
G1 X23.7912 Y-20.5929 Z0.6350
G0 Z2.6350
G0 X23.7912 Y-20.5929 
G0 Z2.6350
G0 X24.5412 Y-20.5929 
G1 X24.5412 Y-20.5929 Z0.2600 F75.
G1 X24.5412 Y-20.6929 Z0.2600 F150.
G1 X25.9248 Y-20.6929 Z0.2600
G1 X25.9248 Y-20.4929 Z0.2600
G1 X24.5412 Y-20.4929 Z0.2600
G1 X24.5412 Y-20.5929 Z0.2600
G1 X24.3537 Y-20.5929 Z0.2600
G1 X24.3537 Y-20.3054 Z0.2600
G1 X26.1123 Y-20.3054 Z0.2600
G1 X26.1123 Y-20.8804 Z0.2600
G1 X24.3537 Y-20.8804 Z0.2600
G1 X24.3537 Y-20.5929 Z0.2600
G1 X24.1662 Y-20.5929 Z0.2600
G1 X24.1662 Y-21.0679 Z0.2600
G1 X26.2998 Y-21.0679 Z0.2600
G1 X26.2998 Y-20.1179 Z0.2600
G1 X24.1662 Y-20.1179 Z0.2600
G1 X24.1662 Y-20.5929 Z0.2600
G1 X23.9787 Y-20.5929 Z0.2600
G1 X23.9787 Y-19.9304 Z0.2600
G1 X26.4873 Y-19.9304 Z0.2600
G1 X26.4873 Y-21.2554 Z0.2600
G1 X23.9787 Y-21.2554 Z0.2600
G1 X23.9787 Y-20.5929 Z0.2600
G1 X23.7912 Y-20.5929 Z0.2600
G1 X23.7912 Y-21.4429 Z0.2600
G1 X26.6748 Y-21.4429 Z0.2600
G1 X26.6748 Y-19.7429 Z0.2600
G1 X23.7912 Y-19.7429 Z0.2600
G1 X23.7912 Y-20.5929 Z0.2600
G1 X23.8354 Y-20.5929 Z0.3042
G1 X23.8354 Y-20.5929 Z0.3292
G0 Z6.0000
G0 X23.8354 Y-20.5929 
M5
G53 Z
( MOP:  04-Chambered-01 )
( FILE: G:\Shared drives\AlloyProjectFiles\Customer CAD files\Alloy-Standard-Builds-CAM\s-in\Chambering\04-Chambered-01.nc)
G90
(  BEGIN TOOL LIST )
(  TOOL 11 - Downcut PT750 ROUGH - DESC: 0.7500 DIA, 2 FLUTE,  CARBIDE MAT )
(  ENDOF TOOL LIST )
( 04-Chambered-01)
T11
S14000
M3
G0 Z6.0000
G0 X44.8540 Y-18.8541 
G1 X44.8540 Y-18.8541 Z1.4600 F75.
G1 X44.8540 Y-18.8541 Z1.4350 F50.
G1 X44.8137 Y-18.9978 Z1.4087
G1 X44.7843 Y-19.0798 Z1.3933
G1 X44.7649 Y-19.1228 Z1.3850
G1 X44.7455 Y-19.1658 Z1.3850 F150.
G1 X44.6096 Y-19.4202 Z1.3850
G1 X45.0090 Y-19.4205 Z1.3850
G17
G3X45.0050Y-18.5281Z1.3850I-1.9265J0.4375
G1 X44.9556 Y-18.4986 Z1.3850
G1 X44.9331 Y-18.4842 Z1.3850
G2X44.7649Y-19.1228Z1.3850I-2.0148J0.1891
G1 X44.5946 Y-19.0449 Z1.3850
G3X44.7616Y-18.1203Z1.3850I-1.9424J0.8281
G3X45.1728Y-18.4071Z1.3850I1.3736J1.5314
G2X45.1584Y-19.5908Z1.3850I-2.3522J-0.5633
G1 X45.1510 Y-19.6081 Z1.3850
G1 X44.4123 Y-19.6076 Z1.3850
G1 X44.4123 Y-19.3883 Z1.3850
G3X44.5946Y-19.0449Z1.3850I-2.6094J1.6053
G1 X44.4239 Y-18.9679 Z1.3850
G2X44.2249Y-19.3316Z1.3850I-1.9185J0.8135
G1 X44.2248 Y-19.7949 Z1.3850
G1 X45.2743 Y-19.7957 Z1.3850
G3X45.4246Y-18.8580Z1.3850I-1.6414J0.7441
G1 X45.3896 Y-18.5434 Z1.3850
G1 X45.3391 Y-18.2779 Z1.3850
G2X44.5399Y-17.5472Z1.3850I0.7671J1.6415
G2X44.3513Y-17.0647Z1.3850I2.0879J1.0942
G2X44.4730Y-15.8154Z1.3850I1.8501J0.4504
G1 X44.4869 Y-15.7906 Z1.3850
G1 X44.4712 Y-15.7585 Z1.3850
G1 X44.2250 Y-15.2868 Z1.3850
G1 X44.2250 Y-17.0977 Z1.3850
G2X44.4239Y-18.9679Z1.3850I-1.6058J-1.1165
G1 X44.2538 Y-18.8896 Z1.3850
G1 X44.2615 Y-18.8729 Z1.3850
G3X44.0375Y-17.1609Z1.3850I-1.6359J0.6566
G1 X44.0375 Y-15.1727 Z1.3850
G1 X44.2694 Y-14.9317 Z1.3850
G1 X44.3632 Y-15.1464 Z1.3850
G1 X44.6385 Y-15.6739 Z1.3850
G1 X44.6985 Y-15.7965 Z1.3850
G3X44.5334Y-17.0197Z1.3850I1.4648J-0.8205
G3X44.6558Y-17.3583Z1.3850I2.2332J0.6162
G3X45.5024Y-18.1412Z1.3850I1.4440J0.7123
G2X45.5834Y-19.4468Z1.3850I-3.4849J-0.8714
G2X45.3964Y-19.9833Z1.3850I-1.7935J0.3243
G1 X44.0373 Y-19.9823 Z1.3850
G1 X44.0374 Y-19.2685 Z1.3850
G3X44.2538Y-18.8896Z1.3850I-1.1328J0.8984
G1 X44.0831 Y-18.8125 Z1.3850
G2X43.8499Y-19.2039Z1.3850I-1.3809J0.5577
G1 X43.8498 Y-20.1696 Z1.3850
G1 X45.5039 Y-20.1709 Z1.3850
G3X45.8030Y-19.1676Z1.3850I-1.7240J1.0603
G3X45.6594Y-17.9956Z1.3850I-4.2002J0.0800
G2X44.8233Y-17.2740Z1.3850I0.4540J1.3711
G2X44.7153Y-16.9742Z1.3850I1.8566J0.8384
G2X44.9140Y-15.8102Z1.3850I1.4238J0.3559
G1 X44.8058 Y-15.5893 Z1.3850
G1 X44.5350 Y-15.0714 Z1.3850
G1 X44.3289 Y-14.5995 Z1.3850
G1 X43.8500 Y-15.0972 Z1.3850
G1 X43.8500 Y-17.2245 Z1.3850
G2X44.0831Y-18.8125Z1.3850I-1.2213J-0.9904
G1 X43.9112 Y-18.7382 Z1.3850
G3X43.6625Y-17.2881Z1.3850I-1.2929J0.5246
G1 X43.6625 Y-15.0216 Z1.3850
G1 X44.4034 Y-14.2517 Z1.3850
G3X44.7068Y-14.9963Z1.3850I4.2567J1.3004
G1 X44.9731 Y-15.5046 Z1.3850
G1 X45.1339 Y-15.8331 Z1.3850
G3X44.8970Y-16.9282Z1.3850I0.9839J-0.7860
G1 X44.9580 Y-17.1112 Z1.3850
G3X45.8142Y-17.8414Z1.3850I1.1570J0.4895
G2X45.9906Y-19.1769Z1.3850I-4.3693J-1.2567
G2X45.6114Y-20.3584Z1.3850I-2.2658J0.0756
G1 X43.6623 Y-20.3570 Z1.3850
G1 X43.6624 Y-19.1392 Z1.3850
G3X43.9112Y-18.7382Z1.3850I-1.0428J0.9249
G1 X43.7419 Y-18.6585 Z1.3850
G1 X43.6174 Y-18.8925 Z1.3850
G1 X43.4803 Y-19.0675 Z1.3850
G1 X43.4749 Y-19.0946 Z1.3850
G1 X43.4748 Y-20.4683 Z1.3850
G1 X43.4817 Y-20.5444 Z1.3850
G1 X45.7190 Y-20.5460 Z1.3850
G3X46.1742Y-18.8124Z1.3850I-2.1311J1.4861
G3X45.9661Y-17.6758Z1.3850I-5.4999J-0.4194
G2X45.1046Y-16.9582Z1.3850I0.1497J1.0558
G2X45.3189Y-15.9068Z1.3850I1.0216J0.3392
G1 X45.3595 Y-15.8675 Z1.3850
G1 X45.1404 Y-15.4197 Z1.3850
G2X44.4837Y-13.8978Z1.3850I6.2504J3.5995
G1 X43.4947 Y-14.9255 Z1.3850
G1 X43.4801 Y-14.9481 Z1.3850
G1 X43.4750 Y-14.9744 Z1.3850
G1 X43.4749 Y-17.3319 Z1.3850
G1 X43.4804 Y-17.3590 Z1.3850
G2X43.7419Y-18.6585Z1.3850I-0.8804J-0.8532
G0 Z3.3850
G0 X43.7419 Y-18.6585 
G0 Z3.3850
G0 X44.7649 Y-19.1228 
G1 X44.7649 Y-19.1228 Z1.0100 F75.
G1 X44.7455 Y-19.1658 Z1.0100 F150.
G1 X44.6096 Y-19.4202 Z1.0100
G1 X45.0090 Y-19.4205 Z1.0100
G3X45.0050Y-18.5281Z1.0100I-1.9265J0.4375
G1 X44.9556 Y-18.4986 Z1.0100
G1 X44.9331 Y-18.4842 Z1.0100
G2X44.7649Y-19.1228Z1.0100I-2.0148J0.1891
G1 X44.5946 Y-19.0449 Z1.0100
G3X44.7616Y-18.1203Z1.0100I-1.9424J0.8281
G3X45.1728Y-18.4071Z1.0100I1.3736J1.5314
G2X45.1584Y-19.5908Z1.0100I-2.3522J-0.5633
G1 X45.1510 Y-19.6081 Z1.0100
G1 X44.4123 Y-19.6076 Z1.0100
G1 X44.4123 Y-19.3883 Z1.0100
G3X44.5946Y-19.0449Z1.0100I-2.6094J1.6053
G1 X44.4239 Y-18.9679 Z1.0100
G2X44.2249Y-19.3316Z1.0100I-1.9185J0.8135
G1 X44.2248 Y-19.7949 Z1.0100
G1 X45.2743 Y-19.7957 Z1.0100
G3X45.4246Y-18.8580Z1.0100I-1.6414J0.7441
G1 X45.3896 Y-18.5434 Z1.0100
G1 X45.3391 Y-18.2779 Z1.0100
G2X44.5399Y-17.5472Z1.0100I0.7671J1.6415
G2X44.3513Y-17.0647Z1.0100I2.0879J1.0942
G2X44.4730Y-15.8154Z1.0100I1.8501J0.4504
G1 X44.4869 Y-15.7906 Z1.0100
G1 X44.4712 Y-15.7585 Z1.0100
G1 X44.2250 Y-15.2868 Z1.0100
G1 X44.2250 Y-17.0977 Z1.0100
G2X44.4239Y-18.9679Z1.0100I-1.6058J-1.1165
G1 X44.2538 Y-18.8896 Z1.0100
G1 X44.2615 Y-18.8729 Z1.0100
G3X44.0375Y-17.1609Z1.0100I-1.6359J0.6566
G1 X44.0375 Y-15.1727 Z1.0100
G1 X44.2694 Y-14.9317 Z1.0100
G1 X44.3632 Y-15.1464 Z1.0100
G1 X44.6385 Y-15.6739 Z1.0100
G1 X44.6985 Y-15.7965 Z1.0100
G3X44.5334Y-17.0197Z1.0100I1.4648J-0.8205
G3X44.6558Y-17.3583Z1.0100I2.2332J0.6162
G3X45.5024Y-18.1412Z1.0100I1.4440J0.7123
G2X45.5834Y-19.4468Z1.0100I-3.4849J-0.8714
G2X45.3964Y-19.9833Z1.0100I-1.7935J0.3243
G1 X44.0373 Y-19.9823 Z1.0100
G1 X44.0374 Y-19.2685 Z1.0100
G3X44.2538Y-18.8896Z1.0100I-1.1328J0.8984
G1 X44.0831 Y-18.8125 Z1.0100
G2X43.8499Y-19.2039Z1.0100I-1.3809J0.5577
G1 X43.8498 Y-20.1696 Z1.0100
G1 X45.5039 Y-20.1709 Z1.0100
G3X45.8030Y-19.1676Z1.0100I-1.7240J1.0603
G3X45.6594Y-17.9956Z1.0100I-4.2002J0.0800
G2X44.8233Y-17.2740Z1.0100I0.4540J1.3711
G2X44.7153Y-16.9742Z1.0100I1.8566J0.8384
G2X44.9140Y-15.8102Z1.0100I1.4238J0.3559
G1 X44.8058 Y-15.5893 Z1.0100
G1 X44.5350 Y-15.0714 Z1.0100
G1 X44.3289 Y-14.5995 Z1.0100
G1 X43.8500 Y-15.0972 Z1.0100
G1 X43.8500 Y-17.2245 Z1.0100
G2X44.0831Y-18.8125Z1.0100I-1.2213J-0.9904
G1 X43.9112 Y-18.7382 Z1.0100
G3X43.6625Y-17.2881Z1.0100I-1.2929J0.5246
G1 X43.6625 Y-15.0216 Z1.0100
G1 X44.4034 Y-14.2517 Z1.0100
G3X44.7068Y-14.9963Z1.0100I4.2567J1.3004
G1 X44.9731 Y-15.5046 Z1.0100
G1 X45.1339 Y-15.8331 Z1.0100
G3X44.8970Y-16.9282Z1.0100I0.9839J-0.7860
G1 X44.9580 Y-17.1112 Z1.0100
G3X45.8142Y-17.8414Z1.0100I1.1570J0.4895
G2X45.9906Y-19.1769Z1.0100I-4.3693J-1.2567
G2X45.6114Y-20.3584Z1.0100I-2.2658J0.0756
G1 X43.6623 Y-20.3570 Z1.0100
G1 X43.6624 Y-19.1392 Z1.0100
G3X43.9112Y-18.7382Z1.0100I-1.0428J0.9249
G1 X43.7419 Y-18.6585 Z1.0100
G1 X43.6174 Y-18.8925 Z1.0100
G1 X43.4803 Y-19.0675 Z1.0100
G1 X43.4749 Y-19.0946 Z1.0100
G1 X43.4748 Y-20.4683 Z1.0100
G1 X43.4817 Y-20.5444 Z1.0100
G1 X45.7190 Y-20.5460 Z1.0100
G3X46.1742Y-18.8124Z1.0100I-2.1311J1.4861
G3X45.9661Y-17.6758Z1.0100I-5.4999J-0.4194
G2X45.1046Y-16.9582Z1.0100I0.1497J1.0558
G2X45.3189Y-15.9068Z1.0100I1.0216J0.3392
G1 X45.3595 Y-15.8675 Z1.0100
G1 X45.1404 Y-15.4197 Z1.0100
G2X44.4837Y-13.8978Z1.0100I6.2504J3.5995
G1 X43.4947 Y-14.9255 Z1.0100
G1 X43.4801 Y-14.9481 Z1.0100
G1 X43.4750 Y-14.9744 Z1.0100
G1 X43.4749 Y-17.3319 Z1.0100
G1 X43.4804 Y-17.3590 Z1.0100
G2X43.7419Y-18.6585Z1.0100I-0.8804J-0.8532
G0 Z3.0100
G0 X43.7419 Y-18.6585 
G0 Z3.0100
G0 X44.7649 Y-19.1228 
G1 X44.7649 Y-19.1228 Z0.6350 F75.
G1 X44.7455 Y-19.1658 Z0.6350 F150.
G1 X44.6096 Y-19.4202 Z0.6350
G1 X45.0090 Y-19.4205 Z0.6350
G3X45.0050Y-18.5281Z0.6350I-1.9265J0.4375
G1 X44.9556 Y-18.4986 Z0.6350
G1 X44.9331 Y-18.4842 Z0.6350
G2X44.7649Y-19.1228Z0.6350I-2.0148J0.1891
G1 X44.5946 Y-19.0449 Z0.6350
G3X44.7616Y-18.1203Z0.6350I-1.9424J0.8281
G3X45.1728Y-18.4071Z0.6350I1.3736J1.5314
G2X45.1584Y-19.5908Z0.6350I-2.3522J-0.5633
G1 X45.1510 Y-19.6081 Z0.6350
G1 X44.4123 Y-19.6076 Z0.6350
G1 X44.4123 Y-19.3883 Z0.6350
G3X44.5946Y-19.0449Z0.6350I-2.6094J1.6053
G1 X44.4239 Y-18.9679 Z0.6350
G2X44.2249Y-19.3316Z0.6350I-1.9185J0.8135
G1 X44.2248 Y-19.7949 Z0.6350
G1 X45.2743 Y-19.7957 Z0.6350
G3X45.4246Y-18.8580Z0.6350I-1.6414J0.7441
G1 X45.3896 Y-18.5434 Z0.6350
G1 X45.3391 Y-18.2779 Z0.6350
G2X44.5399Y-17.5472Z0.6350I0.7671J1.6415
G2X44.3513Y-17.0647Z0.6350I2.0879J1.0942
G2X44.4730Y-15.8154Z0.6350I1.8501J0.4504
G1 X44.4869 Y-15.7906 Z0.6350
G1 X44.4712 Y-15.7585 Z0.6350
G1 X44.2250 Y-15.2868 Z0.6350
G1 X44.2250 Y-17.0977 Z0.6350
G2X44.4239Y-18.9679Z0.6350I-1.6058J-1.1165
G1 X44.2538 Y-18.8896 Z0.6350
G1 X44.2615 Y-18.8729 Z0.6350
G3X44.0375Y-17.1609Z0.6350I-1.6359J0.6566
G1 X44.0375 Y-15.1727 Z0.6350
G1 X44.2694 Y-14.9317 Z0.6350
G1 X44.3632 Y-15.1464 Z0.6350
G1 X44.6385 Y-15.6739 Z0.6350
G1 X44.6985 Y-15.7965 Z0.6350
G3X44.5334Y-17.0197Z0.6350I1.4648J-0.8205
G3X44.6558Y-17.3583Z0.6350I2.2332J0.6162
G3X45.5024Y-18.1412Z0.6350I1.4440J0.7123
G2X45.5834Y-19.4468Z0.6350I-3.4849J-0.8714
G2X45.3964Y-19.9833Z0.6350I-1.7935J0.3243
G1 X44.0373 Y-19.9823 Z0.6350
G1 X44.0374 Y-19.2685 Z0.6350
G3X44.2538Y-18.8896Z0.6350I-1.1328J0.8984
G1 X44.0831 Y-18.8125 Z0.6350
G2X43.8499Y-19.2039Z0.6350I-1.3809J0.5577
G1 X43.8498 Y-20.1696 Z0.6350
G1 X45.5039 Y-20.1709 Z0.6350
G3X45.8030Y-19.1676Z0.6350I-1.7240J1.0603
G3X45.6594Y-17.9956Z0.6350I-4.2002J0.0800
G2X44.8233Y-17.2740Z0.6350I0.4540J1.3711
G2X44.7153Y-16.9742Z0.6350I1.8566J0.8384
G2X44.9140Y-15.8102Z0.6350I1.4238J0.3559
G1 X44.8058 Y-15.5893 Z0.6350
G1 X44.5350 Y-15.0714 Z0.6350
G1 X44.3289 Y-14.5995 Z0.6350
G1 X43.8500 Y-15.0972 Z0.6350
G1 X43.8500 Y-17.2245 Z0.6350
G2X44.0831Y-18.8125Z0.6350I-1.2213J-0.9904
G1 X43.9112 Y-18.7382 Z0.6350
G3X43.6625Y-17.2881Z0.6350I-1.2929J0.5246
G1 X43.6625 Y-15.0216 Z0.6350
G1 X44.4034 Y-14.2517 Z0.6350
G3X44.7068Y-14.9963Z0.6350I4.2567J1.3004
G1 X44.9731 Y-15.5046 Z0.6350
G1 X45.1339 Y-15.8331 Z0.6350
G3X44.8970Y-16.9282Z0.6350I0.9839J-0.7860
G1 X44.9580 Y-17.1112 Z0.6350
G3X45.8142Y-17.8414Z0.6350I1.1570J0.4895
G2X45.9906Y-19.1769Z0.6350I-4.3693J-1.2567
G2X45.6114Y-20.3584Z0.6350I-2.2658J0.0756
G1 X43.6623 Y-20.3570 Z0.6350
G1 X43.6624 Y-19.1392 Z0.6350
G3X43.9112Y-18.7382Z0.6350I-1.0428J0.9249
G1 X43.7419 Y-18.6585 Z0.6350
G1 X43.6174 Y-18.8925 Z0.6350
G1 X43.4803 Y-19.0675 Z0.6350
G1 X43.4749 Y-19.0946 Z0.6350
G1 X43.4748 Y-20.4683 Z0.6350
G1 X43.4817 Y-20.5444 Z0.6350
G1 X45.7190 Y-20.5460 Z0.6350
G3X46.1742Y-18.8124Z0.6350I-2.1311J1.4861
G3X45.9661Y-17.6758Z0.6350I-5.4999J-0.4194
G2X45.1046Y-16.9582Z0.6350I0.1497J1.0558
G2X45.3189Y-15.9068Z0.6350I1.0216J0.3392
G1 X45.3595 Y-15.8675 Z0.6350
G1 X45.1404 Y-15.4197 Z0.6350
G2X44.4837Y-13.8978Z0.6350I6.2504J3.5995
G1 X43.4947 Y-14.9255 Z0.6350
G1 X43.4801 Y-14.9481 Z0.6350
G1 X43.4750 Y-14.9744 Z0.6350
G1 X43.4749 Y-17.3319 Z0.6350
G1 X43.4804 Y-17.3590 Z0.6350
G2X43.7419Y-18.6585Z0.6350I-0.8804J-0.8532
G0 Z2.6350
G0 X43.7419 Y-18.6585 
G0 Z2.6350
G0 X44.7649 Y-19.1228 
G1 X44.7649 Y-19.1228 Z0.2600 F75.
G1 X44.7455 Y-19.1658 Z0.2600 F150.
G1 X44.6096 Y-19.4202 Z0.2600
G1 X45.0090 Y-19.4205 Z0.2600
G3X45.0050Y-18.5281Z0.2600I-1.9265J0.4375
G1 X44.9556 Y-18.4986 Z0.2600
G1 X44.9331 Y-18.4842 Z0.2600
G2X44.7649Y-19.1228Z0.2600I-2.0148J0.1891
G1 X44.5946 Y-19.0449 Z0.2600
G3X44.7616Y-18.1203Z0.2600I-1.9424J0.8281
G3X45.1728Y-18.4071Z0.2600I1.3736J1.5314
G2X45.1584Y-19.5908Z0.2600I-2.3522J-0.5633
G1 X45.1510 Y-19.6081 Z0.2600
G1 X44.4123 Y-19.6076 Z0.2600
G1 X44.4123 Y-19.3883 Z0.2600
G3X44.5946Y-19.0449Z0.2600I-2.6094J1.6053
G1 X44.4239 Y-18.9679 Z0.2600
G2X44.2249Y-19.3316Z0.2600I-1.9185J0.8135
G1 X44.2248 Y-19.7949 Z0.2600
G1 X45.2743 Y-19.7957 Z0.2600
G3X45.4246Y-18.8580Z0.2600I-1.6414J0.7441
G1 X45.3896 Y-18.5434 Z0.2600
G1 X45.3391 Y-18.2779 Z0.2600
G2X44.5399Y-17.5472Z0.2600I0.7671J1.6415
G2X44.3513Y-17.0647Z0.2600I2.0879J1.0942
G2X44.4730Y-15.8154Z0.2600I1.8501J0.4504
G1 X44.4869 Y-15.7906 Z0.2600
G1 X44.4712 Y-15.7585 Z0.2600
G1 X44.2250 Y-15.2868 Z0.2600
G1 X44.2250 Y-17.0977 Z0.2600
G2X44.4239Y-18.9679Z0.2600I-1.6058J-1.1165
G1 X44.2538 Y-18.8896 Z0.2600
G1 X44.2615 Y-18.8729 Z0.2600
G3X44.0375Y-17.1609Z0.2600I-1.6359J0.6566
G1 X44.0375 Y-15.1727 Z0.2600
G1 X44.2694 Y-14.9317 Z0.2600
G1 X44.3632 Y-15.1464 Z0.2600
G1 X44.6385 Y-15.6739 Z0.2600
G1 X44.6985 Y-15.7965 Z0.2600
G3X44.5334Y-17.0197Z0.2600I1.4648J-0.8205
G3X44.6558Y-17.3583Z0.2600I2.2332J0.6162
G3X45.5024Y-18.1412Z0.2600I1.4440J0.7123
G2X45.5834Y-19.4468Z0.2600I-3.4849J-0.8714
G2X45.3964Y-19.9833Z0.2600I-1.7935J0.3243
G1 X44.0373 Y-19.9823 Z0.2600
G1 X44.0374 Y-19.2685 Z0.2600
G3X44.2538Y-18.8896Z0.2600I-1.1328J0.8984
G1 X44.0831 Y-18.8125 Z0.2600
G2X43.8499Y-19.2039Z0.2600I-1.3809J0.5577
G1 X43.8498 Y-20.1696 Z0.2600
G1 X45.5039 Y-20.1709 Z0.2600
G3X45.8030Y-19.1676Z0.2600I-1.7240J1.0603
G3X45.6594Y-17.9956Z0.2600I-4.2002J0.0800
G2X44.8233Y-17.2740Z0.2600I0.4540J1.3711
G2X44.7153Y-16.9742Z0.2600I1.8566J0.8384
G2X44.9140Y-15.8102Z0.2600I1.4238J0.3559
G1 X44.8058 Y-15.5893 Z0.2600
G1 X44.5350 Y-15.0714 Z0.2600
G1 X44.3289 Y-14.5995 Z0.2600
G1 X43.8500 Y-15.0972 Z0.2600
G1 X43.8500 Y-17.2245 Z0.2600
G2X44.0831Y-18.8125Z0.2600I-1.2213J-0.9904
G1 X43.9112 Y-18.7382 Z0.2600
G3X43.6625Y-17.2881Z0.2600I-1.2929J0.5246
G1 X43.6625 Y-15.0216 Z0.2600
G1 X44.4034 Y-14.2517 Z0.2600
G3X44.7068Y-14.9963Z0.2600I4.2567J1.3004
G1 X44.9731 Y-15.5046 Z0.2600
G1 X45.1339 Y-15.8331 Z0.2600
G3X44.8970Y-16.9282Z0.2600I0.9839J-0.7860
G1 X44.9580 Y-17.1112 Z0.2600
G3X45.8142Y-17.8414Z0.2600I1.1570J0.4895
G2X45.9906Y-19.1769Z0.2600I-4.3693J-1.2567
G2X45.6114Y-20.3584Z0.2600I-2.2658J0.0756
G1 X43.6623 Y-20.3570 Z0.2600
G1 X43.6624 Y-19.1392 Z0.2600
G3X43.9112Y-18.7382Z0.2600I-1.0428J0.9249
G1 X43.7419 Y-18.6585 Z0.2600
G1 X43.6174 Y-18.8925 Z0.2600
G1 X43.4803 Y-19.0675 Z0.2600
G1 X43.4749 Y-19.0946 Z0.2600
G1 X43.4748 Y-20.4683 Z0.2600
G1 X43.4817 Y-20.5444 Z0.2600
G1 X45.7190 Y-20.5460 Z0.2600
G3X46.1742Y-18.8124Z0.2600I-2.1311J1.4861
G3X45.9661Y-17.6758Z0.2600I-5.4999J-0.4194
G2X45.1046Y-16.9582Z0.2600I0.1497J1.0558
G2X45.3189Y-15.9068Z0.2600I1.0216J0.3392
G1 X45.3595 Y-15.8675 Z0.2600
G1 X45.1404 Y-15.4197 Z0.2600
G2X44.4837Y-13.8978Z0.2600I6.2504J3.5995
G1 X43.4947 Y-14.9255 Z0.2600
G1 X43.4801 Y-14.9481 Z0.2600
G1 X43.4750 Y-14.9744 Z0.2600
G1 X43.4749 Y-17.3319 Z0.2600
G1 X43.4804 Y-17.3590 Z0.2600
G2X43.7419Y-18.6585Z0.2600I-0.8804J-0.8532
G1 X43.7845 Y-18.6702 Z0.3042
G1 X43.7845 Y-18.6702 Z0.3292
G0 Z3.4600
G0 X43.7845 Y-18.6702 
G0 Z3.4600
G0 X40.2247 Y-20.4929 
G1 X40.2247 Y-20.4929 Z1.4600 F75.
G1 X40.2247 Y-20.4929 Z1.4350 F50.
G1 X40.0412 Y-20.4929 Z1.4026
G1 X40.0412 Y-20.5929 Z1.3850
G1 X40.0412 Y-20.6929 Z1.3850 F150.
G1 X41.4248 Y-20.6929 Z1.3850
G1 X41.4248 Y-20.4929 Z1.3850
G1 X40.0412 Y-20.4929 Z1.3850
G1 X40.0412 Y-20.5929 Z1.3850
G1 X39.8537 Y-20.5929 Z1.3850
G1 X39.8537 Y-20.3054 Z1.3850
G1 X41.6123 Y-20.3054 Z1.3850
G1 X41.6123 Y-20.8804 Z1.3850
G1 X39.8537 Y-20.8804 Z1.3850
G1 X39.8537 Y-20.5929 Z1.3850
G1 X39.6662 Y-20.5929 Z1.3850
G1 X39.6662 Y-21.0679 Z1.3850
G1 X41.7998 Y-21.0679 Z1.3850
G1 X41.7998 Y-20.1179 Z1.3850
G1 X39.6662 Y-20.1179 Z1.3850
G1 X39.6662 Y-20.5929 Z1.3850
G1 X39.4787 Y-20.5929 Z1.3850
G1 X39.4787 Y-19.9304 Z1.3850
G1 X41.9873 Y-19.9304 Z1.3850
G1 X41.9873 Y-21.2554 Z1.3850
G1 X39.4787 Y-21.2554 Z1.3850
G1 X39.4787 Y-20.5929 Z1.3850
G1 X39.2912 Y-20.5929 Z1.3850
G1 X39.2912 Y-21.4429 Z1.3850
G1 X42.1748 Y-21.4429 Z1.3850
G1 X42.1748 Y-19.7429 Z1.3850
G1 X39.2912 Y-19.7429 Z1.3850
G1 X39.2912 Y-20.5929 Z1.3850
G0 Z3.3850
G0 X39.2912 Y-20.5929 
G0 Z3.3850
G0 X40.0412 Y-20.5929 
G1 X40.0412 Y-20.5929 Z1.0100 F75.
G1 X40.0412 Y-20.6929 Z1.0100 F150.
G1 X41.4248 Y-20.6929 Z1.0100
G1 X41.4248 Y-20.4929 Z1.0100
G1 X40.0412 Y-20.4929 Z1.0100
G1 X40.0412 Y-20.5929 Z1.0100
G1 X39.8537 Y-20.5929 Z1.0100
G1 X39.8537 Y-20.3054 Z1.0100
G1 X41.6123 Y-20.3054 Z1.0100
G1 X41.6123 Y-20.8804 Z1.0100
G1 X39.8537 Y-20.8804 Z1.0100
G1 X39.8537 Y-20.5929 Z1.0100
G1 X39.6662 Y-20.5929 Z1.0100
G1 X39.6662 Y-21.0679 Z1.0100
G1 X41.7998 Y-21.0679 Z1.0100
G1 X41.7998 Y-20.1179 Z1.0100
G1 X39.6662 Y-20.1179 Z1.0100
G1 X39.6662 Y-20.5929 Z1.0100
G1 X39.4787 Y-20.5929 Z1.0100
G1 X39.4787 Y-19.9304 Z1.0100
G1 X41.9873 Y-19.9304 Z1.0100
G1 X41.9873 Y-21.2554 Z1.0100
G1 X39.4787 Y-21.2554 Z1.0100
G1 X39.4787 Y-20.5929 Z1.0100
G1 X39.2912 Y-20.5929 Z1.0100
G1 X39.2912 Y-21.4429 Z1.0100
G1 X42.1748 Y-21.4429 Z1.0100
G1 X42.1748 Y-19.7429 Z1.0100
G1 X39.2912 Y-19.7429 Z1.0100
G1 X39.2912 Y-20.5929 Z1.0100
G0 Z3.0100
G0 X39.2912 Y-20.5929 
G0 Z3.0100
G0 X40.0412 Y-20.5929 
G1 X40.0412 Y-20.5929 Z0.6350 F75.
G1 X40.0412 Y-20.6929 Z0.6350 F150.
G1 X41.4248 Y-20.6929 Z0.6350
G1 X41.4248 Y-20.4929 Z0.6350
G1 X40.0412 Y-20.4929 Z0.6350
G1 X40.0412 Y-20.5929 Z0.6350
G1 X39.8537 Y-20.5929 Z0.6350
G1 X39.8537 Y-20.3054 Z0.6350
G1 X41.6123 Y-20.3054 Z0.6350
G1 X41.6123 Y-20.8804 Z0.6350
G1 X39.8537 Y-20.8804 Z0.6350
G1 X39.8537 Y-20.5929 Z0.6350
G1 X39.6662 Y-20.5929 Z0.6350
G1 X39.6662 Y-21.0679 Z0.6350
G1 X41.7998 Y-21.0679 Z0.6350
G1 X41.7998 Y-20.1179 Z0.6350
G1 X39.6662 Y-20.1179 Z0.6350
G1 X39.6662 Y-20.5929 Z0.6350
G1 X39.4787 Y-20.5929 Z0.6350
G1 X39.4787 Y-19.9304 Z0.6350
G1 X41.9873 Y-19.9304 Z0.6350
G1 X41.9873 Y-21.2554 Z0.6350
G1 X39.4787 Y-21.2554 Z0.6350
G1 X39.4787 Y-20.5929 Z0.6350
G1 X39.2912 Y-20.5929 Z0.6350
G1 X39.2912 Y-21.4429 Z0.6350
G1 X42.1748 Y-21.4429 Z0.6350
G1 X42.1748 Y-19.7429 Z0.6350
G1 X39.2912 Y-19.7429 Z0.6350
G1 X39.2912 Y-20.5929 Z0.6350
G0 Z2.6350
G0 X39.2912 Y-20.5929 
G0 Z2.6350
G0 X40.0412 Y-20.5929 
G1 X40.0412 Y-20.5929 Z0.2600 F75.
G1 X40.0412 Y-20.6929 Z0.2600 F150.
G1 X41.4248 Y-20.6929 Z0.2600
G1 X41.4248 Y-20.4929 Z0.2600
G1 X40.0412 Y-20.4929 Z0.2600
G1 X40.0412 Y-20.5929 Z0.2600
G1 X39.8537 Y-20.5929 Z0.2600
G1 X39.8537 Y-20.3054 Z0.2600
G1 X41.6123 Y-20.3054 Z0.2600
G1 X41.6123 Y-20.8804 Z0.2600
G1 X39.8537 Y-20.8804 Z0.2600
G1 X39.8537 Y-20.5929 Z0.2600
G1 X39.6662 Y-20.5929 Z0.2600
G1 X39.6662 Y-21.0679 Z0.2600
G1 X41.7998 Y-21.0679 Z0.2600
G1 X41.7998 Y-20.1179 Z0.2600
G1 X39.6662 Y-20.1179 Z0.2600
G1 X39.6662 Y-20.5929 Z0.2600
G1 X39.4787 Y-20.5929 Z0.2600
G1 X39.4787 Y-19.9304 Z0.2600
G1 X41.9873 Y-19.9304 Z0.2600
G1 X41.9873 Y-21.2554 Z0.2600
G1 X39.4787 Y-21.2554 Z0.2600
G1 X39.4787 Y-20.5929 Z0.2600
G1 X39.2912 Y-20.5929 Z0.2600
G1 X39.2912 Y-21.4429 Z0.2600
G1 X42.1748 Y-21.4429 Z0.2600
G1 X42.1748 Y-19.7429 Z0.2600
G1 X39.2912 Y-19.7429 Z0.2600
G1 X39.2912 Y-20.5929 Z0.2600
G1 X39.3354 Y-20.5929 Z0.3042
G1 X39.3354 Y-20.5929 Z0.3292
G0 Z6.0000
G0 X39.3354 Y-20.5929 
M5
G53 Z
( END FILE 04-Chambered-01.nc )
( BEGIN FILE 04-Chambered-02.ncTNUM: 11 )
( Lefty:False Nunits:3 )
( cline: 9.733 delta:15.5 )
( start_unit: 1 num_units: 3)
( MOP:  04-Chambered-02 )
( FILE: G:\Shared drives\AlloyProjectFiles\Customer CAD files\Alloy-Standard-Builds-CAM\s-in\Chambering\04-Chambered-02.nc)
G90
(  BEGIN TOOL LIST )
(  TOOL 11 - Downcut PT750 ROUGH - DESC: 0.7500 DIA, 2 FLUTE,  CARBIDE MAT )
(  ENDOF TOOL LIST )
( 04-Chambered-02)
T11
S14000
M3
G0 Z6.0000
G0 X12.9499 Y-15.9038 
G1 X12.9499 Y-15.9038 Z0.2600 F75.
G1 X12.6999 Y-15.9039 Z0.2600 F50.
G17
G3X12.4500Y-16.1539Z0.2600I0.0001J-0.2500
G1 X12.4504 Y-17.3715 Z0.2600 F150.
G2X12.4503Y-19.0549Z0.2600I-0.8292J-0.8417
G1 X12.4498 Y-20.4779 Z0.2600
G1 X12.4521 Y-20.5286 Z0.2600
G1 X12.4578 Y-20.5707 Z0.2600
G1 X14.7336 Y-20.5710 Z0.2600
G3X15.0066Y-20.0721Z0.2600I-2.8960J1.9095
G3X15.2039Y-19.1887Z0.2600I-2.2462J0.9651
G3X15.1572Y-18.4306Z0.2600I-3.8084J0.1461
G3X14.9863Y-17.6531Z0.2600I-6.9634J-1.1231
G2X14.3902Y-15.8725Z0.2600I0.1299J1.0336
G3X14.1667Y-15.4161Z0.2600I-4.6874J-2.0125
G2X13.6757Y-14.3969Z0.2600I6.9609J3.9815
G2X13.4948Y-13.8502Z0.2600I5.1063J1.9924
G1 X12.4504 Y-14.9361 Z0.2600
G1 X12.4500 Y-16.1539 Z0.2600
G3X12.6999Y-16.4039Z0.2600I0.2500J0.0000
G1 X12.9499 Y-16.4040 Z0.2600
G0 Z2.2600
G0 X12.9499 Y-16.4040 
G0 Z2.2600
G0 X9.4830 Y-20.9679 
G1 X9.4830 Y-20.9679 Z0.2600 F75.
G1 X9.4830 Y-21.2179 Z0.2600 F50.
G3X9.7330Y-21.4679Z0.2600I0.2500J0.0000
G1 X11.1998 Y-21.4679 Z0.2600 F150.
G1 X11.1998 Y-19.7179 Z0.2600
G1 X8.2662 Y-19.7179 Z0.2600
G1 X8.2662 Y-21.4679 Z0.2600
G1 X9.7330 Y-21.4679 Z0.2600
G3X9.9830Y-21.2179Z0.2600I0.0000J0.2500
G1 X9.9830 Y-20.9679 Z0.2600
G0 Z6.0000
G0 X9.9830 Y-20.9679 
M5
G53 Z
( MOP:  04-Chambered-02 )
( FILE: G:\Shared drives\AlloyProjectFiles\Customer CAD files\Alloy-Standard-Builds-CAM\s-in\Chambering\04-Chambered-02.nc)
G90
(  BEGIN TOOL LIST )
(  TOOL 11 - Downcut PT750 ROUGH - DESC: 0.7500 DIA, 2 FLUTE,  CARBIDE MAT )
(  ENDOF TOOL LIST )
( 04-Chambered-02)
T11
S14000
M3
G0 Z6.0000
G0 X28.4499 Y-15.9038 
G1 X28.4499 Y-15.9038 Z0.2600 F75.
G1 X28.1999 Y-15.9039 Z0.2600 F50.
G17
G3X27.9500Y-16.1539Z0.2600I0.0001J-0.2500
G1 X27.9504 Y-17.3715 Z0.2600 F150.
G2X27.9503Y-19.0549Z0.2600I-0.8292J-0.8417
G1 X27.9498 Y-20.4779 Z0.2600
G1 X27.9521 Y-20.5286 Z0.2600
G1 X27.9578 Y-20.5707 Z0.2600
G1 X30.2336 Y-20.5710 Z0.2600
G3X30.5066Y-20.0721Z0.2600I-2.8960J1.9095
G3X30.7039Y-19.1887Z0.2600I-2.2462J0.9651
G3X30.6572Y-18.4306Z0.2600I-3.8084J0.1461
G3X30.4863Y-17.6531Z0.2600I-6.9634J-1.1231
G2X29.8902Y-15.8725Z0.2600I0.1299J1.0336
G3X29.6667Y-15.4161Z0.2600I-4.6874J-2.0125
G2X29.1757Y-14.3969Z0.2600I6.9609J3.9815
G2X28.9948Y-13.8502Z0.2600I5.1063J1.9924
G1 X27.9504 Y-14.9361 Z0.2600
G1 X27.9500 Y-16.1539 Z0.2600
G3X28.1999Y-16.4039Z0.2600I0.2500J0.0000
G1 X28.4499 Y-16.4040 Z0.2600
G0 Z2.2600
G0 X28.4499 Y-16.4040 
G0 Z2.2600
G0 X24.9830 Y-20.9679 
G1 X24.9830 Y-20.9679 Z0.2600 F75.
G1 X24.9830 Y-21.2179 Z0.2600 F50.
G3X25.2330Y-21.4679Z0.2600I0.2500J0.0000
G1 X26.6998 Y-21.4679 Z0.2600 F150.
G1 X26.6998 Y-19.7179 Z0.2600
G1 X23.7662 Y-19.7179 Z0.2600
G1 X23.7662 Y-21.4679 Z0.2600
G1 X25.2330 Y-21.4679 Z0.2600
G3X25.4830Y-21.2179Z0.2600I0.0000J0.2500
G1 X25.4830 Y-20.9679 Z0.2600
G0 Z6.0000
G0 X25.4830 Y-20.9679 
M5
G53 Z
( MOP:  04-Chambered-02 )
( FILE: G:\Shared drives\AlloyProjectFiles\Customer CAD files\Alloy-Standard-Builds-CAM\s-in\Chambering\04-Chambered-02.nc)
G90
(  BEGIN TOOL LIST )
(  TOOL 11 - Downcut PT750 ROUGH - DESC: 0.7500 DIA, 2 FLUTE,  CARBIDE MAT )
(  ENDOF TOOL LIST )
( 04-Chambered-02)
T11
S14000
M3
G0 Z6.0000
G0 X43.9499 Y-15.9038 
G1 X43.9499 Y-15.9038 Z0.2600 F75.
G1 X43.6999 Y-15.9039 Z0.2600 F50.
G17
G3X43.4500Y-16.1539Z0.2600I0.0001J-0.2500
G1 X43.4504 Y-17.3715 Z0.2600 F150.
G2X43.4503Y-19.0549Z0.2600I-0.8292J-0.8417
G1 X43.4498 Y-20.4779 Z0.2600
G1 X43.4521 Y-20.5286 Z0.2600
G1 X43.4578 Y-20.5707 Z0.2600
G1 X45.7336 Y-20.5710 Z0.2600
G3X46.0066Y-20.0721Z0.2600I-2.8960J1.9095
G3X46.2039Y-19.1887Z0.2600I-2.2462J0.9651
G3X46.1572Y-18.4306Z0.2600I-3.8084J0.1461
G3X45.9863Y-17.6531Z0.2600I-6.9634J-1.1231
G2X45.3902Y-15.8725Z0.2600I0.1299J1.0336
G3X45.1667Y-15.4161Z0.2600I-4.6874J-2.0125
G2X44.6757Y-14.3969Z0.2600I6.9609J3.9815
G2X44.4948Y-13.8502Z0.2600I5.1063J1.9924
G1 X43.4504 Y-14.9361 Z0.2600
G1 X43.4500 Y-16.1539 Z0.2600
G3X43.6999Y-16.4039Z0.2600I0.2500J0.0000
G1 X43.9499 Y-16.4040 Z0.2600
G0 Z2.2600
G0 X43.9499 Y-16.4040 
G0 Z2.2600
G0 X40.4830 Y-20.9679 
G1 X40.4830 Y-20.9679 Z0.2600 F75.
G1 X40.4830 Y-21.2179 Z0.2600 F50.
G3X40.7330Y-21.4679Z0.2600I0.2500J0.0000
G1 X42.1998 Y-21.4679 Z0.2600 F150.
G1 X42.1998 Y-19.7179 Z0.2600
G1 X39.2662 Y-19.7179 Z0.2600
G1 X39.2662 Y-21.4679 Z0.2600
G1 X40.7330 Y-21.4679 Z0.2600
G3X40.9830Y-21.2179Z0.2600I0.0000J0.2500
G1 X40.9830 Y-20.9679 Z0.2600
G0 Z6.0000
G0 X40.9830 Y-20.9679 
M5
G53 Z
( END FILE 04-Chambered-02.nc )
( BEGIN FILE 04-Chambered-03.ncTNUM: 11 )
( Lefty:False Nunits:3 )
( cline: 9.733 delta:15.5 )
( start_unit: 1 num_units: 3)
( MOP:  04-Chambered-03 )
( FILE: G:\Shared drives\AlloyProjectFiles\Customer CAD files\Alloy-Standard-Builds-CAM\s-in\Chambering\04-Chambered-03.nc)
G90
(  BEGIN TOOL LIST )
(  TOOL 11 - Downcut PT750 ROUGH - DESC: 0.7500 DIA, 2 FLUTE,  CARBIDE MAT )
(  ENDOF TOOL LIST )
( 04-Chambered-03)
T11
S14000
M3
G0 Z6.0000
G0 X4.7435 Y-20.5710 
G1 X4.7435 Y-20.5710 Z1.3250 F75.
G1 X4.7435 Y-20.5710 Z1.3000 F50.
G1 X7.0007 Y-20.5710 Z1.3000 F150.
G0 Z1.3000
G0 X7.0160 Y-20.3835 
G1 X4.6180 Y-20.3835 Z1.3000 F150.
G1 X4.6180 Y-20.3835 Z1.3250
G0 Z2.0000
G0 X4.6180 Y-20.3835 
G0 Z2.0000
G0 X4.5166 Y-20.1960 
G1 X4.5166 Y-20.1960 Z1.3250 F75.
G1 X4.5166 Y-20.1960 Z1.3000 F50.
G1 X7.0166 Y-20.1960 Z1.3000 F150.
G1 X7.0166 Y-20.1960 Z1.3250
G0 Z2.0000
G0 X7.0166 Y-20.1960 
G0 Z2.0000
G0 X7.0160 Y-20.0085 
G1 X7.0160 Y-20.0085 Z1.3250 F75.
G1 X7.0160 Y-20.0085 Z1.3000 F50.
G1 X4.4328 Y-20.0085 Z1.3000 F150.
G1 X4.4328 Y-20.0085 Z1.3250
G0 Z2.0000
G0 X4.4328 Y-20.0085 
G0 Z2.0000
G0 X4.3664 Y-19.8210 
G1 X4.3664 Y-19.8210 Z1.3250 F75.
G1 X4.3664 Y-19.8210 Z1.3000 F50.
G1 X7.0166 Y-19.8210 Z1.3000 F150.
G1 X7.0166 Y-19.8210 Z1.3250
G0 Z2.0000
G0 X7.0166 Y-19.8210 
G0 Z2.0000
G0 X7.0160 Y-19.6335 
G1 X7.0160 Y-19.6335 Z1.3250 F75.
G1 X7.0160 Y-19.6335 Z1.3000 F50.
G1 X4.3190 Y-19.6335 Z1.3000 F150.
G1 X4.3190 Y-19.6335 Z1.3250
G0 Z2.0000
G0 X4.3190 Y-19.6335 
G0 Z2.0000
G0 X4.2858 Y-19.4460 
G1 X4.2858 Y-19.4460 Z1.3250 F75.
G1 X4.2858 Y-19.4460 Z1.3000 F50.
G1 X7.0166 Y-19.4460 Z1.3000 F150.
G1 X7.0166 Y-19.4460 Z1.3250
G0 Z2.0000
G0 X7.0166 Y-19.4460 
G0 Z2.0000
G0 X7.0159 Y-19.2585 
G1 X7.0159 Y-19.2585 Z1.3250 F75.
G1 X7.0159 Y-19.2585 Z1.3000 F50.
G1 X4.2661 Y-19.2585 Z1.3000 F150.
G1 X4.2661 Y-19.2585 Z1.3250
G0 Z2.0000
G0 X4.2661 Y-19.2585 
G0 Z2.0000
G0 X4.2593 Y-19.0710 
G1 X4.2593 Y-19.0710 Z1.3250 F75.
G1 X4.2593 Y-19.0710 Z1.3000 F50.
G1 X7.0163 Y-19.0710 Z1.3000 F150.
G1 X7.0163 Y-19.0710 Z1.3250
G0 Z2.0000
G0 X7.0163 Y-19.0710 
G0 Z2.0000
G0 X6.8723 Y-18.8835 
G1 X6.8723 Y-18.8835 Z1.3250 F75.
G1 X6.8723 Y-18.8835 Z1.3000 F50.
G1 X4.2623 Y-18.8835 Z1.3000 F150.
G1 X4.2623 Y-18.8835 Z1.3250
G0 Z2.0000
G0 X4.2623 Y-18.8835 
G0 Z2.0000
G0 X4.2760 Y-18.6960 
G1 X4.2760 Y-18.6960 Z1.3250 F75.
G1 X4.2760 Y-18.6960 Z1.3000 F50.
G1 X6.7672 Y-18.6960 Z1.3000 F150.
G1 X6.7672 Y-18.6960 Z1.3250
G0 Z2.0000
G0 X6.7672 Y-18.6960 
G0 Z2.0000
G0 X6.7011 Y-18.5085 
G1 X6.7011 Y-18.5085 Z1.3250 F75.
G1 X6.7011 Y-18.5085 Z1.3000 F50.
G1 X4.2977 Y-18.5085 Z1.3000 F150.
G1 X4.2977 Y-18.5085 Z1.3250
G0 Z2.0000
G0 X4.2977 Y-18.5085 
G0 Z2.0000
G0 X4.3268 Y-18.3210 
G1 X4.3268 Y-18.3210 Z1.3250 F75.
G1 X4.3268 Y-18.3210 Z1.3000 F50.
G1 X6.6681 Y-18.3210 Z1.3000 F150.
G1 X6.6681 Y-18.3210 Z1.3250
G0 Z2.0000
G0 X6.6681 Y-18.3210 
G0 Z2.0000
G0 X6.6660 Y-18.1335 
G1 X6.6660 Y-18.1335 Z1.3250 F75.
G1 X6.6660 Y-18.1335 Z1.3000 F50.
G1 X4.3630 Y-18.1335 Z1.3000 F150.
G1 X4.3630 Y-18.1335 Z1.3250
G0 Z2.0000
G0 X4.3630 Y-18.1335 
G0 Z2.0000
G0 X4.4051 Y-17.9460 
G1 X4.4051 Y-17.9460 Z1.3250 F75.
G1 X4.4051 Y-17.9460 Z1.3000 F50.
G1 X6.6945 Y-17.9460 Z1.3000 F150.
G1 X6.6945 Y-17.9460 Z1.3250
G0 Z2.0000
G0 X6.6945 Y-17.9460 
G0 Z2.0000
G0 X6.7552 Y-17.7585 
G1 X6.7552 Y-17.7585 Z1.3250 F75.
G1 X6.7552 Y-17.7585 Z1.3000 F50.
G1 X4.4522 Y-17.7585 Z1.3000 F150.
G1 X4.4522 Y-17.7585 Z1.3250
G0 Z2.0000
G0 X4.4522 Y-17.7585 
G0 Z2.0000
G0 X4.7737 Y-17.5710 
G1 X4.7737 Y-17.5710 Z1.3250 F75.
G1 X4.7737 Y-17.5710 Z1.3000 F50.
G1 X6.8545 Y-17.5710 Z1.3000 F150.
G1 X6.8545 Y-17.5710 Z1.3250
G0 Z2.0000
G0 X6.8545 Y-17.5710 
G0 Z2.0000
G0 X7.0050 Y-17.3835 
G1 X7.0050 Y-17.3835 Z1.3250 F75.
G1 X7.0050 Y-17.3835 Z1.3000 F50.
G1 X5.0572 Y-17.3835 Z1.3000 F150.
G1 X5.0572 Y-17.3835 Z1.3250
G0 Z2.0000
G0 X5.0572 Y-17.3835 
G0 Z2.0000
G0 X5.2165 Y-17.1960 
G1 X5.2165 Y-17.1960 Z1.3250 F75.
G1 X5.2165 Y-17.1960 Z1.3000 F50.
G1 X7.0161 Y-17.1960 Z1.3000 F150.
G1 X7.0161 Y-17.1960 Z1.3250
G0 Z2.0000
G0 X7.0161 Y-17.1960 
G0 Z2.0000
G0 X7.0158 Y-17.0085 
G1 X7.0158 Y-17.0085 Z1.3250 F75.
G1 X7.0158 Y-17.0085 Z1.3000 F50.
G1 X5.3149 Y-17.0085 Z1.3000 F150.
G1 X5.3149 Y-17.0085 Z1.3250
G0 Z2.0000
G0 X5.3149 Y-17.0085 
G0 Z2.0000
G0 X5.3716 Y-16.8210 
G1 X5.3716 Y-16.8210 Z1.3250 F75.
G1 X5.3716 Y-16.8210 Z1.3000 F50.
G1 X7.0165 Y-16.8210 Z1.3000 F150.
G1 X7.0165 Y-16.8210 Z1.3250
G0 Z2.0000
G0 X7.0165 Y-16.8210 
G0 Z2.0000
G0 X7.0158 Y-16.6335 
G1 X7.0158 Y-16.6335 Z1.3250 F75.
G1 X7.0158 Y-16.6335 Z1.3000 F50.
G1 X5.3911 Y-16.6335 Z1.3000 F150.
G1 X5.3911 Y-16.6335 Z1.3250
G0 Z2.0000
G0 X5.3911 Y-16.6335 
G0 Z2.0000
G0 X5.3764 Y-16.4460 
G1 X5.3764 Y-16.4460 Z1.3250 F75.
G1 X5.3764 Y-16.4460 Z1.3000 F50.
G1 X7.0161 Y-16.4460 Z1.3000 F150.
G1 X7.0161 Y-16.4460 Z1.3250
G0 Z2.0000
G0 X7.0161 Y-16.4460 
G0 Z2.0000
G0 X7.0158 Y-16.2585 
G1 X7.0158 Y-16.2585 Z1.3250 F75.
G1 X7.0158 Y-16.2585 Z1.3000 F50.
G1 X5.3261 Y-16.2585 Z1.3000 F150.
G1 X5.3261 Y-16.2585 Z1.3250
G0 Z2.0000
G0 X5.3261 Y-16.2585 
G0 Z2.0000
G0 X5.2348 Y-16.0710 
G1 X5.2348 Y-16.0710 Z1.3250 F75.
G1 X5.2348 Y-16.0710 Z1.3000 F50.
G1 X7.0163 Y-16.0710 Z1.3000 F150.
G1 X7.0163 Y-16.0710 Z1.3250
G0 Z2.0000
G0 X7.0163 Y-16.0710 
G0 Z2.0000
G0 X7.0159 Y-15.8835 
G1 X7.0159 Y-15.8835 Z1.3250 F75.
G1 X7.0159 Y-15.8835 Z1.3000 F50.
G1 X5.0871 Y-15.8835 Z1.3000 F150.
G0 Z1.3000
G0 X5.1561 Y-15.6960 
G1 X7.0163 Y-15.6960 Z1.3000 F150.
G1 X7.0163 Y-15.6960 Z1.3250
G0 Z2.0000
G0 X7.0163 Y-15.6960 
G0 Z2.0000
G0 X7.0158 Y-15.5085 
G1 X7.0158 Y-15.5085 Z1.3250 F75.
G1 X7.0158 Y-15.5085 Z1.3000 F50.
G1 X5.2497 Y-15.5085 Z1.3000 F150.
G1 X5.2497 Y-15.5085 Z1.3250
G0 Z2.0000
G0 X5.2497 Y-15.5085 
G0 Z2.0000
G0 X5.3508 Y-15.3210 
G1 X5.3508 Y-15.3210 Z1.3250 F75.
G1 X5.3508 Y-15.3210 Z1.3000 F50.
G1 X7.0161 Y-15.3210 Z1.3000 F150.
G1 X7.0161 Y-15.3210 Z1.3250
G0 Z2.0000
G0 X7.0161 Y-15.3210 
G0 Z2.0000
G0 X7.0158 Y-15.1335 
G1 X7.0158 Y-15.1335 Z1.3250 F75.
G1 X7.0158 Y-15.1335 Z1.3000 F50.
G1 X5.4517 Y-15.1335 Z1.3000 F150.
G1 X5.4517 Y-15.1335 Z1.3250
G0 Z2.0000
G0 X5.4517 Y-15.1335 
G0 Z2.0000
G0 X5.5473 Y-14.9460 
G1 X5.5473 Y-14.9460 Z1.3250 F75.
G1 X5.5473 Y-14.9460 Z1.3000 F50.
G1 X7.0161 Y-14.9460 Z1.3000 F150.
G1 X7.0161 Y-14.9460 Z1.3250
G0 Z2.0000
G0 X7.0161 Y-14.9460 
G0 Z2.0000
G0 X6.8449 Y-14.7585 
G1 X6.8449 Y-14.7585 Z1.3250 F75.
G1 X6.8449 Y-14.7585 Z1.3000 F50.
G1 X5.6363 Y-14.7585 Z1.3000 F150.
G1 X5.6363 Y-14.7585 Z1.3250
G0 Z2.0000
G0 X5.6363 Y-14.7585 
G0 Z2.0000
G0 X5.7193 Y-14.5710 
G1 X5.7193 Y-14.5710 Z1.3250 F75.
G1 X5.7193 Y-14.5710 Z1.3000 F50.
G1 X6.6647 Y-14.5710 Z1.3000 F150.
G1 X6.6647 Y-14.5710 Z1.3250
G0 Z2.0000
G0 X6.6647 Y-14.5710 
G0 Z2.0000
G0 X6.4838 Y-14.3835 
G1 X6.4838 Y-14.3835 Z1.3250 F75.
G1 X6.4838 Y-14.3835 Z1.3000 F50.
G1 X5.7954 Y-14.3835 Z1.3000 F150.
G1 X5.7954 Y-14.3835 Z1.3250
G0 Z2.0000
G0 X5.7954 Y-14.3835 
G0 Z2.0000
G0 X5.8642 Y-14.1960 
G1 X5.8642 Y-14.1960 Z1.3250 F75.
G1 X5.8642 Y-14.1960 Z1.3000 F50.
G1 X6.3035 Y-14.1960 Z1.3000 F150.
G1 X6.3035 Y-14.1960 Z1.3250
G0 Z2.0000
G0 X6.3035 Y-14.1960 
G0 Z2.0000
G0 X6.1236 Y-14.0085 
G1 X6.1236 Y-14.0085 Z1.3250 F75.
G1 X6.1236 Y-14.0085 Z1.3000 F50.
G1 X5.9251 Y-14.0085 Z1.3000 F150.
G1 X5.9251 Y-14.0085 Z1.3250
G0 Z2.0000
G0 X5.9251 Y-14.0085 
G0 Z2.0000
G0 X4.7435 Y-20.5710 
G1 X4.7435 Y-20.5710 Z1.3250 F75.
G1 X4.7435 Y-20.5710 Z1.3000 F50.
G1 X4.7437 Y-20.5710 Z0.9250 F150.
G1 X7.0006 Y-20.5710 Z0.9250
G1 X7.0007 Y-20.5710 Z1.3000
G0 Z1.3000
G0 X7.0160 Y-20.3835 
G1 X7.0158 Y-20.3835 Z0.9250 F150.
G1 X4.6182 Y-20.3835 Z0.9250
G1 X4.6180 Y-20.3835 Z1.3000
G1 X4.6180 Y-20.3835 Z1.3250
G0 Z2.0000
G0 X4.6180 Y-20.3835 
G0 Z2.0000
G0 X4.5166 Y-20.1960 
G1 X4.5166 Y-20.1960 Z1.3250 F75.
G1 X4.5166 Y-20.1960 Z1.3000 F50.
G1 X4.5168 Y-20.1960 Z0.9250 F150.
G1 X7.0164 Y-20.1960 Z0.9250
G1 X7.0166 Y-20.1960 Z1.3000
G1 X7.0166 Y-20.1960 Z1.3250
G0 Z2.0000
G0 X7.0166 Y-20.1960 
G0 Z2.0000
G0 X7.0160 Y-20.0085 
G1 X7.0160 Y-20.0085 Z1.3250 F75.
G1 X7.0160 Y-20.0085 Z1.3000 F50.
G1 X7.0158 Y-20.0085 Z0.9250 F150.
G1 X4.4330 Y-20.0085 Z0.9250
G1 X4.4328 Y-20.0085 Z1.3000
G1 X4.4328 Y-20.0085 Z1.3250
G0 Z2.0000
G0 X4.4328 Y-20.0085 
G0 Z2.0000
G0 X4.3664 Y-19.8210 
G1 X4.3664 Y-19.8210 Z1.3250 F75.
G1 X4.3664 Y-19.8210 Z1.3000 F50.
G1 X4.3666 Y-19.8210 Z0.9250 F150.
G1 X7.0164 Y-19.8210 Z0.9250
G1 X7.0166 Y-19.8210 Z1.3000
G1 X7.0166 Y-19.8210 Z1.3250
G0 Z2.0000
G0 X7.0166 Y-19.8210 
G0 Z2.0000
G0 X7.0160 Y-19.6335 
G1 X7.0160 Y-19.6335 Z1.3250 F75.
G1 X7.0160 Y-19.6335 Z1.3000 F50.
G1 X7.0158 Y-19.6335 Z0.9250 F150.
G1 X4.3192 Y-19.6335 Z0.9250
G1 X4.3190 Y-19.6335 Z1.3000
G1 X4.3190 Y-19.6335 Z1.3250
G0 Z2.0000
G0 X4.3190 Y-19.6335 
G0 Z2.0000
G0 X4.2858 Y-19.4460 
G1 X4.2858 Y-19.4460 Z1.3250 F75.
G1 X4.2858 Y-19.4460 Z1.3000 F50.
G1 X4.2860 Y-19.4460 Z0.9250 F150.
G1 X7.0164 Y-19.4460 Z0.9250
G1 X7.0166 Y-19.4460 Z1.3000
G1 X7.0166 Y-19.4460 Z1.3250
G0 Z2.0000
G0 X7.0166 Y-19.4460 
G0 Z2.0000
G0 X7.0159 Y-19.2585 
G1 X7.0159 Y-19.2585 Z1.3250 F75.
G1 X7.0159 Y-19.2585 Z1.3000 F50.
G1 X7.0157 Y-19.2585 Z0.9250 F150.
G1 X4.2663 Y-19.2585 Z0.9250
G1 X4.2661 Y-19.2585 Z1.3000
G1 X4.2661 Y-19.2585 Z1.3250
G0 Z2.0000
G0 X4.2661 Y-19.2585 
G0 Z2.0000
G0 X4.2593 Y-19.0710 
G1 X4.2593 Y-19.0710 Z1.3250 F75.
G1 X4.2593 Y-19.0710 Z1.3000 F50.
G1 X4.2595 Y-19.0710 Z0.9250 F150.
G1 X7.0161 Y-19.0710 Z0.9250
G1 X7.0163 Y-19.0710 Z1.3000
G1 X7.0163 Y-19.0710 Z1.3250
G0 Z2.0000
G0 X7.0163 Y-19.0710 
G0 Z2.0000
G0 X6.8723 Y-18.8835 
G1 X6.8723 Y-18.8835 Z1.3250 F75.
G1 X6.8723 Y-18.8835 Z1.3000 F50.
G1 X6.8721 Y-18.8835 Z0.9250 F150.
G1 X4.2626 Y-18.8835 Z0.9250
G1 X4.2623 Y-18.8835 Z1.3000
G1 X4.2623 Y-18.8835 Z1.3250
G0 Z2.0000
G0 X4.2623 Y-18.8835 
G0 Z2.0000
G0 X4.2760 Y-18.6960 
G1 X4.2760 Y-18.6960 Z1.3250 F75.
G1 X4.2760 Y-18.6960 Z1.3000 F50.
G1 X4.2762 Y-18.6960 Z0.9250 F150.
G1 X6.7670 Y-18.6960 Z0.9250
G1 X6.7672 Y-18.6960 Z1.3000
G1 X6.7672 Y-18.6960 Z1.3250
G0 Z2.0000
G0 X6.7672 Y-18.6960 
G0 Z2.0000
G0 X6.7011 Y-18.5085 
G1 X6.7011 Y-18.5085 Z1.3250 F75.
G1 X6.7011 Y-18.5085 Z1.3000 F50.
G1 X6.7009 Y-18.5085 Z0.9250 F150.
G1 X4.2979 Y-18.5085 Z0.9250
G1 X4.2977 Y-18.5085 Z1.3000
G1 X4.2977 Y-18.5085 Z1.3250
G0 Z2.0000
G0 X4.2977 Y-18.5085 
G0 Z2.0000
G0 X4.3268 Y-18.3210 
G1 X4.3268 Y-18.3210 Z1.3250 F75.
G1 X4.3268 Y-18.3210 Z1.3000 F50.
G1 X4.3270 Y-18.3210 Z0.9250 F150.
G1 X6.6680 Y-18.3210 Z0.9250
G1 X6.6681 Y-18.3210 Z1.3000
G1 X6.6681 Y-18.3210 Z1.3250
G0 Z2.0000
G0 X6.6681 Y-18.3210 
G0 Z2.0000
G0 X6.6660 Y-18.1335 
G1 X6.6660 Y-18.1335 Z1.3250 F75.
G1 X6.6660 Y-18.1335 Z1.3000 F50.
G1 X6.6658 Y-18.1335 Z0.9250 F150.
G1 X4.3632 Y-18.1335 Z0.9250
G1 X4.3630 Y-18.1335 Z1.3000
G1 X4.3630 Y-18.1335 Z1.3250
G0 Z2.0000
G0 X4.3630 Y-18.1335 
G0 Z2.0000
G0 X4.4051 Y-17.9460 
G1 X4.4051 Y-17.9460 Z1.3250 F75.
G1 X4.4051 Y-17.9460 Z1.3000 F50.
G1 X4.4053 Y-17.9460 Z0.9250 F150.
G1 X6.6943 Y-17.9460 Z0.9250
G1 X6.6945 Y-17.9460 Z1.3000
G1 X6.6945 Y-17.9460 Z1.3250
G0 Z2.0000
G0 X6.6945 Y-17.9460 
G0 Z2.0000
G0 X6.7552 Y-17.7585 
G1 X6.7552 Y-17.7585 Z1.3250 F75.
G1 X6.7552 Y-17.7585 Z1.3000 F50.
G1 X6.7550 Y-17.7585 Z0.9250 F150.
G1 X4.4523 Y-17.7585 Z0.9250
G1 X4.4522 Y-17.7585 Z1.3000
G1 X4.4522 Y-17.7585 Z1.3250
G0 Z2.0000
G0 X4.4522 Y-17.7585 
G0 Z2.0000
G0 X4.7737 Y-17.5710 
G1 X4.7737 Y-17.5710 Z1.3250 F75.
G1 X4.7737 Y-17.5710 Z1.3000 F50.
G1 X4.7740 Y-17.5710 Z0.9250 F150.
G1 X6.8543 Y-17.5710 Z0.9250
