( MOP:  01-lam-prep-03-facing-pt40 )
( FILE: G:\Shared drives\AlloyProjectFiles\Customer CAD files\Alloy-Standard-Builds-CAM\s-in\LamFacing\01-lam-prep-03-facing-pt40.nc)
G90
(  BEGIN TOOL LIST )
(  TOOL 1 - Surface 2PT500 - DESC: 2.5000 DIA, 2 FLUTE,  CARBIDE MAT )
(  ENDOF TOOL LIST )
( 01-lam-prep-03-facing-pt40)
T01
S12000
M3
G0 Z6.0000
G0 X3.0655 Y0.2757 
G1 X3.0655 Y0.2757 Z0.5000 F75.
G1 X2.2202 Y-1.5370 Z0.5000 F50.
G1 X1.7976 Y-2.4433 Z0.5000 F75.
G1 X1.1080 Y-3.9221 Z0.5000 F150.
G1 X1.1080 Y-5.4010 Z0.5000
G1 X2.4872 Y-2.4433 Z0.5000
G1 X3.1768 Y-2.4433 Z0.5000
G1 X1.1080 Y-6.8799 Z0.5000
G1 X1.1080 Y-8.3588 Z0.5000
G1 X3.8664 Y-2.4433 Z0.5000
G1 X4.5561 Y-2.4433 Z0.5000
G1 X1.1080 Y-9.8377 Z0.5000
G1 X1.1080 Y-11.3165 Z0.5000
G1 X5.2457 Y-2.4433 Z0.5000
G1 X5.9353 Y-2.4433 Z0.5000
G1 X1.1080 Y-12.7954 Z0.5000
G1 X1.1080 Y-14.2743 Z0.5000
G1 X6.6249 Y-2.4433 Z0.5000
G1 X7.3145 Y-2.4433 Z0.5000
G1 X1.1080 Y-15.7532 Z0.5000
G1 X1.1080 Y-17.2320 Z0.5000
G1 X8.0041 Y-2.4433 Z0.5000
G1 X8.6937 Y-2.4433 Z0.5000
G1 X1.1080 Y-18.7109 Z0.5000
G1 X1.1080 Y-20.1898 Z0.5000
G1 X9.3833 Y-2.4433 Z0.5000
G1 X10.0729 Y-2.4433 Z0.5000
G1 X1.1080 Y-21.6687 Z0.5000
G1 X1.1080 Y-23.1475 Z0.5000
G1 X10.7626 Y-2.4433 Z0.5000
G1 X11.4522 Y-2.4433 Z0.5000
G1 X1.1080 Y-24.6264 Z0.5000
G1 X1.1080 Y-25.0683 Z0.5000
G17
G3X1.3594Y-25.5663Z0.5000I0.6099J-0.0045
G1 X12.1418 Y-2.4433 Z0.5000
G1 X12.8314 Y-2.4433 Z0.5000
G1 X1.9897 Y-25.6933 Z0.5000
G1 X2.6793 Y-25.6933 Z0.5000
G1 X13.5210 Y-2.4433 Z0.5000
G1 X14.2106 Y-2.4433 Z0.5000
G1 X3.3690 Y-25.6933 Z0.5000
G1 X4.0586 Y-25.6933 Z0.5000
G1 X14.9002 Y-2.4433 Z0.5000
G1 X15.5898 Y-2.4433 Z0.5000
G1 X4.7482 Y-25.6933 Z0.5000
G1 X5.4378 Y-25.6933 Z0.5000
G1 X16.2794 Y-2.4433 Z0.5000
G1 X16.9691 Y-2.4433 Z0.5000
G1 X6.1274 Y-25.6933 Z0.5000
G1 X6.8170 Y-25.6933 Z0.5000
G1 X17.6587 Y-2.4433 Z0.5000
G2X18.2310Y-2.6947Z0.5000I0.0648J-0.6297
G1 X7.5066 Y-25.6933 Z0.5000
G1 X8.1962 Y-25.6933 Z0.5000
G1 X18.3580 Y-3.9013 Z0.5000
G1 X18.3580 Y-5.3802 Z0.5000
G1 X8.8858 Y-25.6933 Z0.5000
G1 X9.5755 Y-25.6933 Z0.5000
G1 X18.3580 Y-6.8591 Z0.5000
G1 X18.3580 Y-8.3379 Z0.5000
G1 X10.2651 Y-25.6933 Z0.5000
G1 X10.9547 Y-25.6933 Z0.5000
G1 X18.3580 Y-9.8168 Z0.5000
G1 X18.3580 Y-11.2957 Z0.5000
G1 X11.6443 Y-25.6933 Z0.5000
G1 X12.3339 Y-25.6933 Z0.5000
G1 X18.3580 Y-12.7746 Z0.5000
G1 X18.3580 Y-14.2534 Z0.5000
G1 X13.0235 Y-25.6933 Z0.5000
G1 X13.7131 Y-25.6933 Z0.5000
G1 X18.3580 Y-15.7323 Z0.5000
G1 X18.3580 Y-17.2112 Z0.5000
G1 X14.4027 Y-25.6933 Z0.5000
G1 X15.0923 Y-25.6933 Z0.5000
G1 X18.3580 Y-18.6901 Z0.5000
G1 X18.3580 Y-20.1689 Z0.5000
G1 X15.7820 Y-25.6933 Z0.5000
G1 X16.4716 Y-25.6933 Z0.5000
G1 X18.3580 Y-21.6478 Z0.5000
G1 X18.3580 Y-23.1267 Z0.5000
G1 X17.1612 Y-25.6933 Z0.5000
G1 X17.7330 Y-25.6933 Z0.5000
G3X17.8566Y-25.6807Z0.5000I0.0303J0.3171
G1 X18.3580 Y-24.6056 Z0.5000
G1 X18.3703 Y-24.5825 Z0.5067
G1 X18.3849 Y-24.5608 Z0.5133
G1 X18.4017 Y-24.5407 Z0.5200
G1 X18.4206 Y-24.5225 Z0.5267
G1 X18.4412 Y-24.5064 Z0.5333
G1 X18.4634 Y-24.4926 Z0.5400
G1 X18.4869 Y-24.4811 Z0.5467
G1 X18.5115 Y-24.4721 Z0.5533
G1 X18.5369 Y-24.4658 Z0.5600
G1 X18.5628 Y-24.4622 Z0.5667
G1 X18.5889 Y-24.4613 Z0.5733
G1 X18.6150 Y-24.4631 Z0.5800
G1 X18.6408 Y-24.4676 Z0.5867
G1 X18.6660 Y-24.4748 Z0.5933
G1 X18.6902 Y-24.4846 Z0.6000
G1 X18.7829 Y-24.5221 Z0.6000
G0 Z1.1000
G0 X18.7829 Y-24.5221 
G0 Z1.1000
G0 X3.0655 Y0.2757 
G1 X3.0655 Y0.2757 Z0.4000 F75.
G1 X2.2202 Y-1.5370 Z0.4000 F50.
G1 X1.7976 Y-2.4433 Z0.4000 F75.
G1 X1.1080 Y-3.9221 Z0.4000 F150.
G1 X1.1080 Y-5.4010 Z0.4000
G1 X2.4872 Y-2.4433 Z0.4000
G1 X3.1768 Y-2.4433 Z0.4000
G1 X1.1080 Y-6.8799 Z0.4000
G1 X1.1080 Y-8.3588 Z0.4000
G1 X3.8664 Y-2.4433 Z0.4000
G1 X4.5561 Y-2.4433 Z0.4000
G1 X1.1080 Y-9.8377 Z0.4000
G1 X1.1080 Y-11.3165 Z0.4000
G1 X5.2457 Y-2.4433 Z0.4000
G1 X5.9353 Y-2.4433 Z0.4000
G1 X1.1080 Y-12.7954 Z0.4000
G1 X1.1080 Y-14.2743 Z0.4000
G1 X6.6249 Y-2.4433 Z0.4000
G1 X7.3145 Y-2.4433 Z0.4000
G1 X1.1080 Y-15.7532 Z0.4000
G1 X1.1080 Y-17.2320 Z0.4000
G1 X8.0041 Y-2.4433 Z0.4000
G1 X8.6937 Y-2.4433 Z0.4000
G1 X1.1080 Y-18.7109 Z0.4000
G1 X1.1080 Y-20.1898 Z0.4000
G1 X9.3833 Y-2.4433 Z0.4000
G1 X10.0729 Y-2.4433 Z0.4000
G1 X1.1080 Y-21.6687 Z0.4000
G1 X1.1080 Y-23.1475 Z0.4000
G1 X10.7626 Y-2.4433 Z0.4000
G1 X11.4522 Y-2.4433 Z0.4000
G1 X1.1080 Y-24.6264 Z0.4000
G1 X1.1080 Y-25.0683 Z0.4000
G3X1.3594Y-25.5663Z0.4000I0.6099J-0.0045
G1 X12.1418 Y-2.4433 Z0.4000
G1 X12.8314 Y-2.4433 Z0.4000
G1 X1.9897 Y-25.6933 Z0.4000
G1 X2.6793 Y-25.6933 Z0.4000
G1 X13.5210 Y-2.4433 Z0.4000
G1 X14.2106 Y-2.4433 Z0.4000
G1 X3.3690 Y-25.6933 Z0.4000
G1 X4.0586 Y-25.6933 Z0.4000
G1 X14.9002 Y-2.4433 Z0.4000
G1 X15.5898 Y-2.4433 Z0.4000
G1 X4.7482 Y-25.6933 Z0.4000
G1 X5.4378 Y-25.6933 Z0.4000
G1 X16.2794 Y-2.4433 Z0.4000
G1 X16.9691 Y-2.4433 Z0.4000
G1 X6.1274 Y-25.6933 Z0.4000
G1 X6.8170 Y-25.6933 Z0.4000
G1 X17.6587 Y-2.4433 Z0.4000
G2X18.2310Y-2.6947Z0.4000I0.0648J-0.6297
G1 X7.5066 Y-25.6933 Z0.4000
G1 X8.1962 Y-25.6933 Z0.4000
G1 X18.3580 Y-3.9013 Z0.4000
G1 X18.3580 Y-5.3802 Z0.4000
G1 X8.8858 Y-25.6933 Z0.4000
G1 X9.5755 Y-25.6933 Z0.4000
G1 X18.3580 Y-6.8591 Z0.4000
G1 X18.3580 Y-8.3379 Z0.4000
G1 X10.2651 Y-25.6933 Z0.4000
G1 X10.9547 Y-25.6933 Z0.4000
G1 X18.3580 Y-9.8168 Z0.4000
G1 X18.3580 Y-11.2957 Z0.4000
G1 X11.6443 Y-25.6933 Z0.4000
G1 X12.3339 Y-25.6933 Z0.4000
G1 X18.3580 Y-12.7746 Z0.4000
G1 X18.3580 Y-14.2534 Z0.4000
G1 X13.0235 Y-25.6933 Z0.4000
G1 X13.7131 Y-25.6933 Z0.4000
G1 X18.3580 Y-15.7323 Z0.4000
G1 X18.3580 Y-17.2112 Z0.4000
G1 X14.4027 Y-25.6933 Z0.4000
G1 X15.0923 Y-25.6933 Z0.4000
G1 X18.3580 Y-18.6901 Z0.4000
G1 X18.3580 Y-20.1689 Z0.4000
G1 X15.7820 Y-25.6933 Z0.4000
G1 X16.4716 Y-25.6933 Z0.4000
G1 X18.3580 Y-21.6478 Z0.4000
G1 X18.3580 Y-23.1267 Z0.4000
G1 X17.1612 Y-25.6933 Z0.4000
G1 X17.7330 Y-25.6933 Z0.4000
G3X17.8566Y-25.6807Z0.4000I0.0303J0.3171
G1 X18.3580 Y-24.6056 Z0.4000
G1 X18.3703 Y-24.5825 Z0.4067
G1 X18.3849 Y-24.5608 Z0.4133
G1 X18.4017 Y-24.5407 Z0.4200
G1 X18.4206 Y-24.5225 Z0.4267
G1 X18.4412 Y-24.5064 Z0.4333
G1 X18.4634 Y-24.4926 Z0.4400
G1 X18.4869 Y-24.4811 Z0.4467
G1 X18.5115 Y-24.4721 Z0.4533
G1 X18.5369 Y-24.4658 Z0.4600
G1 X18.5628 Y-24.4622 Z0.4667
G1 X18.5889 Y-24.4613 Z0.4733
G1 X18.6150 Y-24.4631 Z0.4800
G1 X18.6408 Y-24.4676 Z0.4867
G1 X18.6660 Y-24.4748 Z0.4933
G1 X18.6902 Y-24.4846 Z0.5000
G1 X18.7829 Y-24.5221 Z0.5000
G0 Z6.0000
G0 X18.7829 Y-24.5221 
M5
G53 Z
X2Y0
